Postproduction/IWLTBAP - Humble/LUTs by IWLTBAP (CUBE)/UTILITY/Sony S-Log2 to Rec.709/U-SONY-S-LOG2-V1-LTR.cube
# Copyright: (C) Copyright 2010-2018 by IWLTBAP SAS
# Cannot be resold, shared or otherwise redistributed
# Website: https://luts.iwltbap.com
TITLE "Sony S-Log2 Version 1 (Utility LOG to Rec.709)"
LUT_3D_SIZE 5
DOMAIN_MIN 0.000000 0.000000 0.000000
DOMAIN_MAX 0.903226 0.903226 0.903226
0.000824 0.000702 0.000793
0.124207 0.000763 0.024597
0.552216 0.001648 0.112885
0.917023 0.003113 0.206177
0.970367 0.005188 0.286713
0.001404 0.100891 0.001404
0.091492 0.099121 0.008301
0.523376 0.056427 0.106110
0.900360 0.039276 0.197784
0.967438 0.041290 0.280670
0.003937 0.419983 0.003937
0.038879 0.415863 0.005310
0.365570 0.404663 0.009705
0.861481 0.349548 0.165710
0.966797 0.347015 0.247192
0.008453 0.763855 0.008453
0.042603 0.759033 0.010437
0.083191 0.758667 0.011993
0.702148 0.743958 0.012543
0.967407 0.712646 0.126129
0.014069 0.968414 0.014069
0.045563 0.967926 0.013550
0.084778 0.967651 0.013245
0.155426 0.966949 0.012878
0.929993 0.963715 0.012299
0.000488 0.000458 0.101471
0.122437 0.000977 0.102356
0.539886 0.002014 0.155914
0.902557 0.003571 0.241150
0.969727 0.005768 0.322876
0.001709 0.094757 0.089630
0.091522 0.094849 0.095795
0.516113 0.075684 0.150970
0.892792 0.052368 0.241089
0.966980 0.043671 0.332916
0.004425 0.417358 0.038483
0.039185 0.414001 0.039215
0.365479 0.403778 0.070160
0.856049 0.365997 0.219086
0.966675 0.379486 0.294312
0.009186 0.761414 0.041809
0.043121 0.757019 0.043121
0.083160 0.757507 0.043854
0.699707 0.741882 0.044769
0.967102 0.706543 0.207855
0.013885 0.968262 0.045837
0.045349 0.967712 0.045349
0.084534 0.967346 0.045105
0.138031 0.966248 0.044830
0.927124 0.962219 0.044250
0.000671 0.000671 0.442902
0.116547 0.001343 0.428558
0.535919 0.002441 0.426941
0.895721 0.004181 0.451965
0.969269 0.006561 0.510529
0.002136 0.037262 0.417114
0.092743 0.037598 0.408661
0.513763 0.038544 0.413055
0.877075 0.040100 0.446960
0.966705 0.042450 0.500885
0.005157 0.391541 0.363983
0.039703 0.389893 0.363892
0.363892 0.383362 0.383362
0.845703 0.381744 0.413696
0.966766 0.395874 0.470428
0.010132 0.752716 0.239014
0.043579 0.749817 0.256653
0.083282 0.749756 0.292633
0.696198 0.728912 0.346527
0.966888 0.689636 0.404419
0.013855 0.968231 0.103851
0.045319 0.967407 0.098877
0.084320 0.966583 0.106934
0.134399 0.964905 0.165924
0.923523 0.958344 0.291046
0.001038 0.001038 0.766144
0.103516 0.001801 0.751862
0.538269 0.003052 0.747101
0.906586 0.004913 0.758972
0.968994 0.007446 0.773102
0.002716 0.037567 0.739288
0.085083 0.038025 0.728729
0.520813 0.039062 0.728088
0.888580 0.040802 0.744476
0.966675 0.043335 0.761475
0.005981 0.276550 0.716370
0.040405 0.282501 0.710022
0.375305 0.278931 0.714478
0.851227 0.244720 0.736908
0.966919 0.233459 0.760345
0.011292 0.720978 0.667908
0.043915 0.719543 0.667847
0.083496 0.717957 0.679901
0.692291 0.693909 0.693817
0.966705 0.695587 0.707092
0.013947 0.966309 0.610809
0.045319 0.964752 0.603119
0.084259 0.962646 0.606354
0.128601 0.957184 0.625214
0.919525 0.942444 0.623596
0.001495 0.001495 0.971588
0.088867 0.002380 0.966370
0.537842 0.003784 0.965088
0.914490 0.005829 0.966949
0.968933 0.008575 0.968933
0.003418 0.038025 0.960754
0.079193 0.038574 0.954773
0.523071 0.039795 0.953552
0.900665 0.041718 0.961243
0.966919 0.044220 0.966400
0.006989 0.099365 0.944885
0.041260 0.101593 0.940033
0.390228 0.103210 0.941132
0.864166 0.084534 0.954926
0.967102 0.086609 0.965057
0.012573 0.671387 0.921539
0.044342 0.669678 0.921234
0.083832 0.666382 0.925323
0.698303 0.640442 0.936432
0.966583 0.614532 0.949921
0.014069 0.950134 0.897858
0.045380 0.946533 0.895203
0.084137 0.941223 0.896698
0.128357 0.930725 0.904724
0.914612 0.916168 0.915680
