Postproduction/IWLTBAP - Humble/LUTs by IWLTBAP (CUBE)/UTILITY/Sony S-Log2 to Rec.709/U-SONY-S-LOG2-V5-LTR.cube
# Copyright: (C) Copyright 2010-2018 by IWLTBAP SAS
# Cannot be resold, shared or otherwise redistributed
# Website: https://luts.iwltbap.com
TITLE "Sony S-Log2 Version 5 (Utility LOG to Rec.709)"
LUT_3D_SIZE 8
DOMAIN_MIN 0.000000 0.000000 0.000000
DOMAIN_MAX 0.903226 0.903226 0.903226
0.000000 0.000000 0.000000
0.222839 0.000000 0.000000
0.458954 0.000000 0.000000
0.722168 0.000000 0.000000
0.931396 0.000000 0.000000
1.000000 0.000000 0.000000
1.000000 0.000000 0.000000
1.000000 0.000000 0.000000
0.000000 0.195740 0.000000
0.143066 0.169250 0.000000
0.428070 0.104004 0.000000
0.707153 0.000000 0.000000
0.927643 0.000000 0.000000
1.000000 0.000000 0.000000
1.000000 0.000000 0.000000
1.000000 0.000000 0.000000
0.000000 0.424377 0.000000
0.000000 0.413391 0.000000
0.361542 0.391998 0.000000
0.677551 0.337738 0.000000
0.919739 0.148590 0.000000
1.000000 0.000000 0.000000
1.000000 0.000000 0.000000
1.000000 0.000000 0.000000
0.000000 0.679779 0.000000
0.000000 0.674469 0.000000
0.104095 0.663269 0.000000
0.596741 0.637146 0.000000
0.900696 0.572693 0.000000
1.000000 0.374664 0.000000
1.000000 0.000000 0.000000
1.000000 0.000000 0.000000
0.000000 0.904358 0.000000
0.000000 0.902679 0.000000
0.000000 0.899658 0.000000
0.313232 0.892456 0.000000
0.843170 0.874634 0.000000
1.000000 0.824554 0.000000
1.000000 0.617798 0.000000
1.000000 0.000000 0.000000
0.000000 1.000000 0.000000
0.000000 1.000000 0.000000
0.000000 1.000000 0.000000
0.000000 1.000000 0.000000
0.544434 1.000000 0.000000
0.994995 1.000000 0.000000
1.000000 0.986176 0.000000
1.000000 0.854706 0.000000
0.000000 1.000000 0.000000
0.000000 1.000000 0.000000
0.000000 1.000000 0.000000
0.000000 1.000000 0.000000
0.000000 1.000000 0.000000
0.790955 1.000000 0.000000
1.000000 1.000000 0.000000
1.000000 1.000000 0.000000
0.000000 1.000000 0.000000
0.000000 1.000000 0.000000
0.000000 1.000000 0.000000
0.000000 1.000000 0.000000
0.000000 1.000000 0.000000
0.000000 1.000000 0.000000
0.961975 1.000000 0.000000
1.000000 1.000000 0.000000
0.000000 0.000000 0.169556
0.212097 0.000000 0.162262
0.453979 0.000000 0.147522
0.719849 0.000000 0.109406
0.930817 0.000000 0.030273
1.000000 0.000000 0.000000
1.000000 0.000000 0.000000
1.000000 0.000000 0.000000
0.000000 0.159241 0.134918
0.126007 0.126007 0.126007
0.423035 0.050262 0.107880
0.704590 0.000000 0.063934
0.926941 0.000000 0.002228
1.000000 0.000000 0.000000
1.000000 0.000000 0.000000
1.000000 0.000000 0.000000
0.000000 0.409729 0.052338
0.000000 0.398407 0.045807
0.355194 0.375793 0.034576
0.674805 0.318481 0.009094
0.919067 0.112061 0.000000
1.000000 0.000000 0.000000
1.000000 0.000000 0.000000
1.000000 0.000000 0.000000
0.000000 0.672485 0.000000
0.000000 0.666626 0.000000
0.086365 0.655121 0.000000
0.593353 0.628479 0.000000
0.899902 0.562744 0.000000
1.000000 0.357208 0.000000
1.000000 0.000000 0.000000
1.000000 0.000000 0.000000
0.000000 0.902130 0.000000
0.000000 0.900452 0.000000
0.000000 0.897308 0.000000
0.305176 0.889984 0.000000
0.841919 0.871979 0.000000
1.000000 0.820831 0.000000
1.000000 0.608582 0.000000
1.000000 0.000000 0.000000
0.000000 1.000000 0.000000
0.000000 1.000000 0.000000
0.000000 1.000000 0.000000
0.000000 1.000000 0.000000
0.540375 1.000000 0.000000
0.994873 1.000000 0.000000
1.000000 0.985443 0.000000
1.000000 0.851654 0.000000
0.000000 1.000000 0.000000
0.000000 1.000000 0.000000
0.000000 1.000000 0.000000
0.000000 1.000000 0.000000
0.000000 1.000000 0.000000
0.789307 1.000000 0.000000
1.000000 1.000000 0.000000
1.000000 1.000000 0.000000
0.000000 1.000000 0.000000
0.000000 1.000000 0.000000
0.000000 1.000000 0.000000
0.000000 1.000000 0.000000
0.000000 1.000000 0.000000
0.000000 1.000000 0.000000
0.961517 1.000000 0.000000
1.000000 1.000000 0.000000
0.000000 0.000000 0.392090
0.189636 0.000000 0.389038
0.444763 0.000000 0.383453
0.715240 0.000000 0.370605
0.929626 0.000000 0.339630
1.000000 0.000000 0.254822
1.000000 0.000000 0.000000
1.000000 0.000000 0.000000
0.000000 0.064758 0.379059
0.089386 0.035004 0.375793
0.412933 0.000000 0.370148
0.700104 0.000000 0.356567
0.925659 0.000000 0.323975
1.000000 0.000000 0.232910
1.000000 0.000000 0.000000
1.000000 0.000000 0.000000
0.000000 0.380066 0.352509
0.000000 0.367676 0.349182
0.342804 0.342804 0.342804
0.669342 0.277832 0.327972
0.917786 0.027435 0.291870
1.000000 0.000000 0.184052
1.000000 0.000000 0.000000
1.000000 0.000000 0.000000
0.000000 0.657227 0.282990
0.000000 0.651123 0.278870
0.049713 0.639282 0.270630
0.586853 0.611938 0.250854
0.898285 0.543182 0.199371
1.000000 0.320740 0.039124
1.000000 0.000000 0.000000
1.000000 0.000000 0.000000
0.000000 0.897919 0.009399
0.000000 0.896271 0.001740
0.000000 0.893066 0.000000
0.290070 0.885376 0.000000
0.839691 0.866638 0.000000
1.000000 0.813416 0.000000
1.000000 0.590820 0.000000
1.000000 0.000000 0.000000
0.000000 1.000000 0.000000
0.000000 1.000000 0.000000
0.000000 1.000000 0.000000
0.000000 1.000000 0.000000
0.532745 1.000000 0.000000
0.994354 1.000000 0.000000
1.000000 0.983765 0.000000
1.000000 0.845825 0.000000
0.000000 1.000000 0.000000
0.000000 1.000000 0.000000
0.000000 1.000000 0.000000
0.000000 1.000000 0.000000
0.000000 1.000000 0.000000
0.786224 1.000000 0.000000
1.000000 1.000000 0.000000
1.000000 1.000000 0.000000
0.000000 1.000000 0.000000
0.000000 1.000000 0.000000
0.000000 1.000000 0.000000
0.000000 1.000000 0.000000
0.000000 1.000000 0.000000
0.000000 1.000000 0.000000
0.960632 1.000000 0.000000
1.000000 1.000000 0.000000
0.000000 0.000000 0.637451
0.126801 0.000000 0.635803
0.423523 0.000000 0.632843
0.704987 0.000000 0.626038
0.927032 0.000000 0.610474
1.000000 0.000000 0.573669
1.000000 0.000000 0.477509
1.000000 0.000000 0.063324
0.000000 0.000000 0.630432
0.024078 0.000000 0.628754
0.389343 0.000000 0.625641
0.689423 0.000000 0.618835
0.923035 0.000000 0.603058
1.000000 0.000000 0.565582
1.000000 0.000000 0.467163
1.000000 0.000000 0.034851
0.000000 0.301544 0.616852
0.000000 0.285339 0.615143
0.313202 0.251221 0.611969
0.657288 0.149384 0.604889
0.914886 0.000000 0.588531
1.000000 0.000000 0.549683
1.000000 0.000000 0.446869
1.000000 0.000000 0.000000
0.000000 0.621399 0.584930
0.000000 0.614929 0.583160
0.000000 0.602051 0.579742
0.572205 0.572205 0.572205
0.894806 0.496216 0.554504
1.000000 0.215149 0.512299
1.000000 0.000000 0.396942
1.000000 0.000000 0.000000
0.000000 0.888123 0.503510
0.000000 0.886261 0.501465
0.000000 0.882721 0.497284
0.257965 0.874298 0.488007
0.834351 0.854065 0.466095
1.000000 0.795807 0.412018
1.000000 0.548248 0.235748
1.000000 0.000000 0.000000
0.000000 1.000000 0.193542
0.000000 1.000000 0.188843
0.000000 1.000000 0.179657
0.000000 1.000000 0.157654
0.515106 1.000000 0.100098
0.993256 1.000000 0.000000
1.000000 0.980133 0.000000
1.000000 0.831451 0.000000
0.000000 1.000000 0.000000
0.000000 1.000000 0.000000
0.000000 1.000000 0.000000
0.000000 1.000000 0.000000
0.000000 1.000000 0.000000
0.779114 1.000000 0.000000
1.000000 1.000000 0.000000
1.000000 1.000000 0.000000
0.000000 1.000000 0.000000
0.000000 1.000000 0.000000
0.000000 1.000000 0.000000
0.000000 1.000000 0.000000
0.000000 1.000000 0.000000
0.000000 1.000000 0.000000
0.958679 1.000000 0.000000
1.000000 1.000000 0.000000
0.000000 0.000000 0.874908
0.000000 0.000000 0.874390
0.370087 0.000000 0.873352
0.681183 0.000000 0.871216
0.920746 0.000000 0.866364
1.000000 0.000000 0.854797
1.000000 0.000000 0.824921
1.000000 0.000000 0.732849
0.000000 0.000000 0.872559
0.000000 0.000000 0.872101
0.329437 0.000000 0.871124
0.664185 0.000000 0.869049
0.916595 0.000000 0.863983
1.000000 0.000000 0.852173
1.000000 0.000000 0.821899
1.000000 0.000000 0.727905
0.000000 0.000000 0.868317
0.000000 0.000000 0.867889
0.231720 0.000000 0.866913
0.628326 0.000000 0.864624
0.908203 0.000000 0.859467
1.000000 0.000000 0.847137
1.000000 0.000000 0.815887
1.000000 0.000000 0.718170
0.000000 0.528992 0.858276
0.000000 0.520813 0.857788
0.000000 0.504852 0.856628
0.537018 0.466553 0.854309
0.886810 0.360840 0.848816
1.000000 0.000000 0.835571
1.000000 0.000000 0.801788
1.000000 0.000000 0.695557
0.000000 0.862946 0.833038
0.000000 0.860718 0.832489
0.000000 0.856476 0.831299
0.169983 0.846558 0.828400
0.821808 0.821808 0.821808
1.000000 0.750519 0.806305
1.000000 0.431396 0.766876
1.000000 0.000000 0.638062
0.000000 1.000000 0.758575
0.000000 1.000000 0.757629
0.000000 1.000000 0.755737
0.000000 1.000000 0.751617
0.471283 1.000000 0.742462
0.990692 0.999908 0.718140
1.000000 0.970886 0.656403
1.000000 0.792786 0.454712
0.000000 1.000000 0.397491
0.000000 1.000000 0.394104
0.000000 1.000000 0.387390
0.000000 1.000000 0.371582
0.000000 1.000000 0.336578
0.762238 1.000000 0.269226
1.000000 1.000000 0.057526
1.000000 1.000000 0.000000
0.000000 1.000000 0.000000
0.000000 1.000000 0.000000
0.000000 1.000000 0.000000
0.000000 1.000000 0.000000
0.000000 1.000000 0.000000
0.000000 1.000000 0.000000
0.954224 1.000000 0.000000
1.000000 1.000000 0.000000
0.000000 0.000000 1.000000
0.000000 0.000000 1.000000
0.192322 0.000000 1.000000
0.618683 0.000000 1.000000
0.905853 0.000000 1.000000
1.000000 0.000000 1.000000
1.000000 0.000000 1.000000
1.000000 0.000000 0.986359
0.000000 0.000000 1.000000
0.000000 0.000000 1.000000
0.111145 0.000000 1.000000
0.598083 0.000000 1.000000
0.901031 0.000000 1.000000
1.000000 0.000000 1.000000
1.000000 0.000000 1.000000
1.000000 0.000000 0.985687
0.000000 0.000000 1.000000
0.000000 0.000000 1.000000
0.000000 0.000000 1.000000
0.556427 0.000000 1.000000
0.891266 0.000000 1.000000
1.000000 0.000000 1.000000
1.000000 0.000000 0.999084
1.000000 0.000000 0.984375
0.000000 0.153503 1.000000
0.000000 0.130737 1.000000
0.000000 0.078644 1.000000
0.445190 0.000000 1.000000
0.866364 0.000000 1.000000
1.000000 0.000000 1.000000
1.000000 0.000000 0.996765
1.000000 0.000000 0.981354
0.000000 0.784943 1.000000
0.000000 0.781647 1.000000
0.000000 0.774689 1.000000
0.000000 0.758942 1.000000
0.790283 0.718567 1.000000
1.000000 0.594757 0.997498
1.000000 0.000000 0.991211
1.000000 0.000000 0.974030
0.000000 1.000000 0.990204
0.000000 1.000000 0.989929
0.000000 1.000000 0.989655
0.000000 1.000000 0.989136
0.357025 0.996521 0.987701
0.984436 0.984436 0.984436
1.000000 0.945374 0.976624
1.000000 0.675476 0.954651
0.000000 1.000000 0.950195
0.000000 1.000000 0.949890
0.000000 1.000000 0.949463
0.000000 1.000000 0.948395
0.000000 1.000000 0.945831
0.719879 1.000000 0.940247
1.000000 1.000000 0.925781
1.000000 1.000000 0.884186
0.000000 1.000000 0.641296
0.000000 1.000000 0.639648
0.000000 1.000000 0.636749
0.000000 1.000000 0.630219
0.000000 1.000000 0.615204
0.000000 1.000000 0.575134
0.943481 1.000000 0.455872
1.000000 1.000000 0.169922
0.000000 0.000000 1.000000
0.000000 0.000000 1.000000
0.000000 0.000000 1.000000
0.429688 0.000000 1.000000
0.863068 0.000000 1.000000
1.000000 0.000000 1.000000
1.000000 0.000000 1.000000
1.000000 0.000000 1.000000
0.000000 0.000000 1.000000
0.000000 0.000000 1.000000
0.000000 0.000000 1.000000
0.395508 0.000000 1.000000
0.856293 0.000000 1.000000
1.000000 0.000000 1.000000
1.000000 0.000000 1.000000
1.000000 0.000000 1.000000
0.000000 0.000000 1.000000
0.000000 0.000000 1.000000
0.000000 0.000000 1.000000
0.317932 0.000000 1.000000
0.842621 0.000000 1.000000
1.000000 0.000000 1.000000
1.000000 0.000000 1.000000
1.000000 0.000000 1.000000
0.000000 0.000000 1.000000
0.000000 0.000000 1.000000
0.000000 0.000000 1.000000
0.050171 0.000000 1.000000
0.807312 0.000000 1.000000
1.000000 0.000000 1.000000
1.000000 0.000000 1.000000
1.000000 0.000000 1.000000
0.000000 0.333191 1.000000
0.000000 0.321259 1.000000
0.000000 0.297791 1.000000
0.000000 0.241364 1.000000
0.694580 0.067200 1.000000
1.000000 0.000000 1.000000
1.000000 0.000000 1.000000
1.000000 0.000000 1.000000
0.000000 0.965393 1.000000
0.000000 0.964478 1.000000
0.000000 0.962921 1.000000
0.000000 0.959137 1.000000
0.000000 0.949982 1.000000
0.968170 0.926117 1.000000
1.000000 0.836517 1.000000
1.000000 0.000000 1.000000
0.000000 1.000000 1.000000
0.000000 1.000000 1.000000
0.000000 1.000000 1.000000
0.000000 1.000000 1.000000
0.000000 1.000000 1.000000
0.570526 1.000000 1.000000
1.000000 1.000000 1.000000
1.000000 1.000000 1.000000
0.000000 1.000000 1.000000
0.000000 1.000000 1.000000
0.000000 1.000000 1.000000
0.000000 1.000000 1.000000
0.000000 1.000000 1.000000
0.000000 1.000000 1.000000
0.912292 1.000000 1.000000
1.000000 1.000000 1.000000
0.000000 0.000000 1.000000
0.000000 0.000000 1.000000
0.000000 0.000000 1.000000
0.000000 0.000000 1.000000
0.685394 0.000000 1.000000
1.000000 0.000000 1.000000
1.000000 0.000000 1.000000
1.000000 0.000000 1.000000
0.000000 0.000000 1.000000
0.000000 0.000000 1.000000
0.000000 0.000000 1.000000
0.000000 0.000000 1.000000
0.669312 0.000000 1.000000
1.000000 0.000000 1.000000
1.000000 0.000000 1.000000
1.000000 0.000000 1.000000
0.000000 0.000000 1.000000
0.000000 0.000000 1.000000
0.000000 0.000000 1.000000
0.000000 0.000000 1.000000
0.636841 0.000000 1.000000
1.000000 0.000000 1.000000
1.000000 0.000000 1.000000
1.000000 0.000000 1.000000
0.000000 0.000000 1.000000
0.000000 0.000000 1.000000
0.000000 0.000000 1.000000
0.000000 0.000000 1.000000
0.545654 0.000000 1.000000
0.994324 0.000000 1.000000
1.000000 0.000000 1.000000
1.000000 0.000000 1.000000
0.000000 0.000000 1.000000
0.000000 0.000000 1.000000
0.000000 0.000000 1.000000
0.000000 0.000000 1.000000
0.197968 0.000000 1.000000
0.976624 0.000000 1.000000
1.000000 0.000000 1.000000
1.000000 0.000000 1.000000
0.000000 0.552032 1.000000
0.000000 0.539642 1.000000
0.000000 0.524414 1.000000
0.000000 0.489807 1.000000
0.000000 0.407898 1.000000
0.910736 0.180847 1.000000
1.000000 0.000000 1.000000
1.000000 0.000000 1.000000
0.000000 1.000000 1.000000
0.000000 1.000000 1.000000
0.000000 1.000000 1.000000
0.000000 1.000000 1.000000
0.000000 1.000000 1.000000
0.000000 1.000000 1.000000
1.000000 1.000000 1.000000
1.000000 0.989288 1.000000
0.000000 1.000000 1.000000
0.000000 1.000000 1.000000
0.000000 1.000000 1.000000
0.000000 1.000000 1.000000
0.000000 1.000000 1.000000
0.000000 1.000000 1.000000
0.760712 1.000000 1.000000
1.000000 1.000000 1.000000
