Postproduction/IWLTBAP - Humble/LUTs by IWLTBAP (CUBE)/UTILITY/Sony S-Log2 to Rec.709/U-SONY-S-LOG2-V2-LTR.cube
# Copyright: (C) Copyright 2010-2018 by IWLTBAP SAS
# Cannot be resold, shared or otherwise redistributed
# Website: https://luts.iwltbap.com
TITLE "Sony S-Log2 Version 2 (Utility LOG to Rec.709)"
LUT_3D_SIZE 8
DOMAIN_MIN 0.000000 0.000000 0.000000
DOMAIN_MAX 0.903226 0.903226 0.903226
0.008331 0.008331 0.008331
0.060944 0.006439 0.007874
0.181366 0.002777 0.006958
0.333527 0.000000 0.004913
0.540466 0.000000 0.000427
0.791687 0.000000 0.000000
0.973419 0.000000 0.000000
1.000000 0.000000 0.000000
0.002533 0.049377 0.006226
0.030212 0.039215 0.005737
0.164795 0.021515 0.004852
0.323853 0.009918 0.002838
0.534576 0.000000 0.000000
0.789154 0.000000 0.000000
0.972656 0.000000 0.000000
1.000000 0.000000 0.000000
0.000000 0.162811 0.002258
0.009003 0.157043 0.001770
0.129700 0.145538 0.000854
0.304779 0.117523 0.000000
0.523254 0.034424 0.000000
0.784332 0.000000 0.000000
0.971497 0.000000 0.000000
1.000000 0.000000 0.000000
0.000000 0.306274 0.000000
0.000000 0.302795 0.000000
0.021667 0.296295 0.000000
0.257996 0.281158 0.000000
0.496857 0.244385 0.000000
0.772949 0.136871 0.000000
0.968750 0.000000 0.000000
1.000000 0.000000 0.000000
0.000000 0.501556 0.000000
0.000000 0.499420 0.000000
0.000000 0.495483 0.000000
0.107758 0.486389 0.000000
0.432220 0.465454 0.000000
0.745850 0.414917 0.000000
0.962250 0.270172 0.000000
1.000000 0.000000 0.000000
0.000000 0.752075 0.000000
0.000000 0.751007 0.000000
0.000000 0.749207 0.000000
0.000000 0.744934 0.000000
0.229004 0.735413 0.000000
0.671631 0.711853 0.000000
0.945831 0.649567 0.000000
1.000000 0.450775 0.000000
0.000000 0.950073 0.000000
0.000000 0.949768 0.000000
0.000000 0.949280 0.000000
0.000000 0.948120 0.000000
0.000000 0.945435 0.000000
0.392822 0.939331 0.000000
0.895966 0.924103 0.000000
1.000000 0.880493 0.000000
0.000000 1.000000 0.000000
0.000000 1.000000 0.000000
0.000000 1.000000 0.000000
0.000000 1.000000 0.000000
0.000000 1.000000 0.000000
0.000000 1.000000 0.000000
0.618256 1.000000 0.000000
1.000000 1.000000 0.000000
0.007416 0.005737 0.039215
0.056122 0.003845 0.036591
0.178741 0.000183 0.031738
0.332031 0.000000 0.022095
0.539551 0.000000 0.013977
0.791260 0.000000 0.003754
0.973297 0.000000 0.000000
1.000000 0.000000 0.000000
0.001587 0.035583 0.027679
0.024872 0.024872 0.024872
0.162079 0.015900 0.021912
0.322205 0.007324 0.017242
0.533630 0.000000 0.011658
0.788788 0.000000 0.001617
0.972565 0.000000 0.000000
1.000000 0.000000 0.000000
0.000000 0.154999 0.016083
0.008057 0.148987 0.015472
0.126404 0.137238 0.014404
0.303070 0.107697 0.012146
0.522186 0.022827 0.007660
0.783905 0.000000 0.000000
0.971405 0.000000 0.000000
1.000000 0.000000 0.000000
0.000000 0.301666 0.006653
0.000000 0.298157 0.006195
0.019653 0.291534 0.005280
0.256012 0.276215 0.003265
0.495850 0.238770 0.000000
0.772552 0.127838 0.000000
0.968597 0.000000 0.000000
1.000000 0.000000 0.000000
0.000000 0.498688 0.000000
0.000000 0.496552 0.000000
0.000000 0.492523 0.000000
0.104156 0.483398 0.000000
0.431091 0.462494 0.000000
0.745392 0.411560 0.000000
0.962158 0.265015 0.000000
1.000000 0.000000 0.000000
0.000000 0.750671 0.000000
0.000000 0.749695 0.000000
0.000000 0.747894 0.000000
0.000000 0.743652 0.000000
0.226685 0.734039 0.000000
0.670990 0.710175 0.000000
0.945679 0.647522 0.000000
1.000000 0.447510 0.000000
0.000000 0.949677 0.000000
0.000000 0.949402 0.000000
0.000000 0.948914 0.000000
0.000000 0.947754 0.000000
0.000000 0.945038 0.000000
0.391357 0.938904 0.000000
0.895752 0.923615 0.000000
1.000000 0.879364 0.000000
0.000000 1.000000 0.000000
0.000000 1.000000 0.000000
0.000000 1.000000 0.000000
0.000000 1.000000 0.000000
0.000000 1.000000 0.000000
0.000000 1.000000 0.000000
0.617432 1.000000 0.000000
1.000000 1.000000 0.000000
0.005646 0.000885 0.145660
0.046906 0.000000 0.144196
0.173767 0.000000 0.141174
0.329071 0.000000 0.134430
0.537750 0.000000 0.118408
0.790497 0.000000 0.076111
0.972992 0.000000 0.006683
1.000000 0.000000 0.000000
0.000000 0.017334 0.138855
0.019897 0.014404 0.137238
0.156799 0.010559 0.134186
0.319275 0.002472 0.127045
0.531860 0.000000 0.110382
0.788025 0.000000 0.066071
0.972351 0.000000 0.004578
1.000000 0.000000 0.000000
0.000000 0.139404 0.125092
0.006317 0.132965 0.123383
0.120056 0.120056 0.120056
0.299988 0.087189 0.112488
0.520355 0.013733 0.094208
0.783051 0.000000 0.045837
0.971191 0.000000 0.000580
1.000000 0.000000 0.000000
0.000000 0.292755 0.089844
0.000000 0.289154 0.087646
0.015808 0.282379 0.083618
0.252350 0.266632 0.074402
0.493866 0.227722 0.051605
0.771698 0.109558 0.014801
0.968414 0.000000 0.000000
1.000000 0.000000 0.000000
0.000000 0.493317 0.012177
0.000000 0.491211 0.011597
0.000000 0.487091 0.010712
0.097229 0.477875 0.008667
0.428741 0.456543 0.004181
0.744507 0.404907 0.000000
0.961945 0.254852 0.000000
1.000000 0.000000 0.000000
0.000000 0.748199 0.000000
0.000000 0.747223 0.000000
0.000000 0.745300 0.000000
0.000000 0.740997 0.000000
0.222412 0.731689 0.000000
0.670349 0.707153 0.000000
0.945435 0.643494 0.000000
1.000000 0.441376 0.000000
0.000000 0.949005 0.000000
0.000000 0.948730 0.000000
0.000000 0.948212 0.000000
0.000000 0.947083 0.000000
0.000000 0.944336 0.000000
0.388855 0.938171 0.000000
0.895416 0.922699 0.000000
1.000000 0.878021 0.000000
0.000000 1.000000 0.000000
0.000000 1.000000 0.000000
0.000000 1.000000 0.000000
0.000000 1.000000 0.000000
0.000000 1.000000 0.000000
0.000000 1.000000 0.000000
0.615906 1.000000 0.000000
1.000000 1.000000 0.000000
0.001709 0.000000 0.281342
0.025421 0.000000 0.280365
0.162354 0.000000 0.278625
0.322449 0.000000 0.274658
0.533752 0.000000 0.265747
0.788849 0.000000 0.244843
0.972595 0.000000 0.191559
1.000000 0.000000 0.018524
0.000000 0.005219 0.277252
0.013428 0.003326 0.276306
0.144318 0.000000 0.274445
0.312408 0.000000 0.270508
0.527771 0.000000 0.261566
0.786194 0.000000 0.240234
0.971954 0.000000 0.186035
1.000000 0.000000 0.015015
0.000000 0.099152 0.269379
0.002380 0.090912 0.268433
0.104919 0.074646 0.266693
0.292725 0.033447 0.262573
0.516235 0.002380 0.253296
0.781250 0.000000 0.231354
0.970795 0.000000 0.174896
1.000000 0.000000 0.008392
0.000000 0.272125 0.251221
0.000000 0.268311 0.250153
0.010956 0.260864 0.248322
0.243988 0.243988 0.243988
0.489471 0.201721 0.234070
0.769928 0.064148 0.210571
0.967957 0.000000 0.148376
1.000000 0.000000 0.000000
0.000000 0.481140 0.205811
0.000000 0.478821 0.204651
0.000000 0.474640 0.202301
0.081970 0.465149 0.197174
0.423645 0.443268 0.185333
0.742462 0.389832 0.156311
0.961426 0.230927 0.071014
1.000000 0.000000 0.000000
0.000000 0.742584 0.055481
0.000000 0.741486 0.053497
0.000000 0.739594 0.049530
0.000000 0.735260 0.040588
0.212646 0.725189 0.021790
0.667236 0.700134 0.006317
0.944855 0.634430 0.000000
1.000000 0.427429 0.000000
0.000000 0.947449 0.000000
0.000000 0.947174 0.000000
0.000000 0.946655 0.000000
0.000000 0.945404 0.000000
0.000000 0.942719 0.000000
0.382996 0.936340 0.000000
0.894501 0.920746 0.000000
1.000000 0.875336 0.000000
0.000000 1.000000 0.000000
0.000000 1.000000 0.000000
0.000000 1.000000 0.000000
0.000000 1.000000 0.000000
0.000000 1.000000 0.000000
0.000000 1.000000 0.000000
0.612335 1.000000 0.000000
1.000000 1.000000 0.000000
0.000000 0.000000 0.465637
0.010376 0.000000 0.465088
0.134247 0.000000 0.464081
0.307159 0.000000 0.461578
0.524658 0.000000 0.456207
0.784912 0.000000 0.444061
0.971649 0.000000 0.415192
1.000000 0.000000 0.342560
0.000000 0.000000 0.463257
0.004547 0.000000 0.462677
0.113342 0.000000 0.461487
0.296753 0.000000 0.459137
0.518646 0.000000 0.453766
0.782257 0.000000 0.441345
0.971039 0.000000 0.412415
1.000000 0.000000 0.339142
0.000000 0.009857 0.458466
0.000000 0.007935 0.457825
0.065277 0.004303 0.456726
0.276093 0.000000 0.454376
0.506836 0.000000 0.448883
0.777252 0.000000 0.436371
0.969818 0.000000 0.407104
1.000000 0.000000 0.332642
0.000000 0.219940 0.447540
0.000000 0.215302 0.446960
0.002167 0.206451 0.445892
0.224304 0.185547 0.443359
0.479492 0.129608 0.437744
0.765686 0.002258 0.424896
0.966949 0.000000 0.394806
1.000000 0.000000 0.317596
0.000000 0.452484 0.422516
0.000000 0.450226 0.421936
0.000000 0.445709 0.420715
0.043640 0.435608 0.418091
0.412140 0.412140 0.412140
0.737854 0.353943 0.398438
0.960388 0.167450 0.366150
1.000000 0.000000 0.281799
0.000000 0.729736 0.360107
0.000000 0.728546 0.359314
0.000000 0.726349 0.357941
0.000000 0.721405 0.354797
0.189606 0.710205 0.347839
0.660217 0.684326 0.331543
0.943573 0.613525 0.292328
1.000000 0.394562 0.179596
0.000000 0.943848 0.151093
0.000000 0.943573 0.149567
0.000000 0.943024 0.146698
0.000000 0.941803 0.140015
0.000000 0.938934 0.125732
0.369904 0.932343 0.096527
0.892517 0.916168 0.018036
1.000000 0.868744 0.000000
0.000000 1.000000 0.000000
0.000000 1.000000 0.000000
0.000000 1.000000 0.000000
0.000000 1.000000 0.000000
0.000000 1.000000 0.000000
0.000000 1.000000 0.000000
0.604340 1.000000 0.000000
1.000000 1.000000 0.000000
0.000000 0.000000 0.712097
0.000000 0.000000 0.711823
0.050873 0.000000 0.711212
0.270416 0.000000 0.709869
0.503723 0.000000 0.707153
0.776062 0.000000 0.700684
0.969513 0.000000 0.686005
1.000000 0.000000 0.649719
0.000000 0.000000 0.710785
0.000000 0.000000 0.710449
0.023071 0.000000 0.709839
0.258728 0.000000 0.708588
0.497406 0.000000 0.705780
0.773254 0.000000 0.699371
0.968842 0.000000 0.684662
1.000000 0.000000 0.648041
0.000000 0.000000 0.708191
0.000000 0.000000 0.707947
0.007111 0.000000 0.707367
0.235199 0.000000 0.706146
0.485077 0.000000 0.703217
0.768036 0.000000 0.696838
0.967529 0.000000 0.681946
1.000000 0.000000 0.644714
0.000000 0.039886 0.702576
0.000000 0.031128 0.702301
0.000000 0.019287 0.701721
0.174011 0.006622 0.700348
0.456421 0.000000 0.697510
0.755981 0.000000 0.690948
0.964752 0.000000 0.675964
1.000000 0.000000 0.637390
0.000000 0.380798 0.689728
0.000000 0.377960 0.689392
0.000000 0.372650 0.688812
0.001770 0.360596 0.687378
0.384918 0.331970 0.684509
0.727112 0.257050 0.677765
0.957825 0.002228 0.661957
1.000000 0.000000 0.620483
0.000000 0.696167 0.658844
0.000000 0.694946 0.658478
0.000000 0.692627 0.657745
0.000000 0.687195 0.656158
0.136200 0.675201 0.652496
0.644257 0.644257 0.644257
0.940521 0.564240 0.625427
1.000000 0.308777 0.580933
0.000000 0.935364 0.572845
0.000000 0.935028 0.572388
0.000000 0.934448 0.571564
0.000000 0.933136 0.569672
0.000000 0.930023 0.565399
0.338409 0.922760 0.555725
0.887817 0.905121 0.533234
1.000000 0.853210 0.478973
0.000000 1.000000 0.287384
0.000000 1.000000 0.286377
0.000000 1.000000 0.284485
0.000000 1.000000 0.280487
0.000000 1.000000 0.270935
0.000000 1.000000 0.248047
0.586151 1.000000 0.195465
1.000000 1.000000 0.075012
0.000000 0.000000 0.924255
0.000000 0.000000 0.924164
0.000000 0.000000 0.924042
0.165924 0.000000 0.923615
0.453552 0.000000 0.922760
0.754730 0.000000 0.920990
0.964478 0.000000 0.916748
1.000000 0.000000 0.906708
0.000000 0.000000 0.923889
0.000000 0.000000 0.923737
0.000000 0.000000 0.923553
0.147919 0.000000 0.923157
0.446381 0.000000 0.922363
0.751892 0.000000 0.920593
0.963684 0.000000 0.916351
1.000000 0.000000 0.906250
0.000000 0.000000 0.923065
0.000000 0.000000 0.922974
0.000000 0.000000 0.922852
0.108337 0.000000 0.922485
0.432556 0.000000 0.921692
0.746124 0.000000 0.919861
0.962341 0.000000 0.915558
1.000000 0.000000 0.905334
0.000000 0.000000 0.921478
0.000000 0.000000 0.921387
0.000000 0.000000 0.921265
0.016113 0.000000 0.920868
0.400055 0.000000 0.920074
0.733002 0.000000 0.918091
0.959259 0.000000 0.913818
1.000000 0.000000 0.903442
0.000000 0.127045 0.917755
0.000000 0.121765 0.917633
0.000000 0.111481 0.917480
0.000000 0.086670 0.917145
0.316345 0.019379 0.916229
0.699707 0.000000 0.914246
0.952026 0.000000 0.909790
1.000000 0.000000 0.899078
0.000000 0.602386 0.908966
0.000000 0.600708 0.908875
0.000000 0.597382 0.908722
0.000000 0.589935 0.908325
0.001129 0.573212 0.907379
0.606903 0.533691 0.905182
0.933563 0.430298 0.900391
1.000000 0.012054 0.888824
0.000000 0.913666 0.886902
0.000000 0.913269 0.886810
0.000000 0.912567 0.886566
0.000000 0.911011 0.886108
0.000000 0.907257 0.885010
0.255585 0.898529 0.882080
0.876434 0.876434 0.876434
1.000000 0.811707 0.862762
0.000000 1.000000 0.819458
0.000000 1.000000 0.819305
0.000000 1.000000 0.818909
0.000000 1.000000 0.818207
0.000000 1.000000 0.816528
0.000000 1.000000 0.812683
0.542938 1.000000 0.803833
1.000000 1.000000 0.782166
0.000000 0.000000 1.000000
0.000000 0.000000 1.000000
0.000000 0.000000 1.000000
0.000000 0.000000 1.000000
0.312592 0.000000 1.000000
0.698212 0.000000 1.000000
0.951813 0.000000 1.000000
1.000000 0.000000 1.000000
0.000000 0.000000 1.000000
0.000000 0.000000 1.000000
0.000000 0.000000 1.000000
0.000000 0.000000 1.000000
0.302185 0.000000 1.000000
0.694366 0.000000 1.000000
0.950989 0.000000 1.000000
1.000000 0.000000 1.000000
0.000000 0.000000 1.000000
0.000000 0.000000 1.000000
0.000000 0.000000 1.000000
0.000000 0.000000 1.000000
0.281616 0.000000 1.000000
0.687103 0.000000 1.000000
0.949371 0.000000 1.000000
1.000000 0.000000 1.000000
0.000000 0.000000 1.000000
0.000000 0.000000 1.000000
0.000000 0.000000 1.000000
0.000000 0.000000 1.000000
0.229828 0.000000 1.000000
0.670624 0.000000 1.000000
0.945770 0.000000 1.000000
1.000000 0.000000 1.000000
0.000000 0.000000 1.000000
0.000000 0.000000 1.000000
0.000000 0.000000 1.000000
0.000000 0.000000 1.000000
0.068726 0.000000 1.000000
0.627686 0.000000 1.000000
0.937469 0.000000 1.000000
1.000000 0.000000 1.000000
0.000000 0.241974 1.000000
0.000000 0.237274 1.000000
0.000000 0.230621 1.000000
0.000000 0.215271 1.000000
0.000000 0.178864 1.000000
0.512115 0.079498 1.000000
0.915833 0.000000 1.000000
1.000000 0.000000 1.000000
0.000000 0.844513 1.000000
0.000000 0.843933 1.000000
0.000000 0.842743 1.000000
0.000000 0.840027 1.000000
0.000000 0.833923 1.000000
0.004883 0.819427 1.000000
0.848358 0.782654 1.000000
1.000000 0.667175 1.000000
0.000000 1.000000 1.000000
0.000000 1.000000 1.000000
0.000000 1.000000 1.000000
0.000000 1.000000 1.000000
0.000000 1.000000 1.000000
0.000000 1.000000 1.000000
0.418579 1.000000 1.000000
1.000000 1.000000 1.000000
