Postproduction/IWLTBAP - Humble/LUTs by IWLTBAP (CUBE)/UTILITY/Sony S-Log2 to Rec.709/U-SONY-S-LOG2-V3-LTR.cube
# Copyright: (C) Copyright 2010-2018 by IWLTBAP SAS
# Cannot be resold, shared or otherwise redistributed
# Website: https://luts.iwltbap.com
TITLE "Sony S-Log2 Version 3 (Utility LOG to Rec.709)"
LUT_3D_SIZE 32
0.001312 0.001160 0.001282
0.006439 0.001282 0.002075
0.012756 0.001434 0.003113
0.020172 0.001556 0.004578
0.029327 0.001556 0.006439
0.041901 0.001160 0.009216
0.086273 0.001160 0.021973
0.134155 0.001251 0.035583
0.184235 0.001404 0.049957
0.236938 0.001556 0.065002
0.292450 0.001740 0.080933
0.351593 0.001953 0.097870
0.413422 0.002197 0.115601
0.477112 0.002411 0.133911
0.541168 0.002655 0.152222
0.604156 0.002930 0.170258
0.664764 0.003265 0.187469
0.724243 0.003662 0.204285
0.783081 0.003967 0.220947
0.841827 0.004333 0.237518
0.898254 0.004669 0.254028
0.944916 0.005035 0.270447
0.951599 0.005432 0.286957
0.956970 0.005829 0.301819
0.962494 0.006287 0.315369
0.967255 0.006714 0.327759
0.971558 0.007141 0.338470
0.975983 0.007660 0.346924
0.980469 0.008148 0.353943
0.985016 0.008667 0.359558
0.989563 0.009216 0.363892
0.994232 0.009888 0.367279
0.001526 0.005890 0.001465
0.006287 0.006012 0.001984
0.012390 0.006134 0.002899
0.019867 0.006104 0.004425
0.029236 0.005676 0.006470
0.041779 0.004242 0.009338
0.085632 0.003906 0.021912
0.133118 0.003906 0.035461
0.182770 0.004028 0.049683
0.234833 0.004181 0.064575
0.289795 0.004364 0.080292
0.348206 0.004547 0.097076
0.409393 0.004791 0.114594
0.472595 0.005005 0.132690
0.536346 0.005280 0.150970
0.599060 0.005524 0.168854
0.659393 0.005798 0.186035
0.718719 0.006104 0.202820
0.777374 0.006439 0.219360
0.835785 0.006744 0.235901
0.892914 0.007080 0.252350
0.944275 0.007477 0.268738
0.951080 0.007843 0.285339
0.956451 0.008240 0.300476
0.961884 0.008667 0.314331
0.966797 0.009094 0.326874
0.971130 0.009674 0.337738
0.975525 0.010162 0.346466
0.979980 0.010681 0.353699
0.984497 0.011169 0.359467
0.989044 0.011749 0.363953
0.993683 0.012299 0.367462
0.001556 0.011658 0.001556
0.005768 0.011749 0.001831
0.011475 0.011810 0.002533
0.018982 0.011688 0.003967
0.028687 0.011169 0.006104
0.041504 0.009399 0.009247
0.085266 0.007599 0.021973
0.132355 0.006989 0.035431
0.181671 0.006927 0.049561
0.233307 0.007080 0.064270
0.287628 0.007263 0.079865
0.345520 0.007446 0.096497
0.406219 0.007660 0.113892
0.468842 0.007874 0.131836
0.532227 0.008148 0.149994
0.594788 0.008392 0.167786
0.654846 0.008667 0.184937
0.713989 0.008972 0.201660
0.772552 0.009247 0.218201
0.830811 0.009674 0.234589
0.888245 0.010040 0.251038
0.943054 0.010376 0.267456
0.950470 0.010742 0.284088
0.955963 0.011139 0.299377
0.961395 0.011566 0.313446
0.966400 0.012024 0.326141
0.970703 0.012482 0.337158
0.975098 0.012939 0.346130
0.979523 0.013428 0.353485
0.984009 0.013947 0.359406
0.988556 0.014496 0.364044
0.993225 0.015106 0.367584
0.001434 0.018280 0.001434
0.004822 0.018402 0.001587
0.010010 0.018463 0.002075
0.017395 0.018433 0.003113
0.027405 0.018066 0.005188
0.040802 0.016876 0.008667
0.084991 0.012482 0.021851
0.131958 0.010681 0.035461
0.180908 0.010345 0.049530
0.232086 0.010468 0.064148
0.285889 0.010590 0.079559
0.343414 0.010773 0.096039
0.403625 0.010986 0.113373
0.465820 0.011200 0.131134
0.528748 0.011414 0.149200
0.591125 0.011658 0.166992
0.651001 0.011932 0.183960
0.709961 0.012238 0.200684
0.768341 0.012512 0.217163
0.826447 0.012817 0.233551
0.884125 0.013153 0.249908
0.940338 0.013489 0.266418
0.949554 0.013885 0.282990
0.955505 0.014252 0.298462
0.960907 0.014679 0.312653
0.966003 0.015167 0.325378
0.970306 0.015656 0.336517
0.974670 0.016144 0.345581
0.979095 0.016632 0.353058
0.983612 0.017120 0.359100
0.988159 0.017670 0.363770
0.992798 0.018219 0.367218
0.001282 0.026215 0.001282
0.003784 0.026337 0.001404
0.008148 0.026428 0.001678
0.014893 0.026550 0.002350
0.024719 0.026550 0.003906
0.039154 0.026306 0.007050
0.084534 0.018799 0.021362
0.131714 0.015381 0.035400
0.180328 0.014435 0.049500
0.231140 0.014496 0.064026
0.284576 0.014587 0.079376
0.341644 0.014374 0.095734
0.401337 0.014435 0.112854
0.463043 0.014648 0.130493
0.525757 0.014862 0.148376
0.587921 0.015106 0.166168
0.647583 0.015442 0.183044
0.706329 0.015686 0.199615
0.764435 0.015991 0.216095
0.822418 0.016266 0.232391
0.880157 0.016632 0.248840
0.936157 0.016968 0.265198
0.948334 0.017334 0.281799
0.955078 0.017700 0.297394
0.960480 0.018127 0.311707
0.965637 0.018524 0.324463
0.969940 0.018982 0.335541
0.974274 0.019440 0.344757
0.978729 0.019958 0.352264
0.983215 0.020416 0.358337
0.987762 0.021057 0.362976
0.992401 0.021606 0.366180
0.001556 0.036865 0.001556
0.004059 0.036926 0.001678
0.007019 0.037018 0.001831
0.011566 0.037140 0.002014
0.019531 0.037201 0.002289
0.035248 0.037292 0.002686
0.083374 0.027710 0.019775
0.131317 0.022614 0.034851
0.179840 0.021210 0.049164
0.230316 0.021362 0.063721
0.283386 0.021027 0.079010
0.340057 0.018799 0.095245
0.399200 0.018280 0.112244
0.460571 0.018402 0.129761
0.522980 0.018585 0.147583
0.585022 0.018799 0.165222
0.644440 0.019043 0.181976
0.702942 0.019318 0.198395
0.760895 0.019592 0.214691
0.818665 0.019867 0.230957
0.876160 0.020233 0.247192
0.932159 0.020538 0.263397
0.947174 0.020996 0.279755
0.954712 0.021362 0.295380
0.960052 0.021759 0.309753
0.965332 0.022156 0.322632
0.969604 0.022614 0.333832
0.973938 0.023041 0.343231
0.978363 0.023560 0.350861
0.982819 0.024048 0.357239
0.987366 0.024597 0.362030
0.991974 0.025146 0.365173
0.001862 0.072601 0.001862
0.004364 0.072601 0.002014
0.007141 0.072693 0.002197
0.010773 0.072845 0.002350
0.015961 0.073090 0.002533
0.024872 0.073334 0.002808
0.070496 0.070221 0.008209
0.122131 0.066833 0.024658
0.174835 0.063507 0.043488
0.227081 0.058441 0.060516
0.280640 0.047821 0.076721
0.337311 0.029480 0.093384
0.396484 0.025848 0.110565
0.457642 0.025940 0.128235
0.519867 0.025116 0.146057
0.581757 0.022736 0.163635
0.641052 0.022949 0.180450
0.699432 0.023224 0.196899
0.757294 0.023499 0.213196
0.814850 0.023773 0.229401
0.872101 0.024078 0.245636
0.928864 0.024414 0.261902
0.946228 0.024750 0.278259
0.954376 0.025146 0.293945
0.959717 0.025513 0.308350
0.965057 0.025909 0.321228
0.969299 0.026367 0.332611
0.973633 0.026886 0.342072
0.978058 0.027374 0.349792
0.982513 0.027832 0.356201
0.987030 0.028381 0.361084
0.991669 0.028931 0.364471
0.002258 0.110626 0.002258
0.004700 0.110474 0.002411
0.007477 0.110474 0.002563
0.010742 0.110626 0.002747
0.014496 0.110809 0.002960
0.019958 0.111053 0.003204
0.044250 0.110443 0.004120
0.098541 0.108582 0.012726
0.160614 0.105408 0.029144
0.218994 0.100189 0.050446
0.275421 0.091278 0.071075
0.332886 0.078705 0.089325
0.392365 0.074066 0.107300
0.453491 0.066681 0.125336
0.515686 0.051880 0.143524
0.577515 0.032440 0.161438
0.636719 0.034424 0.178436
0.694916 0.034454 0.195129
0.752686 0.030762 0.211548
0.810120 0.027771 0.227844
0.867462 0.028076 0.244110
0.924835 0.028412 0.260437
0.945160 0.028748 0.276855
0.954102 0.029083 0.292572
0.959412 0.029480 0.307068
0.964813 0.029877 0.319916
0.969055 0.030304 0.331482
0.973358 0.030731 0.340912
0.977783 0.031219 0.348755
0.982208 0.031708 0.355133
0.986755 0.032318 0.360138
0.991364 0.032837 0.363861
0.002686 0.150177 0.002686
0.005127 0.149933 0.002838
0.007812 0.149811 0.002991
0.010986 0.149811 0.003204
0.014374 0.149902 0.003479
0.018433 0.150085 0.003754
0.025726 0.149994 0.003967
0.063843 0.149109 0.005615
0.127228 0.147003 0.014709
0.201141 0.143463 0.032837
0.265289 0.138275 0.056396
0.325989 0.131744 0.081024
0.387085 0.125732 0.102020
0.448730 0.116669 0.121246
0.510864 0.102081 0.139832
0.572540 0.083252 0.157990
0.631683 0.081390 0.175385
0.689941 0.073212 0.192322
0.747620 0.056641 0.209015
0.805023 0.045197 0.225586
0.862427 0.045807 0.242035
0.920013 0.044708 0.258484
0.943817 0.036072 0.274902
0.953766 0.033508 0.290833
0.959137 0.033600 0.305389
0.964539 0.033966 0.318420
0.968811 0.034393 0.330109
0.973114 0.034821 0.339630
0.977539 0.035309 0.347595
0.981964 0.035767 0.354034
0.986481 0.036255 0.359161
0.991089 0.036804 0.363098
0.003143 0.191559 0.003143
0.005524 0.191132 0.003387
0.008209 0.190887 0.003632
0.011353 0.190765 0.003815
0.014648 0.190735 0.004059
0.018250 0.190826 0.004272
0.022186 0.190796 0.004547
0.032104 0.190460 0.004822
0.078796 0.189423 0.006378
0.160858 0.187256 0.013702
0.246185 0.183411 0.033112
0.314026 0.176392 0.060089
0.379089 0.168732 0.089905
0.442688 0.163910 0.114716
0.505463 0.161469 0.134735
0.567261 0.159058 0.153412
0.626373 0.151642 0.171082
0.684631 0.136108 0.188324
0.742340 0.110992 0.205353
0.799713 0.093964 0.222137
0.857025 0.092712 0.238770
0.914459 0.086639 0.255402
0.942139 0.062378 0.272064
0.953400 0.055054 0.288269
0.958923 0.054413 0.303070
0.964294 0.053528 0.316223
0.968628 0.050751 0.328094
0.972900 0.043365 0.337799
0.977325 0.040405 0.345856
0.981750 0.040253 0.352509
0.986267 0.042419 0.357697
0.990845 0.046844 0.361694
0.003754 0.234924 0.003754
0.006012 0.234344 0.003937
0.008667 0.233948 0.004181
0.011780 0.233704 0.004364
0.015015 0.233551 0.004578
0.018555 0.233551 0.004852
0.022369 0.233521 0.005127
0.026215 0.233337 0.005432
0.035461 0.232849 0.005707
0.081879 0.231842 0.006561
0.211884 0.229675 0.008881
0.292816 0.225464 0.014069
0.364807 0.218506 0.062042
0.432953 0.210236 0.102020
0.498779 0.202698 0.127228
0.562042 0.198364 0.148193
0.621063 0.198090 0.166229
0.679016 0.197479 0.183502
0.736572 0.195221 0.200531
0.793854 0.190002 0.217346
0.851013 0.180328 0.234161
0.908295 0.164337 0.251007
0.940247 0.131561 0.267883
0.953003 0.122559 0.284363
0.958740 0.121277 0.299377
0.964111 0.116058 0.312744
0.968445 0.102112 0.324890
0.972748 0.067474 0.334747
0.977142 0.052979 0.343048
0.981567 0.050629 0.349701
0.986084 0.058868 0.354980
0.990662 0.076752 0.359039
0.004333 0.280853 0.004333
0.006561 0.280090 0.004547
0.009155 0.279510 0.004730
0.012238 0.279175 0.004974
0.015533 0.278992 0.005219
0.018982 0.278870 0.005493
0.022736 0.278778 0.005768
0.026550 0.278656 0.006042
0.031403 0.278351 0.006378
0.057678 0.277802 0.006805
0.140045 0.276825 0.007477
0.253937 0.274109 0.008636
0.339203 0.269684 0.020294
0.414062 0.263367 0.059174
0.484741 0.255463 0.106293
0.551910 0.247192 0.135590
0.613708 0.240753 0.157898
0.672974 0.237457 0.177338
0.730835 0.236938 0.195221
0.787872 0.237183 0.212280
0.844879 0.236206 0.229095
0.901855 0.233154 0.245880
0.938049 0.226440 0.262695
0.952454 0.221619 0.279144
0.958618 0.216919 0.294250
0.963959 0.211029 0.307709
0.968353 0.203339 0.319946
0.972626 0.193634 0.329865
0.976990 0.196014 0.338196
0.981415 0.201630 0.345001
0.985931 0.206696 0.350372
0.990601 0.210236 0.354462
0.004974 0.328888 0.004974
0.007141 0.328064 0.005157
0.009827 0.327423 0.005371
0.012756 0.326935 0.005646
0.016022 0.326569 0.005859
0.019440 0.326355 0.006165
0.023163 0.326202 0.006470
0.026978 0.326019 0.006744
0.030914 0.325775 0.007080
0.042175 0.325470 0.007446
0.076050 0.324860 0.007812
0.189880 0.323517 0.008209
0.294586 0.320709 0.009949
0.384766 0.316406 0.028442
0.462921 0.310364 0.063507
0.534790 0.303070 0.106598
0.599976 0.295410 0.137939
0.662048 0.289154 0.163391
0.722137 0.284607 0.185364
0.780823 0.281738 0.204926
0.838715 0.280212 0.223145
0.896179 0.279907 0.240692
0.936157 0.280212 0.257751
0.952087 0.280304 0.274231
0.958557 0.280273 0.289185
0.963898 0.280121 0.302460
0.968262 0.279846 0.314606
0.972534 0.280579 0.324463
0.976959 0.284424 0.332794
0.981445 0.288147 0.339508
0.985992 0.290680 0.344757
0.990662 0.292145 0.348785
0.005615 0.378387 0.005615
0.007782 0.377472 0.005829
0.010406 0.376740 0.006042
0.013336 0.376099 0.006317
0.016571 0.375610 0.006622
0.019958 0.375275 0.006897
0.023590 0.375061 0.007202
0.027435 0.374878 0.007507
0.031311 0.374695 0.007874
0.036102 0.374481 0.008240
0.045044 0.374054 0.008606
0.114532 0.373413 0.009003
0.225922 0.371857 0.009491
0.336578 0.369049 0.013611
0.431732 0.364929 0.030182
0.510681 0.359680 0.064545
0.580261 0.353363 0.099640
0.645721 0.346497 0.135071
0.708740 0.339661 0.165833
0.769958 0.333649 0.191528
0.829773 0.329041 0.212982
0.888641 0.326202 0.232666
0.933899 0.324890 0.251282
0.951721 0.324921 0.268738
0.958557 0.326324 0.284241
0.963898 0.328827 0.297699
0.968262 0.332367 0.309814
0.972595 0.336639 0.319458
0.977020 0.340271 0.327576
0.981537 0.343079 0.334076
0.986115 0.345245 0.339142
0.990753 0.347351 0.343079
0.006317 0.428528 0.006317
0.008453 0.427582 0.006531
0.011108 0.426758 0.006805
0.013947 0.426056 0.007080
0.017151 0.425476 0.007324
0.020508 0.425079 0.007660
0.024109 0.424805 0.007996
0.027893 0.424561 0.008301
0.031738 0.424347 0.008667
0.035828 0.424072 0.009064
0.040405 0.423798 0.009552
0.057190 0.423370 0.010010
0.144592 0.422577 0.010406
0.262360 0.420929 0.010895
0.381012 0.418243 0.014679
0.479034 0.414642 0.026642
0.554688 0.410187 0.051971
0.624298 0.404694 0.091003
0.690552 0.398468 0.132263
0.754578 0.391785 0.168365
0.816864 0.384918 0.196136
0.877899 0.378693 0.219818
0.930481 0.373718 0.241272
0.951202 0.370087 0.260956
0.958618 0.368408 0.277954
0.963959 0.368805 0.292358
0.968384 0.371094 0.304993
0.972717 0.374664 0.314697
0.977173 0.378326 0.322662
0.981659 0.381592 0.329071
0.986206 0.384338 0.334045
0.990845 0.386810 0.337891
0.007080 0.478302 0.007080
0.009155 0.477356 0.007294
0.011810 0.476379 0.007599
0.014618 0.475616 0.007874
0.017792 0.475098 0.008179
0.021179 0.474640 0.008484
0.024689 0.474304 0.008820
0.028442 0.473999 0.009155
0.032349 0.473755 0.009674
0.036255 0.473511 0.010071
0.040466 0.473236 0.010498
0.044739 0.472778 0.010925
0.073212 0.472229 0.011383
0.166260 0.471344 0.011841
0.303467 0.469757 0.012329
0.438568 0.467346 0.012878
0.523193 0.464081 0.013428
0.598206 0.460175 0.038513
0.668396 0.455505 0.083710
0.735321 0.449829 0.131531
0.800079 0.443359 0.169647
0.863556 0.436371 0.200470
0.924683 0.429291 0.226135
0.949890 0.422791 0.248901
0.958801 0.417358 0.268219
0.964203 0.413269 0.284424
0.968536 0.410400 0.298462
0.972900 0.410339 0.308990
0.977295 0.411530 0.317474
0.981750 0.413269 0.324097
0.986267 0.415344 0.329224
0.990906 0.417633 0.333069
0.007874 0.526245 0.007874
0.010101 0.525116 0.008179
0.012573 0.524078 0.008423
0.015472 0.523285 0.008728
0.018494 0.522644 0.009033
0.021851 0.522125 0.009460
0.025330 0.521759 0.009857
0.029053 0.521423 0.010223
0.032898 0.521210 0.010590
0.036804 0.521027 0.011017
0.040924 0.520782 0.011444
0.045227 0.520355 0.011902
0.052063 0.519897 0.012390
0.109131 0.519226 0.012909
0.226349 0.518311 0.013397
0.382477 0.516937 0.013947
0.484161 0.514343 0.014496
0.567078 0.511505 0.017700
0.642395 0.507996 0.034149
0.712860 0.503845 0.070129
0.780365 0.498932 0.122009
0.846771 0.493042 0.171051
0.912384 0.485352 0.204254
0.945648 0.477631 0.231445
0.959076 0.470917 0.253448
0.964447 0.465485 0.271545
0.968719 0.460968 0.286957
0.973022 0.457947 0.298798
0.977417 0.456360 0.308319
0.981842 0.455536 0.315735
0.986359 0.455566 0.321411
0.990936 0.456451 0.325531
0.008789 0.573181 0.008789
0.010956 0.571991 0.009064
0.013428 0.571014 0.009399
0.016266 0.570251 0.009735
0.019287 0.569550 0.010101
0.022614 0.569000 0.010406
0.026062 0.568512 0.010803
0.029694 0.568176 0.011200
0.033508 0.567871 0.011627
0.037415 0.567596 0.012054
0.041473 0.567352 0.012512
0.045746 0.567108 0.012970
0.050079 0.566742 0.013458
0.073944 0.566254 0.013977
0.149933 0.565613 0.014496
0.294617 0.564880 0.015106
0.432617 0.563629 0.015747
0.529297 0.561249 0.016357
0.611481 0.558441 0.020294
0.686523 0.555084 0.030640
0.758026 0.550995 0.055145
0.827362 0.546143 0.111847
0.894775 0.539703 0.165741
0.938538 0.532440 0.203552
0.958893 0.525574 0.231171
0.964691 0.519440 0.252716
0.968872 0.514221 0.270355
0.973145 0.510498 0.283722
0.977539 0.507812 0.294342
0.981934 0.506042 0.302612
0.986389 0.505188 0.308868
0.990997 0.505127 0.313507
0.009827 0.619812 0.009827
0.011871 0.618652 0.010101
0.014313 0.617615 0.010376
0.017151 0.616791 0.010712
0.020111 0.616058 0.011078
0.023407 0.615448 0.011444
0.026886 0.614990 0.011841
0.030426 0.614594 0.012238
0.034210 0.614288 0.012695
0.038147 0.614014 0.013153
0.042114 0.613770 0.013611
0.046326 0.613556 0.014099
0.050659 0.613190 0.014618
0.058777 0.612793 0.015198
0.089752 0.612335 0.015778
0.171021 0.611847 0.016357
0.353180 0.611389 0.016785
0.477631 0.610016 0.017181
0.573517 0.607727 0.017487
0.655060 0.604797 0.017822
0.731384 0.601318 0.023895
0.804382 0.597168 0.052277
0.874268 0.591797 0.109314
0.927765 0.585754 0.158875
0.956238 0.579590 0.197845
0.964813 0.573669 0.226715
0.968994 0.568298 0.248047
0.973267 0.564087 0.263733
0.977600 0.560852 0.275909
0.981995 0.558472 0.285309
0.986450 0.556976 0.292450
0.990997 0.556244 0.297699
0.010773 0.666351 0.010773
0.012817 0.665161 0.011108
0.015350 0.664124 0.011414
0.018036 0.663208 0.011780
0.021057 0.662415 0.012115
0.024261 0.661743 0.012512
0.027710 0.661255 0.012909
0.031219 0.660858 0.013367
0.034973 0.660492 0.013763
0.038849 0.660217 0.014252
0.042786 0.660065 0.014740
0.046967 0.659851 0.015350
0.051270 0.659485 0.015900
0.055664 0.659210 0.016388
0.060150 0.658966 0.016876
0.083557 0.658722 0.017273
0.246948 0.658478 0.017548
0.403809 0.657898 0.017731
0.523376 0.656342 0.017883
0.616943 0.653870 0.018036
0.699646 0.650757 0.018188
0.777069 0.647095 0.018372
0.850403 0.642487 0.054871
0.912567 0.637512 0.098236
0.950378 0.632263 0.144958
0.964844 0.627136 0.187805
0.969116 0.622131 0.217316
0.973358 0.617920 0.236908
0.977661 0.614502 0.251587
0.982056 0.611877 0.262726
0.986481 0.610016 0.271088
0.990967 0.608765 0.277191
0.011810 0.712982 0.011841
0.013885 0.711670 0.012146
0.016357 0.710541 0.012482
0.019012 0.709595 0.012817
0.022034 0.708801 0.013214
0.025146 0.708130 0.013641
0.028595 0.707611 0.014069
0.032104 0.707214 0.014496
0.035767 0.706848 0.014954
0.039612 0.706573 0.015533
0.043640 0.706451 0.016022
0.047668 0.706268 0.016510
0.051910 0.706085 0.016998
0.056244 0.705963 0.017426
0.060699 0.705902 0.017670
0.072052 0.705872 0.017792
0.135254 0.705597 0.017944
0.300293 0.705170 0.018066
0.450531 0.704285 0.018219
0.569336 0.702637 0.018372
0.662201 0.699860 0.018494
0.744995 0.696381 0.018585
0.822296 0.692352 0.021912
0.891785 0.687988 0.036896
0.940430 0.683533 0.075684
0.964569 0.679169 0.127991
0.969208 0.675018 0.168060
0.973419 0.671265 0.198212
0.977722 0.668182 0.218170
0.982086 0.665588 0.232391
0.986481 0.663605 0.242767
0.990967 0.662140 0.250183
0.012939 0.759583 0.012939
0.015015 0.758179 0.013275
0.017456 0.757019 0.013641
0.020081 0.756134 0.014008
0.023010 0.755432 0.014404
0.026123 0.754730 0.014832
0.029480 0.754150 0.015350
0.033051 0.753693 0.015839
0.036621 0.753326 0.016327
0.040466 0.753052 0.016785
0.044434 0.752869 0.017334
0.048431 0.752899 0.017639
0.052490 0.753143 0.017792
0.056732 0.753296 0.017944
0.061157 0.753265 0.018036
0.066254 0.753113 0.018158
0.076233 0.752808 0.018280
0.159088 0.752319 0.018402
0.333344 0.751587 0.018494
0.506042 0.750488 0.018585
0.616791 0.748596 0.018707
0.707275 0.744934 0.018799
0.789185 0.741516 0.019012
0.863342 0.737701 0.019562
0.924683 0.733673 0.021027
0.963776 0.729675 0.033447
0.969269 0.726074 0.073181
0.973480 0.722900 0.136230
0.977722 0.720184 0.169281
0.982056 0.717865 0.189850
0.986450 0.716064 0.203888
0.990936 0.714661 0.213562
0.014130 0.806671 0.014130
0.016235 0.805420 0.014465
0.018555 0.804291 0.014832
0.021271 0.803314 0.015289
0.024109 0.802399 0.015717
0.027252 0.801697 0.016174
0.030548 0.801178 0.016632
0.034027 0.800720 0.017120
0.037598 0.800537 0.017517
0.041260 0.800568 0.017822
0.045013 0.800659 0.018005
0.048950 0.800873 0.018158
0.052948 0.800995 0.018219
0.057159 0.800964 0.018311
0.061523 0.800812 0.018402
0.066132 0.800568 0.018494
0.071533 0.800140 0.018555
0.092621 0.799530 0.018677
0.202698 0.798737 0.018738
0.373291 0.797699 0.018829
0.549622 0.796387 0.018921
0.660248 0.794586 0.018982
0.748596 0.790497 0.019073
0.827057 0.786621 0.019104
0.895630 0.782898 0.019196
0.947021 0.779358 0.021637
0.968719 0.775848 0.030365
0.973419 0.772766 0.044739
0.977753 0.770172 0.079254
0.982025 0.767975 0.107208
0.986389 0.766266 0.123810
0.990845 0.764984 0.133698
0.015472 0.851868 0.015472
0.017456 0.850677 0.015839
0.019775 0.849701 0.016205
0.022461 0.848755 0.016602
0.025269 0.847931 0.017029
0.028381 0.847321 0.017487
0.031555 0.846924 0.017883
0.034851 0.846771 0.018127
0.038269 0.846741 0.018280
0.041779 0.846832 0.018433
0.045532 0.846954 0.018494
0.049408 0.846985 0.018524
0.053375 0.846893 0.018585
0.057556 0.846680 0.018677
0.061890 0.846222 0.018707
0.066376 0.845795 0.018768
0.071045 0.845184 0.018829
0.075775 0.844421 0.018921
0.130798 0.843475 0.018982
0.265106 0.842407 0.019012
0.457642 0.841125 0.019073
0.602997 0.839600 0.019135
0.703674 0.836456 0.019196
0.788666 0.832764 0.019226
0.862000 0.828918 0.019257
0.921936 0.825378 0.019287
0.962311 0.822174 0.019287
0.972504 0.819214 0.019318
0.977722 0.816620 0.033691
0.981995 0.814453 0.045990
0.986328 0.812622 0.053101
0.990753 0.811127 0.057465
0.016754 0.893860 0.016754
0.018768 0.892822 0.017151
0.021179 0.891846 0.017517
0.023712 0.890991 0.017944
0.026398 0.890411 0.018280
0.029297 0.889984 0.018524
0.032379 0.889740 0.018707
0.035461 0.889709 0.018768
0.038818 0.889709 0.018799
0.042236 0.889709 0.018799
0.045929 0.889709 0.018860
0.049805 0.889496 0.018860
0.053741 0.889221 0.018921
0.057922 0.888794 0.018951
0.062256 0.888306 0.019012
0.066711 0.887726 0.019043
0.071320 0.886963 0.019073
0.076050 0.886047 0.019104
0.095612 0.884918 0.019135
0.174225 0.883698 0.019196
0.331085 0.882355 0.019226
0.534363 0.880676 0.019226
0.653168 0.878418 0.019257
0.747955 0.875336 0.019257
0.826569 0.871643 0.019287
0.892303 0.867828 0.019287
0.944702 0.864624 0.019257
0.969269 0.861847 0.019257
0.977234 0.859314 0.019226
0.981934 0.857117 0.019226
0.986237 0.855072 0.019135
0.990631 0.853394 0.019379
0.018127 0.931549 0.018127
0.020081 0.930603 0.018494
0.022400 0.929688 0.018799
0.024780 0.929016 0.019073
0.027374 0.928680 0.019226
0.029968 0.928497 0.019226
0.032867 0.928436 0.019196
0.035919 0.928314 0.019196
0.039246 0.928223 0.019196
0.042664 0.928070 0.019196
0.046326 0.927887 0.019196
0.050171 0.927551 0.019196
0.054199 0.927185 0.019226
0.058258 0.926758 0.019226
0.062561 0.926208 0.019257
0.066986 0.925537 0.019257
0.071594 0.924713 0.019287
0.076294 0.923676 0.019287
0.081085 0.922485 0.019287
0.107391 0.921143 0.019287
0.200714 0.919647 0.019287
0.447083 0.917847 0.019287
0.594849 0.915924 0.019287
0.704620 0.913605 0.019287
0.790649 0.910431 0.019257
0.860962 0.906525 0.019226
0.918793 0.902985 0.019196
0.960205 0.900299 0.019135
0.975098 0.897766 0.019073
0.981750 0.895569 0.019012
0.986115 0.893524 0.018951
0.990448 0.891785 0.018860
0.019501 0.963043 0.019501
0.021454 0.962402 0.019775
0.023346 0.961975 0.019806
0.025452 0.961700 0.019745
0.027832 0.961517 0.019684
0.030396 0.961334 0.019623
0.033325 0.961182 0.019592
0.036316 0.961029 0.019562
0.039642 0.960876 0.019531
0.043121 0.960754 0.019531
0.046661 0.960449 0.019501
0.050507 0.960205 0.019501
0.054504 0.959900 0.019501
0.058563 0.959503 0.019470
0.062836 0.959045 0.019470
0.067230 0.958466 0.019470
0.071808 0.957672 0.019440
0.076508 0.956543 0.019440
0.081299 0.955353 0.019440
0.086212 0.954010 0.019379
0.130402 0.952362 0.019348
0.329102 0.950714 0.019348
0.526062 0.948761 0.019318
0.658661 0.946655 0.019257
0.754303 0.944305 0.019226
0.830109 0.941193 0.019135
0.890472 0.937134 0.019073
0.940002 0.933960 0.019012
0.969574 0.931519 0.018951
0.981110 0.929474 0.018829
0.985931 0.927582 0.018738
0.990295 0.925964 0.018646
0.020386 0.973175 0.020386
0.022003 0.973022 0.020325
0.023804 0.972931 0.020233
0.025879 0.972870 0.020142
0.028290 0.972809 0.020050
0.030823 0.972717 0.020020
0.033722 0.972687 0.019958
0.036743 0.972626 0.019867
0.040009 0.972626 0.019836
0.043457 0.972565 0.019806
0.046997 0.972534 0.019745
0.050812 0.972473 0.019745
0.054810 0.972443 0.019714
0.058838 0.972351 0.019684
0.063080 0.972260 0.019623
0.067444 0.972168 0.019592
0.071991 0.972015 0.019562
