Postproduction/IWLTBAP - Humble/LUTs by IWLTBAP (CUBE)/UTILITY/Sony S-Log2 to Rec.709/U-SONY-S-LOG2-V5-LTR.cube
# Copyright: (C) Copyright 2010-2018 by IWLTBAP SAS
# Cannot be resold, shared or otherwise redistributed
# Website: https://luts.iwltbap.com
TITLE "Sony S-Log2 Version 5 (Utility LOG to Rec.709)"
LUT_3D_SIZE 32
0.000000 0.000000 0.000000
0.026947 0.000000 0.000000
0.080841 0.000000 0.000000
0.158051 0.000000 0.000000
0.222839 0.000000 0.000000
0.282257 0.000000 0.000000
0.340454 0.000000 0.000000
0.398804 0.000000 0.000000
0.458954 0.000000 0.000000
0.521118 0.000000 0.000000
0.586060 0.000000 0.000000
0.654419 0.000000 0.000000
0.722168 0.000000 0.000000
0.783417 0.000000 0.000000
0.839691 0.000000 0.000000
0.889221 0.000000 0.000000
0.931396 0.000000 0.000000
0.966461 0.000000 0.000000
0.994476 0.000000 0.000000
1.000000 0.000000 0.000000
1.000000 0.000000 0.000000
1.000000 0.000000 0.000000
1.000000 0.000000 0.000000
1.000000 0.000000 0.000000
1.000000 0.000000 0.000000
1.000000 0.000000 0.000000
1.000000 0.000000 0.000000
1.000000 0.000000 0.000000
1.000000 0.000000 0.000000
1.000000 0.000000 0.000000
1.000000 0.000000 0.000000
1.000000 0.000000 0.000000
0.000000 0.018646 0.000000
0.005463 0.011749 0.000000
0.045288 0.007324 0.000000
0.127258 0.001221 0.000000
0.201721 0.000000 0.000000
0.266174 0.000000 0.000000
0.327454 0.000000 0.000000
0.388062 0.000000 0.000000
0.449677 0.000000 0.000000
0.513275 0.000000 0.000000
0.579620 0.000000 0.000000
0.648895 0.000000 0.000000
0.717651 0.000000 0.000000
0.780121 0.000000 0.000000
0.837280 0.000000 0.000000
0.887543 0.000000 0.000000
0.930176 0.000000 0.000000
0.965637 0.000000 0.000000
0.993958 0.000000 0.000000
1.000000 0.000000 0.000000
1.000000 0.000000 0.000000
1.000000 0.000000 0.000000
1.000000 0.000000 0.000000
1.000000 0.000000 0.000000
1.000000 0.000000 0.000000
1.000000 0.000000 0.000000
1.000000 0.000000 0.000000
1.000000 0.000000 0.000000
1.000000 0.000000 0.000000
1.000000 0.000000 0.000000
1.000000 0.000000 0.000000
1.000000 0.000000 0.000000
0.000000 0.055695 0.000000
0.000000 0.045959 0.000000
0.032135 0.041779 0.000000
0.105591 0.036682 0.000000
0.187897 0.030243 0.000000
0.255676 0.022369 0.000000
0.319092 0.012634 0.000000
0.381134 0.000000 0.000000
0.444061 0.000000 0.000000
0.508545 0.000000 0.000000
0.575348 0.000000 0.000000
0.645264 0.000000 0.000000
0.714874 0.000000 0.000000
0.778229 0.000000 0.000000
0.835724 0.000000 0.000000
0.886414 0.000000 0.000000
0.929474 0.000000 0.000000
0.965088 0.000000 0.000000
0.993683 0.000000 0.000000
1.000000 0.000000 0.000000
1.000000 0.000000 0.000000
1.000000 0.000000 0.000000
1.000000 0.000000 0.000000
1.000000 0.000000 0.000000
1.000000 0.000000 0.000000
1.000000 0.000000 0.000000
1.000000 0.000000 0.000000
1.000000 0.000000 0.000000
1.000000 0.000000 0.000000
1.000000 0.000000 0.000000
1.000000 0.000000 0.000000
1.000000 0.000000 0.000000
0.000000 0.130249 0.000000
0.000000 0.119354 0.000000
0.016022 0.111725 0.000000
0.077118 0.102448 0.000000
0.168915 0.091095 0.000000
0.242432 0.076721 0.000000
0.308563 0.058990 0.000000
0.372833 0.043701 0.000000
0.436890 0.029205 0.000000
0.502655 0.010742 0.000000
0.570404 0.000000 0.000000
0.640991 0.000000 0.000000
0.711456 0.000000 0.000000
0.775696 0.000000 0.000000
0.833954 0.000000 0.000000
0.885254 0.000000 0.000000
0.928741 0.000000 0.000000
0.964508 0.000000 0.000000
0.993134 0.000000 0.000000
1.000000 0.000000 0.000000
1.000000 0.000000 0.000000
1.000000 0.000000 0.000000
1.000000 0.000000 0.000000
1.000000 0.000000 0.000000
1.000000 0.000000 0.000000
1.000000 0.000000 0.000000
1.000000 0.000000 0.000000
1.000000 0.000000 0.000000
1.000000 0.000000 0.000000
1.000000 0.000000 0.000000
1.000000 0.000000 0.000000
1.000000 0.000000 0.000000
0.000000 0.195740 0.000000
0.000000 0.187988 0.000000
0.000000 0.183350 0.000000
0.045471 0.177002 0.000000
0.143066 0.169250 0.000000
0.224884 0.159241 0.000000
0.295258 0.145966 0.000000
0.362091 0.128113 0.000000
0.428070 0.104004 0.000000
0.495026 0.073639 0.000000
0.564026 0.042694 0.000000
0.635559 0.014099 0.000000
0.707153 0.000000 0.000000
0.772736 0.000000 0.000000
0.831726 0.000000 0.000000
0.883698 0.000000 0.000000
0.927643 0.000000 0.000000
0.963867 0.000000 0.000000
0.992737 0.000000 0.000000
1.000000 0.000000 0.000000
1.000000 0.000000 0.000000
1.000000 0.000000 0.000000
1.000000 0.000000 0.000000
1.000000 0.000000 0.000000
1.000000 0.000000 0.000000
1.000000 0.000000 0.000000
1.000000 0.000000 0.000000
1.000000 0.000000 0.000000
1.000000 0.000000 0.000000
1.000000 0.000000 0.000000
1.000000 0.000000 0.000000
1.000000 0.000000 0.000000
0.000000 0.254242 0.000000
0.000000 0.248260 0.000000
0.000000 0.244781 0.000000
0.020721 0.240204 0.000000
0.104706 0.234406 0.000000
0.201447 0.227203 0.000000
0.277954 0.218170 0.000000
0.348450 0.206329 0.000000
0.417114 0.191132 0.000000
0.485748 0.170380 0.000000
0.556152 0.141357 0.000000
0.628906 0.098969 0.000000
0.701935 0.048889 0.000000
0.768982 0.005066 0.000000
0.828949 0.000000 0.000000
0.881683 0.000000 0.000000
0.926208 0.000000 0.000000
0.962982 0.000000 0.000000
0.992188 0.000000 0.000000
1.000000 0.000000 0.000000
1.000000 0.000000 0.000000
1.000000 0.000000 0.000000
1.000000 0.000000 0.000000
1.000000 0.000000 0.000000
1.000000 0.000000 0.000000
1.000000 0.000000 0.000000
1.000000 0.000000 0.000000
1.000000 0.000000 0.000000
1.000000 0.000000 0.000000
1.000000 0.000000 0.000000
1.000000 0.000000 0.000000
1.000000 0.000000 0.000000
0.000000 0.310486 0.000000
0.000000 0.305664 0.000000
0.000000 0.302795 0.000000
0.000000 0.299316 0.000000
0.053009 0.294647 0.000000
0.167908 0.289185 0.000000
0.255310 0.282135 0.000000
0.330872 0.273285 0.000000
0.402985 0.262024 0.000000
0.474304 0.247589 0.000000
0.546417 0.228455 0.000000
0.620605 0.202454 0.000000
0.695435 0.165131 0.000000
0.764374 0.108887 0.000000
0.825409 0.039276 0.000000
0.879211 0.000000 0.000000
0.924622 0.000000 0.000000
0.961884 0.000000 0.000000
0.991516 0.000000 0.000000
1.000000 0.000000 0.000000
1.000000 0.000000 0.000000
1.000000 0.000000 0.000000
1.000000 0.000000 0.000000
1.000000 0.000000 0.000000
1.000000 0.000000 0.000000
1.000000 0.000000 0.000000
1.000000 0.000000 0.000000
1.000000 0.000000 0.000000
1.000000 0.000000 0.000000
1.000000 0.000000 0.000000
1.000000 0.000000 0.000000
1.000000 0.000000 0.000000
0.000000 0.366791 0.000000
0.000000 0.362885 0.000000
0.000000 0.360474 0.000000
0.000000 0.357391 0.000000
0.015015 0.353699 0.000000
0.116730 0.349304 0.000000
0.223969 0.343658 0.000000
0.308167 0.336700 0.000000
0.385010 0.327728 0.000000
0.459534 0.316376 0.000000
0.534241 0.302155 0.000000
0.610352 0.283356 0.000000
0.687500 0.258362 0.000000
0.758698 0.223724 0.000000
0.821136 0.171082 0.000000
0.876007 0.093353 0.000000
0.922241 0.000000 0.000000
0.960449 0.000000 0.000000
0.990692 0.000000 0.000000
1.000000 0.000000 0.000000
1.000000 0.000000 0.000000
1.000000 0.000000 0.000000
1.000000 0.000000 0.000000
1.000000 0.000000 0.000000
1.000000 0.000000 0.000000
1.000000 0.000000 0.000000
1.000000 0.000000 0.000000
1.000000 0.000000 0.000000
1.000000 0.000000 0.000000
1.000000 0.000000 0.000000
1.000000 0.000000 0.000000
1.000000 0.000000 0.000000
0.000000 0.424377 0.000000
0.000000 0.420959 0.000000
0.000000 0.419128 0.000000
0.000000 0.416473 0.000000
0.000000 0.413391 0.000000
0.046234 0.409668 0.000000
0.177490 0.405060 0.000000
0.277100 0.399200 0.000000
0.361542 0.391998 0.000000
0.440796 0.382874 0.000000
0.518860 0.371338 0.000000
0.597412 0.356720 0.000000
0.677551 0.337738 0.000000
0.751434 0.312836 0.000000
0.815643 0.278961 0.000000
0.872131 0.229736 0.000000
0.919739 0.148590 0.000000
0.958771 0.033539 0.000000
0.989563 0.000000 0.000000
1.000000 0.000000 0.000000
1.000000 0.000000 0.000000
1.000000 0.000000 0.000000
1.000000 0.000000 0.000000
1.000000 0.000000 0.000000
1.000000 0.000000 0.000000
1.000000 0.000000 0.000000
1.000000 0.000000 0.000000
1.000000 0.000000 0.000000
1.000000 0.000000 0.000000
1.000000 0.000000 0.000000
1.000000 0.000000 0.000000
1.000000 0.000000 0.000000
0.000000 0.483856 0.000000
0.000000 0.481171 0.000000
0.000000 0.479431 0.000000
0.000000 0.477386 0.000000
0.000000 0.474731 0.000000
0.000000 0.471436 0.000000
0.103546 0.467529 0.000000
0.232971 0.462646 0.000000
0.329987 0.456543 0.000000
0.416595 0.449127 0.000000
0.499176 0.439697 0.000000
0.581146 0.427734 0.000000
0.664215 0.412750 0.000000
0.742584 0.393188 0.000000
0.808624 0.367828 0.000000
0.867401 0.333557 0.000000
0.916565 0.285004 0.000000
0.956635 0.206573 0.000000
0.988129 0.086487 0.000000
1.000000 0.000000 0.000000
1.000000 0.000000 0.000000
1.000000 0.000000 0.000000
1.000000 0.000000 0.000000
1.000000 0.000000 0.000000
1.000000 0.000000 0.000000
1.000000 0.000000 0.000000
1.000000 0.000000 0.000000
1.000000 0.000000 0.000000
1.000000 0.000000 0.000000
1.000000 0.000000 0.000000
1.000000 0.000000 0.000000
1.000000 0.000000 0.000000
0.000000 0.546143 0.000000
0.000000 0.543671 0.000000
0.000000 0.542206 0.000000
0.000000 0.540466 0.000000
0.000000 0.538330 0.000000
0.000000 0.535461 0.000000
0.012787 0.532166 0.000000
0.162811 0.527985 0.000000
0.286255 0.522919 0.000000
0.384003 0.516571 0.000000
0.473785 0.508636 0.000000
0.560455 0.498749 0.000000
0.647064 0.486328 0.000000
0.729614 0.470703 0.000000
0.799927 0.450348 0.000000
0.861328 0.424164 0.000000
0.912567 0.388855 0.000000
0.953949 0.339691 0.000000
0.986450 0.263977 0.000000
1.000000 0.137909 0.000000
1.000000 0.000000 0.000000
1.000000 0.000000 0.000000
1.000000 0.000000 0.000000
1.000000 0.000000 0.000000
1.000000 0.000000 0.000000
1.000000 0.000000 0.000000
1.000000 0.000000 0.000000
1.000000 0.000000 0.000000
1.000000 0.000000 0.000000
1.000000 0.000000 0.000000
1.000000 0.000000 0.000000
1.000000 0.000000 0.000000
0.000000 0.611420 0.000000
0.000000 0.609528 0.000000
0.000000 0.608124 0.000000
0.000000 0.606628 0.000000
0.000000 0.604675 0.000000
0.000000 0.602386 0.000000
0.000000 0.599487 0.000000
0.046478 0.595917 0.000000
0.218536 0.591522 0.000000
0.339294 0.586151 0.000000
0.439941 0.579529 0.000000
0.533661 0.571198 0.000000
0.625153 0.560822 0.000000
0.713074 0.547852 0.000000
0.788849 0.531219 0.000000
0.853638 0.510071 0.000000
0.907318 0.482605 0.000000
0.950592 0.446014 0.000000
0.984222 0.395325 0.000000
1.000000 0.319244 0.000000
1.000000 0.184967 0.000000
1.000000 0.000000 0.000000
1.000000 0.000000 0.000000
1.000000 0.000000 0.000000
1.000000 0.000000 0.000000
1.000000 0.000000 0.000000
1.000000 0.000000 0.000000
1.000000 0.000000 0.000000
1.000000 0.000000 0.000000
1.000000 0.000000 0.000000
1.000000 0.000000 0.000000
1.000000 0.000000 0.000000
0.000000 0.679779 0.000000
0.000000 0.678314 0.000000
0.000000 0.677551 0.000000
0.000000 0.676178 0.000000
0.000000 0.674469 0.000000
0.000000 0.672455 0.000000
0.000000 0.670135 0.000000
0.000000 0.666992 0.000000
0.104095 0.663269 0.000000
0.272522 0.658630 0.000000
0.393555 0.652954 0.000000
0.498108 0.645935 0.000000
0.596741 0.637146 0.000000
0.691895 0.626343 0.000000
0.774292 0.612488 0.000000
0.843597 0.595001 0.000000
0.900696 0.572693 0.000000
0.946228 0.543854 0.000000
0.981598 0.505463 0.000000
1.000000 0.452728 0.000000
1.000000 0.374664 0.000000
1.000000 0.231384 0.000000
1.000000 0.000000 0.000000
1.000000 0.000000 0.000000
1.000000 0.000000 0.000000
1.000000 0.000000 0.000000
1.000000 0.000000 0.000000
1.000000 0.000000 0.000000
1.000000 0.000000 0.000000
1.000000 0.000000 0.000000
1.000000 0.000000 0.000000
1.000000 0.000000 0.000000
0.000000 0.745270 0.000000
0.000000 0.744141 0.000000
0.000000 0.743896 0.000000
0.000000 0.742889 0.000000
0.000000 0.741669 0.000000
0.000000 0.739960 0.000000
0.000000 0.738068 0.000000
0.000000 0.735779 0.000000
0.000000 0.732758 0.000000
0.160522 0.729309 0.000000
0.325867 0.724884 0.000000
0.449890 0.719360 0.000000
0.559387 0.712677 0.000000
0.663452 0.704132 0.000000
0.755280 0.693634 0.000000
0.830322 0.680176 0.000000
0.891998 0.662170 0.000000
0.940613 0.638702 0.000000
0.978119 0.608337 0.000000
1.000000 0.567932 0.000000
1.000000 0.512543 0.000000
1.000000 0.431580 0.000000
1.000000 0.284851 0.000000
1.000000 0.028870 0.000000
1.000000 0.000000 0.000000
1.000000 0.000000 0.000000
1.000000 0.000000 0.000000
1.000000 0.000000 0.000000
1.000000 0.000000 0.000000
1.000000 0.000000 0.000000
1.000000 0.000000 0.000000
1.000000 0.000000 0.000000
0.000000 0.803650 0.000000
0.000000 0.802673 0.000000
0.000000 0.802094 0.000000
0.000000 0.801361 0.000000
0.000000 0.800476 0.000000
0.000000 0.799438 0.000000
0.000000 0.797974 0.000000
0.000000 0.796356 0.000000
0.000000 0.794434 0.000000
0.000000 0.791840 0.000000
0.211426 0.788879 0.000000
0.379822 0.785004 0.000000
0.508606 0.780151 0.000000
0.624084 0.774261 0.000000
0.728882 0.766724 0.000000
0.812469 0.757202 0.000000
0.880249 0.744965 0.000000
0.933228 0.727905 0.000000
0.973480 0.705261 0.000000
1.000000 0.676331 0.000000
1.000000 0.633728 0.000000
1.000000 0.575439 0.000000
1.000000 0.490753 0.000000
1.000000 0.343597 0.000000
1.000000 0.072144 0.000000
1.000000 0.000000 0.000000
1.000000 0.000000 0.000000
1.000000 0.000000 0.000000
1.000000 0.000000 0.000000
1.000000 0.000000 0.000000
1.000000 0.000000 0.000000
1.000000 0.000000 0.000000
0.000000 0.857544 0.000000
0.000000 0.856812 0.000000
0.000000 0.856262 0.000000
0.000000 0.855804 0.000000
0.000000 0.855133 0.000000
0.000000 0.854370 0.000000
0.000000 0.853363 0.000000
0.000000 0.852173 0.000000
0.000000 0.850830 0.000000
0.000000 0.848877 0.000000
0.000000 0.846710 0.000000
0.260773 0.843872 0.000000
0.435608 0.840302 0.000000
0.570465 0.836090 0.000000
0.691010 0.830536 0.000000
0.788208 0.823608 0.000000
0.864777 0.814575 0.000000
0.923248 0.802979 0.000000
0.967560 0.787842 0.000000
0.999878 0.767975 0.000000
1.000000 0.740509 0.000000
1.000000 0.699890 0.000000
1.000000 0.641724 0.000000
1.000000 0.552582 0.000000
1.000000 0.401520 0.000000
1.000000 0.108337 0.000000
1.000000 0.000000 0.000000
1.000000 0.000000 0.000000
1.000000 0.000000 0.000000
1.000000 0.000000 0.000000
1.000000 0.000000 0.000000
1.000000 0.000000 0.000000
0.000000 0.904358 0.000000
0.000000 0.903839 0.000000
0.000000 0.903412 0.000000
0.000000 0.903137 0.000000
0.000000 0.902679 0.000000
0.000000 0.902130 0.000000
0.000000 0.901428 0.000000
0.000000 0.900665 0.000000
0.000000 0.899658 0.000000
0.000000 0.898376 0.000000
0.000000 0.896698 0.000000
0.023590 0.894867 0.000000
0.313232 0.892456 0.000000
0.493744 0.889343 0.000000
0.635590 0.885742 0.000000
0.754089 0.880920 0.000000
0.843170 0.874634 0.000000
0.910126 0.866821 0.000000
0.959503 0.856628 0.000000
0.995148 0.843048 0.000000
1.000000 0.824554 0.000000
1.000000 0.799042 0.000000
1.000000 0.762573 0.000000
1.000000 0.706757 0.000000
1.000000 0.617798 0.000000
1.000000 0.460846 0.000000
1.000000 0.141937 0.000000
1.000000 0.000000 0.000000
1.000000 0.000000 0.000000
1.000000 0.000000 0.000000
1.000000 0.000000 0.000000
1.000000 0.000000 0.000000
0.000000 0.943970 0.000000
0.000000 0.943604 0.000000
0.000000 0.943329 0.000000
0.000000 0.943024 0.000000
0.000000 0.942749 0.000000
0.000000 0.942383 0.000000
0.000000 0.941895 0.000000
0.000000 0.941345 0.000000
0.000000 0.940643 0.000000
0.000000 0.939758 0.000000
0.000000 0.938721 0.000000
0.000000 0.937347 0.000000
0.075104 0.935791 0.000000
0.368622 0.933777 0.000000
0.554810 0.931213 0.000000
0.701721 0.928101 0.000000
0.811584 0.924133 0.000000
0.891693 0.918640 0.000000
0.948486 0.912170 0.000000
0.988831 0.903351 0.000000
1.000000 0.891632 0.000000
1.000000 0.875305 0.000000
1.000000 0.852844 0.000000
1.000000 0.819946 0.000000
1.000000 0.768402 0.000000
1.000000 0.682617 0.000000
1.000000 0.522064 0.000000
1.000000 0.173553 0.000000
1.000000 0.000000 0.000000
1.000000 0.000000 0.000000
1.000000 0.000000 0.000000
1.000000 0.000000 0.000000
0.000000 0.976379 0.000000
0.000000 0.976105 0.000000
0.000000 0.976013 0.000000
0.000000 0.975891 0.000000
0.000000 0.975616 0.000000
0.000000 0.975342 0.000000
0.000000 0.975037 0.000000
0.000000 0.974640 0.000000
0.000000 0.974213 0.000000
0.000000 0.973633 0.000000
0.000000 0.972992 0.000000
0.000000 0.972107 0.000000
0.000000 0.971039 0.000000
0.126709 0.969696 0.000000
0.424957 0.968018 0.000000
0.619202 0.966003 0.000000
0.763824 0.963440 0.000000
0.863922 0.960236 0.000000
0.932953 0.955750 0.000000
0.979950 0.950287 0.000000
1.000000 0.942993 0.000000
1.000000 0.932953 0.000000
1.000000 0.919403 0.000000
1.000000 0.900146 0.000000
1.000000 0.870941 0.000000
1.000000 0.825226 0.000000
1.000000 0.744049 0.000000
1.000000 0.586090 0.000000
1.000000 0.204163 0.000000
1.000000 0.000000 0.000000
1.000000 0.000000 0.000000
1.000000 0.000000 0.000000
0.000000 1.000000 0.000000
0.000000 1.000000 0.000000
0.000000 1.000000 0.000000
0.000000 1.000000 0.000000
0.000000 1.000000 0.000000
0.000000 1.000000 0.000000
0.000000 1.000000 0.000000
0.000000 1.000000 0.000000
0.000000 1.000000 0.000000
0.000000 1.000000 0.000000
0.000000 1.000000 0.000000
0.000000 0.999603 0.000000
0.000000 0.998932 0.000000
0.000000 0.998077 0.000000
0.172089 0.997009 0.000000
0.483154 0.995697 0.000000
0.685699 0.993988 0.000000
0.820862 0.991974 0.000000
0.909332 0.989441 0.000000
0.967346 0.985840 0.000000
1.000000 0.981476 0.000000
1.000000 0.975586 0.000000
1.000000 0.967438 0.000000
1.000000 0.956268 0.000000
1.000000 0.940125 0.000000
1.000000 0.915619 0.000000
1.000000 0.875397 0.000000
1.000000 0.802582 0.000000
1.000000 0.648621 0.000000
1.000000 0.234161 0.000000
1.000000 0.000000 0.000000
1.000000 0.000000 0.000000
0.000000 1.000000 0.000000
0.000000 1.000000 0.000000
0.000000 1.000000 0.000000
0.000000 1.000000 0.000000
0.000000 1.000000 0.000000
0.000000 1.000000 0.000000
0.000000 1.000000 0.000000
0.000000 1.000000 0.000000
0.000000 1.000000 0.000000
0.000000 1.000000 0.000000
0.000000 1.000000 0.000000
0.000000 1.000000 0.000000
0.000000 1.000000 0.000000
0.000000 1.000000 0.000000
0.000000 1.000000 0.000000
0.214874 1.000000 0.000000
0.544434 1.000000 0.000000
0.747955 1.000000 0.000000
0.871643 1.000000 0.000000
0.947845 1.000000 0.000000
0.994995 1.000000 0.000000
1.000000 1.000000 0.000000
1.000000 1.000000 0.000000
1.000000 0.995148 0.000000
1.000000 0.986176 0.000000
1.000000 0.973267 0.000000
1.000000 0.953003 0.000000
1.000000 0.919098 0.000000
1.000000 0.854706 0.000000
1.000000 0.707672 0.000000
1.000000 0.263550 0.000000
1.000000 0.000000 0.000000
0.000000 1.000000 0.000000
0.000000 1.000000 0.000000
0.000000 1.000000 0.000000
0.000000 1.000000 0.000000
0.000000 1.000000 0.000000
0.000000 1.000000 0.000000
0.000000 1.000000 0.000000
0.000000 1.000000 0.000000
0.000000 1.000000 0.000000
0.000000 1.000000 0.000000
0.000000 1.000000 0.000000
0.000000 1.000000 0.000000
0.000000 1.000000 0.000000
0.000000 1.000000 0.000000
0.000000 1.000000 0.000000
0.000000 1.000000 0.000000
0.257721 1.000000 0.000000
0.608582 1.000000 0.000000
0.805817 1.000000 0.000000
0.915955 1.000000 0.000000
0.979431 1.000000 0.000000
1.000000 1.000000 0.000000
1.000000 1.000000 0.000000
1.000000 1.000000 0.000000
1.000000 1.000000 0.000000
1.000000 1.000000 0.000000
1.000000 0.999603 0.000000
1.000000 0.983490 0.000000
1.000000 0.955475 0.000000
1.000000 0.900726 0.000000
1.000000 0.763885 0.000000
1.000000 0.292267 0.000000
0.000000 1.000000 0.000000
0.000000 1.000000 0.000000
0.000000 1.000000 0.000000
0.000000 1.000000 0.000000
0.000000 1.000000 0.000000
0.000000 1.000000 0.000000
0.000000 1.000000 0.000000
0.000000 1.000000 0.000000
0.000000 1.000000 0.000000
0.000000 1.000000 0.000000
0.000000 1.000000 0.000000
0.000000 1.000000 0.000000
0.000000 1.000000 0.000000
0.000000 1.000000 0.000000
0.000000 1.000000 0.000000
0.000000 1.000000 0.000000
0.000000 1.000000 0.000000
0.300201 1.000000 0.000000
0.673737 1.000000 0.000000
0.858459 1.000000 0.000000
0.953339 1.000000 0.000000
1.000000 1.000000 0.000000
1.000000 1.000000 0.000000
1.000000 1.000000 0.000000
1.000000 1.000000 0.000000
1.000000 1.000000 0.000000
1.000000 1.000000 0.000000
1.000000 1.000000 0.000000
1.000000 1.000000 0.000000
1.000000 0.985352 0.000000
1.000000 0.939911 0.000000
1.000000 0.815491 0.000000
0.000000 1.000000 0.000000
0.000000 1.000000 0.000000
0.000000 1.000000 0.000000
0.000000 1.000000 0.000000
0.000000 1.000000 0.000000
0.000000 1.000000 0.000000
0.000000 1.000000 0.000000
0.000000 1.000000 0.000000
0.000000 1.000000 0.000000
0.000000 1.000000 0.000000
0.000000 1.000000 0.000000
0.000000 1.000000 0.000000
0.000000 1.000000 0.000000
0.000000 1.000000 0.000000
0.000000 1.000000 0.000000
0.000000 1.000000 0.000000
0.000000 1.000000 0.000000
0.000000 1.000000 0.000000
0.343414 1.000000 0.000000
0.734344 1.000000 0.000000
0.904236 1.000000 0.000000
0.983826 1.000000 0.000000
1.000000 1.000000 0.000000
1.000000 1.000000 0.000000
1.000000 1.000000 0.000000
1.000000 1.000000 0.000000
1.000000 1.000000 0.000000
1.000000 1.000000 0.000000
1.000000 1.000000 0.000000
1.000000 1.000000 0.000000
1.000000 1.000000 0.000000
1.000000 0.972137 0.000000
0.000000 1.000000 0.000000
0.000000 1.000000 0.000000
0.000000 1.000000 0.000000
0.000000 1.000000 0.000000
0.000000 1.000000 0.000000
0.000000 1.000000 0.000000
0.000000 1.000000 0.000000
0.000000 1.000000 0.000000
0.000000 1.000000 0.000000
0.000000 1.000000 0.000000
0.000000 1.000000 0.000000
0.000000 1.000000 0.000000
0.000000 1.000000 0.000000
0.000000 1.000000 0.000000
0.000000 1.000000 0.000000
0.000000 1.000000 0.000000
0.000000 1.000000 0.000000
0.000000 1.000000 0.000000
0.000000 1.000000 0.000000
0.387787 1.000000 0.000000
0.790955 1.000000 0.000000
0.943268 1.000000 0.000000
1.000000 1.000000 0.000000
1.000000 1.000000 0.000000
1.000000 1.000000 0.000000
1.000000 1.000000 0.000000
1.000000 1.000000 0.000000
1.000000 1.000000 0.000000
1.000000 1.000000 0.000000
1.000000 1.000000 0.000000
1.000000 1.000000 0.000000
1.000000 1.000000 0.000000
0.000000 1.000000 0.000000
0.000000 1.000000 0.000000
0.000000 1.000000 0.000000
0.000000 1.000000 0.000000
0.000000 1.000000 0.000000
0.000000 1.000000 0.000000
0.000000 1.000000 0.000000
0.000000 1.000000 0.000000
0.000000 1.000000 0.000000
0.000000 1.000000 0.000000
0.000000 1.000000 0.000000
0.000000 1.000000 0.000000
0.000000 1.000000 0.000000
0.000000 1.000000 0.000000
0.000000 1.000000 0.000000
0.000000 1.000000 0.000000
0.000000 1.000000 0.000000
0.000000 1.000000 0.000000
0.000000 1.000000 0.000000
0.000000 1.000000 0.000000
0.433258 1.000000 0.000000
0.842590 1.000000 0.000000
0.975372 1.000000 0.000000
1.000000 1.000000 0.000000
1.000000 1.000000 0.000000
1.000000 1.000000 0.000000
1.000000 1.000000 0.000000
1.000000 1.000000 0.000000
1.000000 1.000000 0.000000
1.000000 1.000000 0.000000
1.000000 1.000000 0.000000
1.000000 1.000000 0.000000
0.000000 1.000000 0.000000
0.000000 1.000000 0.000000
0.000000 1.000000 0.000000
0.000000 1.000000 0.000000
0.000000 1.000000 0.000000
0.000000 1.000000 0.000000
0.000000 1.000000 0.000000
0.000000 1.000000 0.000000
0.000000 1.000000 0.000000
0.000000 1.000000 0.000000
0.000000 1.000000 0.000000
0.000000 1.000000 0.000000
0.000000 1.000000 0.000000
0.000000 1.000000 0.000000
0.000000 1.000000 0.000000
0.000000 1.000000 0.000000
0.000000 1.000000 0.000000
0.000000 1.000000 0.000000
0.000000 1.000000 0.000000
0.000000 1.000000 0.000000
0.000000 1.000000 0.000000
0.480377 1.000000 0.000000
0.888916 1.000000 0.000000
1.000000 1.000000 0.000000
1.000000 1.000000 0.000000
1.000000 1.000000 0.000000
1.000000 1.000000 0.000000
1.000000 1.000000 0.000000
1.000000 1.000000 0.000000
1.000000 1.000000 0.000000
1.000000 1.000000 0.000000
1.000000 1.000000 0.000000
0.000000 1.000000 0.000000
0.000000 1.000000 0.000000
0.000000 1.000000 0.000000
0.000000 1.000000 0.000000
0.000000 1.000000 0.000000
0.000000 1.000000 0.000000
0.000000 1.000000 0.000000
0.000000 1.000000 0.000000
0.000000 1.000000 0.000000
0.000000 1.000000 0.000000
0.000000 1.000000 0.000000
0.000000 1.000000 0.000000
0.000000 1.000000 0.000000
0.000000 1.000000 0.000000
0.000000 1.000000 0.000000
0.000000 1.000000 0.000000
0.000000 1.000000 0.000000
