Postproduction/IWLTBAP - Humble/LUTs by IWLTBAP (CUBE)/UTILITY/Sony S-Log2 to Rec.709/U-SONY-S-LOG2-V4-LTR.cube
# Copyright: (C) Copyright 2010-2018 by IWLTBAP SAS
# Cannot be resold, shared or otherwise redistributed
# Website: https://luts.iwltbap.com
TITLE "Sony S-Log2 Version 4 (Utility LOG to Rec.709)"
LUT_3D_SIZE 8
DOMAIN_MIN 0.000000 0.000000 0.000000
DOMAIN_MAX 0.903226 0.903226 0.903226
0.000000 0.000000 0.000000
0.155579 0.000000 0.000000
0.410004 0.000000 0.000000
0.686951 0.000000 0.013580
0.937805 0.000000 0.044250
1.000000 0.000000 0.029938
1.000000 0.000000 0.000000
1.000000 0.000000 0.000000
0.000000 0.108917 0.000000
0.086731 0.077332 0.000000
0.397919 0.047729 0.000000
0.695984 0.000000 0.038788
0.959137 0.000000 0.069458
1.000000 0.000000 0.044037
1.000000 0.000000 0.000000
1.000000 0.000000 0.000000
0.000000 0.379089 0.023712
0.000000 0.350891 0.002838
0.325684 0.298096 0.000000
0.621674 0.223511 0.000000
0.969421 0.036835 0.082886
1.000000 0.000000 0.076263
1.000000 0.000000 0.000000
1.000000 0.000000 0.000000
0.000000 0.623535 0.050079
0.000000 0.599609 0.024292
0.090942 0.548370 0.000000
0.547638 0.499878 0.000000
0.847260 0.416107 0.000000
1.000000 0.072540 0.057648
1.000000 0.000000 0.000885
1.000000 0.000000 0.000000
0.000000 0.945709 0.108521
0.000000 0.928345 0.086700
0.000000 0.890533 0.037842
0.300720 0.793701 0.000000
0.813812 0.764740 0.000000
1.000000 0.691254 0.000000
1.000000 0.118958 0.018982
1.000000 0.000000 0.000000
0.000000 1.000000 0.266785
0.000000 1.000000 0.246094
0.000000 1.000000 0.211212
0.000000 1.000000 0.132385
0.568176 1.000000 0.000000
0.998016 0.980286 0.000000
1.000000 0.904877 0.000000
1.000000 0.153961 0.000000
0.000000 1.000000 0.463867
0.000000 1.000000 0.445679
0.000000 1.000000 0.415100
0.000000 1.000000 0.356018
0.000000 1.000000 0.092682
0.809662 1.000000 0.000000
1.000000 1.000000 0.000000
1.000000 1.000000 0.000000
0.000000 1.000000 0.620453
0.000000 1.000000 0.627808
0.000000 1.000000 0.625946
0.000000 1.000000 0.566284
0.000000 1.000000 0.438538
0.000000 1.000000 0.026520
0.969574 1.000000 0.000000
1.000000 1.000000 0.000000
0.000000 0.000000 0.085541
0.145294 0.000000 0.082245
0.407074 0.000000 0.119629
0.686676 0.000000 0.153839
0.937836 0.000000 0.173035
1.000000 0.000000 0.152466
1.000000 0.000000 0.011749
1.000000 0.000000 0.000000
0.000000 0.112762 0.090790
0.074890 0.081543 0.092651
0.393127 0.050018 0.129578
0.693665 0.000000 0.172638
0.960449 0.000000 0.196259
1.000000 0.000000 0.164764
1.000000 0.000000 0.016541
1.000000 0.000000 0.000000
0.000000 0.378937 0.160004
0.000000 0.350220 0.139404
0.316833 0.294769 0.098480
0.614532 0.220520 0.104706
0.966888 0.036133 0.202301
1.000000 0.000000 0.194519
1.000000 0.000000 0.027130
1.000000 0.000000 0.000000
0.000000 0.621246 0.178680
0.000000 0.597351 0.155396
0.076569 0.546783 0.105743
0.541656 0.497162 0.069214
0.843597 0.413818 0.048889
1.000000 0.070984 0.170593
1.000000 0.000000 0.082092
1.000000 0.000000 0.000000
0.000000 0.943695 0.224609
0.000000 0.926208 0.203583
0.000000 0.888092 0.158081
0.290833 0.791321 0.038971
0.809875 0.761993 0.005188
1.000000 0.688568 0.000000
1.000000 0.118225 0.064697
1.000000 0.000000 0.000000
0.000000 1.000000 0.370850
0.000000 1.000000 0.350769
0.000000 1.000000 0.317352
0.000000 1.000000 0.240234
0.559418 0.999023 0.000000
0.996277 0.975677 0.000000
1.000000 0.900482 0.000000
1.000000 0.152710 0.000000
0.000000 1.000000 0.559784
0.000000 1.000000 0.542084
0.000000 1.000000 0.512390
0.000000 1.000000 0.453583
0.000000 1.000000 0.196625
0.803406 1.000000 0.000000
1.000000 1.000000 0.000000
1.000000 1.000000 0.000000
0.000000 1.000000 0.713715
0.000000 1.000000 0.720490
0.000000 1.000000 0.716644
0.000000 1.000000 0.657379
0.000000 1.000000 0.530945
0.000000 1.000000 0.056427
0.968781 1.000000 0.000000
1.000000 1.000000 0.000000
0.000000 0.000000 0.264587
0.130432 0.000000 0.264313
0.406403 0.000000 0.303955
0.689240 0.000000 0.346252
0.939362 0.000000 0.380768
1.000000 0.000000 0.380096
1.000000 0.000000 0.222137
1.000000 0.000000 0.000000
0.000000 0.124817 0.273895
0.056122 0.093903 0.277710
0.387878 0.058563 0.312286
0.692139 0.000000 0.363159
0.963806 0.000000 0.407410
1.000000 0.000000 0.392242
1.000000 0.000000 0.231384
1.000000 0.000000 0.000000
0.000000 0.381958 0.339294
0.000000 0.352936 0.321869
0.303650 0.291901 0.283020
0.603241 0.216858 0.296112
0.961243 0.033691 0.407501
1.000000 0.000000 0.422424
1.000000 0.000000 0.249695
1.000000 0.000000 0.000000
0.000000 0.619385 0.367920
0.000000 0.595459 0.348267
0.050934 0.545593 0.307007
0.531403 0.493134 0.279358
0.836212 0.408966 0.273529
1.000000 0.066833 0.389130
1.000000 0.000000 0.296722
1.000000 0.000000 0.000000
0.000000 0.939789 0.435211
0.000000 0.921814 0.415985
0.000000 0.883148 0.374268
0.270447 0.786255 0.269379
0.800720 0.755249 0.239594
1.000000 0.682037 0.213379
1.000000 0.116394 0.269409
1.000000 0.000000 0.001282
0.000000 1.000000 0.580627
0.000000 1.000000 0.561096
0.000000 1.000000 0.529114
0.000000 1.000000 0.451263
0.541840 0.996002 0.179047
0.992828 0.966492 0.055298
1.000000 0.891846 0.000000
1.000000 0.150452 0.038025
0.000000 1.000000 0.742889
0.000000 1.000000 0.725464
0.000000 1.000000 0.697235
0.000000 1.000000 0.638092
0.000000 1.000000 0.386719
0.791138 1.000000 0.000000
1.000000 1.000000 0.000000
1.000000 1.000000 0.000000
0.000000 1.000000 0.889893
0.000000 1.000000 0.895416
0.000000 1.000000 0.887482
0.000000 1.000000 0.829071
0.000000 1.000000 0.704468
0.000000 1.000000 0.226898
0.967285 1.000000 0.000000
1.000000 1.000000 0.000000
0.000000 0.000000 0.461609
0.100220 0.000000 0.464569
0.406677 0.000000 0.501373
0.698883 0.000000 0.547150
0.954468 0.000000 0.588654
1.000000 0.000000 0.620422
1.000000 0.000000 0.581238
1.000000 0.000000 0.230286
0.000000 0.154510 0.471924
0.016388 0.125488 0.476929
0.379974 0.082977 0.503693
0.695679 0.002411 0.558624
0.974945 0.000000 0.617676
1.000000 0.000000 0.636078
1.000000 0.000000 0.593262
1.000000 0.000000 0.238190
0.000000 0.396515 0.529541
0.000000 0.364807 0.510895
0.282196 0.297119 0.467407
0.590118 0.221893 0.479156
0.957184 0.038696 0.601349
1.000000 0.000000 0.676270
1.000000 0.000000 0.617004
1.000000 0.000000 0.253418
0.000000 0.627289 0.557434
0.000000 0.603729 0.539612
0.010590 0.555481 0.502899
0.522034 0.497955 0.476135
0.834503 0.413849 0.484161
1.000000 0.071350 0.634186
1.000000 0.000000 0.675873
1.000000 0.000000 0.287659
0.000000 0.945740 0.640656
0.000000 0.926971 0.622772
0.000000 0.887695 0.584991
0.238037 0.791534 0.492645
0.794647 0.754639 0.478149
1.000000 0.678436 0.503357
1.000000 0.114258 0.659393
1.000000 0.000000 0.368866
0.000000 1.000000 0.845978
0.000000 1.000000 0.830627
0.000000 1.000000 0.805817
0.000000 1.000000 0.737396
0.511475 0.992401 0.495056
0.986877 0.950684 0.429657
1.000000 0.871033 0.339813
1.000000 0.144989 0.393188
0.000000 1.000000 1.000000
0.000000 1.000000 1.000000
0.000000 1.000000 1.000000
0.000000 1.000000 0.993591
0.000000 1.000000 0.811981
0.761383 1.000000 0.291077
1.000000 1.000000 0.103424
1.000000 1.000000 0.000000
0.000000 1.000000 1.000000
0.000000 1.000000 1.000000
0.000000 1.000000 1.000000
0.000000 1.000000 1.000000
0.000000 1.000000 1.000000
0.000000 1.000000 0.625458
0.963593 1.000000 0.000000
1.000000 1.000000 0.000000
0.000000 0.012390 0.709076
0.012970 0.000000 0.717712
0.381897 0.000000 0.741974
0.699310 0.000000 0.794739
0.973389 0.000000 0.846375
1.000000 0.000000 0.883942
1.000000 0.000000 0.878052
1.000000 0.000000 0.726898
0.000000 0.198883 0.717438
0.000000 0.171082 0.721924
0.342224 0.115082 0.733887
0.685791 0.029694 0.796478
0.980957 0.000000 0.869171
1.000000 0.000000 0.901276
1.000000 0.000000 0.891327
1.000000 0.000000 0.738586
0.000000 0.418304 0.766663
0.000000 0.385559 0.747894
0.211639 0.311676 0.700745
0.565002 0.236664 0.706055
0.945587 0.047699 0.826447
1.000000 0.000000 0.948456
1.000000 0.000000 0.917358
1.000000 0.000000 0.760925
0.000000 0.642944 0.796112
0.000000 0.619965 0.779785
0.000000 0.573975 0.747009
0.496307 0.506927 0.713318
0.829315 0.423218 0.725372
1.000000 0.084412 0.879547
1.000000 0.000000 0.967957
1.000000 0.000000 0.811493
0.000000 0.957489 0.885681
0.000000 0.938507 0.868469
0.000000 0.899078 0.832428
0.162231 0.807129 0.749176
0.783661 0.756165 0.726166
1.000000 0.680115 0.763214
1.000000 0.127380 0.949005
1.000000 0.000000 0.930389
0.000000 1.000000 1.000000
0.000000 1.000000 1.000000
0.000000 1.000000 0.995697
0.000000 1.000000 0.976257
0.464874 0.991302 0.762207
0.982147 0.943176 0.709137
1.000000 0.861847 0.674988
1.000000 0.151001 0.971375
0.000000 1.000000 1.000000
0.000000 1.000000 1.000000
0.000000 1.000000 1.000000
0.000000 1.000000 1.000000
0.000000 1.000000 1.000000
0.727997 1.000000 0.683502
1.000000 1.000000 0.638336
1.000000 0.997711 0.526764
0.000000 1.000000 1.000000
0.000000 1.000000 1.000000
0.000000 1.000000 1.000000
0.000000 1.000000 1.000000
0.000000 1.000000 1.000000
0.000000 1.000000 1.000000
0.951569 1.000000 0.466156
1.000000 1.000000 0.197601
0.000000 0.115295 0.908966
0.000000 0.089203 0.921295
0.269836 0.026581 0.929504
0.680511 0.000000 0.983429
0.985687 0.000000 1.000000
1.000000 0.000000 1.000000
1.000000 0.000000 1.000000
1.000000 0.000000 0.997375
0.000000 0.280060 0.917908
0.000000 0.253998 0.920593
0.179718 0.189240 0.918549
0.643799 0.090607 0.970337
0.985840 0.000000 1.000000
1.000000 0.000000 1.000000
1.000000 0.000000 1.000000
1.000000 0.000000 1.000000
0.000000 0.468292 0.962463
0.000000 0.436096 0.944061
0.016876 0.371704 0.907349
0.516418 0.277527 0.880859
0.925476 0.090332 0.981964
1.000000 0.000000 1.000000
1.000000 0.000000 1.000000
1.000000 0.000000 1.000000
0.000000 0.683960 0.984131
0.000000 0.662079 0.976776
0.000000 0.619141 0.950562
0.433044 0.533020 0.898315
0.822388 0.449249 0.909637
1.000000 0.118805 1.000000
1.000000 0.000000 1.000000
1.000000 0.000000 1.000000
0.000000 0.973785 1.000000
0.000000 0.965149 1.000000
0.000000 0.933167 0.994904
0.000000 0.849945 0.962799
0.762085 0.768829 0.914917
1.000000 0.691986 0.957794
1.000000 0.157104 1.000000
1.000000 0.000000 1.000000
0.000000 1.000000 1.000000
0.000000 1.000000 1.000000
0.000000 1.000000 1.000000
0.000000 1.000000 1.000000
0.381775 0.993683 0.963806
0.970428 0.943726 0.919312
1.000000 0.861877 0.912964
1.000000 0.188690 1.000000
0.000000 1.000000 1.000000
0.000000 1.000000 1.000000
0.000000 1.000000 1.000000
0.000000 1.000000 1.000000
0.000000 1.000000 1.000000
0.666840 1.000000 0.943573
1.000000 1.000000 0.919739
1.000000 0.996582 0.899200
0.000000 1.000000 1.000000
0.000000 1.000000 1.000000
0.000000 1.000000 1.000000
0.000000 1.000000 1.000000
0.000000 1.000000 1.000000
0.000000 1.000000 1.000000
0.926117 1.000000 0.912598
1.000000 1.000000 0.885468
0.000000 0.272522 1.000000
0.000000 0.250366 1.000000
0.000000 0.200409 1.000000
0.552307 0.078583 1.000000
0.984467 0.000000 1.000000
1.000000 0.000000 1.000000
1.000000 0.000000 1.000000
1.000000 0.000000 1.000000
0.000000 0.412445 1.000000
0.000000 0.389984 1.000000
0.000000 0.335358 1.000000
0.465851 0.181732 1.000000
0.963135 0.002197 1.000000
1.000000 0.000000 1.000000
1.000000 0.000000 1.000000
1.000000 0.000000 1.000000
0.000000 0.564178 1.000000
0.000000 0.534882 1.000000
0.000000 0.480743 1.000000
0.357422 0.352875 1.000000
0.867920 0.181122 1.000000
1.000000 0.000000 1.000000
1.000000 0.000000 1.000000
1.000000 0.000000 1.000000
0.000000 0.762268 1.000000
0.000000 0.741760 1.000000
0.000000 0.702515 1.000000
0.141479 0.596558 1.000000
0.789185 0.496490 1.000000
1.000000 0.213623 1.000000
1.000000 0.000000 1.000000
1.000000 0.000000 1.000000
0.000000 0.999908 1.000000
0.000000 0.996094 1.000000
0.000000 0.980377 1.000000
0.000000 0.922760 1.000000
0.683929 0.794922 1.000000
1.000000 0.712555 1.000000
1.000000 0.220490 1.000000
1.000000 0.000000 1.000000
0.000000 1.000000 1.000000
0.000000 1.000000 1.000000
0.000000 1.000000 1.000000
0.000000 1.000000 1.000000
0.048248 1.000000 1.000000
0.948456 0.951263 1.000000
1.000000 0.871368 1.000000
1.000000 0.246185 1.000000
0.000000 1.000000 1.000000
0.000000 1.000000 1.000000
0.000000 1.000000 1.000000
0.000000 1.000000 1.000000
0.000000 1.000000 1.000000
0.560333 1.000000 1.000000
1.000000 1.000000 1.000000
1.000000 0.997406 1.000000
0.000000 1.000000 1.000000
0.000000 1.000000 1.000000
0.000000 1.000000 1.000000
0.000000 1.000000 1.000000
0.000000 1.000000 1.000000
0.000000 1.000000 1.000000
0.881531 1.000000 1.000000
1.000000 1.000000 1.000000
0.000000 0.514526 1.000000
0.000000 0.499756 1.000000
0.000000 0.464905 1.000000
0.000000 0.342621 1.000000
0.831360 0.057739 1.000000
1.000000 0.000000 1.000000
1.000000 0.000000 1.000000
1.000000 0.000000 1.000000
0.000000 0.618774 1.000000
0.000000 0.604004 1.000000
0.000000 0.562866 1.000000
0.000000 0.429199 1.000000
0.772919 0.165436 1.000000
1.000000 0.000000 1.000000
1.000000 0.000000 1.000000
1.000000 0.000000 1.000000
0.000000 0.744049 1.000000
0.000000 0.719055 1.000000
0.000000 0.671234 1.000000
0.000000 0.564392 1.000000
0.675140 0.356323 1.000000
1.000000 0.008118 1.000000
1.000000 0.000000 1.000000
1.000000 0.000000 1.000000
0.000000 0.909393 1.000000
0.000000 0.890442 1.000000
0.000000 0.854370 1.000000
0.000000 0.771118 1.000000
0.603638 0.592377 1.000000
0.999847 0.377594 1.000000
1.000000 0.000000 1.000000
1.000000 0.000000 1.000000
0.000000 1.000000 1.000000
0.000000 1.000000 1.000000
0.000000 1.000000 1.000000
0.000000 0.998566 1.000000
0.330994 0.861725 1.000000
0.982208 0.747101 1.000000
1.000000 0.391998 1.000000
1.000000 0.000000 1.000000
0.000000 1.000000 1.000000
0.000000 1.000000 1.000000
0.000000 1.000000 1.000000
0.000000 1.000000 1.000000
0.000000 1.000000 1.000000
0.890503 0.965851 1.000000
1.000000 0.889893 1.000000
1.000000 0.333862 1.000000
0.000000 1.000000 1.000000
0.000000 1.000000 1.000000
0.000000 1.000000 1.000000
0.000000 1.000000 1.000000
0.000000 1.000000 1.000000
0.069519 1.000000 1.000000
1.000000 1.000000 1.000000
1.000000 0.999634 1.000000
0.000000 1.000000 1.000000
0.000000 1.000000 1.000000
0.000000 1.000000 1.000000
0.000000 1.000000 1.000000
0.000000 1.000000 1.000000
0.000000 1.000000 1.000000
0.773376 1.000000 1.000000
1.000000 1.000000 1.000000
