Postproduction/IWLTBAP - Humble/LUTs by IWLTBAP (CUBE)/UTILITY/Sony S-Log2 to Rec.709/U-SONY-S-LOG2-V1-LTR.cube
# Copyright: (C) Copyright 2010-2018 by IWLTBAP SAS
# Cannot be resold, shared or otherwise redistributed
# Website: https://luts.iwltbap.com
TITLE "Sony S-Log2 Version 1 (Utility LOG to Rec.709)"
LUT_3D_SIZE 32
0.000824 0.000702 0.000793
0.006866 0.000793 0.001282
0.014008 0.000885 0.001953
0.022064 0.000946 0.002808
0.031403 0.000946 0.004028
0.043396 0.000702 0.005920
0.079315 0.000702 0.014740
0.124207 0.000763 0.024597
0.172302 0.000885 0.035095
0.225281 0.000946 0.046265
0.283875 0.001099 0.058228
0.346863 0.001221 0.071106
0.413147 0.001373 0.084625
0.482117 0.001495 0.098694
0.552216 0.001648 0.112885
0.619019 0.001831 0.126862
0.671783 0.002014 0.140289
0.723450 0.002228 0.153503
0.774719 0.002411 0.166534
0.825958 0.002655 0.179626
0.875519 0.002869 0.192688
0.917023 0.003113 0.206177
0.925415 0.003357 0.219971
0.932709 0.003632 0.233765
0.940094 0.003906 0.247559
0.947540 0.004211 0.260101
0.955048 0.004517 0.271027
0.962646 0.004883 0.279572
0.970367 0.005188 0.286713
0.978088 0.005554 0.292389
0.985901 0.005920 0.296753
0.993774 0.006317 0.300110
0.000946 0.006531 0.000916
0.006775 0.006592 0.001221
0.013763 0.006653 0.001801
0.021851 0.006653 0.002716
0.031311 0.006378 0.004059
0.043335 0.005432 0.006012
0.078888 0.005219 0.014740
0.123047 0.005219 0.024506
0.170746 0.005280 0.034912
0.223053 0.005402 0.045990
0.281006 0.005524 0.057800
0.343201 0.005646 0.070465
0.408844 0.005768 0.083862
0.477264 0.005920 0.097778
0.547028 0.006104 0.111908
0.614807 0.006287 0.125824
0.667389 0.006439 0.139160
0.718903 0.006653 0.152344
0.770020 0.006866 0.165344
0.821045 0.007111 0.178345
0.871094 0.007324 0.191315
0.916473 0.007599 0.204651
0.924957 0.007843 0.218536
0.932251 0.008118 0.232330
0.939636 0.008423 0.246399
0.947083 0.008698 0.259125
0.954590 0.009003 0.270203
0.962158 0.009369 0.279022
0.969818 0.009705 0.286377
0.977570 0.010071 0.292236
0.985321 0.010437 0.296722
0.993164 0.010864 0.300201
0.000946 0.013245 0.000946
0.006409 0.013306 0.001129
0.013123 0.013336 0.001587
0.021210 0.013275 0.002411
0.030945 0.012909 0.003815
0.043121 0.011688 0.005951
0.078613 0.010498 0.014740
0.122162 0.010071 0.024475
0.169464 0.010071 0.034821
0.221222 0.010162 0.045776
0.278564 0.010284 0.057465
0.340302 0.010406 0.070007
0.405365 0.010559 0.083313
0.473206 0.010681 0.097137
0.542603 0.010895 0.111145
0.610992 0.011047 0.124969
0.663666 0.011230 0.138306
0.715027 0.011414 0.151398
0.766022 0.011658 0.164398
0.816895 0.011871 0.177338
0.867249 0.012115 0.190277
0.915436 0.012360 0.203613
0.924438 0.012604 0.217377
0.931854 0.012878 0.231171
0.939209 0.013184 0.245422
0.946625 0.013489 0.258240
0.954102 0.013824 0.269470
0.961700 0.014130 0.278595
0.969330 0.014465 0.286102
0.977020 0.014862 0.292053
0.984802 0.015228 0.296722
0.992676 0.015656 0.300232
0.000885 0.020721 0.000885
0.005798 0.020782 0.000977
0.012085 0.020844 0.001282
0.020050 0.020813 0.001953
0.029999 0.020569 0.003204
0.042603 0.019714 0.005554
0.078369 0.016663 0.014679
0.121460 0.015411 0.024506
0.168457 0.015198 0.034790
0.219727 0.015228 0.045685
0.276581 0.015350 0.057251
0.337891 0.015442 0.069733
0.402527 0.015625 0.082916
0.469849 0.015747 0.096588
0.538818 0.015930 0.110535
0.607635 0.016083 0.124329
0.660522 0.016266 0.137573
0.711731 0.016479 0.150635
0.762573 0.016693 0.163574
0.813324 0.016907 0.176483
0.863831 0.017120 0.189423
0.913208 0.017365 0.202728
0.923706 0.017639 0.216400
0.931488 0.017914 0.230103
0.938812 0.018188 0.244507
0.946198 0.018494 0.257507
0.953674 0.018829 0.268738
0.961243 0.019196 0.278015
0.968903 0.019501 0.285522
0.976593 0.019867 0.291656
0.984344 0.020264 0.296356
0.992218 0.020660 0.299744
0.000793 0.029205 0.000793
0.005157 0.029266 0.000885
0.010895 0.029358 0.001038
0.018372 0.029419 0.001465
0.028107 0.029419 0.002380
0.041351 0.029266 0.004425
0.078064 0.023926 0.014343
0.120880 0.021454 0.024445
0.167603 0.020874 0.034760
0.218445 0.020935 0.045563
0.274933 0.020966 0.057098
0.335785 0.020844 0.069489
0.399902 0.020874 0.082520
0.466766 0.021027 0.096100
0.535492 0.021179 0.109924
0.604462 0.021332 0.123688
0.657684 0.021515 0.136871
0.708710 0.021698 0.149841
0.759308 0.021912 0.162750
0.809967 0.022125 0.175598
0.860565 0.022369 0.188568
0.909760 0.022614 0.201782
0.922699 0.022858 0.215363
0.931122 0.023132 0.228882
0.938446 0.023438 0.243408
0.945831 0.023743 0.256439
0.953308 0.024048 0.267670
0.960846 0.024353 0.277039
0.968445 0.024750 0.284607
0.976196 0.025085 0.290741
0.983948 0.025482 0.295410
0.991791 0.025879 0.298553
0.000946 0.039734 0.000946
0.005310 0.039795 0.001038
0.010101 0.039856 0.001129
0.015991 0.039917 0.001251
0.024445 0.039978 0.001434
0.038574 0.040070 0.001678
0.077148 0.033051 0.013245
0.120056 0.029419 0.024048
0.166687 0.028412 0.034515
0.217285 0.028534 0.045349
0.273346 0.028290 0.056854
0.333893 0.026733 0.069122
0.397461 0.026398 0.082062
0.463928 0.026489 0.095520
0.532501 0.026611 0.109283
0.601135 0.026733 0.122955
0.655121 0.026947 0.136017
0.705933 0.027130 0.148865
0.756409 0.027313 0.161682
0.806885 0.027527 0.174438
0.857178 0.027771 0.187225
0.906464 0.027985 0.200226
0.921722 0.028259 0.213715
0.930786 0.028534 0.226776
0.938080 0.028809 0.241364
0.945465 0.029114 0.254395
0.952911 0.029419 0.265808
0.960449 0.029755 0.275330
0.968109 0.030121 0.283112
0.975739 0.030487 0.289490
0.983490 0.030853 0.294312
0.991302 0.031281 0.297455
0.001160 0.069031 0.001160
0.005524 0.069031 0.001251
0.010193 0.069092 0.001373
0.015442 0.069214 0.001465
0.021912 0.069397 0.001587
0.031036 0.069580 0.001740
0.067413 0.067230 0.005249
0.110382 0.064697 0.016724
0.160400 0.062225 0.030334
0.212524 0.058472 0.042938
0.269501 0.050629 0.055084
0.330658 0.037231 0.067688
0.394348 0.034607 0.080780
0.460632 0.034698 0.094330
0.528839 0.034058 0.108093
0.597473 0.032379 0.121765
0.652374 0.032501 0.134796
0.703064 0.032715 0.147675
0.753448 0.032928 0.160461
0.803741 0.033112 0.173248
0.853882 0.033325 0.186005
0.903687 0.033569 0.198944
0.920929 0.033813 0.212372
0.930511 0.034088 0.225189
0.937775 0.034363 0.239777
0.945160 0.034668 0.252838
0.952576 0.035004 0.264404
0.960114 0.035309 0.274017
0.967743 0.035645 0.281860
0.975403 0.036011 0.288300
0.983154 0.036407 0.293182
0.990997 0.036804 0.296600
0.001404 0.100891 0.001404
0.005737 0.100739 0.001495
0.010406 0.100677 0.001617
0.015442 0.100739 0.001709
0.020935 0.100861 0.001862
0.027557 0.101044 0.002014
0.047943 0.100586 0.002533
0.091492 0.099121 0.008301
0.146057 0.096741 0.019928
0.203522 0.092743 0.035461
0.262878 0.085938 0.050812
0.324738 0.076477 0.064636
0.388641 0.072968 0.078278
0.455109 0.067413 0.092102
0.523376 0.056427 0.106110
0.592468 0.042145 0.120026
0.648834 0.043610 0.133240
0.699371 0.043640 0.146301
0.749664 0.040985 0.159180
0.799835 0.038788 0.171997
0.850037 0.039032 0.184814
0.900360 0.039276 0.197784
0.920044 0.039520 0.211029
0.930267 0.039764 0.223938
0.937531 0.040039 0.238342
0.944885 0.040314 0.251404
0.952332 0.040649 0.263123
0.959839 0.040985 0.272705
0.967438 0.041290 0.280670
0.975098 0.041687 0.287079
0.982819 0.042053 0.292114
0.990662 0.042450 0.295837
0.001678 0.137360 0.001678
0.006012 0.137054 0.001770
0.010651 0.136902 0.001892
0.015625 0.136841 0.002014
0.020844 0.136841 0.002136
0.026489 0.136932 0.002289
0.034546 0.136749 0.002411
0.065338 0.135712 0.003479
0.116730 0.133667 0.009705
0.185669 0.130096 0.022552
0.251648 0.124969 0.039886
0.316010 0.119751 0.058319
0.381409 0.115173 0.074249
0.448364 0.108185 0.088989
0.516693 0.096985 0.103271
0.585419 0.082733 0.117340
0.644745 0.081299 0.130859
0.695282 0.075165 0.144104
0.745514 0.062775 0.157196
0.795624 0.054321 0.170197
0.845856 0.054779 0.183167
0.896362 0.053955 0.196198
0.918915 0.047668 0.209442
0.929993 0.045807 0.222412
0.937317 0.045837 0.236542
0.944641 0.046112 0.249725
0.952087 0.046417 0.261627
0.959564 0.046753 0.271271
0.967163 0.047089 0.279297
0.974823 0.047455 0.285828
0.982513 0.047821 0.290985
0.990356 0.048218 0.294861
0.001984 0.177734 0.001984
0.006287 0.177338 0.002075
0.010895 0.177094 0.002197
0.015869 0.176941 0.002319
0.021027 0.176880 0.002472
0.026367 0.176941 0.002625
0.031982 0.176819 0.002808
0.041931 0.176331 0.002960
0.079376 0.174774 0.003998
0.148010 0.172058 0.009003
0.231812 0.167328 0.022766
0.303528 0.159271 0.042603
0.373108 0.151978 0.065063
0.441986 0.147522 0.083984
0.510773 0.145630 0.099335
0.579437 0.143707 0.113831
0.640381 0.138000 0.127533
0.690918 0.125946 0.140991
0.741150 0.106689 0.154297
0.791260 0.093689 0.167511
0.841370 0.092712 0.180634
0.891754 0.088135 0.193756
0.917572 0.069916 0.206940
0.929718 0.064423 0.220093
0.937134 0.063965 0.233734
0.944458 0.063324 0.247070
0.951843 0.061249 0.259155
0.959351 0.055786 0.269135
0.966949 0.053650 0.277435
0.974609 0.053558 0.284119
0.982300 0.055145 0.289276
0.990112 0.058411 0.293182
0.002289 0.220734 0.002289
0.006592 0.220123 0.002380
0.011230 0.219666 0.002563
0.016174 0.219360 0.002655
0.021271 0.219116 0.002808
0.026581 0.219025 0.002991
0.032104 0.218933 0.003143
0.037750 0.218689 0.003357
0.047211 0.218079 0.003571
0.084534 0.216675 0.004150
0.196564 0.214020 0.005707
0.280823 0.208405 0.009247
0.357697 0.200134 0.044098
0.431335 0.190643 0.074249
0.503418 0.182312 0.093597
0.573517 0.177795 0.109802
0.636017 0.177032 0.123749
0.686340 0.176544 0.137207
0.736420 0.174774 0.150513
0.786407 0.170654 0.163727
0.836456 0.163116 0.177002
0.886688 0.150665 0.190247
0.915985 0.125336 0.203613
0.929382 0.118408 0.216705
0.936981 0.117401 0.229675
0.944305 0.113403 0.242920
0.951691 0.102722 0.255005
0.959167 0.076538 0.265533
0.966766 0.065765 0.274200
0.974396 0.063995 0.281006
0.982117 0.070160 0.286163
0.989929 0.083496 0.289856
0.002655 0.267120 0.002655
0.006958 0.266357 0.002808
0.011597 0.265808 0.002899
0.016479 0.265442 0.003082
0.021606 0.265198 0.003235
0.026886 0.265015 0.003387
0.032379 0.264893 0.003601
0.037964 0.264709 0.003784
0.044312 0.264374 0.003998
0.066437 0.263702 0.004272
0.131836 0.262512 0.004730
0.238342 0.259033 0.005524
0.328339 0.252808 0.013611
0.408783 0.244843 0.041992
0.485931 0.235321 0.077545
0.560211 0.225403 0.100006
0.628967 0.217041 0.117310
0.681335 0.212097 0.132385
0.731689 0.210510 0.146362
0.781525 0.210602 0.159760
0.831360 0.209808 0.172974
0.881317 0.207428 0.186188
0.914154 0.202118 0.199524
0.928955 0.198303 0.212585
0.936890 0.194641 0.224579
0.944183 0.189972 0.237305
0.951569 0.183990 0.249054
0.959045 0.176392 0.259094
0.966614 0.178223 0.267395
0.974213 0.182648 0.274078
0.981964 0.186615 0.279297
0.989838 0.189362 0.283203
0.003082 0.316620 0.003082
0.007385 0.315826 0.003174
0.011963 0.315155 0.003357
0.016846 0.314667 0.003510
0.021942 0.314270 0.003632
0.027222 0.314056 0.003876
0.032654 0.313843 0.004059
0.038239 0.313629 0.004242
0.043945 0.313446 0.004456
0.054962 0.313080 0.004700
0.082947 0.312317 0.004974
0.173920 0.310760 0.005249
0.279114 0.306122 0.006378
0.374573 0.299713 0.019409
0.458984 0.291809 0.045197
0.537842 0.282593 0.077789
0.611420 0.272980 0.101837
0.672394 0.264099 0.121582
0.724548 0.257324 0.138641
0.775696 0.252625 0.153961
0.826263 0.249664 0.168304
0.876617 0.248718 0.182098
0.912598 0.248566 0.195587
0.928650 0.248260 0.208679
0.936829 0.247955 0.220551
0.944122 0.247711 0.231110
0.951477 0.247375 0.240814
0.958954 0.247833 0.248810
0.966553 0.250854 0.256226
0.974243 0.253998 0.262726
0.981995 0.256348 0.267700
0.989929 0.257660 0.271606
0.003479 0.367950 0.003479
0.007782 0.367004 0.003632
0.012390 0.366241 0.003784
0.017242 0.365631 0.003937
0.022308 0.365112 0.004181
0.027557 0.364807 0.004364
0.032990 0.364532 0.004547
0.038544 0.364319 0.004761
0.044220 0.364075 0.005005
0.050537 0.363800 0.005249
0.059906 0.363342 0.005524
0.115082 0.362335 0.005768
0.206604 0.360199 0.006073
0.321106 0.354919 0.008942
0.422272 0.348480 0.020660
0.508026 0.341095 0.045959
0.585327 0.332703 0.072449
0.658478 0.323090 0.099579
0.713531 0.313873 0.123444
0.766724 0.305847 0.143463
0.818878 0.299591 0.160309
0.870392 0.295624 0.175812
0.910706 0.293945 0.190460
0.928375 0.293518 0.204315
0.936829 0.294525 0.216614
0.944092 0.296692 0.227295
0.951477 0.299835 0.236969
0.959015 0.303680 0.244659
0.966644 0.307007 0.251129
0.974335 0.309479 0.256561
0.982117 0.311371 0.260803
0.990021 0.313171 0.264130
0.003937 0.419983 0.003937
0.008240 0.419037 0.004120
0.012848 0.418152 0.004272
0.017700 0.417419 0.004456
0.022705 0.416901 0.004669
0.027985 0.416443 0.004883
0.033356 0.416138 0.005096
0.038879 0.415863 0.005310
0.044556 0.415619 0.005554
0.050354 0.415283 0.005829
0.056519 0.414948 0.006104
0.071716 0.414398 0.006409
0.141022 0.413300 0.006683
0.241669 0.410187 0.007019
0.365570 0.404663 0.009705
0.470428 0.398529 0.018127
0.553345 0.391876 0.036621
0.632721 0.383698 0.065918
0.698639 0.374542 0.097443
0.754059 0.365662 0.125397
0.808258 0.357025 0.147095
0.861481 0.349548 0.165710
0.907867 0.344238 0.182587
0.927917 0.340363 0.198120
0.936890 0.338379 0.211639
0.944183 0.338531 0.223053
0.951599 0.340454 0.233154
0.959137 0.343719 0.240875
0.966797 0.347015 0.247192
0.974457 0.349915 0.252319
0.982239 0.352448 0.256287
0.990082 0.354645 0.259369
0.004456 0.471863 0.004456
0.008728 0.470856 0.004639
0.013336 0.469910 0.004822
0.018158 0.469116 0.005005
0.023224 0.468597 0.005219
0.028381 0.468079 0.005432
0.033752 0.467712 0.005676
0.039307 0.467377 0.005920
0.044922 0.467072 0.006165
0.050659 0.466797 0.006439
0.056549 0.466492 0.006744
0.062500 0.465973 0.007050
0.086548 0.465210 0.007385
0.160675 0.464050 0.007690
0.282043 0.460022 0.008026
0.423706 0.454193 0.008423
0.515472 0.448608 0.008789
0.599121 0.442200 0.026703
0.678497 0.434265 0.060364
0.738220 0.426056 0.096893
0.794403 0.417480 0.126404
0.849609 0.409027 0.150452
0.903076 0.401550 0.170624
0.926819 0.394745 0.188599
0.937012 0.389160 0.203888
0.944366 0.384949 0.216766
0.951782 0.381927 0.227936
0.959320 0.381653 0.236328
0.966919 0.382568 0.243073
0.974579 0.384094 0.248383
0.982300 0.385925 0.252472
0.990173 0.388000 0.255493
0.005005 0.522156 0.005005
0.009308 0.520935 0.005219
0.013885 0.519958 0.005402
0.018707 0.519104 0.005615
0.023712 0.518433 0.005798
0.028900 0.517883 0.006042
0.034271 0.517426 0.006317
0.039734 0.517059 0.006561
0.045319 0.516815 0.006836
0.051056 0.516602 0.007111
0.056854 0.516266 0.007416
0.062866 0.515839 0.007721
0.070770 0.515289 0.008087
0.116608 0.514313 0.008453
0.210571 0.512543 0.008759
0.361206 0.507416 0.009186
0.469910 0.502167 0.009552
0.560760 0.496796 0.011749
0.647278 0.490204 0.023529
0.719788 0.483124 0.050110
0.778107 0.475830 0.089600
0.835724 0.468201 0.127502
0.892883 0.459930 0.153473
0.923279 0.452026 0.174835
0.937256 0.445190 0.192230
0.944550 0.439575 0.206543
0.951996 0.434937 0.218750
0.959473 0.431732 0.228210
0.967072 0.429993 0.235779
0.974701 0.428986 0.241699
0.982391 0.428894 0.246185
0.990204 0.429688 0.249542
0.005646 0.571747 0.005646
0.009918 0.570526 0.005829
0.014465 0.569519 0.006042
0.019257 0.568695 0.006226
0.024261 0.567963 0.006470
0.029419 0.567352 0.006683
0.034790 0.566864 0.006958
0.040192 0.566467 0.007233
0.045807 0.566132 0.007538
0.051483 0.565796 0.007843
0.057312 0.565521 0.008179
0.063263 0.565216 0.008453
0.069275 0.564789 0.008820
0.089935 0.564087 0.009216
0.150848 0.563232 0.009552
0.268219 0.560059 0.009949
0.411346 0.555359 0.010376
0.515717 0.550262 0.010803
0.607697 0.544647 0.013611
0.694702 0.538055 0.021027
0.759766 0.531586 0.038940
0.819733 0.524841 0.081818
0.878326 0.517670 0.123383
0.917358 0.510284 0.152893
0.937103 0.503174 0.174591
0.944763 0.496948 0.191620
0.952118 0.491547 0.205597
0.959595 0.487610 0.216217
0.967163 0.484863 0.224640
0.974792 0.482941 0.231232
0.982452 0.481903 0.236206
0.990265 0.481781 0.239899
0.006287 0.621735 0.006287
0.010559 0.620483 0.006470
0.015106 0.619507 0.006683
0.019897 0.618561 0.006897
0.024872 0.617767 0.007141
0.029999 0.617126 0.007416
0.035309 0.616608 0.007690
0.040741 0.616150 0.007935
0.046326 0.615784 0.008270
0.052002 0.615417 0.008606
0.057770 0.615143 0.008942
0.063660 0.614868 0.009277
0.069702 0.614441 0.009644
0.078613 0.613983 0.010010
0.104706 0.613342 0.010406
0.170074 0.612671 0.010803
0.323700 0.608337 0.011139
0.455566 0.603790 0.011414
0.560394 0.598969 0.011627
0.654907 0.592804 0.011871
0.737793 0.586792 0.016174
0.800751 0.580658 0.036835
0.861359 0.573883 0.079803
0.908478 0.567566 0.118011
0.934937 0.561066 0.148438
0.944916 0.555023 0.171082
0.952301 0.549438 0.187958
0.959717 0.544983 0.200348
0.967255 0.541565 0.209991
0.974854 0.539062 0.217468
0.982513 0.537415 0.223145
0.990265 0.536530 0.227295
0.006927 0.672180 0.006927
0.011200 0.670929 0.007172
0.015747 0.669830 0.007385
0.020538 0.668854 0.007660
0.025482 0.667999 0.007904
0.030609 0.667297 0.008179
0.035889 0.666779 0.008453
0.041290 0.666321 0.008728
0.046844 0.665894 0.009033
0.052521 0.665558 0.009399
0.058258 0.665314 0.009735
0.064148 0.665070 0.010071
0.070190 0.664642 0.010468
0.076233 0.664307 0.010834
0.082428 0.664032 0.011169
0.102844 0.663574 0.011475
0.232483 0.661926 0.011688
0.372101 0.657898 0.011780
0.500488 0.653687 0.011902
0.605591 0.648376 0.011993
0.701508 0.642181 0.012115
0.778259 0.636200 0.012238
0.841614 0.629700 0.038727
0.895905 0.623932 0.071350
0.930054 0.618103 0.107239
0.944946 0.612610 0.140564
0.952393 0.607391 0.163727
0.959808 0.602875 0.179138
0.967346 0.599243 0.190704
0.974915 0.596436 0.199554
0.982513 0.594330 0.206146
0.990234 0.592896 0.210999
0.007660 0.721741 0.007690
0.011963 0.720520 0.007935
0.016479 0.719543 0.008148
0.021240 0.718689 0.008392
0.026184 0.717957 0.008667
0.031281 0.717224 0.008972
0.036530 0.716644 0.009247
0.041931 0.716187 0.009552
0.047455 0.715790 0.009888
0.053101 0.715454 0.010223
0.058838 0.715271 0.010590
0.064667 0.715027 0.010925
0.070648 0.714813 0.011261
0.076721 0.714630 0.011566
0.082825 0.714539 0.011719
0.094177 0.714417 0.011841
0.145203 0.714111 0.011963
0.277679 0.711609 0.012024
0.418793 0.707886 0.012146
0.547638 0.703430 0.012238
0.654419 0.696991 0.012329
0.748138 0.690582 0.012421
0.818390 0.684265 0.014740
0.878662 0.678741 0.025574
0.921814 0.673676 0.054291
0.944672 0.668793 0.094147
0.952515 0.664429 0.125183
0.959869 0.660492 0.148743
0.967407 0.657196 0.164368
0.974945 0.654419 0.175598
0.982513 0.652191 0.183746
0.990234 0.650513 0.189636
0.008453 0.763855 0.008453
0.012756 0.762726 0.008698
0.017273 0.761749 0.008972
0.021973 0.761017 0.009216
0.026886 0.760406 0.009491
0.031982 0.759857 0.009796
0.037231 0.759399 0.010071
0.042603 0.759033 0.010437
0.048096 0.758759 0.010773
0.053680 0.758484 0.011139
0.059418 0.758331 0.011475
0.065186 0.758362 0.011719
0.071106 0.758575 0.011841
0.077057 0.758698 0.011963
0.083191 0.758667 0.011993
0.089813 0.758545 0.012085
0.100128 0.758301 0.012207
0.166473 0.757874 0.012238
0.306854 0.757294 0.012329
0.475647 0.755432 0.012421
0.598450 0.751373 0.012482
0.702148 0.743958 0.012543
0.790527 0.737915 0.012726
0.855133 0.732239 0.013092
0.908752 0.727631 0.014099
0.944000 0.723053 0.023010
0.952576 0.719147 0.052429
0.959961 0.715607 0.100494
0.967407 0.712646 0.126129
0.974915 0.710205 0.142120
0.982513 0.708252 0.153168
0.990204 0.706726 0.160767
0.009277 0.805542 0.009277
0.013580 0.804443 0.009552
0.018066 0.803528 0.009796
0.022766 0.802704 0.010071
0.027679 0.802002 0.010345
0.032745 0.801422 0.010681
0.037994 0.800964 0.010986
0.043335 0.800629 0.011353
0.048767 0.800415 0.011658
0.054291 0.800446 0.011871
0.059875 0.800568 0.011963
0.065582 0.800720 0.012085
0.071442 0.800842 0.012146
0.077393 0.800812 0.012238
0.083466 0.800690 0.012238
0.089722 0.800446 0.012329
0.096619 0.800140 0.012390
0.115387 0.799622 0.012482
0.203369 0.798950 0.012512
0.341705 0.798126 0.012573
0.520325 0.797028 0.012634
0.645660 0.795532 0.012695
0.745361 0.790619 0.012756
0.825134 0.785126 0.012756
0.884674 0.780334 0.012817
0.930145 0.776093 0.014526
0.951996 0.772186 0.020813
0.959869 0.768951 0.031281
0.967407 0.766113 0.057007
0.974884 0.763672 0.078186
0.982452 0.761719 0.090912
0.990112 0.760284 0.098511
0.010193 0.845642 0.010193
0.014435 0.844727 0.010437
0.018951 0.843872 0.010712
0.023651 0.843079 0.010956
0.028534 0.842407 0.011292
0.033539 0.841888 0.011627
0.038727 0.841553 0.011902
0.043945 0.841431 0.012054
0.049255 0.841400 0.012207
0.054688 0.841492 0.012268
0.060242 0.841583 0.012329
0.065918 0.841614 0.012360
0.071747 0.841553 0.012421
0.077698 0.841339 0.012482
0.083740 0.841003 0.012482
0.089905 0.840668 0.012512
0.096252 0.840179 0.012573
0.102631 0.839508 0.012634
0.147461 0.838715 0.012695
0.255432 0.837830 0.012726
0.420166 0.836792 0.012756
0.577759 0.835541 0.012787
0.692535 0.832947 0.012817
0.787445 0.829865 0.012848
0.856873 0.826477 0.012878
0.909332 0.823242 0.012909
0.945618 0.820038 0.012909
0.958893 0.817322 0.012939
0.967377 0.814697 0.023193
0.974854 0.812531 0.032166
0.982391 0.810822 0.037445
0.989990 0.809204 0.040710
0.011108 0.883240 0.011108
0.015381 0.882385 0.011383
0.019867 0.881561 0.011658
0.024536 0.880829 0.011963
0.029327 0.880341 0.012207
0.034241 0.880005 0.012360
0.039276 0.879852 0.012482
0.044373 0.879822 0.012512
0.049622 0.879822 0.012543
0.055023 0.879822 0.012543
0.060547 0.879822 0.012604
0.066223 0.879639 0.012604
0.072021 0.879425 0.012634
0.077972 0.879059 0.012665
0.083984 0.878632 0.012726
0.090179 0.878143 0.012756
0.096466 0.877533 0.012756
0.102844 0.876770 0.012756
0.120514 0.875854 0.012787
0.183960 0.874847 0.012817
0.310791 0.873718 0.012848
0.501740 0.872284 0.012848
0.635071 0.870453 0.012878
0.741241 0.867889 0.012878
0.826813 0.864838 0.012909
0.884796 0.861694 0.012909
0.931030 0.859070 0.012878
0.955414 0.856750 0.012878
0.966858 0.854675 0.012848
0.974792 0.852814 0.012848
0.982269 0.851166 0.012787
0.989868 0.849792 0.013000
0.012054 0.917328 0.012054
0.016296 0.916534 0.012329
0.020752 0.915741 0.012543
0.025330 0.915192 0.012756
0.029968 0.914917 0.012848
0.034729 0.914795 0.012848
0.039642 0.914734 0.012817
0.044739 0.914642 0.012817
0.049957 0.914551 0.012817
0.055328 0.914398 0.012817
0.060852 0.914276 0.012817
0.066498 0.914001 0.012817
0.072296 0.913696 0.012848
0.078217 0.913300 0.012848
0.084259 0.912872 0.012878
0.090393 0.912292 0.012878
0.096649 0.911621 0.012909
0.103058 0.910767 0.012909
0.109497 0.909790 0.012909
0.132324 0.908691 0.012909
0.207458 0.907410 0.012909
0.409912 0.905975 0.012909
0.569061 0.904327 0.012909
0.693329 0.902466 0.012909
0.788879 0.899780 0.012878
0.858856 0.896576 0.012848
0.909546 0.893646 0.012817
0.946747 0.891388 0.012787
0.964539 0.889343 0.012756
0.974579 0.887482 0.012726
0.982117 0.885803 0.012665
0.989655 0.884338 0.012604
0.013031 0.946228 0.013031
0.017242 0.945709 0.013245
0.021454 0.945374 0.013275
0.025787 0.945160 0.013245
0.030304 0.945007 0.013184
0.035065 0.944824 0.013153
0.039948 0.944733 0.013123
0.045013 0.944580 0.013092
0.050262 0.944489 0.013062
0.055634 0.944336 0.013062
0.061127 0.944092 0.013031
0.066772 0.943909 0.013031
0.072540 0.943665 0.013031
0.078461 0.943298 0.013031
0.084473 0.942902 0.013031
0.090546 0.942444 0.013031
0.096863 0.941772 0.013000
0.103180 0.940857 0.013000
0.109650 0.939880 0.013000
0.116180 0.938721 0.013000
0.152802 0.937408 0.012970
0.312012 0.936005 0.012970
0.493591 0.934387 0.012939
0.641602 0.932678 0.012878
0.748138 0.930695 0.012848
0.831421 0.928131 0.012787
0.886108 0.924774 0.012756
0.929993 0.922119 0.012726
0.958588 0.920105 0.012665
0.973877 0.918396 0.012573
0.981964 0.916840 0.012512
0.989532 0.915497 0.012451
0.013702 0.959625 0.013702
0.017609 0.959473 0.013641
0.021759 0.959381 0.013580
0.026123 0.959290 0.013519
0.030640 0.959229 0.013458
0.035339 0.959137 0.013428
0.040253 0.959106 0.013367
0.045319 0.959045 0.013306
0.050537 0.959015 0.013306
0.055878 0.958984 0.013275
0.061371 0.958923 0.013245
0.066986 0.958862 0.013245
0.072754 0.958832 0.013214
0.078644 0.958740 0.013184
0.084625 0.958649 0.013153
0.090729 0.958557 0.013123
0.096954 0.958374 0.013092
