Postproduction/IWLTBAP - Humble/LUTs by IWLTBAP (CUBE)/UTILITY/Sony S-Log2 to Rec.709/U-SONY-S-LOG2-V4-LTR.cube
# Copyright: (C) Copyright 2010-2018 by IWLTBAP SAS
# Cannot be resold, shared or otherwise redistributed
# Website: https://luts.iwltbap.com
TITLE "Sony S-Log2 Version 4 (Utility LOG to Rec.709)"
LUT_3D_SIZE 5
DOMAIN_MIN 0.000000 0.000000 0.000000
DOMAIN_MAX 0.903226 0.903226 0.903226
0.000000 0.000000 0.000000
0.344971 0.000000 0.000000
0.824860 0.000000 0.027344
1.000000 0.000000 0.008759
1.000000 0.000000 0.000000
0.000000 0.307495 0.004395
0.274567 0.244385 0.000000
0.840790 0.067291 0.051544
1.000000 0.000000 0.040344
1.000000 0.000000 0.000000
0.000000 0.773468 0.065887
0.000000 0.726715 0.014801
0.677429 0.616669 0.000000
1.000000 0.281494 0.000610
1.000000 0.000000 0.000000
0.000000 1.000000 0.311646
0.000000 1.000000 0.271423
0.000000 1.000000 0.070618
1.000000 0.999390 0.000000
1.000000 0.621246 0.000000
0.000000 1.000000 0.620453
0.000000 1.000000 0.629730
0.000000 1.000000 0.519196
0.000000 1.000000 0.000000
1.000000 1.000000 0.000000
0.000000 0.000000 0.222717
0.337799 0.000000 0.247375
0.826050 0.000000 0.309998
1.000000 0.000000 0.287659
1.000000 0.000000 0.000000
0.000000 0.312103 0.269226
0.254913 0.244171 0.237793
0.832672 0.065979 0.322693
1.000000 0.000000 0.312775
1.000000 0.000000 0.000000
0.000000 0.768799 0.336060
0.000000 0.722229 0.294250
0.663635 0.609039 0.202271
1.000000 0.277710 0.179749
1.000000 0.000000 0.000000
0.000000 1.000000 0.545654
0.000000 1.000000 0.507935
0.000000 1.000000 0.314636
1.000000 0.996185 0.000000
1.000000 0.613190 0.000000
0.000000 1.000000 0.831818
0.000000 1.000000 0.837250
0.000000 1.000000 0.726593
0.000000 1.000000 0.023132
1.000000 1.000000 0.000000
0.000000 0.000000 0.572998
0.326538 0.000000 0.595764
0.853333 0.000000 0.681458
1.000000 0.000000 0.748657
1.000000 0.000000 0.526642
0.000000 0.348633 0.618164
0.188934 0.271759 0.579651
0.820160 0.084412 0.662933
1.000000 0.000000 0.785461
1.000000 0.000000 0.551758
0.000000 0.782684 0.693970
0.000000 0.736389 0.660187
0.644531 0.613739 0.588470
1.000000 0.284424 0.669617
1.000000 0.000000 0.648865
0.000000 1.000000 0.989685
0.000000 1.000000 0.980927
0.000000 1.000000 0.844666
1.000000 0.988556 0.554718
1.000000 0.579193 0.452484
0.000000 1.000000 1.000000
0.000000 1.000000 1.000000
0.000000 1.000000 1.000000
0.000000 1.000000 0.756287
1.000000 1.000000 0.000000
0.000000 0.148407 0.963104
0.046417 0.086151 0.983154
0.861389 0.000000 1.000000
1.000000 0.000000 1.000000
1.000000 0.000000 1.000000
0.000000 0.445068 0.991760
0.000000 0.369659 0.971069
0.746338 0.154968 0.981232
1.000000 0.000000 1.000000
1.000000 0.000000 1.000000
0.000000 0.842957 1.000000
0.000000 0.798828 1.000000
0.581848 0.649658 0.958557
1.000000 0.346191 0.993622
1.000000 0.000000 1.000000
0.000000 1.000000 1.000000
0.000000 1.000000 1.000000
0.000000 1.000000 1.000000
0.996216 0.987335 0.968842
1.000000 0.591370 0.999481
0.000000 1.000000 1.000000
0.000000 1.000000 1.000000
0.000000 1.000000 1.000000
0.000000 1.000000 1.000000
1.000000 1.000000 0.951355
0.000000 0.514526 1.000000
0.000000 0.477051 1.000000
0.375641 0.192780 1.000000
1.000000 0.000000 1.000000
1.000000 0.000000 1.000000
0.000000 0.711700 1.000000
0.000000 0.654968 1.000000
0.214050 0.408203 1.000000
1.000000 0.000000 1.000000
1.000000 0.000000 1.000000
0.000000 0.996735 1.000000
0.000000 0.980255 1.000000
0.000000 0.823395 1.000000
1.000000 0.538086 1.000000
1.000000 0.000000 1.000000
0.000000 1.000000 1.000000
0.000000 1.000000 1.000000
0.000000 1.000000 1.000000
0.960754 0.993835 1.000000
1.000000 0.671295 1.000000
0.000000 1.000000 1.000000
0.000000 1.000000 1.000000
0.000000 1.000000 1.000000
0.000000 1.000000 1.000000
1.000000 1.000000 1.000000
