Postproduction/IWLTBAP - Humble/LUTs by IWLTBAP (CUBE)/UTILITY/Sony S-Log2 to Rec.709/U-SONY-S-LOG2-V3-LTR.cube
# Copyright: (C) Copyright 2010-2018 by IWLTBAP SAS
# Cannot be resold, shared or otherwise redistributed
# Website: https://luts.iwltbap.com
TITLE "Sony S-Log2 Version 3 (Utility LOG to Rec.709)"
LUT_3D_SIZE 5
DOMAIN_MIN 0.000000 0.000000 0.000000
DOMAIN_MAX 0.903226 0.903226 0.903226
0.001312 0.001160 0.001282
0.134155 0.001251 0.035583
0.541168 0.002655 0.152222
0.944916 0.005035 0.270447
0.980469 0.008148 0.353943
0.002258 0.110626 0.002258
0.098541 0.108582 0.012726
0.515686 0.051880 0.143524
0.924835 0.028412 0.260437
0.977783 0.031219 0.348755
0.006317 0.428528 0.006317
0.027893 0.424561 0.008301
0.381012 0.418243 0.014679
0.877899 0.378693 0.219818
0.977173 0.378326 0.322662
0.012939 0.759583 0.012939
0.033051 0.753693 0.015839
0.061157 0.753265 0.018036
0.707275 0.744934 0.018799
0.977722 0.720184 0.169281
0.020996 0.978699 0.020996
0.037079 0.978241 0.020172
0.063263 0.977997 0.019745
0.130096 0.977325 0.019257
0.936554 0.974335 0.018463
0.000793 0.000763 0.107422
0.132782 0.001587 0.110016
0.529541 0.003204 0.180817
0.927429 0.005707 0.283661
0.979889 0.009003 0.364197
0.002747 0.102814 0.096069
0.098602 0.102966 0.104187
0.509705 0.077698 0.175690
0.915710 0.046387 0.284454
0.977356 0.034515 0.374664
0.007050 0.426025 0.027313
0.028320 0.422821 0.028351
0.381134 0.417633 0.070374
0.871338 0.396118 0.262299
0.977081 0.412476 0.354401
0.013947 0.756592 0.031891
0.033752 0.751251 0.033752
0.061096 0.751862 0.034760
0.704895 0.742889 0.036011
0.977448 0.714447 0.248077
0.020691 0.978546 0.037415
0.036804 0.978027 0.036804
0.062897 0.977661 0.036469
0.107422 0.976654 0.036072
0.933105 0.972961 0.035309
0.001129 0.001129 0.429413
0.129852 0.002136 0.417572
0.528137 0.004028 0.425720
0.919250 0.006653 0.462555
0.979462 0.010223 0.518951
0.003540 0.025604 0.406708
0.100159 0.026062 0.399963
0.508331 0.027405 0.413422
0.896698 0.029572 0.458374
0.977081 0.032837 0.510651
0.008057 0.401703 0.375366
0.029022 0.400269 0.375458
0.380432 0.399048 0.399048
0.858795 0.414368 0.444611
0.977142 0.431061 0.501221
0.015411 0.746033 0.262329
0.034363 0.742523 0.284576
0.061310 0.742432 0.329742
0.702911 0.732300 0.396973
0.977264 0.700043 0.466095
0.020630 0.978516 0.088623
0.036743 0.977753 0.082092
0.062683 0.976990 0.092712
0.102692 0.975403 0.169312
0.928802 0.969360 0.327789
0.001678 0.001678 0.762329
0.114288 0.002899 0.745026
0.535553 0.004944 0.739197
0.932312 0.007721 0.753601
0.979218 0.011536 0.770813
0.004425 0.026031 0.729675
0.090088 0.026703 0.716858
0.519989 0.028137 0.716064
0.910645 0.030548 0.735992
0.977081 0.034058 0.756683
0.009308 0.287140 0.701843
0.029968 0.293488 0.694061
0.387848 0.295074 0.699493
0.865479 0.269531 0.726807
0.977264 0.255310 0.755310
0.017029 0.714417 0.667084
0.034821 0.713104 0.666992
0.061615 0.711731 0.677704
0.700256 0.701752 0.701691
0.977081 0.710297 0.720673
0.020782 0.976715 0.631561
0.036774 0.975281 0.625061
0.062561 0.973358 0.628143
0.095032 0.968292 0.644745
0.923981 0.951599 0.667267
0.002411 0.002411 0.981598
0.095093 0.003937 0.976776
0.537689 0.006042 0.975586
0.941864 0.009064 0.977325
0.979126 0.013123 0.979126
0.005524 0.026703 0.971588
0.082367 0.027496 0.966064
0.524567 0.029144 0.964905
0.925201 0.031738 0.972046
0.977295 0.035248 0.976807
0.010864 0.082733 0.954559
0.031158 0.085602 0.948730
0.397522 0.087799 0.950012
0.881134 0.062897 0.966187
0.977448 0.065765 0.975555
0.018829 0.668060 0.926392
0.035400 0.666473 0.926025
0.062012 0.663391 0.930969
0.702240 0.651031 0.944397
0.976990 0.631622 0.960632
0.020996 0.960846 0.897797
0.036835 0.956543 0.894562
0.062408 0.950104 0.896423
0.094696 0.937439 0.906128
0.918152 0.919922 0.919342
