Postproduction/IWLTBAP - Humble/LUTs by IWLTBAP (CUBE)/UTILITY/Sony S-Log2 to Rec.709/U-SONY-S-LOG2-V5-LTR.cube
# Copyright: (C) Copyright 2010-2018 by IWLTBAP SAS
# Cannot be resold, shared or otherwise redistributed
# Website: https://luts.iwltbap.com
TITLE "Sony S-Log2 Version 5 (Utility LOG to Rec.709)"
LUT_3D_SIZE 5
DOMAIN_MIN 0.000000 0.000000 0.000000
DOMAIN_MAX 0.903226 0.903226 0.903226
0.000000 0.000000 0.000000
0.398804 0.000000 0.000000
0.839691 0.000000 0.000000
1.000000 0.000000 0.000000
1.000000 0.000000 0.000000
0.000000 0.366791 0.000000
0.308167 0.336700 0.000000
0.821136 0.171082 0.000000
1.000000 0.000000 0.000000
1.000000 0.000000 0.000000
0.000000 0.803650 0.000000
0.000000 0.796356 0.000000
0.728882 0.766724 0.000000
1.000000 0.575439 0.000000
1.000000 0.000000 0.000000
0.000000 1.000000 0.000000
0.000000 1.000000 0.000000
0.000000 1.000000 0.000000
1.000000 1.000000 0.000000
1.000000 0.955475 0.000000
0.000000 1.000000 0.000000
0.000000 1.000000 0.000000
0.000000 1.000000 0.000000
0.000000 1.000000 0.000000
1.000000 1.000000 0.000000
0.000000 0.000000 0.336700
0.385834 0.000000 0.328827
0.836853 0.000000 0.295929
1.000000 0.000000 0.082916
1.000000 0.000000 0.000000
0.000000 0.325439 0.299683
0.290527 0.290527 0.290527
0.817932 0.073029 0.252289
1.000000 0.000000 0.006042
1.000000 0.000000 0.000000
0.000000 0.793823 0.063660
0.000000 0.786255 0.043854
0.723785 0.755188 0.000000
1.000000 0.552368 0.000000
1.000000 0.000000 0.000000
0.000000 1.000000 0.000000
0.000000 1.000000 0.000000
0.000000 1.000000 0.000000
1.000000 1.000000 0.000000
1.000000 0.952667 0.000000
0.000000 1.000000 0.000000
0.000000 1.000000 0.000000
0.000000 1.000000 0.000000
0.000000 1.000000 0.000000
1.000000 1.000000 0.000000
0.000000 0.000000 0.767029
0.331085 0.000000 0.764832
0.825592 0.000000 0.756714
1.000000 0.000000 0.718597
1.000000 0.000000 0.477722
0.000000 0.050598 0.757568
0.209045 0.000000 0.755463
0.805389 0.000000 0.747162
1.000000 0.000000 0.706421
1.000000 0.000000 0.453583
0.000000 0.752716 0.716644
0.000000 0.744110 0.713806
0.703247 0.703247 0.703247
1.000000 0.451385 0.655029
1.000000 0.000000 0.342133
0.000000 1.000000 0.443665
0.000000 1.000000 0.437653
0.000000 1.000000 0.414429
1.000000 1.000000 0.285858
1.000000 0.940399 0.000000
0.000000 1.000000 0.000000
0.000000 1.000000 0.000000
0.000000 1.000000 0.000000
0.000000 1.000000 0.000000
1.000000 1.000000 0.000000
0.000000 0.000000 1.000000
0.000000 0.000000 1.000000
0.770966 0.000000 1.000000
1.000000 0.000000 1.000000
1.000000 0.000000 1.000000
0.000000 0.000000 1.000000
0.000000 0.000000 1.000000
0.744354 0.000000 1.000000
1.000000 0.000000 1.000000
1.000000 0.000000 1.000000
0.000000 0.437805 1.000000
0.000000 0.412628 1.000000
0.600769 0.288513 1.000000
1.000000 0.000000 1.000000
1.000000 0.000000 1.000000
0.000000 1.000000 1.000000
0.000000 1.000000 1.000000
0.000000 1.000000 1.000000
1.000000 1.000000 1.000000
1.000000 0.867523 0.991302
0.000000 1.000000 0.860809
0.000000 1.000000 0.859558
0.000000 1.000000 0.854797
0.000000 1.000000 0.833344
1.000000 1.000000 0.696747
0.000000 0.000000 1.000000
0.000000 0.000000 1.000000
0.169159 0.000000 1.000000
1.000000 0.000000 1.000000
1.000000 0.000000 1.000000
0.000000 0.000000 1.000000
0.000000 0.000000 1.000000
0.041840 0.000000 1.000000
1.000000 0.000000 1.000000
1.000000 0.000000 1.000000
0.000000 0.000000 1.000000
0.000000 0.000000 1.000000
0.000000 0.000000 1.000000
1.000000 0.000000 1.000000
1.000000 0.000000 1.000000
0.000000 0.856873 1.000000
0.000000 0.850769 1.000000
0.000000 0.828339 1.000000
0.967834 0.700562 1.000000
1.000000 0.000000 1.000000
0.000000 1.000000 1.000000
0.000000 1.000000 1.000000
0.000000 1.000000 1.000000
0.000000 1.000000 1.000000
1.000000 1.000000 1.000000
