Postproduction/IWLTBAP - Humble/LUTs by IWLTBAP (CUBE)/UTILITY/Sony S-Log2 to Rec.709/U-SONY-S-LOG2-V2-LTR.cube
# Copyright: (C) Copyright 2010-2018 by IWLTBAP SAS
# Cannot be resold, shared or otherwise redistributed
# Website: https://luts.iwltbap.com
TITLE "Sony S-Log2 Version 2 (Utility LOG to Rec.709)"
LUT_3D_SIZE 32
0.008331 0.008331 0.008331
0.013702 0.007751 0.008179
0.019012 0.007385 0.008087
0.035156 0.006989 0.007996
0.060944 0.006439 0.007874
0.089355 0.005768 0.007690
0.118835 0.004944 0.007507
0.149231 0.003998 0.007263
0.181366 0.002777 0.006958
0.215393 0.001312 0.006592
0.251953 0.000000 0.006134
0.291199 0.000000 0.005585
0.333527 0.000000 0.004913
0.379303 0.000000 0.004120
0.428741 0.000000 0.003143
0.482452 0.000000 0.001923
0.540466 0.000000 0.000427
0.603180 0.000000 0.000000
0.669830 0.000000 0.000000
0.732727 0.000000 0.000000
0.791687 0.000000 0.000000
0.846924 0.000000 0.000000
0.895752 0.000000 0.000000
0.938049 0.000000 0.000000
0.973419 0.000000 0.000000
1.000000 0.000000 0.000000
1.000000 0.000000 0.000000
1.000000 0.000000 0.000000
1.000000 0.000000 0.000000
1.000000 0.000000 0.000000
1.000000 0.000000 0.000000
1.000000 0.000000 0.000000
0.006561 0.012970 0.007721
0.011841 0.012390 0.007538
0.015381 0.012024 0.007446
0.025360 0.011566 0.007355
0.051758 0.011017 0.007202
0.081268 0.010376 0.007080
0.112061 0.009583 0.006836
0.143646 0.008606 0.006622
0.176483 0.007416 0.006317
0.211090 0.005951 0.005951
0.248138 0.004150 0.005524
0.287811 0.001984 0.004974
0.330566 0.000000 0.004303
0.376678 0.000000 0.003479
0.426575 0.000000 0.002502
0.480377 0.000000 0.001282
0.538727 0.000000 0.000000
0.601624 0.000000 0.000000
0.668549 0.000000 0.000000
0.731812 0.000000 0.000000
0.790924 0.000000 0.000000
0.846222 0.000000 0.000000
0.895386 0.000000 0.000000
0.937775 0.000000 0.000000
0.973175 0.000000 0.000000
0.999939 0.000000 0.000000
1.000000 0.000000 0.000000
1.000000 0.000000 0.000000
1.000000 0.000000 0.000000
1.000000 0.000000 0.000000
1.000000 0.000000 0.000000
1.000000 0.000000 0.000000
0.005463 0.016418 0.007294
0.010773 0.015472 0.007172
0.014130 0.015045 0.007080
0.021667 0.014587 0.006958
0.046051 0.013977 0.006836
0.076141 0.013275 0.006653
0.107971 0.012421 0.006470
0.140015 0.011475 0.006226
0.173340 0.010284 0.005920
0.208435 0.008789 0.005554
0.245819 0.006989 0.005096
0.285858 0.004822 0.004547
0.328857 0.002167 0.003906
0.375153 0.000000 0.003113
0.425079 0.000000 0.002106
0.479126 0.000000 0.000885
0.537628 0.000000 0.000000
0.600677 0.000000 0.000000
0.667786 0.000000 0.000000
0.731171 0.000000 0.000000
0.790405 0.000000 0.000000
0.845886 0.000000 0.000000
0.895111 0.000000 0.000000
0.937561 0.000000 0.000000
0.972992 0.000000 0.000000
0.999908 0.000000 0.000000
1.000000 0.000000 0.000000
1.000000 0.000000 0.000000
1.000000 0.000000 0.000000
1.000000 0.000000 0.000000
1.000000 0.000000 0.000000
1.000000 0.000000 0.000000
0.004150 0.026184 0.006836
0.009460 0.023193 0.006653
0.012726 0.022369 0.006561
0.018585 0.021301 0.006470
0.039124 0.020050 0.006348
0.070007 0.018555 0.006165
0.102570 0.016754 0.005981
0.135559 0.015259 0.005737
0.169495 0.013885 0.005432
0.205170 0.012268 0.005066
0.243011 0.010498 0.004639
0.283264 0.008301 0.004059
0.326508 0.005646 0.003448
0.373108 0.002380 0.002625
0.423340 0.000000 0.001617
0.477631 0.000000 0.000397
0.536194 0.000000 0.000000
0.599396 0.000000 0.000000
0.666992 0.000000 0.000000
0.730530 0.000000 0.000000
0.789856 0.000000 0.000000
0.845459 0.000000 0.000000
0.894775 0.000000 0.000000
0.937378 0.000000 0.000000
0.972839 0.000000 0.000000
0.999847 0.000000 0.000000
1.000000 0.000000 0.000000
1.000000 0.000000 0.000000
1.000000 0.000000 0.000000
1.000000 0.000000 0.000000
1.000000 0.000000 0.000000
1.000000 0.000000 0.000000
0.002533 0.049377 0.006226
0.007843 0.046265 0.006073
0.011108 0.044373 0.005981
0.015442 0.041992 0.005890
0.030212 0.039215 0.005737
0.061768 0.035583 0.005615
0.095856 0.031158 0.005371
0.129974 0.025635 0.005127
0.164795 0.021515 0.004852
0.201111 0.018250 0.004486
0.239380 0.015167 0.004028
0.280090 0.012573 0.003510
0.323853 0.009918 0.002838
0.370758 0.006653 0.002014
0.421326 0.002655 0.001007
0.475708 0.000000 0.000000
0.534576 0.000000 0.000000
0.597961 0.000000 0.000000
0.666351 0.000000 0.000000
0.730042 0.000000 0.000000
0.789154 0.000000 0.000000
0.844940 0.000000 0.000000
0.894440 0.000000 0.000000
0.937103 0.000000 0.000000
0.972656 0.000000 0.000000
0.999786 0.000000 0.000000
1.000000 0.000000 0.000000
1.000000 0.000000 0.000000
1.000000 0.000000 0.000000
1.000000 0.000000 0.000000
1.000000 0.000000 0.000000
1.000000 0.000000 0.000000
0.000549 0.075836 0.005493
0.005859 0.073059 0.005371
0.009125 0.071136 0.005280
0.013153 0.069031 0.005188
0.021576 0.066254 0.005035
0.051636 0.063019 0.004852
0.087128 0.058899 0.004669
0.122986 0.053802 0.004425
0.158905 0.047577 0.004120
0.196075 0.039703 0.003784
0.234985 0.029968 0.003326
0.276367 0.021027 0.002777
0.320435 0.015717 0.002106
0.367737 0.011841 0.001312
0.418640 0.007843 0.000305
0.473450 0.002991 0.000000
0.532593 0.000000 0.000000
0.596222 0.000000 0.000000
0.664703 0.000000 0.000000
0.728882 0.000000 0.000000
0.788330 0.000000 0.000000
0.844330 0.000000 0.000000
0.893982 0.000000 0.000000
0.936737 0.000000 0.000000
0.972443 0.000000 0.000000
0.999725 0.000000 0.000000
1.000000 0.000000 0.000000
1.000000 0.000000 0.000000
1.000000 0.000000 0.000000
1.000000 0.000000 0.000000
1.000000 0.000000 0.000000
1.000000 0.000000 0.000000
0.000000 0.103607 0.004608
0.003448 0.101166 0.004486
0.006714 0.099701 0.004395
0.010712 0.097900 0.004303
0.016144 0.095581 0.004150
0.038788 0.092682 0.003967
0.076324 0.089325 0.003815
0.114044 0.084839 0.003571
0.151428 0.079346 0.003235
0.189667 0.072449 0.002899
0.229584 0.063629 0.002411
0.271637 0.052338 0.001892
0.316284 0.038269 0.001221
0.364105 0.022186 0.000427
0.415375 0.014832 0.000000
0.470581 0.009369 0.000000
0.530029 0.003418 0.000000
0.593964 0.000000 0.000000
0.662781 0.000000 0.000000
0.727325 0.000000 0.000000
0.787170 0.000000 0.000000
0.843506 0.000000 0.000000
0.893433 0.000000 0.000000
0.936310 0.000000 0.000000
0.972198 0.000000 0.000000
0.999664 0.000000 0.000000
1.000000 0.000000 0.000000
1.000000 0.000000 0.000000
1.000000 0.000000 0.000000
1.000000 0.000000 0.000000
1.000000 0.000000 0.000000
1.000000 0.000000 0.000000
0.000000 0.132507 0.003540
0.000458 0.130371 0.003418
0.003754 0.129211 0.003326
0.007751 0.127716 0.003235
0.012634 0.125732 0.003082
0.022980 0.123474 0.002899
0.061432 0.120483 0.002716
0.102295 0.116791 0.002472
0.142029 0.112244 0.002197
0.181732 0.106537 0.001831
0.222687 0.099304 0.001373
0.265625 0.089874 0.000824
0.311157 0.077545 0.000153
0.359619 0.061737 0.000000
0.411530 0.041077 0.000000
0.467194 0.020508 0.000000
0.526947 0.011200 0.000000
0.591217 0.003906 0.000000
0.660431 0.000000 0.000000
0.725525 0.000000 0.000000
0.785858 0.000000 0.000000
0.842590 0.000000 0.000000
0.892761 0.000000 0.000000
0.935852 0.000000 0.000000
0.971863 0.000000 0.000000
0.999542 0.000000 0.000000
1.000000 0.000000 0.000000
1.000000 0.000000 0.000000
1.000000 0.000000 0.000000
1.000000 0.000000 0.000000
1.000000 0.000000 0.000000
1.000000 0.000000 0.000000
0.000000 0.162811 0.002258
0.000000 0.160980 0.002075
0.000092 0.159943 0.001984
0.004120 0.158600 0.001892
0.009003 0.157043 0.001770
0.015472 0.154968 0.001587
0.042633 0.152527 0.001404
0.086761 0.149384 0.001160
0.129700 0.145538 0.000854
0.171631 0.140839 0.000488
0.214203 0.134827 0.000061
0.258331 0.127258 0.000000
0.304779 0.117523 0.000000
0.354004 0.104767 0.000000
0.406586 0.087891 0.000000
0.462891 0.064972 0.000000
0.523254 0.034424 0.000000
0.587952 0.014313 0.000000
0.657471 0.004547 0.000000
0.723267 0.000000 0.000000
0.784332 0.000000 0.000000
0.841339 0.000000 0.000000
0.891876 0.000000 0.000000
0.935242 0.000000 0.000000
0.971497 0.000000 0.000000
0.999420 0.000000 0.000000
1.000000 0.000000 0.000000
1.000000 0.000000 0.000000
1.000000 0.000000 0.000000
1.000000 0.000000 0.000000
1.000000 0.000000 0.000000
1.000000 0.000000 0.000000
0.000000 0.195007 0.000641
0.000000 0.193420 0.000458
0.000000 0.192505 0.000366
0.000000 0.191345 0.000275
0.004578 0.189850 0.000153
0.010559 0.188171 0.000000
0.021515 0.186096 0.000000
0.065826 0.183350 0.000000
0.113586 0.180054 0.000000
0.158630 0.176086 0.000000
0.203217 0.171051 0.000000
0.249084 0.164581 0.000000
0.296814 0.156677 0.000000
0.347168 0.146240 0.000000
0.400513 0.133057 0.000000
0.457458 0.115295 0.000000
0.518646 0.090942 0.000000
0.583862 0.056702 0.000000
0.653870 0.019897 0.000000
0.720612 0.005341 0.000000
0.782257 0.000000 0.000000
0.839905 0.000000 0.000000
0.890747 0.000000 0.000000
0.934540 0.000000 0.000000
0.971008 0.000000 0.000000
0.999268 0.000000 0.000000
1.000000 0.000000 0.000000
1.000000 0.000000 0.000000
1.000000 0.000000 0.000000
1.000000 0.000000 0.000000
1.000000 0.000000 0.000000
1.000000 0.000000 0.000000
0.000000 0.229370 0.000000
0.000000 0.228027 0.000000
0.000000 0.227173 0.000000
0.000000 0.226166 0.000000
0.000000 0.224976 0.000000
0.005157 0.223480 0.000000
0.012451 0.221588 0.000000
0.037872 0.219269 0.000000
0.091370 0.216461 0.000000
0.141449 0.212860 0.000000
0.189331 0.208496 0.000000
0.237274 0.203064 0.000000
0.286804 0.196320 0.000000
0.338531 0.187744 0.000000
0.393127 0.176849 0.000000
0.450958 0.162750 0.000000
0.512787 0.144012 0.000000
0.578888 0.118622 0.000000
0.649475 0.081665 0.000000
0.717255 0.032440 0.000000
0.779816 0.006287 0.000000
0.838104 0.000000 0.000000
0.889526 0.000000 0.000000
0.933685 0.000000 0.000000
0.970398 0.000000 0.000000
0.999054 0.000000 0.000000
1.000000 0.000000 0.000000
1.000000 0.000000 0.000000
1.000000 0.000000 0.000000
1.000000 0.000000 0.000000
1.000000 0.000000 0.000000
1.000000 0.000000 0.000000
0.000000 0.266388 0.000000
0.000000 0.265137 0.000000
0.000000 0.264435 0.000000
0.000000 0.263550 0.000000
0.000000 0.262543 0.000000
0.000000 0.261047 0.000000
0.005829 0.259521 0.000000
0.015533 0.257538 0.000000
0.060181 0.254974 0.000000
0.118317 0.252045 0.000000
0.171173 0.248199 0.000000
0.222321 0.243469 0.000000
0.274078 0.237549 0.000000
0.327698 0.230347 0.000000
0.383759 0.221130 0.000000
0.442810 0.209442 0.000000
0.505737 0.194214 0.000000
0.572601 0.174377 0.000000
0.644073 0.147522 0.000000
0.713104 0.108459 0.000000
0.776764 0.052002 0.000000
0.835815 0.007446 0.000000
0.887970 0.000000 0.000000
0.932465 0.000000 0.000000
0.969696 0.000000 0.000000
0.998810 0.000000 0.000000
1.000000 0.000000 0.000000
1.000000 0.000000 0.000000
1.000000 0.000000 0.000000
1.000000 0.000000 0.000000
1.000000 0.000000 0.000000
1.000000 0.000000 0.000000
0.000000 0.306274 0.000000
0.000000 0.305237 0.000000
0.000000 0.304626 0.000000
0.000000 0.303772 0.000000
0.000000 0.302795 0.000000
0.000000 0.301666 0.000000
0.000000 0.300232 0.000000
0.006714 0.298401 0.000000
0.021667 0.296295 0.000000
0.085144 0.293518 0.000000
0.146484 0.290344 0.000000
0.202759 0.286224 0.000000
0.257996 0.281158 0.000000
0.313965 0.274750 0.000000
0.371918 0.266907 0.000000
0.432678 0.257019 0.000000
0.496857 0.244385 0.000000
0.564941 0.228119 0.000000
0.637390 0.206848 0.000000
0.708008 0.178101 0.000000
0.772949 0.136871 0.000000
0.832947 0.073212 0.000000
0.885925 0.009766 0.000000
0.931183 0.000000 0.000000
0.968750 0.000000 0.000000
0.998535 0.000000 0.000000
1.000000 0.000000 0.000000
1.000000 0.000000 0.000000
1.000000 0.000000 0.000000
1.000000 0.000000 0.000000
1.000000 0.000000 0.000000
1.000000 0.000000 0.000000
0.000000 0.349396 0.000000
0.000000 0.348511 0.000000
0.000000 0.347961 0.000000
0.000000 0.347229 0.000000
0.000000 0.346436 0.000000
0.000000 0.345276 0.000000
0.000000 0.344086 0.000000
0.000000 0.342560 0.000000
0.007751 0.340546 0.000000
0.037994 0.338257 0.000000
0.111542 0.335327 0.000000
0.176514 0.331726 0.000000
0.236786 0.327332 0.000000
0.296417 0.321777 0.000000
0.357025 0.315002 0.000000
0.419861 0.306427 0.000000
0.485901 0.295715 0.000000
0.555389 0.282074 0.000000
0.629028 0.264526 0.000000
0.701721 0.241577 0.000000
0.768280 0.210846 0.000000
0.829590 0.166992 0.000000
0.883545 0.096863 0.000000
0.929504 0.014130 0.000000
0.967621 0.000000 0.000000
0.998138 0.000000 0.000000
1.000000 0.000000 0.000000
1.000000 0.000000 0.000000
1.000000 0.000000 0.000000
1.000000 0.000000 0.000000
1.000000 0.000000 0.000000
1.000000 0.000000 0.000000
0.000000 0.396057 0.000000
0.000000 0.395294 0.000000
0.000000 0.394806 0.000000
0.000000 0.394196 0.000000
0.000000 0.393463 0.000000
0.000000 0.392426 0.000000
0.000000 0.391357 0.000000
0.000000 0.390015 0.000000
0.000000 0.388306 0.000000
0.009003 0.386200 0.000000
0.059265 0.383728 0.000000
0.139404 0.380524 0.000000
0.208466 0.376617 0.000000
0.273560 0.371857 0.000000
0.338104 0.365936 0.000000
0.403809 0.358521 0.000000
0.472076 0.349243 0.000000
0.543427 0.337646 0.000000
0.618591 0.322906 0.000000
0.693878 0.303925 0.000000
0.762451 0.279144 0.000000
0.825256 0.245911 0.000000
0.880157 0.198883 0.000000
0.927307 0.123413 0.000000
0.966217 0.019958 0.000000
0.997345 0.000000 0.000000
1.000000 0.000000 0.000000
1.000000 0.000000 0.000000
1.000000 0.000000 0.000000
1.000000 0.000000 0.000000
1.000000 0.000000 0.000000
1.000000 0.000000 0.000000
0.000000 0.446655 0.000000
0.000000 0.445953 0.000000
0.000000 0.445557 0.000000
0.000000 0.445007 0.000000
0.000000 0.444366 0.000000
0.000000 0.443451 0.000000
0.000000 0.442474 0.000000
0.000000 0.441284 0.000000
0.000000 0.439819 0.000000
0.000000 0.437897 0.000000
0.010590 0.435699 0.000000
0.082458 0.432892 0.000000
0.168915 0.429443 0.000000
0.243073 0.425385 0.000000
0.313354 0.420013 0.000000
0.383148 0.413666 0.000000
0.454590 0.405640 0.000000
0.528473 0.395599 0.000000
0.605774 0.382935 0.000000
0.684113 0.367004 0.000000
0.755096 0.346558 0.000000
0.819794 0.319763 0.000000
0.876190 0.283783 0.000000
0.924622 0.233276 0.000000
0.964508 0.152161 0.000000
0.996246 0.031891 0.000000
1.000000 0.000000 0.000000
1.000000 0.000000 0.000000
1.000000 0.000000 0.000000
1.000000 0.000000 0.000000
1.000000 0.000000 0.000000
1.000000 0.000000 0.000000
0.000000 0.501556 0.000000
0.000000 0.500885 0.000000
0.000000 0.500519 0.000000
0.000000 0.500031 0.000000
0.000000 0.499420 0.000000
0.000000 0.498688 0.000000
0.000000 0.497803 0.000000
0.000000 0.496765 0.000000
0.000000 0.495483 0.000000
0.000000 0.493713 0.000000
0.000000 0.491821 0.000000
0.013397 0.489288 0.000000
0.107758 0.486389 0.000000
0.200470 0.482635 0.000000
0.280273 0.478149 0.000000
0.356354 0.472504 0.000000
0.432220 0.465454 0.000000
0.509552 0.456757 0.000000
0.589508 0.445923 0.000000
0.671906 0.432281 0.000000
0.745850 0.414917 0.000000
0.812897 0.392761 0.000000
0.871460 0.363708 0.000000
0.921295 0.324890 0.000000
0.962250 0.270172 0.000000
0.994781 0.183472 0.000000
1.000000 0.049438 0.000000
1.000000 0.000000 0.000000
1.000000 0.000000 0.000000
1.000000 0.000000 0.000000
1.000000 0.000000 0.000000
1.000000 0.000000 0.000000
0.000000 0.560822 0.000000
0.000000 0.560242 0.000000
0.000000 0.559967 0.000000
0.000000 0.559509 0.000000
0.000000 0.558868 0.000000
0.000000 0.558258 0.000000
0.000000 0.557526 0.000000
0.000000 0.556580 0.000000
0.000000 0.555450 0.000000
0.000000 0.553925 0.000000
0.000000 0.552185 0.000000
0.000000 0.550018 0.000000
0.018677 0.547424 0.000000
0.134735 0.544128 0.000000
0.234375 0.540100 0.000000
0.320587 0.535187 0.000000
0.403137 0.529144 0.000000
0.485352 0.521576 0.000000
0.569092 0.512146 0.000000
0.655548 0.500427 0.000000
0.734283 0.485657 0.000000
0.804077 0.466766 0.000000
0.865509 0.442688 0.000000
0.917175 0.411255 0.000000
0.959442 0.369202 0.000000
0.993042 0.310150 0.000000
1.000000 0.217072 0.000000
1.000000 0.066895 0.000000
1.000000 0.000000 0.000000
1.000000 0.000000 0.000000
1.000000 0.000000 0.000000
1.000000 0.000000 0.000000
0.000000 0.624969 0.000000
0.000000 0.624451 0.000000
0.000000 0.624176 0.000000
0.000000 0.623779 0.000000
0.000000 0.623260 0.000000
0.000000 0.622681 0.000000
0.000000 0.622009 0.000000
0.000000 0.621155 0.000000
0.000000 0.620148 0.000000
0.000000 0.618805 0.000000
0.000000 0.617310 0.000000
0.000000 0.615448 0.000000
0.000000 0.613068 0.000000
0.028961 0.610291 0.000000
0.163818 0.606750 0.000000
0.270966 0.602386 0.000000
0.364288 0.597046 0.000000
0.453766 0.590454 0.000000
0.542877 0.582367 0.000000
0.633514 0.572052 0.000000
0.718750 0.559418 0.000000
0.792877 0.543365 0.000000
0.857697 0.523041 0.000000
0.911926 0.496918 0.000000
0.956055 0.462921 0.000000
0.990784 0.417328 0.000000
1.000000 0.353302 0.000000
1.000000 0.253113 0.000000
1.000000 0.084961 0.000000
1.000000 0.000000 0.000000
1.000000 0.000000 0.000000
1.000000 0.000000 0.000000
0.000000 0.690369 0.000000
0.000000 0.689941 0.000000
0.000000 0.689758 0.000000
0.000000 0.689453 0.000000
0.000000 0.689148 0.000000
0.000000 0.688721 0.000000
0.000000 0.688202 0.000000
0.000000 0.687408 0.000000
0.000000 0.686676 0.000000
0.000000 0.685699 0.000000
0.000000 0.684540 0.000000
0.000000 0.683105 0.000000
0.000000 0.681244 0.000000
0.000000 0.679077 0.000000
0.048492 0.676361 0.000000
0.195129 0.673004 0.000000
0.310577 0.668884 0.000000
0.411743 0.663788 0.000000
0.508667 0.656830 0.000000
0.605072 0.647980 0.000000
0.698181 0.636841 0.000000
0.778259 0.623138 0.000000
0.847656 0.605835 0.000000
0.905090 0.583832 0.000000
0.951630 0.555634 0.000000
0.988007 0.518799 0.000000
1.000000 0.469330 0.000000
1.000000 0.400085 0.000000
1.000000 0.291870 0.000000
1.000000 0.103668 0.000000
1.000000 0.000000 0.000000
1.000000 0.000000 0.000000
0.000000 0.752075 0.000000
0.000000 0.751801 0.000000
0.000000 0.751617 0.000000
0.000000 0.751343 0.000000
0.000000 0.751007 0.000000
0.000000 0.750671 0.000000
0.000000 0.750275 0.000000
0.000000 0.749756 0.000000
0.000000 0.749207 0.000000
0.000000 0.748474 0.000000
0.000000 0.747559 0.000000
0.000000 0.746338 0.000000
0.000000 0.744934 0.000000
0.000000 0.743317 0.000000
0.000000 0.741150 0.000000
0.069641 0.738647 0.000000
0.229004 0.735413 0.000000
0.353455 0.731476 0.000000
0.463074 0.726593 0.000000
0.568024 0.720062 0.000000
0.671631 0.711853 0.000000
0.759094 0.701569 0.000000
0.834412 0.688538 0.000000
0.896301 0.672180 0.000000
0.945831 0.649567 0.000000
0.984406 0.619110 0.000000
1.000000 0.579224 0.000000
1.000000 0.525757 0.000000
1.000000 0.450775 0.000000
1.000000 0.333740 0.000000
1.000000 0.123169 0.000000
1.000000 0.000000 0.000000
0.000000 0.810089 0.000000
0.000000 0.809845 0.000000
0.000000 0.809723 0.000000
0.000000 0.809570 0.000000
0.000000 0.809357 0.000000
0.000000 0.809082 0.000000
0.000000 0.808746 0.000000
0.000000 0.808411 0.000000
0.000000 0.807922 0.000000
0.000000 0.807343 0.000000
0.000000 0.806671 0.000000
0.000000 0.805664 0.000000
0.000000 0.804596 0.000000
0.000000 0.803314 0.000000
0.000000 0.801727 0.000000
0.000000 0.799652 0.000000
0.091797 0.797180 0.000000
0.265167 0.794098 0.000000
0.399872 0.790222 0.000000
0.518768 0.785431 0.000000
0.632355 0.779510 0.000000
0.733795 0.771973 0.000000
0.816650 0.762421 0.000000
0.884644 0.750183 0.000000
0.938385 0.734314 0.000000
0.979706 0.712769 0.000000
1.000000 0.684235 0.000000
1.000000 0.644684 0.000000
1.000000 0.586914 0.000000
1.000000 0.505646 0.000000
1.000000 0.378998 0.000000
1.000000 0.143555 0.000000
0.000000 0.863220 0.000000
0.000000 0.863007 0.000000
0.000000 0.862915 0.000000
0.000000 0.862793 0.000000
0.000000 0.862610 0.000000
0.000000 0.862427 0.000000
0.000000 0.862183 0.000000
0.000000 0.861938 0.000000
0.000000 0.861603 0.000000
0.000000 0.861206 0.000000
0.000000 0.860687 0.000000
0.000000 0.859955 0.000000
0.000000 0.859222 0.000000
0.000000 0.858246 0.000000
0.000000 0.857086 0.000000
0.000000 0.855530 0.000000
0.000000 0.853821 0.000000
0.114685 0.851624 0.000000
0.304474 0.848816 0.000000
0.450287 0.845367 0.000000
0.579041 0.841034 0.000000
0.697113 0.835602 0.000000
0.792450 0.828735 0.000000
0.868744 0.819855 0.000000
0.928467 0.808258 0.000000
0.973633 0.793182 0.000000
1.000000 0.773132 0.000000
1.000000 0.745911 0.000000
1.000000 0.707245 0.000000
1.000000 0.652924 0.000000
1.000000 0.565063 0.000000
1.000000 0.427887 0.000000
0.000000 0.910004 0.000000
0.000000 0.909882 0.000000
0.000000 0.909790 0.000000
0.000000 0.909698 0.000000
0.000000 0.909576 0.000000
0.000000 0.909454 0.000000
0.000000 0.909302 0.000000
0.000000 0.909119 0.000000
0.000000 0.908875 0.000000
0.000000 0.908569 0.000000
0.000000 0.908203 0.000000
0.000000 0.907745 0.000000
0.000000 0.907227 0.000000
0.000000 0.906525 0.000000
0.000000 0.905731 0.000000
0.000000 0.904633 0.000000
0.000000 0.903351 0.000000
0.000000 0.901825 0.000000
0.138824 0.899811 0.000000
0.346863 0.897461 0.000000
0.504883 0.894379 0.000000
0.644226 0.890594 0.000000
0.758026 0.885773 0.000000
0.847321 0.879364 0.000000
0.914886 0.871552 0.000000
0.965424 0.861420 0.000000
1.000000 0.847931 0.000000
1.000000 0.829681 0.000000
1.000000 0.804321 0.000000
1.000000 0.768494 0.000000
1.000000 0.713409 0.000000
1.000000 0.629333 0.000000
0.000000 0.950073 0.000000
0.000000 0.949982 0.000000
0.000000 0.949890 0.000000
0.000000 0.949860 0.000000
0.000000 0.949768 0.000000
0.000000 0.949677 0.000000
0.000000 0.949554 0.000000
0.000000 0.949402 0.000000
0.000000 0.949280 0.000000
0.000000 0.949066 0.000000
0.000000 0.948792 0.000000
0.000000 0.948486 0.000000
0.000000 0.948120 0.000000
0.000000 0.947662 0.000000
0.000000 0.947113 0.000000
0.000000 0.946350 0.000000
0.000000 0.945435 0.000000
0.000000 0.944366 0.000000
0.000000 0.943085 0.000000
0.164368 0.941315 0.000000
0.392822 0.939331 0.000000
0.564056 0.936676 0.000000
0.707581 0.933563 0.000000
0.815704 0.929443 0.000000
0.895966 0.924103 0.000000
0.954041 0.917297 0.000000
0.995483 0.908417 0.000000
1.000000 0.896698 0.000000
1.000000 0.880493 0.000000
1.000000 0.857727 0.000000
1.000000 0.824890 0.000000
1.000000 0.774353 0.000000
0.000000 0.983215 0.000000
0.000000 0.983124 0.000000
0.000000 0.983124 0.000000
0.000000 0.983124 0.000000
0.000000 0.983032 0.000000
0.000000 0.983002 0.000000
0.000000 0.982910 0.000000
0.000000 0.982819 0.000000
0.000000 0.982727 0.000000
0.000000 0.982574 0.000000
0.000000 0.982422 0.000000
0.000000 0.982086 0.000000
0.000000 0.981842 0.000000
0.000000 0.981537 0.000000
0.000000 0.981140 0.000000
0.000000 0.980682 0.000000
0.000000 0.980103 0.000000
0.000000 0.979401 0.000000
0.000000 0.978546 0.000000
0.000000 0.977386 0.000000
0.191711 0.976074 0.000000
0.442535 0.974426 0.000000
0.627930 0.972229 0.000000
0.767883 0.969604 0.000000
0.867859 0.966248 0.000000
0.938141 0.961914 0.000000
0.986389 0.956207 0.000000
1.000000 0.948730 0.000000
1.000000 0.938660 0.000000
1.000000 0.924835 0.000000
1.000000 0.905090 0.000000
1.000000 0.875458 0.000000
0.000000 1.000000 0.000000
0.000000 1.000000 0.000000
0.000000 1.000000 0.000000
0.000000 1.000000 0.000000
0.000000 1.000000 0.000000
0.000000 1.000000 0.000000
0.000000 1.000000 0.000000
0.000000 1.000000 0.000000
0.000000 1.000000 0.000000
0.000000 1.000000 0.000000
0.000000 1.000000 0.000000
0.000000 1.000000 0.000000
0.000000 1.000000 0.000000
0.000000 1.000000 0.000000
0.000000 1.000000 0.000000
0.000000 1.000000 0.000000
0.000000 1.000000 0.000000
0.000000 1.000000 0.000000
0.000000 1.000000 0.000000
0.000000 1.000000 0.000000
0.000000 1.000000 0.000000
0.220886 1.000000 0.000000
0.496552 1.000000 0.000000
0.691650 0.999573 0.000000
0.824921 0.998505 0.000000
0.914001 0.996246 0.000000
0.973480 0.992798 0.000000
1.000000 0.988190 0.000000
1.000000 0.981995 0.000000
1.000000 0.973785 0.000000
1.000000 0.962250 0.000000
1.000000 0.945587 0.000000
0.000000 1.000000 0.000000
0.000000 1.000000 0.000000
0.000000 1.000000 0.000000
0.000000 1.000000 0.000000
0.000000 1.000000 0.000000
0.000000 1.000000 0.000000
0.000000 1.000000 0.000000
0.000000 1.000000 0.000000
0.000000 1.000000 0.000000
0.000000 1.000000 0.000000
0.000000 1.000000 0.000000
0.000000 1.000000 0.000000
0.000000 1.000000 0.000000
0.000000 1.000000 0.000000
0.000000 1.000000 0.000000
0.000000 1.000000 0.000000
0.000000 1.000000 0.000000
