Postproduction/IWLTBAP - Humble/LUTs by IWLTBAP (CUBE)/UTILITY/Sony S-Log2 to Rec.709/U-SONY-S-LOG2-V4-LTR.cube
# Copyright: (C) Copyright 2010-2018 by IWLTBAP SAS
# Cannot be resold, shared or otherwise redistributed
# Website: https://luts.iwltbap.com
TITLE "Sony S-Log2 Version 4 (Utility LOG to Rec.709)"
LUT_3D_SIZE 32
0.000000 0.000000 0.000000
0.000549 0.000000 0.000000
0.019531 0.000000 0.000000
0.088074 0.000000 0.000000
0.155579 0.000000 0.000000
0.223816 0.000000 0.000000
0.284210 0.000000 0.000000
0.344971 0.000000 0.000000
0.410004 0.000000 0.000000
0.477966 0.000000 0.000000
0.545807 0.000000 0.000946
0.612457 0.000000 0.006409
0.686951 0.000000 0.013580
0.762421 0.000000 0.018738
0.824860 0.000000 0.027344
0.880554 0.000000 0.036926
0.937805 0.000000 0.044250
0.984344 0.000000 0.048279
1.000000 0.000000 0.048065
1.000000 0.000000 0.042542
1.000000 0.000000 0.029938
1.000000 0.000000 0.008759
1.000000 0.000000 0.000000
1.000000 0.000000 0.000000
1.000000 0.000000 0.000000
1.000000 0.000000 0.000000
1.000000 0.000000 0.000000
1.000000 0.000000 0.000000
1.000000 0.000000 0.000000
1.000000 0.000000 0.000000
1.000000 0.000000 0.000000
1.000000 0.000000 0.000000
0.000000 0.000000 0.000000
0.000000 0.000000 0.000000
0.004333 0.000000 0.000000
0.070038 0.000000 0.000000
0.140900 0.000000 0.000000
0.213745 0.000000 0.000000
0.279572 0.000000 0.000000
0.342407 0.000000 0.000000
0.409821 0.000000 0.000000
0.479523 0.000000 0.000153
0.548798 0.000000 0.004303
0.616394 0.000000 0.015381
0.691467 0.000000 0.022858
0.767578 0.000000 0.027344
0.829620 0.000000 0.033905
0.884766 0.000000 0.042053
0.941559 0.000000 0.048645
0.985901 0.000000 0.052185
1.000000 0.000000 0.051697
1.000000 0.000000 0.045898
1.000000 0.000000 0.033234
1.000000 0.000000 0.010712
1.000000 0.000000 0.000366
1.000000 0.000000 0.000000
1.000000 0.000000 0.000000
1.000000 0.000000 0.000000
1.000000 0.000000 0.000000
1.000000 0.000000 0.000000
1.000000 0.000000 0.000000
1.000000 0.000000 0.000000
1.000000 0.000000 0.000000
1.000000 0.000000 0.000000
0.000000 0.003815 0.000000
0.000000 0.002930 0.000000
0.001770 0.001923 0.000000
0.050903 0.001129 0.000000
0.125946 0.000244 0.000000
0.203461 0.000000 0.000000
0.275513 0.000000 0.000000
0.339752 0.000000 0.000000
0.408173 0.000000 0.000000
0.478699 0.000000 0.001526
0.549744 0.000000 0.009003
0.618408 0.000000 0.021393
0.694061 0.000000 0.029572
0.772247 0.000000 0.035217
0.836334 0.000000 0.042725
0.890533 0.000000 0.049164
0.945831 0.000000 0.053680
0.987610 0.000000 0.056427
1.000000 0.000000 0.055450
1.000000 0.000000 0.049377
1.000000 0.000000 0.036530
1.000000 0.000000 0.014160
1.000000 0.000000 0.001526
1.000000 0.000000 0.000000
1.000000 0.000000 0.000000
1.000000 0.000000 0.000000
1.000000 0.000000 0.000000
1.000000 0.000000 0.000000
1.000000 0.000000 0.000000
1.000000 0.000000 0.000000
1.000000 0.000000 0.000000
1.000000 0.000000 0.000000
0.000000 0.053436 0.000000
0.000000 0.046356 0.000000
0.000000 0.038971 0.000000
0.029297 0.030029 0.000000
0.109528 0.019684 0.000000
0.191406 0.008850 0.000000
0.268738 0.005768 0.000000
0.334625 0.005035 0.000000
0.404663 0.003632 0.000000
0.476624 0.001434 0.002838
0.549316 0.000000 0.013062
0.619293 0.000000 0.025848
0.695679 0.000000 0.034698
0.775299 0.000000 0.040894
0.841553 0.000000 0.049561
0.897095 0.000000 0.057220
0.951385 0.000000 0.060303
0.989594 0.000000 0.061188
1.000000 0.000000 0.059479
1.000000 0.000000 0.053009
1.000000 0.000000 0.039978
1.000000 0.000000 0.017609
1.000000 0.000000 0.002655
1.000000 0.000000 0.000000
1.000000 0.000000 0.000000
1.000000 0.000000 0.000000
1.000000 0.000000 0.000000
1.000000 0.000000 0.000000
1.000000 0.000000 0.000000
1.000000 0.000000 0.000000
1.000000 0.000000 0.000000
1.000000 0.000000 0.000000
0.000000 0.108917 0.000000
0.000000 0.102478 0.000000
0.000000 0.095886 0.000000
0.006226 0.087860 0.000000
0.086731 0.077332 0.000000
0.171997 0.066772 0.000000
0.254730 0.058136 0.000000
0.324982 0.055237 0.000000
0.397919 0.047729 0.000000
0.472168 0.034149 0.003021
0.546936 0.015930 0.015198
0.618378 0.002991 0.028534
0.695984 0.000000 0.038788
0.777649 0.000000 0.045959
0.846191 0.000000 0.055725
0.903931 0.000000 0.065460
0.959137 0.000000 0.069458
0.992340 0.000000 0.067657
1.000000 0.000000 0.064484
1.000000 0.000000 0.057404
1.000000 0.000000 0.044037
1.000000 0.000000 0.021637
1.000000 0.000000 0.003967
1.000000 0.000000 0.000000
1.000000 0.000000 0.000000
1.000000 0.000000 0.000000
1.000000 0.000000 0.000000
1.000000 0.000000 0.000000
1.000000 0.000000 0.000000
1.000000 0.000000 0.000000
1.000000 0.000000 0.000000
1.000000 0.000000 0.000000
0.000000 0.169769 0.000000
0.000000 0.163696 0.000000
0.000000 0.157196 0.000000
0.002167 0.149963 0.000000
0.059387 0.140198 0.000000
0.147949 0.128723 0.000000
0.235992 0.118591 0.000000
0.310516 0.113861 0.000000
0.383423 0.107574 0.000000
0.460419 0.094360 0.001129
0.539307 0.074921 0.011627
0.614044 0.050110 0.027618
0.693146 0.020294 0.039795
0.777405 0.000000 0.048615
0.849304 0.000000 0.060150
0.909912 0.000000 0.072510
0.967621 0.000000 0.079834
0.997070 0.000000 0.078583
1.000000 0.000000 0.071381
1.000000 0.000000 0.063080
1.000000 0.000000 0.049133
1.000000 0.000000 0.026550
1.000000 0.000000 0.005554
1.000000 0.000000 0.000000
1.000000 0.000000 0.000000
1.000000 0.000000 0.000000
1.000000 0.000000 0.000000
1.000000 0.000000 0.000000
1.000000 0.000000 0.000000
1.000000 0.000000 0.000000
1.000000 0.000000 0.000000
1.000000 0.000000 0.000000
0.000000 0.236847 0.000000
0.000000 0.230896 0.000000
0.000000 0.224915 0.000000
0.000000 0.218048 0.000000
0.026154 0.209320 0.000000
0.118835 0.196869 0.000000
0.212433 0.184875 0.000000
0.294159 0.177521 0.000000
0.366180 0.172028 0.000000
0.442627 0.159821 0.000000
0.522217 0.141449 0.001862
0.600647 0.117035 0.015808
0.683960 0.084259 0.033722
0.772614 0.041656 0.046387
0.849213 0.004211 0.060852
0.913422 0.000000 0.076538
0.972839 0.000000 0.088318
1.000000 0.000000 0.091248
1.000000 0.000000 0.083008
1.000000 0.000000 0.070709
1.000000 0.000000 0.055664
1.000000 0.000000 0.032654
1.000000 0.000000 0.007416
1.000000 0.000000 0.000000
1.000000 0.000000 0.000000
1.000000 0.000000 0.000000
1.000000 0.000000 0.000000
1.000000 0.000000 0.000000
1.000000 0.000000 0.000000
1.000000 0.000000 0.000000
1.000000 0.000000 0.000000
1.000000 0.000000 0.000000
0.000000 0.307495 0.004395
0.000000 0.301971 0.003082
0.000000 0.296082 0.001617
0.000000 0.289795 0.000305
0.007416 0.281464 0.000000
0.086395 0.269287 0.000000
0.184418 0.255615 0.000000
0.274567 0.244385 0.000000
0.345490 0.238312 0.000000
0.420502 0.226440 0.000000
0.498596 0.209167 0.000000
0.576385 0.186615 0.001495
0.659943 0.156494 0.011810
0.755768 0.115234 0.029694
0.840790 0.067291 0.051544
0.911377 0.020233 0.073792
0.973663 0.000000 0.091797
1.000000 0.000000 0.101868
1.000000 0.000000 0.098267
1.000000 0.000000 0.082092
1.000000 0.000000 0.064209
1.000000 0.000000 0.040344
1.000000 0.000000 0.009674
1.000000 0.000000 0.000000
1.000000 0.000000 0.000000
1.000000 0.000000 0.000000
1.000000 0.000000 0.000000
1.000000 0.000000 0.000000
1.000000 0.000000 0.000000
1.000000 0.000000 0.000000
1.000000 0.000000 0.000000
1.000000 0.000000 0.000000
0.000000 0.379089 0.023712
0.000000 0.372986 0.019073
0.000000 0.366699 0.013885
0.000000 0.359650 0.007416
0.000000 0.350891 0.002838
0.052429 0.339478 0.000458
0.153595 0.323456 0.000000
0.251892 0.307678 0.000000
0.325684 0.298096 0.000000
0.395142 0.286621 0.000000
0.468567 0.270264 0.000000
0.543030 0.249847 0.000000
0.621674 0.223511 0.000000
0.716034 0.186951 0.002319
0.809875 0.143585 0.017151
0.893494 0.093323 0.051575
0.969421 0.036835 0.082886
1.000000 0.000000 0.104767
1.000000 0.000000 0.112671
1.000000 0.000000 0.101013
1.000000 0.000000 0.076263
1.000000 0.000000 0.050262
1.000000 0.000000 0.014862
1.000000 0.000000 0.000000
1.000000 0.000000 0.000000
1.000000 0.000000 0.000000
1.000000 0.000000 0.000000
1.000000 0.000000 0.000000
1.000000 0.000000 0.000000
1.000000 0.000000 0.000000
1.000000 0.000000 0.000000
1.000000 0.000000 0.000000
0.000000 0.444305 0.042175
0.000000 0.437378 0.036163
0.000000 0.430023 0.029724
0.000000 0.422150 0.022522
0.000000 0.412964 0.013794
0.003815 0.401215 0.003418
0.099579 0.384583 0.000000
0.210449 0.364655 0.000000
0.303253 0.349365 0.000000
0.374634 0.339020 0.000000
0.447571 0.325012 0.000000
0.518860 0.308014 0.000000
0.588043 0.287109 0.000000
0.671814 0.256592 0.000000
0.760315 0.217987 0.000000
0.845642 0.172577 0.008209
0.938904 0.114441 0.040833
0.997864 0.048279 0.084717
1.000000 0.000000 0.114502
1.000000 0.000000 0.119568
1.000000 0.000000 0.097565
1.000000 0.000000 0.063690
1.000000 0.000000 0.026215
1.000000 0.000000 0.002838
1.000000 0.000000 0.000000
1.000000 0.000000 0.000000
1.000000 0.000000 0.000000
1.000000 0.000000 0.000000
1.000000 0.000000 0.000000
1.000000 0.000000 0.000000
1.000000 0.000000 0.000000
1.000000 0.000000 0.000000
0.000000 0.500244 0.043579
0.000000 0.493103 0.036865
0.000000 0.485657 0.029816
0.000000 0.478088 0.022522
0.000000 0.469147 0.013458
0.000000 0.458160 0.002411
0.024506 0.444366 0.000000
0.140991 0.425140 0.000000
0.261475 0.406525 0.000000
0.347626 0.397919 0.000000
0.428467 0.387390 0.000000
0.507507 0.373016 0.000000
0.579590 0.355835 0.000000
0.656708 0.331177 0.000000
0.732452 0.300201 0.000000
0.798859 0.262451 0.000000
0.881256 0.208832 0.003448
0.973907 0.136475 0.024963
1.000000 0.055481 0.079285
1.000000 0.000000 0.120422
1.000000 0.000000 0.121460
1.000000 0.000000 0.085358
1.000000 0.000000 0.041901
1.000000 0.000000 0.006989
1.000000 0.000000 0.000000
1.000000 0.000000 0.000000
1.000000 0.000000 0.000000
1.000000 0.000000 0.000000
1.000000 0.000000 0.000000
1.000000 0.000000 0.000000
1.000000 0.000000 0.000000
1.000000 0.000000 0.000000
0.000000 0.558411 0.042419
0.000000 0.552094 0.036285
0.000000 0.545868 0.030060
0.000000 0.539368 0.023560
0.000000 0.531769 0.015747
0.000000 0.522400 0.005646
0.000000 0.510498 0.000000
0.053467 0.494781 0.000000
0.191711 0.473389 0.000000
0.311035 0.459137 0.000000
0.399841 0.451935 0.000000
0.487091 0.440674 0.000000
0.566467 0.427185 0.000000
0.647186 0.408508 0.000000
0.729401 0.382904 0.000000
0.790619 0.354095 0.000000
0.845337 0.314301 0.000000
0.923218 0.253296 0.000000
0.997162 0.164215 0.015076
1.000000 0.062714 0.069763
1.000000 0.000000 0.121460
1.000000 0.000000 0.116150
1.000000 0.000000 0.064240
1.000000 0.000000 0.013275
1.000000 0.000000 0.000000
1.000000 0.000000 0.000000
1.000000 0.000000 0.000000
1.000000 0.000000 0.000000
1.000000 0.000000 0.000000
1.000000 0.000000 0.000000
1.000000 0.000000 0.000000
1.000000 0.000000 0.000000
0.000000 0.623535 0.050079
0.000000 0.617950 0.044128
0.000000 0.612274 0.038086
0.000000 0.606384 0.031799
0.000000 0.599609 0.024292
0.000000 0.591187 0.014801
0.000000 0.580505 0.003082
0.000000 0.567017 0.000000
0.090942 0.548370 0.000000
0.248688 0.526672 0.000000
0.361206 0.518738 0.000000
0.457886 0.510712 0.000000
0.547638 0.499878 0.000000
0.630951 0.486145 0.000000
0.720459 0.465546 0.000000
0.790436 0.443909 0.000000
0.847260 0.416107 0.000000
0.904083 0.372833 0.000000
0.965393 0.304443 0.000000
1.000000 0.197662 0.011627
1.000000 0.072540 0.057648
1.000000 0.000000 0.117401
1.000000 0.000000 0.103516
1.000000 0.000000 0.032684
1.000000 0.000000 0.000885
1.000000 0.000000 0.000000
1.000000 0.000000 0.000000
1.000000 0.000000 0.000000
1.000000 0.000000 0.000000
1.000000 0.000000 0.000000
1.000000 0.000000 0.000000
1.000000 0.000000 0.000000
0.000000 0.694275 0.060577
0.000000 0.689087 0.055206
0.000000 0.683777 0.049500
0.000000 0.678436 0.043793
0.000000 0.672211 0.037170
0.000000 0.664520 0.028564
0.000000 0.654877 0.017609
0.000000 0.642914 0.003357
0.000000 0.627502 0.000000
0.140228 0.605469 0.000000
0.308624 0.586548 0.000000
0.420837 0.580566 0.000000
0.521942 0.571167 0.000000
0.609467 0.560455 0.000000
0.702698 0.543793 0.000000
0.781189 0.526428 0.000000
0.842224 0.507812 0.000000
0.903534 0.479858 0.000000
0.966187 0.435486 0.000000
0.994629 0.361084 0.000000
1.000000 0.236633 0.007111
1.000000 0.083191 0.040771
1.000000 0.000000 0.107880
1.000000 0.000000 0.078705
1.000000 0.000000 0.008759
1.000000 0.000000 0.000000
1.000000 0.000000 0.000000
1.000000 0.000000 0.000000
1.000000 0.000000 0.000000
1.000000 0.000000 0.000000
1.000000 0.000000 0.000000
1.000000 0.000000 0.000000
0.000000 0.773468 0.065887
0.000000 0.768616 0.060822
0.000000 0.763885 0.055756
0.000000 0.759003 0.050690
0.000000 0.753296 0.044617
0.000000 0.746246 0.036987
0.000000 0.737610 0.027313
0.000000 0.726715 0.014801
0.000000 0.712891 0.001282
0.003876 0.694397 0.000000
0.191895 0.667145 0.000000
0.358643 0.650818 0.000000
0.478027 0.641205 0.000000
0.580078 0.630371 0.000000
0.677429 0.616669 0.000000
0.768158 0.601074 0.000000
0.832611 0.588379 0.000000
0.893433 0.570618 0.000000
0.958557 0.542297 0.000000
0.996826 0.496643 0.000000
1.000000 0.419037 0.000000
1.000000 0.281494 0.000610
1.000000 0.094482 0.029724
1.000000 0.000000 0.090668
1.000000 0.000000 0.039703
1.000000 0.000000 0.000000
1.000000 0.000000 0.000000
1.000000 0.000000 0.000000
1.000000 0.000000 0.000000
1.000000 0.000000 0.000000
1.000000 0.000000 0.000000
1.000000 0.000000 0.000000
0.000000 0.858490 0.078033
0.000000 0.854187 0.073059
0.000000 0.850006 0.068207
0.000000 0.845551 0.063080
0.000000 0.840393 0.057068
0.000000 0.833984 0.049408
0.000000 0.825958 0.039795
0.000000 0.815735 0.027130
0.000000 0.802490 0.010010
0.000000 0.784912 0.000610
0.018341 0.761322 0.000000
0.239716 0.728363 0.000000
0.405609 0.715332 0.000000
0.531982 0.706360 0.000000
0.639038 0.697479 0.000000
0.747467 0.683838 0.000000
0.825470 0.673889 0.000000
0.891785 0.662079 0.000000
0.958466 0.643097 0.000000
0.992126 0.613251 0.000000
1.000000 0.564545 0.000000
1.000000 0.480042 0.000000
1.000000 0.328430 0.000000
1.000000 0.106293 0.024963
1.000000 0.000000 0.062988
1.000000 0.000000 0.008972
1.000000 0.000000 0.000000
1.000000 0.000000 0.000000
1.000000 0.000000 0.000000
1.000000 0.000000 0.000000
1.000000 0.000000 0.000000
1.000000 0.000000 0.000000
0.000000 0.945709 0.108521
0.000000 0.941650 0.103485
0.000000 0.937561 0.098328
0.000000 0.933380 0.093018
0.000000 0.928345 0.086700
0.000000 0.921936 0.078613
0.000000 0.913879 0.068298
0.000000 0.903656 0.055176
0.000000 0.890533 0.037842
0.000000 0.873779 0.014801
0.000000 0.852478 0.002777
0.048309 0.825226 0.000000
0.300720 0.793701 0.000000
0.473541 0.787598 0.000000
0.602722 0.782593 0.000000
0.720184 0.773376 0.000000
0.813812 0.764740 0.000000
0.882782 0.757721 0.000000
0.952759 0.744690 0.000000
0.996063 0.723450 0.000000
1.000000 0.691254 0.000000
1.000000 0.640900 0.000000
1.000000 0.552002 0.000000
1.000000 0.376251 0.000000
1.000000 0.118958 0.018982
1.000000 0.000000 0.032501
1.000000 0.000000 0.000000
1.000000 0.000000 0.000000
1.000000 0.000000 0.000000
1.000000 0.000000 0.000000
1.000000 0.000000 0.000000
1.000000 0.000000 0.000000
0.000000 0.994141 0.146912
0.000000 0.992340 0.141571
0.000000 0.990540 0.136200
0.000000 0.988770 0.130707
0.000000 0.986603 0.124146
0.000000 0.983856 0.115845
0.000000 0.980408 0.105408
0.000000 0.976135 0.092346
0.000000 0.970703 0.075928
0.000000 0.962463 0.055511
0.000000 0.946716 0.030029
0.000000 0.924744 0.007294
0.101105 0.896881 0.000000
0.380005 0.869843 0.000000
0.560394 0.861511 0.000000
0.687927 0.852386 0.000000
0.801331 0.839600 0.000000
0.873108 0.833191 0.000000
0.937744 0.825012 0.000000
0.990051 0.811432 0.000000
1.000000 0.790558 0.000000
1.000000 0.758789 0.000000
1.000000 0.709167 0.000000
1.000000 0.623108 0.000000
1.000000 0.434418 0.000000
1.000000 0.131653 0.010559
1.000000 0.000000 0.006866
1.000000 0.000000 0.000000
1.000000 0.000000 0.000000
1.000000 0.000000 0.000000
1.000000 0.000000 0.000000
1.000000 0.000000 0.000000
0.000000 1.000000 0.185638
0.000000 1.000000 0.180176
0.000000 1.000000 0.174652
0.000000 1.000000 0.169067
0.000000 1.000000 0.162598
0.000000 1.000000 0.154480
0.000000 1.000000 0.144409
0.000000 1.000000 0.132324
0.000000 1.000000 0.117554
0.000000 1.000000 0.100098
0.000000 0.997803 0.079498
0.000000 0.990051 0.054779
0.000000 0.981140 0.022003
0.162384 0.967010 0.004333
0.454865 0.938660 0.000000
0.632660 0.920044 0.000000
0.765533 0.902527 0.000000
0.858429 0.890900 0.000000
0.924622 0.883453 0.000000
0.984070 0.873566 0.000000
1.000000 0.859924 0.000000
1.000000 0.840607 0.000000
1.000000 0.811371 0.000000
1.000000 0.764771 0.000000
1.000000 0.681946 0.000000
1.000000 0.497681 0.000000
1.000000 0.142151 0.000000
1.000000 0.000000 0.000000
1.000000 0.000000 0.000000
1.000000 0.000000 0.000000
1.000000 0.000000 0.000000
1.000000 0.000000 0.000000
0.000000 1.000000 0.225037
0.000000 1.000000 0.219696
0.000000 1.000000 0.214294
0.000000 1.000000 0.208923
0.000000 1.000000 0.202667
0.000000 1.000000 0.195190
0.000000 1.000000 0.186005
0.000000 1.000000 0.175171
0.000000 1.000000 0.162598
0.000000 1.000000 0.147980
0.000000 1.000000 0.130920
0.000000 1.000000 0.109528
0.000000 1.000000 0.079437
0.000000 1.000000 0.031586
0.213715 0.997986 0.002991
0.513641 0.983398 0.000000
0.691681 0.965942 0.000000
0.825531 0.946564 0.000000
0.904938 0.938324 0.000000
0.975189 0.930084 0.000000
1.000000 0.919312 0.000000
1.000000 0.905029 0.000000
1.000000 0.885742 0.000000
1.000000 0.858002 0.000000
1.000000 0.814240 0.000000
1.000000 0.733643 0.000000
1.000000 0.546051 0.000000
1.000000 0.149200 0.000000
1.000000 0.000000 0.000000
1.000000 0.000000 0.000000
1.000000 0.000000 0.000000
1.000000 0.000000 0.000000
0.000000 1.000000 0.266785
0.000000 1.000000 0.261719
0.000000 1.000000 0.256775
0.000000 1.000000 0.251801
0.000000 1.000000 0.246094
0.000000 1.000000 0.239258
0.000000 1.000000 0.231262
0.000000 1.000000 0.221985
0.000000 1.000000 0.211212
0.000000 1.000000 0.198730
0.000000 1.000000 0.183441
0.000000 1.000000 0.162903
0.000000 1.000000 0.132385
0.000000 1.000000 0.085480
0.000000 1.000000 0.020782
0.256317 1.000000 0.000000
0.568176 1.000000 0.000000
0.756073 0.992981 0.000000
0.874573 0.986725 0.000000
0.953400 0.984436 0.000000
0.998016 0.980286 0.000000
1.000000 0.968781 0.000000
1.000000 0.953522 0.000000
1.000000 0.933167 0.000000
1.000000 0.904877 0.000000
1.000000 0.861572 0.000000
1.000000 0.784424 0.000000
1.000000 0.583893 0.000000
1.000000 0.153961 0.000000
1.000000 0.000000 0.000000
1.000000 0.000000 0.000000
1.000000 0.000000 0.000000
0.000000 1.000000 0.311646
0.000000 1.000000 0.307037
0.000000 1.000000 0.302429
0.000000 1.000000 0.297791
0.000000 1.000000 0.292633
0.000000 1.000000 0.286621
0.000000 1.000000 0.279602
0.000000 1.000000 0.271423
0.000000 1.000000 0.261993
0.000000 1.000000 0.250702
0.000000 1.000000 0.236206
0.000000 1.000000 0.215607
0.000000 1.000000 0.184601
0.000000 1.000000 0.138000
0.000000 1.000000 0.070618
0.000000 1.000000 0.010010
0.300201 1.000000 0.000000
0.622620 1.000000 0.000000
0.818176 1.000000 0.000000
0.922455 1.000000 0.000000
0.989532 1.000000 0.000000
1.000000 0.999390 0.000000
1.000000 0.995270 0.000000
1.000000 0.989716 0.000000
1.000000 0.982086 0.000000
1.000000 0.954773 0.000000
1.000000 0.910583 0.000000
1.000000 0.835144 0.000000
1.000000 0.621246 0.000000
1.000000 0.158356 0.000000
1.000000 0.000000 0.000000
1.000000 0.000000 0.000000
0.000000 1.000000 0.359467
0.000000 1.000000 0.355072
0.000000 1.000000 0.350800
0.000000 1.000000 0.346375
0.000000 1.000000 0.341553
0.000000 1.000000 0.335999
0.000000 1.000000 0.329529
0.000000 1.000000 0.322052
0.000000 1.000000 0.313354
0.000000 1.000000 0.302795
0.000000 1.000000 0.289062
0.000000 1.000000 0.269165
0.000000 1.000000 0.238800
0.000000 1.000000 0.193573
0.000000 1.000000 0.130066
0.000000 1.000000 0.042542
0.000000 1.000000 0.001587
0.347534 1.000000 0.000000
0.678497 1.000000 0.000000
0.870575 1.000000 0.000000
0.973328 1.000000 0.000000
0.999817 1.000000 0.000000
1.000000 1.000000 0.000000
1.000000 1.000000 0.000000
1.000000 1.000000 0.000000
1.000000 0.997650 0.000000
1.000000 0.987854 0.000000
1.000000 0.962952 0.000000
1.000000 0.885223 0.000000
1.000000 0.660400 0.000000
1.000000 0.163849 0.000000
1.000000 0.000000 0.000000
0.000000 1.000000 0.410065
0.000000 1.000000 0.405701
0.000000 1.000000 0.401428
0.000000 1.000000 0.397095
0.000000 1.000000 0.392273
0.000000 1.000000 0.386627
0.000000 1.000000 0.380219
0.000000 1.000000 0.372772
0.000000 1.000000 0.364349
0.000000 1.000000 0.354492
0.000000 1.000000 0.341858
0.000000 1.000000 0.323914
0.000000 1.000000 0.296326
0.000000 1.000000 0.254211
0.000000 1.000000 0.194641
0.000000 1.000000 0.114288
0.000000 1.000000 0.023560
0.000000 1.000000 0.000000
0.393555 1.000000 0.000000
0.743286 1.000000 0.000000
0.921509 1.000000 0.000000
0.995117 1.000000 0.000000
1.000000 1.000000 0.000000
1.000000 1.000000 0.000000
1.000000 1.000000 0.000000
1.000000 1.000000 0.000000
1.000000 1.000000 0.000000
1.000000 0.998413 0.000000
1.000000 0.986725 0.000000
1.000000 0.937653 0.000000
1.000000 0.704681 0.000000
1.000000 0.167969 0.000000
0.000000 1.000000 0.463867
0.000000 1.000000 0.459503
0.000000 1.000000 0.455139
0.000000 1.000000 0.450714
0.000000 1.000000 0.445679
0.000000 1.000000 0.439667
0.000000 1.000000 0.432648
0.000000 1.000000 0.424347
0.000000 1.000000 0.415100
0.000000 1.000000 0.404999
0.000000 1.000000 0.393311
0.000000 1.000000 0.378326
0.000000 1.000000 0.356018
0.000000 1.000000 0.319977
0.000000 1.000000 0.265869
0.000000 1.000000 0.191284
0.000000 1.000000 0.092682
0.000000 1.000000 0.014923
0.000000 1.000000 0.000000
0.435059 1.000000 0.000000
0.809662 1.000000 0.000000
0.975342 1.000000 0.000000
0.999969 1.000000 0.000000
1.000000 1.000000 0.000000
1.000000 1.000000 0.000000
1.000000 1.000000 0.000000
1.000000 1.000000 0.000000
1.000000 1.000000 0.000000
1.000000 1.000000 0.000000
1.000000 0.996277 0.000000
1.000000 0.969116 0.000000
1.000000 0.754486 0.000000
0.000000 1.000000 0.519775
0.000000 1.000000 0.515839
0.000000 1.000000 0.511780
0.000000 1.000000 0.507690
0.000000 1.000000 0.502869
0.000000 1.000000 0.496948
0.000000 1.000000 0.489624
0.000000 1.000000 0.480560
0.000000 1.000000 0.469788
0.000000 1.000000 0.457245
0.000000 1.000000 0.443298
0.000000 1.000000 0.428497
0.000000 1.000000 0.411316
0.000000 1.000000 0.385834
0.000000 1.000000 0.342560
0.000000 1.000000 0.276154
0.000000 1.000000 0.185120
0.000000 1.000000 0.064941
0.000000 1.000000 0.005676
0.000000 1.000000 0.000000
0.480103 1.000000 0.000000
0.867310 1.000000 0.000000
0.992371 1.000000 0.000000
1.000000 1.000000 0.000000
1.000000 1.000000 0.000000
1.000000 1.000000 0.000000
1.000000 1.000000 0.000000
1.000000 1.000000 0.000000
1.000000 1.000000 0.000000
1.000000 1.000000 0.000000
1.000000 1.000000 0.000000
1.000000 0.981384 0.000000
0.000000 1.000000 0.568024
0.000000 1.000000 0.565033
0.000000 1.000000 0.562012
0.000000 1.000000 0.558960
0.000000 1.000000 0.555420
0.000000 1.000000 0.551117
0.000000 1.000000 0.545685
0.000000 1.000000 0.538544
0.000000 1.000000 0.529327
0.000000 1.000000 0.517120
0.000000 1.000000 0.501495
0.000000 1.000000 0.482422
0.000000 1.000000 0.460938
0.000000 1.000000 0.438812
0.000000 1.000000 0.411591
0.000000 1.000000 0.364105
0.000000 1.000000 0.285614
0.000000 1.000000 0.176025
0.000000 1.000000 0.042999
0.000000 1.000000 0.000000
0.000000 1.000000 0.000000
0.529877 1.000000 0.000000
0.921326 1.000000 0.000000
0.997375 1.000000 0.000000
1.000000 1.000000 0.000000
1.000000 1.000000 0.000000
1.000000 1.000000 0.000000
1.000000 1.000000 0.000000
1.000000 1.000000 0.000000
1.000000 1.000000 0.000000
1.000000 1.000000 0.000000
1.000000 1.000000 0.000000
0.000000 1.000000 0.613281
0.000000 1.000000 0.610107
0.000000 1.000000 0.606964
0.000000 1.000000 0.603821
0.000000 1.000000 0.600220
0.000000 1.000000 0.595856
0.000000 1.000000 0.590607
0.000000 1.000000 0.584015
0.000000 1.000000 0.576019
0.000000 1.000000 0.566254
0.000000 1.000000 0.554688
0.000000 1.000000 0.540588
0.000000 1.000000 0.521484
0.000000 1.000000 0.494904
0.000000 1.000000 0.462402
0.000000 1.000000 0.429016
0.000000 1.000000 0.381409
