Postproduction/IWLTBAP - Humble/LUTs by IWLTBAP (CUBE)/UTILITY/Sony S-Log2 to Rec.709/U-SONY-S-LOG2-V2-LTR.cube
# Copyright: (C) Copyright 2010-2018 by IWLTBAP SAS
# Cannot be resold, shared or otherwise redistributed
# Website: https://luts.iwltbap.com
TITLE "Sony S-Log2 Version 2 (Utility LOG to Rec.709)"
LUT_3D_SIZE 5
DOMAIN_MIN 0.000000 0.000000 0.000000
DOMAIN_MAX 0.903226 0.903226 0.903226
0.008331 0.008331 0.008331
0.149231 0.003998 0.007263
0.428741 0.000000 0.003143
0.846924 0.000000 0.000000
1.000000 0.000000 0.000000
0.000000 0.132507 0.003540
0.102295 0.116791 0.002472
0.411530 0.041077 0.000000
0.842590 0.000000 0.000000
1.000000 0.000000 0.000000
0.000000 0.396057 0.000000
0.000000 0.390015 0.000000
0.338104 0.365936 0.000000
0.825256 0.245911 0.000000
1.000000 0.000000 0.000000
0.000000 0.810089 0.000000
0.000000 0.808411 0.000000
0.000000 0.801727 0.000000
0.733795 0.771973 0.000000
1.000000 0.586914 0.000000
0.000000 1.000000 0.000000
0.000000 1.000000 0.000000
0.000000 1.000000 0.000000
0.000000 1.000000 0.000000
1.000000 1.000000 0.000000
0.006226 0.002472 0.116882
0.142487 0.000000 0.112946
0.426147 0.000000 0.096222
0.846130 0.000000 0.019440
1.000000 0.000000 0.000000
0.000000 0.111206 0.098175
0.093567 0.093567 0.093567
0.408630 0.018219 0.074921
0.841797 0.000000 0.011902
1.000000 0.000000 0.000000
0.000000 0.387817 0.017242
0.000000 0.381622 0.015259
0.334625 0.357025 0.010437
0.824493 0.233063 0.000000
1.000000 0.000000 0.000000
0.000000 0.807831 0.000000
0.000000 0.806091 0.000000
0.000000 0.799255 0.000000
0.732849 0.769135 0.000000
1.000000 0.581390 0.000000
0.000000 1.000000 0.000000
0.000000 1.000000 0.000000
0.000000 1.000000 0.000000
0.000000 1.000000 0.000000
1.000000 1.000000 0.000000
0.000000 0.000000 0.366089
0.114105 0.000000 0.364380
0.415527 0.000000 0.358185
0.843567 0.000000 0.331421
1.000000 0.000000 0.191895
0.000000 0.015930 0.358826
0.055054 0.010529 0.357178
0.397705 0.000000 0.350830
0.839172 0.000000 0.323547
1.000000 0.000000 0.178772
0.000000 0.354980 0.329956
0.000000 0.348267 0.328217
0.321198 0.321198 0.321198
0.821472 0.177582 0.291443
1.000000 0.000000 0.120300
0.000000 0.798676 0.173370
0.000000 0.796844 0.170135
0.000000 0.789734 0.157867
0.728088 0.758331 0.098541
1.000000 0.560272 0.000000
0.000000 1.000000 0.000000
0.000000 1.000000 0.000000
0.000000 1.000000 0.000000
0.000000 1.000000 0.000000
1.000000 1.000000 0.000000
0.000000 0.000000 0.772156
0.005127 0.000000 0.771637
0.369507 0.000000 0.769775
0.832550 0.000000 0.761658
1.000000 0.000000 0.725220
0.000000 0.000000 0.769928
0.000000 0.000000 0.769348
0.349274 0.000000 0.767395
0.827850 0.000000 0.759216
1.000000 0.000000 0.722321
0.000000 0.170319 0.761139
0.000000 0.157074 0.760590
0.260193 0.099670 0.758514
0.808868 0.000000 0.750031
1.000000 0.000000 0.711243
0.000000 0.757355 0.721710
0.000000 0.755066 0.721069
0.000000 0.746613 0.718506
0.708191 0.708191 0.708191
1.000000 0.463593 0.662506
0.000000 1.000000 0.457428
0.000000 1.000000 0.456085
0.000000 1.000000 0.451050
0.000000 1.000000 0.430023
1.000000 1.000000 0.325714
0.000000 0.000000 1.000000
0.000000 0.000000 1.000000
0.058655 0.000000 1.000000
0.778717 0.000000 1.000000
1.000000 0.000000 1.000000
0.000000 0.000000 1.000000
0.000000 0.000000 1.000000
0.018219 0.000000 1.000000
0.772552 0.000000 1.000000
1.000000 0.000000 1.000000
0.000000 0.000000 1.000000
0.000000 0.000000 1.000000
0.000000 0.000000 1.000000
0.748077 0.000000 1.000000
1.000000 0.000000 1.000000
0.000000 0.455658 1.000000
0.000000 0.450287 1.000000
0.000000 0.429077 1.000000
0.607758 0.328400 1.000000
1.000000 0.000000 1.000000
0.000000 1.000000 1.000000
0.000000 1.000000 1.000000
0.000000 1.000000 1.000000
0.000000 1.000000 1.000000
1.000000 1.000000 1.000000
