Postproduction/IWLTBAP - Humble/LUTs by IWLTBAP (CUBE)/UTILITY/Sony S-Log2 to Rec.709/U-SONY-S-LOG2-V3-LTR.cube
# Copyright: (C) Copyright 2010-2018 by IWLTBAP SAS
# Cannot be resold, shared or otherwise redistributed
# Website: https://luts.iwltbap.com
TITLE "Sony S-Log2 Version 3 (Utility LOG to Rec.709)"
LUT_3D_SIZE 8
DOMAIN_MIN 0.000000 0.000000 0.000000
DOMAIN_MAX 0.903226 0.903226 0.903226
0.001312 0.001160 0.001282
0.029327 0.001556 0.006439
0.184235 0.001404 0.049957
0.413422 0.002197 0.115601
0.664764 0.003265 0.187469
0.898254 0.004669 0.254028
0.962494 0.006287 0.315369
0.980469 0.008148 0.353943
0.001282 0.026215 0.001282
0.024719 0.026550 0.003906
0.180328 0.014435 0.049500
0.401337 0.014435 0.112854
0.647583 0.015442 0.183044
0.880157 0.016632 0.248840
0.960480 0.018127 0.311707
0.978729 0.019958 0.352264
0.002686 0.150177 0.002686
0.014374 0.149902 0.003479
0.127228 0.147003 0.014709
0.387085 0.125732 0.102020
0.631683 0.081390 0.175385
0.862427 0.045807 0.242035
0.959137 0.033600 0.305389
0.977539 0.035309 0.347595
0.004974 0.328888 0.004974
0.016022 0.326569 0.005859
0.030914 0.325775 0.007080
0.294586 0.320709 0.009949
0.599976 0.295410 0.137939
0.838715 0.280212 0.223145
0.958557 0.280273 0.289185
0.976959 0.284424 0.332794
0.007874 0.526245 0.007874
0.018494 0.522644 0.009033
0.032898 0.521210 0.010590
0.052063 0.519897 0.012390
0.484161 0.514343 0.014496
0.780365 0.498932 0.122009
0.959076 0.470917 0.253448
0.977417 0.456360 0.308319
0.011810 0.712982 0.011841
0.022034 0.708801 0.013214
0.035767 0.706848 0.014954
0.051910 0.706085 0.016998
0.135254 0.705597 0.017944
0.662201 0.699860 0.018494
0.940430 0.683533 0.075684
0.977722 0.668182 0.218170
0.016754 0.893860 0.016754
0.026398 0.890411 0.018280
0.038818 0.889709 0.018799
0.053741 0.889221 0.018921
0.071320 0.886963 0.019073
0.331085 0.882355 0.019226
0.826569 0.871643 0.019287
0.977234 0.859314 0.019226
0.020996 0.978699 0.020996
0.028656 0.978394 0.020416
0.040314 0.978210 0.020111
0.055054 0.978058 0.019836
0.072113 0.977905 0.019623
0.096863 0.977448 0.019318
0.683167 0.976746 0.018982
0.936554 0.974335 0.018463
0.001556 0.000916 0.025024
0.029388 0.001404 0.025848
0.182922 0.001587 0.061035
0.409363 0.002411 0.124695
0.658051 0.003662 0.195251
0.890259 0.005005 0.260834
0.962036 0.006683 0.322510
0.980103 0.008606 0.361084
0.001465 0.025055 0.023682
0.024597 0.025665 0.025146
0.178925 0.014954 0.060120
0.397308 0.014709 0.121307
0.642273 0.015656 0.190948
0.874939 0.016907 0.256836
0.960114 0.018433 0.320099
0.978394 0.020325 0.361176
0.002960 0.149963 0.014313
0.014587 0.149872 0.014923
0.127747 0.147064 0.026550
0.385529 0.130066 0.111603
0.629425 0.086853 0.183868
0.859894 0.047974 0.250214
0.958862 0.034943 0.313507
0.977264 0.038086 0.355774
0.005310 0.327942 0.015656
0.016266 0.325775 0.016266
0.031158 0.325378 0.017181
0.294647 0.320831 0.020691
0.598328 0.297577 0.149872
0.834747 0.292389 0.232086
0.958313 0.295074 0.298462
0.976837 0.294495 0.344421
0.008301 0.524719 0.017975
0.018829 0.521484 0.018829
0.033112 0.520264 0.020050
0.052307 0.519257 0.021606
0.483795 0.514282 0.024536
0.780182 0.498505 0.153076
0.959015 0.472076 0.268280
0.977295 0.464905 0.320007
0.012360 0.711182 0.021332
0.022461 0.707336 0.022461
0.036072 0.705597 0.023956
0.052002 0.705292 0.025360
0.134430 0.704956 0.026001
0.660797 0.698914 0.026550
0.939667 0.681915 0.108246
0.977539 0.664825 0.240051
0.017395 0.892303 0.025635
0.026703 0.889313 0.026703
0.038757 0.889038 0.026886
0.053650 0.888214 0.027069
0.071167 0.885712 0.027252
0.325256 0.880707 0.027405
0.824371 0.869873 0.027496
0.976868 0.856995 0.027588
0.020782 0.978607 0.028931
0.028473 0.978271 0.028473
0.040161 0.978058 0.028229
0.054810 0.977875 0.028046
0.071869 0.977661 0.027832
0.094025 0.977112 0.027557
0.677368 0.976227 0.027252
0.934753 0.973663 0.026794
0.000793 0.000793 0.146698
0.023071 0.001190 0.144257
0.181976 0.001862 0.148804
0.403839 0.002747 0.177490
0.648499 0.004028 0.225281
0.874359 0.005463 0.276184
0.961700 0.007141 0.332153
0.979828 0.009125 0.369232
0.001709 0.013397 0.142334
0.020874 0.013763 0.141174
0.177948 0.014496 0.146790
0.388428 0.014893 0.172607
0.628387 0.015961 0.217010
0.854919 0.017242 0.271057
0.959839 0.018829 0.329926
0.978180 0.020874 0.370209
0.003326 0.139435 0.130707
0.014832 0.139740 0.131348
0.127075 0.139587 0.140747
0.381470 0.134521 0.169434
0.624664 0.105530 0.220398
0.853516 0.093445 0.278778
0.958649 0.071442 0.339264
0.977081 0.065552 0.382935
0.005707 0.325043 0.052124
0.016632 0.323334 0.055573
0.031738 0.323120 0.071686
0.294342 0.318756 0.125519
0.594147 0.308533 0.209442
0.828857 0.313721 0.272125
0.958221 0.315582 0.334686
0.976837 0.317871 0.378326
0.008850 0.522522 0.032104
0.019287 0.519592 0.032654
0.033417 0.518555 0.033691
0.052704 0.517731 0.037964
0.484131 0.513336 0.099457
0.781006 0.496216 0.233582
0.959045 0.481018 0.312622
0.977264 0.492981 0.354156
0.013000 0.709137 0.034698
0.023010 0.705475 0.035431
0.036469 0.704041 0.036499
0.052094 0.704407 0.037323
0.131836 0.703613 0.037964
0.659912 0.697266 0.061096
0.939240 0.678864 0.218079
0.977417 0.660309 0.299622
0.018127 0.890472 0.038330
0.026855 0.888184 0.038696
0.038757 0.887817 0.038757
0.053650 0.886780 0.038910
0.071106 0.883789 0.039124
0.315948 0.878418 0.039246
0.822296 0.867523 0.041077
0.976562 0.854004 0.085663
0.020630 0.978546 0.040680
0.028412 0.978180 0.040283
0.040039 0.977966 0.040039
0.054688 0.977753 0.039856
0.071686 0.977417 0.039642
0.092560 0.976776 0.039429
0.671600 0.975647 0.039062
0.932556 0.972656 0.038574
0.001007 0.001007 0.328186
0.013367 0.001465 0.321899
0.182556 0.002197 0.318970
0.404633 0.003113 0.326508
0.642395 0.004425 0.347107
0.865906 0.005951 0.383698
0.961456 0.007690 0.422913
0.979553 0.009857 0.449371
0.002014 0.013550 0.316559
0.014496 0.013855 0.311707
0.182281 0.014404 0.310669
0.393127 0.015259 0.319397
0.623657 0.016327 0.340088
0.849457 0.017670 0.379333
0.959656 0.019348 0.417419
0.977997 0.021454 0.443359
0.003815 0.061981 0.307617
0.015167 0.063812 0.304474
0.129059 0.064301 0.305450
0.381958 0.048035 0.316254
0.615631 0.042267 0.339661
0.840668 0.036102 0.367584
0.958527 0.034576 0.399536
0.976929 0.036743 0.429077
0.006226 0.308319 0.288330
0.016998 0.307251 0.287415
0.032532 0.307709 0.291229
0.292297 0.306000 0.306091
0.586639 0.308899 0.331635
0.821564 0.313965 0.366333
0.958252 0.316711 0.412018
0.976898 0.326813 0.448425
0.009552 0.514862 0.216888
0.019806 0.512177 0.221985
0.033844 0.511475 0.239044
0.053253 0.510803 0.269196
0.485016 0.506897 0.313446
0.779419 0.494873 0.361725
0.959076 0.506561 0.405640
0.977264 0.508240 0.439941
0.013702 0.703827 0.102203
0.023621 0.700317 0.110413
0.036926 0.699310 0.126068
0.052277 0.700104 0.160095
0.129486 0.698669 0.227966
0.659149 0.692017 0.300476
0.939331 0.671265 0.366730
0.977325 0.656494 0.408722
0.018707 0.886414 0.054047
0.026947 0.884644 0.054382
0.038849 0.884033 0.054993
0.053680 0.882660 0.057648
0.071075 0.879211 0.067108
0.301849 0.873444 0.122925
0.820160 0.862427 0.239899
0.976318 0.848114 0.318237
0.020630 0.978546 0.055450
0.028381 0.978149 0.055084
0.039978 0.977844 0.054810
0.054565 0.977509 0.054565
0.071533 0.976990 0.054352
0.092072 0.976196 0.055450
0.665558 0.974762 0.068634
0.930084 0.970856 0.154327
0.001282 0.001282 0.526886
0.013611 0.001831 0.518433
0.180573 0.002563 0.512543
0.408752 0.003662 0.512573
0.647430 0.004974 0.522156
0.861603 0.006500 0.534882
0.961212 0.008301 0.558472
0.979401 0.010559 0.583069
0.002411 0.013763 0.510925
0.015289 0.014130 0.503754
0.181915 0.014709 0.499329
0.402405 0.015656 0.501190
0.633698 0.016785 0.512604
0.846283 0.018219 0.526733
0.959503 0.019958 0.553589
0.977844 0.022125 0.581482
0.004272 0.029968 0.498505
0.015533 0.030090 0.492950
0.130280 0.030518 0.490387
0.388947 0.031189 0.494110
0.623505 0.032196 0.507080
0.836548 0.033478 0.523041
0.958496 0.035095 0.555542
0.976868 0.037079 0.584442
0.006836 0.248749 0.484406
0.017517 0.249878 0.480560
0.033417 0.252380 0.480011
0.294617 0.249207 0.486084
0.589172 0.232849 0.501129
0.815247 0.228912 0.521545
0.958435 0.190369 0.548370
0.976990 0.178192 0.558624
0.010284 0.493591 0.461090
0.020416 0.491699 0.459351
0.034363 0.491913 0.461670
0.053864 0.492096 0.471222
0.485321 0.490234 0.490479
0.768463 0.502808 0.511566
0.959045 0.512451 0.537231
0.977264 0.516632 0.558929
0.014496 0.691742 0.426575
0.024384 0.688599 0.427917
0.037292 0.688446 0.433594
0.052490 0.689056 0.444427
0.126495 0.687012 0.463501
0.658508 0.679688 0.490082
0.938263 0.666077 0.522797
0.977264 0.669739 0.544464
0.019226 0.878082 0.370575
0.027130 0.876495 0.369598
0.038940 0.875519 0.373108
0.053741 0.873749 0.384338
0.071106 0.870026 0.406158
0.299438 0.863708 0.435699
0.817963 0.852509 0.470795
0.976105 0.836548 0.498688
0.020630 0.978516 0.301208
0.028381 0.977905 0.293640
0.039948 0.977417 0.292847
0.054504 0.976898 0.303192
0.071411 0.976196 0.332153
0.090485 0.975037 0.369690
0.659332 0.972168 0.409943
0.927368 0.967285 0.438110
0.001587 0.001587 0.714996
0.014130 0.002197 0.705017
0.176788 0.002991 0.697021
0.408752 0.004181 0.693481
0.658508 0.005524 0.696991
0.876465 0.007111 0.708130
0.961090 0.009003 0.719238
0.979248 0.011353 0.726685
0.002838 0.014069 0.695770
0.015869 0.014465 0.686981
0.180237 0.015167 0.680420
0.403564 0.016113 0.678436
0.647430 0.017334 0.683746
0.861725 0.018799 0.696228
0.959442 0.020630 0.709229
0.977783 0.022888 0.719604
0.004852 0.030212 0.680359
0.015930 0.030365 0.672882
0.127960 0.030853 0.668030
0.390503 0.031555 0.667725
0.635437 0.032684 0.674866
0.850128 0.034027 0.688507
0.958527 0.035706 0.702362
0.976898 0.037750 0.718414
0.007446 0.097992 0.665497
0.018066 0.104248 0.659546
0.034119 0.112183 0.656494
0.296204 0.108826 0.658203
0.597992 0.104309 0.667328
0.825745 0.104126 0.682739
0.958679 0.081573 0.699921
0.977142 0.062256 0.720825
0.011017 0.454529 0.647125
0.021210 0.453888 0.643066
0.034973 0.455444 0.642181
0.054504 0.456787 0.646667
0.489410 0.454773 0.659485
0.773254 0.449371 0.676910
0.958984 0.446289 0.695648
0.977325 0.437164 0.710144
0.015533 0.670013 0.625671
0.025177 0.667877 0.623810
0.037659 0.668579 0.626160
0.052765 0.668854 0.632751
0.126892 0.666260 0.644226
0.656097 0.660919 0.660400
0.930725 0.662689 0.674713
0.977173 0.667572 0.684967
0.019470 0.864410 0.599823
0.027313 0.862671 0.598145
0.039124 0.861328 0.598969
0.053864 0.859161 0.603607
0.071136 0.854980 0.613220
0.295624 0.848175 0.628052
0.815796 0.836548 0.647797
0.975891 0.821808 0.663788
0.020721 0.977783 0.577972
0.028412 0.976898 0.573334
0.039978 0.976105 0.571198
0.054443 0.975098 0.572876
0.071289 0.973633 0.579865
0.090057 0.971344 0.592346
0.652893 0.965973 0.609955
0.924683 0.955811 0.622955
0.001984 0.001984 0.885712
0.014099 0.002625 0.877045
0.171204 0.003632 0.869476
0.409119 0.004730 0.865112
0.659149 0.006165 0.866211
0.890747 0.007812 0.872467
0.960999 0.009888 0.885529
0.979156 0.012207 0.892151
0.003387 0.014404 0.868591
0.015106 0.014862 0.860413
0.177460 0.015656 0.854034
0.404968 0.016632 0.850769
0.648895 0.017914 0.853088
0.877380 0.019470 0.860596
0.959442 0.021454 0.874878
0.977753 0.023712 0.883484
0.005463 0.030518 0.853912
0.016449 0.030731 0.846893
0.124084 0.031250 0.841522
0.392548 0.032043 0.839447
0.637390 0.033203 0.842896
0.865448 0.034607 0.851898
0.958649 0.036407 0.866821
0.977081 0.038330 0.877930
0.008209 0.048615 0.839905
0.018738 0.048645 0.833618
0.033783 0.048981 0.829498
0.297760 0.049622 0.828979
0.600494 0.050598 0.833954
0.839813 0.051758 0.845490
0.958954 0.052765 0.863190
0.977264 0.053650 0.874634
0.011902 0.385223 0.823517
0.022003 0.386261 0.818726
0.035645 0.390137 0.816223
0.054871 0.392975 0.818481
0.493347 0.390961 0.827637
0.782806 0.377014 0.840668
0.959473 0.357849 0.855804
0.977356 0.365814 0.864288
0.016510 0.637421 0.805603
0.025909 0.636139 0.802734
0.038025 0.637024 0.804260
0.053009 0.636810 0.808380
0.130066 0.633636 0.816010
0.658051 0.626770 0.826996
0.933502 0.618103 0.840271
0.977142 0.617279 0.848114
0.019714 0.842987 0.787170
0.027557 0.841003 0.785461
0.039307 0.839447 0.785400
0.054047 0.837067 0.787781
0.071198 0.832581 0.793610
0.293823 0.825287 0.802765
0.811676 0.815491 0.815002
0.975342 0.811981 0.821198
0.020874 0.971985 0.772888
0.028473 0.970764 0.769196
0.039978 0.969543 0.766998
0.054443 0.967621 0.767120
0.071167 0.964203 0.770386
0.089905 0.957245 0.777039
0.645905 0.947418 0.787170
0.921906 0.936737 0.795013
0.002411 0.002411 0.981598
0.014374 0.003113 0.978821
0.170837 0.004211 0.976196
0.410797 0.005371 0.975098
0.660095 0.006866 0.975769
0.892090 0.008606 0.976898
0.960968 0.010742 0.978638
0.979126 0.013123 0.979126
0.004028 0.014801 0.975861
0.015411 0.015411 0.972900
0.176971 0.016174 0.970306
0.407562 0.017212 0.968994
0.650787 0.018555 0.969940
0.879578 0.020233 0.973358
0.959534 0.022308 0.976074
0.977814 0.024628 0.977692
0.006134 0.030884 0.969910
0.017029 0.031158 0.966370
0.121429 0.031708 0.963409
0.395416 0.032684 0.962158
0.640045 0.033844 0.964813
0.868011 0.035339 0.970001
0.958862 0.037170 0.973694
0.977295 0.038788 0.976715
0.009003 0.048950 0.960938
0.019470 0.049042 0.956818
0.033661 0.049438 0.954010
0.300751 0.050110 0.953369
0.603760 0.051178 0.956787
0.843353 0.052216 0.965759
0.959259 0.053131 0.973053
0.977448 0.053955 0.976379
0.012817 0.303253 0.947388
0.022858 0.304657 0.944122
0.036377 0.311920 0.941895
0.054840 0.316772 0.943939
0.497375 0.314911 0.950317
0.784973 0.288544 0.959747
0.959686 0.244080 0.969788
0.977417 0.181335 0.973999
0.017609 0.608917 0.931000
0.026367 0.607880 0.929565
0.038391 0.608429 0.930237
0.053314 0.607544 0.932770
0.133331 0.603607 0.938232
0.659241 0.595947 0.946411
0.936523 0.581818 0.957672
0.977081 0.572540 0.965240
0.020020 0.824585 0.912689
0.027802 0.822144 0.911560
0.039520 0.820221 0.911530
0.054199 0.817261 0.913361
0.071259 0.812195 0.917938
0.294312 0.804260 0.925354
0.811951 0.792999 0.935516
0.975372 0.783295 0.942871
0.020996 0.960846 0.897797
0.028595 0.958405 0.895660
0.040009 0.955872 0.894379
0.054413 0.952454 0.895111
0.071075 0.947296 0.898346
0.089722 0.939819 0.904205
0.641205 0.929565 0.912720
0.918152 0.919922 0.919342
