Postproduction/IWLTBAP - Humble/LUTs by IWLTBAP (CUBE)/UTILITY/Sony S-Log2 to Rec.709/U-SONY-S-LOG2-V1-LTR.cube
# Copyright: (C) Copyright 2010-2018 by IWLTBAP SAS
# Cannot be resold, shared or otherwise redistributed
# Website: https://luts.iwltbap.com
TITLE "Sony S-Log2 Version 1 (Utility LOG to Rec.709)"
LUT_3D_SIZE 8
DOMAIN_MIN 0.000000 0.000000 0.000000
DOMAIN_MAX 0.903226 0.903226 0.903226
0.000824 0.000702 0.000793
0.031403 0.000946 0.004028
0.172302 0.000885 0.035095
0.413147 0.001373 0.084625
0.671783 0.002014 0.140289
0.875519 0.002869 0.192688
0.940094 0.003906 0.247559
0.970367 0.005188 0.286713
0.000793 0.029205 0.000793
0.028107 0.029419 0.002380
0.167603 0.020874 0.034760
0.399902 0.020874 0.082520
0.657684 0.021515 0.136871
0.860565 0.022369 0.188568
0.938446 0.023438 0.243408
0.968445 0.024750 0.284607
0.001678 0.137360 0.001678
0.020844 0.136841 0.002136
0.116730 0.133667 0.009705
0.381409 0.115173 0.074249
0.644745 0.081299 0.130859
0.845856 0.054779 0.183167
0.937317 0.045837 0.236542
0.967163 0.047089 0.279297
0.003082 0.316620 0.003082
0.021942 0.314270 0.003632
0.043945 0.313446 0.004456
0.279114 0.306122 0.006378
0.611420 0.272980 0.101837
0.826263 0.249664 0.168304
0.936829 0.247955 0.220551
0.966553 0.250854 0.256226
0.005005 0.522156 0.005005
0.023712 0.518433 0.005798
0.045319 0.516815 0.006836
0.070770 0.515289 0.008087
0.469910 0.502167 0.009552
0.778107 0.475830 0.089600
0.937256 0.445190 0.192230
0.967072 0.429993 0.235779
0.007660 0.721741 0.007690
0.026184 0.717957 0.008667
0.047455 0.715790 0.009888
0.070648 0.714813 0.011261
0.145203 0.714111 0.011963
0.654419 0.696991 0.012329
0.921814 0.673676 0.054291
0.967407 0.657196 0.164368
0.011108 0.883240 0.011108
0.029327 0.880341 0.012207
0.049622 0.879822 0.012543
0.072021 0.879425 0.012634
0.096466 0.877533 0.012756
0.310791 0.873718 0.012848
0.826813 0.864838 0.012909
0.966858 0.854675 0.012848
0.014069 0.968414 0.014069
0.030914 0.968140 0.013733
0.050751 0.967926 0.013489
0.072968 0.967743 0.013306
0.097076 0.967590 0.013153
0.127106 0.967102 0.012939
0.668976 0.966339 0.012695
0.929993 0.963715 0.012299
0.000946 0.000580 0.028351
0.031464 0.000885 0.028931
0.170990 0.000977 0.054688
0.408905 0.001495 0.102966
0.666290 0.002228 0.157745
0.868866 0.003082 0.210327
0.939758 0.004181 0.269440
0.969971 0.005524 0.308685
0.000916 0.028351 0.027344
0.028015 0.028809 0.028412
0.166199 0.021240 0.053986
0.395660 0.021088 0.100403
0.653381 0.021667 0.154388
0.856232 0.022552 0.206787
0.938141 0.023651 0.266663
0.968140 0.024994 0.308411
0.001862 0.137024 0.020782
0.020966 0.136719 0.021210
0.117126 0.133667 0.029419
0.379761 0.118439 0.092957
0.642853 0.085419 0.148865
0.843781 0.056396 0.201202
0.937073 0.046844 0.259399
0.966888 0.049103 0.302338
0.003296 0.315643 0.021667
0.022125 0.313507 0.022125
0.044098 0.312958 0.022736
0.279083 0.306183 0.025238
0.609406 0.275024 0.122406
0.822998 0.260895 0.186676
0.936646 0.261047 0.239319
0.966431 0.259949 0.281738
0.005310 0.520538 0.023315
0.023956 0.517181 0.023956
0.045502 0.515808 0.024811
0.070953 0.514618 0.025879
0.469421 0.502014 0.027985
0.777985 0.475311 0.124908
0.937225 0.446136 0.215332
0.966919 0.438293 0.256470
0.008057 0.720093 0.025665
0.026489 0.716370 0.026489
0.047668 0.714478 0.027557
0.070709 0.713989 0.028595
0.144531 0.713409 0.029022
0.652985 0.696014 0.029419
0.921143 0.671906 0.090363
0.967194 0.653625 0.192993
0.011536 0.881958 0.028778
0.029510 0.879486 0.029510
0.049591 0.879272 0.029633
0.071930 0.878571 0.029755
0.096344 0.876495 0.029907
0.306122 0.872314 0.029999
0.824585 0.863403 0.030060
0.966461 0.852722 0.030151
0.013947 0.968353 0.031097
0.030762 0.967957 0.030762
0.050629 0.967743 0.030609
0.072754 0.967560 0.030487
0.096893 0.967346 0.030304
0.125000 0.966736 0.030121
0.662628 0.965759 0.029907
0.928436 0.963013 0.029541
0.000488 0.000488 0.140106
0.026947 0.000732 0.137390
0.169586 0.001160 0.139435
0.403015 0.001709 0.159119
0.658447 0.002441 0.195282
0.855743 0.003387 0.237488
0.939484 0.004517 0.293976
0.969666 0.005890 0.331726
0.001068 0.020142 0.135010
0.025360 0.020416 0.133484
0.164795 0.020935 0.136566
0.386383 0.021210 0.154236
0.641998 0.021912 0.187866
0.839661 0.022797 0.232178
0.937927 0.023956 0.291290
0.967865 0.025360 0.332367
0.002045 0.127350 0.119781
0.021149 0.127502 0.120300
0.116455 0.126862 0.127899
0.375336 0.121887 0.149384
0.638947 0.099670 0.189423
0.838531 0.090454 0.238739
0.936920 0.073792 0.299805
0.966675 0.069427 0.344482
0.003571 0.312744 0.059448
0.022369 0.310974 0.061951
0.044556 0.310577 0.074036
0.278564 0.303772 0.114960
0.603760 0.285492 0.180237
0.818115 0.280945 0.229706
0.936554 0.280090 0.285156
0.966431 0.281372 0.329407
0.005676 0.518311 0.044769
0.024261 0.515228 0.045135
0.045715 0.514038 0.045898
0.071228 0.512970 0.049011
0.469543 0.500732 0.095032
0.778656 0.472748 0.199249
0.937225 0.454437 0.261932
0.966888 0.465790 0.295135
0.008484 0.718231 0.046631
0.026886 0.714447 0.047180
0.047974 0.712799 0.047974
0.070801 0.713013 0.048584
0.142578 0.711945 0.049011
0.652039 0.694214 0.066101
0.920837 0.668549 0.187012
0.967072 0.648407 0.251556
0.012054 0.880432 0.049286
0.029602 0.878540 0.049561
0.049591 0.878265 0.049591
0.071930 0.877350 0.049713
0.096313 0.874908 0.049866
0.298676 0.870453 0.049957
0.822479 0.861450 0.051331
0.966156 0.850281 0.084595
0.013855 0.968262 0.051025
0.030762 0.967896 0.050720
0.050568 0.967651 0.050568
0.072693 0.967407 0.050385
0.096741 0.967072 0.050262
0.123871 0.966370 0.050110
0.656311 0.965179 0.049835
0.926666 0.961914 0.049469
0.000641 0.000641 0.331085
0.020111 0.000916 0.324280
0.168365 0.001373 0.319183
0.402252 0.001953 0.320740
0.653442 0.002716 0.333374
0.848724 0.003693 0.362732
0.939270 0.004913 0.402557
0.969391 0.006317 0.429779
0.001251 0.020264 0.317932
0.020935 0.020447 0.312653
0.167145 0.020844 0.309631
0.389740 0.021393 0.312958
0.638123 0.022156 0.326111
0.835144 0.023102 0.358093
0.937775 0.024323 0.396454
0.967651 0.025757 0.423096
0.002319 0.066772 0.306183
0.021362 0.068146 0.302643
0.118073 0.068512 0.302216
0.377167 0.056427 0.308807
0.631134 0.052216 0.324768
0.827911 0.047699 0.345612
0.936798 0.046600 0.377380
0.966522 0.048157 0.407623
0.003906 0.295502 0.274933
0.022644 0.294373 0.273895
0.045044 0.294617 0.277618
0.276306 0.290466 0.290558
0.594360 0.284912 0.308411
0.812134 0.280273 0.334625
0.936584 0.280243 0.379608
0.966522 0.288910 0.416321
0.006104 0.510132 0.197449
0.024628 0.507324 0.201447
0.046051 0.506226 0.214905
0.071655 0.505096 0.239502
0.469696 0.493042 0.275452
0.777313 0.470184 0.314880
0.937256 0.479065 0.357208
0.966888 0.480225 0.392670
0.009003 0.712646 0.108459
0.027313 0.708954 0.114777
0.048309 0.707764 0.126770
0.070923 0.708374 0.153076
0.140717 0.706482 0.206177
0.650635 0.687805 0.263611
0.920868 0.659393 0.316528
0.966949 0.643280 0.350311
0.012482 0.877045 0.072205
0.029694 0.875641 0.072449
0.049652 0.875122 0.072937
0.071960 0.873993 0.074921
0.096283 0.871124 0.081940
0.287415 0.866333 0.124329
0.820251 0.857208 0.215607
0.965881 0.845215 0.277771
0.013855 0.968262 0.073242
0.030731 0.967865 0.072968
0.050507 0.967529 0.072754
0.072601 0.967163 0.072601
0.096619 0.966614 0.072449
0.123474 0.965729 0.073242
0.649719 0.964172 0.083099
0.924591 0.959961 0.148560
0.000793 0.000793 0.552704
0.020294 0.001129 0.543365
0.163849 0.001617 0.535126
0.404022 0.002228 0.529114
0.657593 0.003082 0.530426
0.845154 0.004089 0.536316
0.939056 0.005310 0.560638
0.969208 0.006805 0.586670
0.001495 0.020416 0.534576
0.021423 0.020660 0.526703
0.164215 0.021088 0.520142
0.397095 0.021667 0.516632
0.646332 0.022461 0.520142
0.832520 0.023499 0.527557
0.937622 0.024750 0.554932
0.967529 0.026245 0.584503
0.002625 0.043243 0.520203
0.021606 0.043335 0.514038
0.118774 0.043640 0.509857
0.382355 0.044128 0.508484
0.638000 0.044800 0.514038
0.824524 0.045776 0.523407
0.936768 0.046936 0.556488
0.966461 0.048401 0.587158
0.004303 0.236328 0.497223
0.022980 0.237335 0.492981
0.045715 0.239594 0.492157
0.280853 0.234192 0.496399
0.600769 0.211517 0.505402
0.806885 0.206940 0.518463
0.936737 0.176636 0.546570
0.966614 0.167175 0.557434
0.006592 0.486694 0.452026
0.025085 0.484650 0.450256
0.046387 0.484619 0.452454
0.072113 0.484497 0.462250
0.469452 0.474701 0.474945
0.768372 0.476715 0.486053
0.937225 0.483643 0.510254
0.966888 0.487335 0.532990
0.009552 0.697968 0.390167
0.027863 0.694641 0.391815
0.048584 0.694336 0.397614
0.071106 0.694733 0.408783
0.138458 0.692352 0.428986
0.649261 0.673401 0.446472
0.920013 0.652313 0.475830
0.966919 0.654877 0.497528
0.012848 0.870178 0.331024
0.029785 0.868866 0.330231
0.049744 0.868042 0.333038
0.072021 0.866608 0.342072
0.096313 0.863525 0.359589
0.285522 0.858307 0.383698
0.816040 0.849030 0.411774
0.965637 0.833374 0.434418
0.013855 0.968231 0.275543
0.030731 0.967621 0.269531
0.050476 0.967072 0.268921
0.072540 0.966522 0.277130
0.096527 0.965729 0.300232
0.122314 0.964478 0.330292
0.639404 0.961395 0.362671
0.922363 0.956085 0.385376
0.000977 0.000977 0.724365
0.020660 0.001373 0.716187
0.156982 0.001892 0.709564
0.400909 0.002563 0.706665
0.666656 0.003418 0.709564
0.857452 0.004486 0.718719
0.938965 0.005768 0.727844
0.969025 0.007355 0.733948
0.001770 0.020599 0.708588
0.021820 0.020905 0.701355
0.159515 0.021362 0.696014
0.395050 0.021973 0.694336
0.657593 0.022858 0.698700
0.845306 0.023926 0.708954
0.937561 0.025238 0.719635
0.967438 0.026764 0.728149
0.002991 0.043396 0.695923
0.021881 0.043549 0.689789
0.116821 0.043884 0.685822
0.380859 0.044403 0.685547
0.647766 0.045166 0.691437
0.835724 0.046143 0.702606
0.936798 0.047394 0.713989
0.966522 0.048828 0.727173
0.004700 0.105225 0.683777
0.023407 0.110046 0.678894
0.046234 0.116089 0.676422
0.282776 0.113556 0.677765
0.610229 0.110077 0.685242
0.815582 0.109955 0.697876
0.936951 0.092834 0.711975
0.966766 0.078339 0.729126
0.007111 0.445770 0.668701
0.025574 0.445038 0.665344
0.046844 0.446350 0.664581
0.072540 0.447357 0.668304
0.474182 0.437347 0.676575
0.772278 0.421326 0.688263
0.937195 0.415253 0.705536
0.966949 0.405762 0.720398
0.010223 0.673401 0.622314
0.028442 0.671143 0.620331
0.048798 0.671631 0.622833
0.071289 0.671692 0.630157
0.138794 0.668793 0.643524
0.646393 0.651886 0.651337
0.913788 0.646301 0.660126
0.966797 0.650146 0.669830
0.013031 0.858856 0.575378
0.029968 0.857391 0.573517
0.049866 0.856323 0.574280
0.072113 0.854553 0.579407
0.096344 0.851074 0.590454
0.282501 0.845459 0.604858
0.812012 0.834045 0.610229
0.965424 0.816132 0.626160
0.013916 0.967438 0.546295
0.030762 0.966522 0.540985
0.050507 0.965668 0.538452
0.072479 0.964539 0.540192
0.096436 0.962982 0.547760
0.121979 0.960510 0.561646
0.629395 0.954712 0.563812
0.920105 0.945953 0.569244
0.001221 0.001221 0.876495
0.020630 0.001648 0.869293
0.150940 0.002197 0.863068
0.398956 0.002899 0.859467
0.667206 0.003876 0.860352
0.869293 0.004974 0.865509
0.938873 0.006317 0.876312
0.968933 0.007935 0.881805
0.002075 0.020844 0.862335
0.021332 0.021179 0.855560
0.155640 0.021667 0.850281
0.393799 0.022369 0.847626
0.658691 0.023254 0.849518
0.858215 0.024384 0.855743
0.937561 0.025757 0.867554
0.967407 0.027374 0.874664
0.003387 0.043640 0.850189
0.022217 0.043793 0.844360
0.113861 0.044189 0.839935
0.380127 0.044769 0.838257
0.648529 0.045563 0.841064
0.848358 0.046600 0.848541
0.936920 0.047913 0.860870
0.966675 0.049286 0.870026
0.005249 0.068146 0.838623
0.023865 0.068176 0.833405
0.045990 0.068420 0.830017
0.283295 0.068939 0.829620
0.611420 0.069672 0.833710
0.827179 0.070557 0.843231
0.937164 0.071289 0.857849
0.966919 0.071930 0.867340
0.007721 0.375977 0.825073
0.026154 0.376831 0.821106
0.047333 0.380463 0.819061
0.072815 0.382904 0.820923
0.481293 0.372894 0.828461
0.780182 0.348541 0.839264
0.937592 0.326813 0.851776
0.966980 0.334045 0.858765
0.010925 0.637665 0.810303
0.028992 0.636261 0.807953
0.049042 0.637024 0.809204
0.071472 0.636597 0.812561
0.141205 0.633087 0.818909
0.650909 0.614838 0.827942
0.916046 0.598969 0.838928
0.966766 0.597260 0.845398
0.013214 0.841156 0.794922
0.030121 0.839539 0.793396
0.050018 0.838257 0.793335
0.072205 0.836243 0.795349
0.096375 0.832550 0.800262
0.281036 0.826569 0.807953
0.806915 0.811005 0.810455
0.964813 0.803802 0.813751
0.014008 0.961182 0.778442
0.030762 0.959839 0.774414
0.050507 0.958527 0.771973
0.072479 0.956451 0.772064
0.096344 0.952881 0.775543
0.121887 0.947144 0.782471
0.619843 0.938995 0.776794
0.917816 0.930115 0.775513
0.001495 0.001495 0.971588
0.020844 0.001953 0.968567
0.150330 0.002563 0.965729
0.399689 0.003357 0.964539
0.667938 0.004333 0.965271
0.870392 0.005524 0.966492
0.938843 0.006927 0.968414
0.968933 0.008575 0.968933
0.002441 0.021118 0.965393
0.021484 0.021484 0.962158
0.154846 0.022034 0.959351
0.395416 0.022766 0.957947
0.660187 0.023743 0.958984
0.860077 0.024933 0.962646
0.937653 0.026367 0.965607
0.967468 0.028046 0.967346
0.003845 0.043915 0.958923
0.022675 0.044098 0.955109
0.111877 0.044525 0.952240
0.382141 0.045166 0.951202
0.650604 0.046051 0.953430
0.850464 0.047119 0.959015
0.937073 0.048492 0.963043
0.966919 0.049591 0.966309
0.005768 0.068420 0.950195
0.024384 0.068481 0.946777
0.045868 0.068787 0.944427
0.285339 0.069305 0.943909
0.614258 0.070099 0.946747
0.830109 0.070892 0.954437
0.937439 0.071564 0.962341
0.967072 0.072174 0.965912
0.008392 0.296326 0.938934
0.026733 0.297577 0.936218
0.047882 0.304352 0.934387
0.072784 0.308716 0.936096
0.490875 0.298950 0.941376
0.781921 0.265686 0.949188
0.937775 0.230225 0.958801
0.967072 0.180969 0.963379
0.011688 0.607941 0.925354
0.029297 0.606750 0.924133
0.049316 0.607117 0.924713
0.071686 0.606049 0.926819
0.143677 0.601746 0.931335
0.655762 0.582764 0.938141
0.918610 0.561829 0.947449
0.966705 0.551727 0.953888
0.013428 0.825958 0.910187
0.030273 0.823975 0.909241
0.050140 0.822357 0.909210
0.072296 0.819946 0.910767
0.096405 0.815735 0.914551
0.281433 0.809204 0.920685
0.808472 0.787994 0.929108
0.964844 0.774933 0.935181
0.014069 0.950134 0.897858
0.030853 0.948059 0.896088
0.050537 0.945984 0.895050
0.072449 0.943176 0.895599
0.096283 0.938873 0.898315
0.121704 0.932648 0.903168
0.614624 0.924164 0.910217
0.914612 0.916168 0.915680
