Postproduction/IWLTBAP - Humble/LUTs by IWLTBAP (3DL)/UTILITY/Technicolor CineStyle to Rec.709/U-TECHNICOLOR-CINESTYLE-LTR.3dl
# Copyright: (C) Copyright 2010-2018 by IWLTBAP SAS
# Cannot be resold, shared or otherwise redistributed
# Website: https://luts.iwltbap.com
0 128 256 384 512 640 768 896 1023
0 0 0
0 0 298
0 0 901
0 0 1674
0 0 2519
0 0 3372
0 0 3883
0 0 3993
0 0 4095
0 257 0
0 245 245
0 225 809
0 190 1559
0 148 2383
0 116 3236
0 110 3860
0 105 3993
0 104 4095
0 665 0
0 658 126
0 649 649
0 624 1410
0 593 2256
0 560 3137
0 540 3831
0 525 3993
0 510 4095
0 1252 0
0 1254 103
0 1258 488
0 1242 1243
0 1219 2095
0 1192 2989
0 1174 3768
0 1164 3993
0 1153 4095
0 1934 0
0 1940 102
0 1949 343
0 1939 1069
0 1920 1920
0 1897 2823
0 1878 3671
0 1872 3993
0 1864 4095
0 2668 0
0 2677 102
0 2688 245
0 2686 897
0 2670 1743
0 2650 2649
0 2630 3547
0 2626 3993
0 2621 4095
0 3433 0
0 3444 102
0 3456 211
0 3460 744
0 3447 1579
0 3429 2486
0 3410 3408
0 3406 3989
0 3403 4095
0 3989 0
0 3990 102
0 3991 216
0 3992 744
0 3991 1554
0 3990 2454
0 3989 3382
0 3989 3990
0 3989 4095
0 4095 0
0 4095 102
0 4095 225
0 4095 761
0 4095 1533
0 4095 2428
0 4095 3362
0 4095 3993
0 4095 4095
299 0 0
295 0 295
281 0 891
253 0 1659
217 0 2498
179 0 3349
157 0 3881
135 0 3993
123 0 4095
225 225 0
209 209 209
189 189 754
156 155 1501
122 122 2330
110 111 3189
105 106 3841
104 104 3993
104 104 4095
126 654 0
126 651 126
125 647 647
116 625 1407
111 596 2255
107 566 3139
105 548 3838
105 535 3993
104 520 4095
103 1267 0
103 1270 103
104 1275 508
103 1260 1261
103 1238 2113
103 1213 3008
103 1195 3789
103 1186 3993
103 1176 4095
102 1960 0
102 1966 102
102 1976 372
102 1967 1098
102 1949 1949
102 1927 2851
102 1909 3701
102 1904 3993
102 1896 4095
102 2702 0
102 2711 102
102 2723 267
102 2721 934
102 2706 1780
102 2686 2686
102 2667 3584
102 2664 3993
102 2659 4095
102 3473 0
102 3483 102
102 3496 220
102 3500 787
102 3488 1622
102 3470 2528
102 3451 3449
102 3447 3992
102 3444 4095
102 3992 0
102 3993 102
102 3993 238
102 3993 789
102 3993 1600
102 3993 2500
102 3992 3428
102 3992 3992
102 3992 4095
102 4095 0
102 4095 102
102 4095 248
102 4095 807
102 4095 1579
102 4095 2473
102 4095 3406
102 4095 3993
102 4095 4095
873 0 0
862 0 254
841 0 841
804 0 1604
760 0 2442
713 0 3297
678 0 3875
639 0 3993
601 0 4095
734 171 0
718 161 162
699 149 699
663 126 1450
621 113 2285
576 107 3153
547 104 3829
522 104 3993
498 104 4095
650 650 0
651 650 129
651 650 651
633 633 1413
608 608 2264
582 581 3151
566 565 3852
556 555 3993
544 543 4095
523 1291 0
529 1295 104
537 1303 537
527 1290 1290
510 1269 2143
490 1245 3040
480 1229 3814
478 1221 3993
476 1212 4095
393 1998 0
402 2005 102
414 2016 414
411 2009 1140
400 1992 1992
385 1970 2894
376 1952 3744
380 1948 3993
383 1941 4095
284 2747 0
294 2757 102
306 2769 305
309 2768 982
301 2753 1828
291 2734 2734
283 2715 3631
287 2712 3993
291 2707 4095
231 3520 0
236 3531 102
241 3544 239
243 3548 836
240 3536 1672
236 3519 2577
231 3500 3498
232 3496 3993
234 3493 4095
249 3993 0
253 3993 102
258 3993 257
261 3993 839
257 3993 1651
251 3993 2551
244 3993 3478
241 3993 3993
240 3993 4095
259 4095 0
264 4095 102
270 4095 269
276 4095 853
270 4095 1626
258 4095 2517
247 4095 3443
238 4095 3993
230 4095 4095
1574 0 0
1559 0 169
1536 0 737
1494 0 1494
1443 0 2326
1387 0 3182
1347 0 3830
1311 0 3993
1278 0 4095
1417 114 0
1405 112 111
1391 111 607
1358 107 1358
1320 104 2198
1280 104 3075
1252 103 3793
1230 103 3993
1207 103 4095
1384 603 0
1385 605 112
1387 608 609
1369 593 1369
1344 570 2221
1316 545 3111
1298 531 3835
1285 523 3993
1271 514 4095
1262 1262 0
1268 1268 103
1277 1276 517
1266 1266 1266
1248 1247 2120
1226 1225 3019
1210 1210 3811
1206 1206 3993
1198 1198 4095
1118 1987 0
1126 1995 102
1139 2007 415
1134 2002 1134
1120 1986 1986
1101 1967 2891
1086 1950 3751
1085 1948 3993
1082 1944 4095
967 2754 0
978 2764 102
992 2777 320
993 2778 993
981 2765 1840
965 2747 2747
949 2730 3650
949 2729 3993
948 2725 4095
829 3542 0
841 3553 102
855 3567 250
861 3572 861
851 3561 1696
835 3545 2602
818 3527 3525
817 3524 3993
817 3521 4095
836 3993 0
848 3993 102
862 3993 279
869 3993 869
859 3993 1679
842 3993 2578
822 3993 3506
814 3993 3993
811 3993 4095
852 4095 0
863 4095 102
872 4095 292
872 4095 872
855 4095 1631
824 4095 2509
787 4095 3422
756 4095 3993
734 4095 4095
2327 0 0
2304 0 109
2277 0 601
2233 0 1350
2185 0 2186
2136 0 3054
2100 0 3758
2068 0 3993
2038 0 4095
2182 104 0
2174 104 103
2167 104 510
2140 103 1262
2106 103 2106
2070 102 2989
2044 102 3739
2024 102 3993
2004 102 4095
2194 542 0
2196 546 105
2200 551 552
2184 538 1308
2160 517 2159
2132 494 3052
2112 480 3810
2099 474 3993
2084 467 4095
2087 1214 0
2093 1221 103
2103 1231 481
2094 1222 1223
2076 1205 2076
2054 1184 2977
2038 1169 3796
2033 1165 3993
2027 1159 4095
1949 1949 0
1958 1958 102
1971 1971 393
1968 1967 1102
1953 1953 1953
1935 1935 2859
1918 1918 3733
1917 1917 3993
1913 1913 4095
1799 2724 0
1810 2735 102
1824 2749 307
1826 2751 969
1814 2739 1814
1797 2722 2722
1780 2704 3632
1779 2704 3993
1777 2701 4095
1653 3520 0
1665 3531 102
1679 3545 245
1685 3551 842
1674 3541 1674
1657 3525 2580
1639 3507 3506
1635 3504 3993
1633 3503 4095
1637 3993 0
1649 3993 102
1663 3993 266
1668 3993 852
1657 3993 1657
1636 3993 2555
1612 3993 3484
1599 3993 3993
1590 3993 4095
1605 4095 0
1605 4095 102
1601 4095 256
1587 4095 816
1558 4095 1558
1518 4095 2430
1477 4095 3345
1445 4095 3993
1428 4095 4095
3089 0 0
3070 0 102
3052 0 465
3016 0 1215
2974 0 2053
2929 0 2929
2895 0 3670
2868 0 3993
2842 0 4095
2994 102 0
2989 102 102
2987 102 420
2965 102 1168
2935 102 2014
2902 102 2902
2877 102 3682
2861 102 3993
2843 102 4095
3040 478 0
3043 483 103
3049 490 491
3034 479 1239
3011 460 2090
2984 438 2984
2963 423 3779
2952 419 3993
2938 413 4095
2954 1159 0
2960 1167 102
2971 1178 441
2964 1171 1171
2947 1155 2024
2927 1134 2926
2910 1119 3769
2907 1116 3993
2900 1111 4095
2827 1902 0
2836 1912 102
2850 1925 364
2848 1923 1060
2834 1910 1910
2817 1891 2816
2800 1875 3704
2799 1874 3993
2796 1870 4095
2683 2683 0
2694 2694 102
2708 2708 287
2711 2711 933
2700 2700 1775
2683 2683 2683
2666 2666 3599
2664 2664 3993
2662 2662 4095
2537 3482 0
2549 3494 102
2563 3508 234
2569 3514 808
2558 3504 1636
2541 3489 2541
2523 3471 3470
2518 3467 3993
2515 3465 4095
2510 3993 0
2521 3993 102
2535 3993 246
2540 3993 812
2527 3993 1608
2504 3993 2504
2475 3993 3430
2455 3993 3993
2437 3993 4095
2423 4095 0
2412 4095 102
2403 4095 217
2390 4095 717
2368 4095 1457
2337 4095 2337
2301 4095 3259
2271 4095 3989
2253 4095 4095
3736 0 0
3727 0 102
3719 0 380
3696 0 1122
3667 0 1960
3636 0 2841
3615 0 3615
3603 0 3993
3591 0 4095
3712 102 0
3713 102 102
3717 102 370
3705 102 1107
3686 102 1951
3664 102 2840
3648 102 3648
3642 102 3993
3634 102 4095
3790 442 0
3793 448 103
3799 456 457
3794 445 1192
3783 426 2040
3766 403 2934
3752 386 3752
3749 382 3993
3743 375 4095
3763 1121 0
3772 1129 102
3783 1141 420
3782 1135 1135
3773 1118 1985
3759 1097 2888
3749 1079 3748
3752 1076 3993
3753 1070 4095
3686 1861 0
3696 1872 102
3710 1885 344
3712 1884 1024
3703 1871 1871
3689 1852 2777
3677 1834 3676
3679 1832 3993
3679 1828 4095
3573 2641 0
3584 2652 102
3599 2666 267
3604 2671 896
3594 2659 1735
3580 2642 2642
3564 2624 3563
3563 2622 3993
3563 2619 4095
3439 3440 0
3450 3451 102
3464 3465 224
3471 3472 770
3462 3462 1592
3446 3446 2497
3427 3428 3427
3423 3423 3993
3420 3421 4095
3405 3993 0
3415 3993 102
3426 3993 228
3427 3993 758
3408 3993 1537
3377 3993 2423
3340 3993 3340
3308 3993 3992
3283 3992 4095
3259 4095 0
3257 4095 102
3257 4095 207
3250 4095 633
3231 4095 1364
3200 4095 2242
3165 4095 3165
3134 4095 3980
3116 4095 4095
3993 0 0
3993 0 102
3993 0 325
3993 0 1055
3993 0 1897
3993 0 2785
3993 0 3592
3993 0 3993
3993 0 4095
3993 102 0
3993 102 102
3993 102 349
3993 102 1072
3993 102 1916
3993 102 2809
3993 102 3643
3993 102 3993
3993 102 4095
3993 433 0
3993 440 103
3993 450 451
3993 442 1172
3993 424 2018
3993 403 2914
3993 386 3754
3993 383 3993
3993 378 4095
3993 1120 0
3993 1129 102
3993 1142 439
3993 1138 1138
3993 1122 1986
3993 1102 2890
3993 1083 3767
3993 1080 3993
3993 1075 4095
3993 1867 0
3993 1878 102
3993 1892 372
3993 1893 1036
3993 1880 1879
3993 1861 2786
3993 1841 3692
3993 1839 3993
3993 1835 4095
3993 2647 0
3993 2658 102
3993 2672 288
3993 2677 908
3993 2665 1742
3993 2648 2648
3993 2628 3572
3993 2624 3993
3993 2620 4095
3993 3438 0
3993 3449 102
3993 3463 229
3993 3470 776
3993 3460 1589
3993 3443 2491
3993 3423 3422
3993 3414 3993
3993 3409 4095
3993 3993 0
3993 3993 102
3993 3993 216
3993 3993 707
3993 3993 1464
3992 3993 2339
3991 3991 3252
3988 3988 3988
3985 3986 4095
3983 4095 0
3983 4095 102
3983 4095 205
3983 4095 569
3981 4095 1286
3979 4095 2159
3963 4095 3081
3943 4095 3943
3934 4095 4095
4095 0 0
4095 0 102
4095 0 288
4095 0 1003
4095 0 1846
4095 0 2739
4095 0 3575
4095 0 3993
4095 0 4095
4095 102 0
4095 102 102
4095 102 331
4095 102 1036
4095 102 1880
4095 102 2775
4095 102 3634
4095 102 3993
4095 102 4095
4095 423 0
4095 430 103
4095 441 442
4095 436 1145
4095 420 1989
4095 399 2888
4095 382 3749
4095 380 3993
4095 377 4095
4095 1114 0
4095 1123 102
4095 1136 453
4095 1134 1135
4095 1120 1980
4095 1100 2885
4095 1081 3769
4095 1079 3993
4095 1074 4095
4095 1866 0
4095 1877 102
4095 1891 393
4095 1894 1041
4095 1881 1881
4095 1863 2788
4095 1844 3700
4095 1840 3993
4095 1837 4095
4095 2649 0
4095 2660 102
4095 2674 307
4095 2680 919
4095 2669 1746
4095 2652 2652
4095 2632 3578
4095 2626 3993
4095 2622 4095
4095 3441 0
4095 3453 102
4095 3466 236
4095 3473 789
4095 3463 1592
4095 3445 2492
4095 3422 3421
4095 3409 3993
4095 3399 4095
4095 3993 0
4095 3993 102
4095 3993 209
4095 3993 654
4095 3992 1394
4095 3989 2270
4095 3985 3187
4095 3982 3981
4095 3978 4095
4095 4095 0
4095 4095 102
4095 4095 205
4095 4095 544
4095 4095 1246
4095 4095 2119
4095 4095 3041
4095 4095 3922
4095 4095 4095
