Postproduction/IWLTBAP - Humble/LUTs by IWLTBAP (3DL)/UTILITY/Technicolor CineStyle to Rec.709/U-TECHNICOLOR-CINESTYLE-LTR.3dl
# Copyright: (C) Copyright 2010-2018 by IWLTBAP SAS
# Cannot be resold, shared or otherwise redistributed
# Website: https://luts.iwltbap.com
0 64 128 192 256 320 384 448 512 576 640 704 768 832 896 960 1023
0 0 0
0 0 87
0 0 298
0 0 562
0 0 901
0 0 1275
0 0 1674
0 0 2091
0 0 2519
0 0 2953
0 0 3372
0 0 3700
0 0 3883
0 0 3941
0 0 3993
0 0 4044
0 0 4095
0 67 0
0 63 63
0 62 265
0 58 513
0 55 842
0 54 1208
0 53 1599
0 52 2010
0 51 2434
0 51 2863
0 51 3287
0 51 3640
0 51 3874
0 51 3941
0 51 3993
0 51 4044
0 51 4095
0 257 0
0 249 55
0 245 245
0 238 486
0 225 809
0 208 1171
0 190 1559
0 169 1965
0 148 2383
0 128 2810
0 116 3236
0 113 3605
0 110 3860
0 107 3941
0 105 3993
0 104 4044
0 104 4095
0 438 0
0 429 52
0 425 192
0 420 421
0 408 741
0 393 1104
0 376 1495
0 358 1906
0 339 2331
0 320 2764
0 301 3198
0 287 3584
0 278 3849
0 268 3941
0 258 3993
0 250 4044
0 242 4095
0 665 0
0 658 51
0 658 126
0 657 338
0 649 649
0 637 1015
0 624 1410
0 609 1825
0 593 2256
0 576 2696
0 560 3137
0 547 3545
0 540 3831
0 533 3941
0 525 3993
0 517 4044
0 510 4095
0 941 0
0 937 51
0 940 105
0 942 267
0 939 566
0 930 931
0 919 1326
0 907 1744
0 893 2177
0 879 2620
0 865 3066
0 852 3491
0 846 3803
0 840 3941
0 834 3993
0 827 4044
0 820 4095
0 1252 0
0 1251 51
0 1254 103
0 1259 210
0 1258 488
0 1252 848
0 1242 1243
0 1231 1660
0 1219 2095
0 1206 2540
0 1192 2989
0 1180 3427
0 1174 3768
0 1170 3940
0 1164 3993
0 1158 4044
0 1153 4095
0 1585 0
0 1584 51
0 1589 102
0 1595 175
0 1596 413
0 1591 763
0 1583 1156
0 1573 1574
0 1562 2009
0 1550 2456
0 1537 2908
0 1525 3354
0 1519 3723
0 1516 3934
0 1511 3993
0 1506 4044
0 1502 4095
0 1934 0
0 1934 51
0 1940 102
0 1946 159
0 1949 343
0 1946 678
0 1939 1069
0 1931 1485
0 1920 1920
0 1909 2368
0 1897 2823
0 1885 3275
0 1878 3671
0 1876 3925
0 1872 3993
0 1868 4044
0 1864 4095
0 2296 0
0 2296 51
0 2303 102
0 2310 154
0 2314 285
0 2313 596
0 2308 981
0 2300 1397
0 2291 1831
0 2280 2280
0 2269 2736
0 2258 3193
0 2249 3612
0 2248 3898
0 2245 3993
0 2242 4044
0 2238 4095
0 2668 0
0 2669 51
0 2677 102
0 2684 154
0 2688 245
0 2690 519
0 2686 897
0 2679 1309
0 2670 1743
0 2660 2192
0 2650 2649
0 2639 3109
0 2630 3547
0 2628 3864
0 2626 3993
0 2624 4044
0 2621 4095
0 3049 0
0 3050 51
0 3058 102
0 3066 154
0 3070 221
0 3073 451
0 3071 816
0 3064 1226
0 3057 1658
0 3048 2107
0 3038 2565
0 3027 3027
0 3018 3478
0 3015 3831
0 3014 3992
0 3012 4044
0 3010 4095
0 3433 0
0 3435 51
0 3444 102
0 3451 154
0 3456 211
0 3460 399
0 3460 744
0 3454 1149
0 3447 1579
0 3439 2027
0 3429 2486
0 3419 2949
0 3410 3408
0 3406 3791
0 3406 3989
0 3404 4044
0 3403 4095
0 3795 0
0 3799 51
0 3807 102
0 3814 154
0 3819 212
0 3824 399
0 3825 726
0 3822 1122
0 3816 1548
0 3810 1992
0 3802 2449
0 3794 2911
0 3786 3372
0 3781 3779
0 3783 3986
0 3782 4044
0 3782 4095
0 3989 0
0 3990 51
0 3990 102
0 3991 154
0 3991 216
0 3992 430
0 3992 744
0 3992 1130
0 3991 1554
0 3991 1997
0 3990 2454
0 3990 2919
0 3989 3382
0 3989 3811
0 3989 3990
0 3989 4044
0 3989 4095
0 4044 0
0 4044 51
0 4044 102
0 4044 154
0 4044 221
0 4044 447
0 4044 752
0 4044 1124
0 4044 1544
0 4044 1986
0 4044 2442
0 4044 2907
0 4044 3374
0 4044 3815
0 4044 3992
0 4044 4044
0 4044 4095
0 4095 0
0 4095 51
0 4095 102
0 4095 154
0 4095 225
0 4095 461
0 4095 761
0 4095 1118
0 4095 1533
0 4095 1973
0 4095 2428
0 4095 2893
0 4095 3362
0 4095 3810
0 4095 3993
0 4095 4044
0 4095 4095
86 0 0
84 0 84
85 0 292
82 0 552
74 0 888
64 0 1260
60 0 1657
59 0 2073
57 0 2500
54 0 2932
52 0 3353
52 0 3687
52 0 3881
51 0 3941
51 0 3993
51 0 4044
51 0 4095
56 56 0
55 55 56
55 54 245
55 54 488
53 53 814
52 52 1179
51 51 1569
51 51 1979
51 51 2401
51 51 2829
51 51 3255
51 51 3617
51 51 3867
51 51 3941
51 51 3993
51 51 4044
51 51 4095
54 235 0
53 226 53
53 222 222
52 215 454
52 201 773
51 182 1131
51 163 1517
51 145 1923
51 126 2343
51 115 2771
51 111 3200
51 107 3579
51 105 3845
51 104 3941
51 104 3993
51 104 4044
51 104 4095
51 414 0
51 406 51
51 403 175
51 399 400
51 388 716
51 374 1078
51 358 1469
51 341 1880
51 323 2306
51 305 2740
51 287 3175
51 273 3569
51 265 3842
51 257 3941
51 249 3993
51 241 4044
51 234 4095
51 649 0
51 643 51
51 644 120
51 644 330
51 638 638
51 627 1003
51 614 1398
51 600 1813
51 585 2245
51 569 2685
51 554 3127
51 541 3541
51 535 3830
51 528 3941
51 521 3993
51 514 4044
51 506 4095
51 934 0
51 930 51
51 934 105
51 937 268
51 934 563
51 926 927
51 916 1322
51 904 1739
51 891 2172
51 877 2616
51 863 3062
51 850 3490
51 844 3805
51 839 3941
51 833 3993
51 827 4044
51 820 4095
51 1251 0
51 1248 51
51 1253 103
51 1257 214
51 1257 490
51 1251 848
51 1242 1242
51 1231 1660
51 1219 2094
51 1206 2539
51 1193 2989
51 1181 3428
51 1175 3774
51 1171 3941
51 1166 3993
51 1160 4044
51 1155 4095
51 1586 0
51 1585 51
51 1590 102
51 1596 178
51 1598 419
51 1593 767
51 1585 1159
51 1576 1576
51 1565 2011
51 1553 2458
51 1541 2910
51 1529 3358
51 1522 3730
51 1519 3935
51 1515 3993
51 1511 4044
51 1506 4095
51 1937 0
51 1937 51
51 1943 102
51 1949 161
51 1953 351
51 1950 685
51 1944 1074
51 1936 1490
51 1925 1925
51 1914 2373
51 1903 2827
51 1891 3280
51 1884 3680
51 1882 3928
51 1878 3993
51 1874 4044
51 1871 4095
51 2301 0
51 2301 51
51 2309 102
51 2315 155
51 2320 294
51 2319 605
51 2314 990
51 2307 1404
51 2297 1838
51 2287 2287
51 2276 2743
51 2265 3200
51 2257 3623
51 2256 3907
51 2253 3993
51 2249 4044
51 2246 4095
51 2676 0
51 2677 51
51 2684 102
51 2691 154
51 2696 251
51 2698 530
51 2694 907
51 2687 1319
51 2679 1752
51 2669 2201
51 2659 2658
51 2648 3118
51 2639 3558
51 2638 3872
51 2636 3993
51 2633 4044
51 2630 4095
51 3058 0
51 3060 51
51 3067 102
51 3074 154
51 3080 227
51 3083 464
51 3080 828
51 3074 1237
51 3067 1669
51 3058 2117
51 3048 2576
51 3038 3037
51 3028 3489
51 3025 3842
51 3025 3993
51 3022 4044
51 3020 4095
51 3444 0
51 3446 51
51 3454 102
51 3462 154
51 3467 213
51 3471 411
51 3471 757
51 3465 1161
51 3458 1591
51 3450 2038
51 3441 2497
51 3431 2960
51 3421 3420
51 3417 3805
51 3417 3991
51 3416 4044
51 3414 4095
51 3808 0
51 3810 51
51 3819 102
51 3826 154
51 3831 215
51 3834 411
51 3835 737
51 3832 1133
51 3828 1559
51 3822 2002
51 3815 2459
51 3807 2921
51 3799 3382
51 3794 3792
51 3795 3988
51 3796 4044
51 3794 4095
51 3990 0
51 3991 51
51 3992 102
51 3992 154
51 3993 224
51 3993 444
51 3993 757
51 3993 1143
51 3993 1566
51 3992 2009
51 3992 2466
51 3991 2930
51 3991 3394
51 3990 3822
51 3990 3991
51 3990 4044
51 3990 4095
51 4044 0
51 4044 51
51 4044 102
51 4044 154
51 4044 230
51 4044 463
51 4044 766
51 4044 1137
51 4044 1557
51 4044 1998
51 4044 2454
51 4044 2918
51 4044 3385
51 4044 3820
51 4044 3993
51 4044 4044
51 4044 4095
51 4095 0
51 4095 51
51 4095 102
51 4095 154
51 4095 234
51 4095 476
51 4095 776
51 4095 1131
51 4095 1545
51 4095 1984
51 4095 2440
51 4095 2905
51 4095 3373
51 4095 3813
51 4095 3993
51 4095 4044
51 4095 4095
299 0 0
295 0 88
295 0 295
291 0 556
281 0 891
268 0 1263
253 0 1659
235 0 2073
217 0 2498
198 0 2929
179 0 3349
167 0 3683
157 0 3881
146 0 3941
135 0 3993
127 0 4044
123 0 4095
250 55 0
243 54 55
240 54 241
235 53 481
222 52 806
206 52 1169
188 51 1558
169 51 1967
150 51 2388
131 51 2815
117 51 3239
112 51 3604
109 51 3859
106 51 3941
105 51 3993
104 51 4044
103 51 4095
225 225 0
215 215 53
209 209 209
202 202 437
189 189 754
173 173 1114
156 155 1501
139 138 1908
122 122 2330
114 114 2759
110 111 3189
107 108 3572
105 106 3841
104 104 3941
104 104 3993
104 104 4044
104 104 4095
180 409 0
174 401 51
173 399 173
171 397 398
163 387 713
152 374 1076
140 359 1467
127 343 1879
117 326 2306
113 308 2740
111 291 3177
108 277 3573
107 271 3845
106 264 3941
105 257 3993
104 250 4044
104 243 4095
126 654 0
125 649 51
126 651 126
128 652 339
125 647 647
120 637 1013
116 625 1407
113 611 1824
111 596 2255
109 582 2696
107 566 3139
106 554 3553
105 548 3838
105 542 3941
105 535 3993
104 528 4044
104 520 4095
107 947 0
107 944 51
108 948 107
109 951 282
109 949 578
108 942 942
107 931 1337
106 920 1754
105 907 2188
104 893 2631
104 879 3078
103 867 3506
103 862 3815
103 856 3941
103 850 3993
103 844 4044
103 838 4095
103 1267 0
103 1265 51
103 1270 103
104 1275 229
104 1275 508
104 1269 866
103 1260 1261
103 1250 1678
103 1238 2113
103 1226 2558
103 1213 3008
103 1200 3447
103 1195 3789
103 1191 3941
103 1186 3993
103 1181 4044
103 1176 4095
102 1606 0
102 1604 51
103 1610 102
103 1616 187
103 1618 439
103 1614 788
103 1607 1181
102 1597 1598
102 1587 2033
102 1575 2480
102 1563 2932
102 1551 3379
102 1545 3750
102 1542 3938
102 1538 3993
102 1534 4044
102 1530 4095
102 1960 0
102 1959 51
102 1966 102
102 1972 166
102 1976 372
102 1974 708
102 1967 1098
102 1959 1514
102 1949 1949
102 1938 2397
102 1927 2851
102 1916 3304
102 1909 3701
102 1907 3932
102 1904 3993
102 1900 4044
102 1896 4095
102 2326 0
102 2326 51
102 2334 102
102 2341 156
102 2345 314
102 2345 630
102 2340 1015
102 2332 1430
102 2323 1865
102 2313 2313
102 2303 2769
102 2292 3226
102 2283 3647
102 2283 3920
102 2280 3993
102 2277 4044
102 2274 4095
102 2702 0
102 2703 51
102 2711 102
102 2718 154
102 2723 267
102 2725 557
102 2721 934
102 2714 1347
102 2706 1780
102 2697 2229
102 2686 2686
102 2676 3146
102 2667 3584
102 2666 3889
102 2664 3993
102 2662 4044
102 2659 4095
102 3085 0
102 3087 51
102 3095 102
102 3103 154
102 3108 238
102 3111 491
102 3109 856
102 3103 1266
102 3095 1698
102 3086 2147
102 3077 2605
102 3067 3066
102 3057 3517
102 3055 3859
102 3054 3993
102 3052 4044
102 3050 4095
102 3473 0
102 3475 51
102 3483 102
102 3491 154
102 3496 220
102 3500 437
102 3500 787
102 3495 1192
102 3488 1622
102 3480 2069
102 3470 2528
102 3461 2991
102 3451 3449
102 3447 3830
102 3447 3992
102 3446 4044
102 3444 4095
102 3834 0
102 3835 51
102 3840 102
102 3845 154
102 3849 224
102 3852 439
102 3853 770
102 3850 1167
102 3847 1593
102 3842 2037
102 3836 2493
102 3831 2955
102 3825 3415
102 3821 3820
102 3822 3990
102 3822 4044
102 3821 4095
102 3992 0
102 3993 51
102 3993 102
102 3993 154
102 3993 238
102 3993 474
102 3993 789
102 3993 1177
102 3993 1600
102 3993 2044
102 3993 2500
102 3993 2964
102 3992 3428
102 3992 3844
102 3992 3992
102 3992 4044
102 3992 4095
102 4044 0
102 4044 51
102 4044 102
102 4044 154
102 4044 244
102 4044 493
102 4044 798
102 4044 1171
102 4044 1591
102 4044 2032
102 4044 2488
102 4044 2953
102 4044 3419
102 4044 3841
102 4044 3993
102 4044 4044
102 4044 4095
102 4095 0
102 4095 51
102 4095 102
102 4095 154
102 4095 248
102 4095 507
102 4095 807
102 4095 1163
102 4095 1579
102 4095 2018
102 4095 2473
102 4095 2937
102 4095 3406
102 4095 3834
102 4095 3993
102 4095 4044
102 4095 4095
557 0 0
550 0 80
550 0 285
545 0 545
532 0 879
516 0 1249
497 0 1643
477 0 2056
455 0 2481
433 0 2912
412 0 3334
396 0 3672
383 0 3880
368 0 3941
353 0 3993
337 0 4044
322 0 4095
484 53 0
475 53 53
470 52 226
463 52 464
449 51 787
430 51 1149
409 51 1537
386 51 1944
362 51 2363
337 51 2789
313 51 3215
295 51 3589
282 51 3850
268 51 3941
255 51 3993
243 51 4044
