Postproduction/IWLTBAP - Humble/LUTs by IWLTBAP (3DL)/UTILITY/Technicolor CineStyle to Rec.709/U-TECHNICOLOR-CINESTYLE-LTR.3dl
# Copyright: (C) Copyright 2010-2018 by IWLTBAP SAS
# Cannot be resold, shared or otherwise redistributed
# Website: https://luts.iwltbap.com
0 256 512 768 1023
0 0 0
0 0 901
0 0 2519
0 0 3883
0 0 4095
0 665 0
0 649 649
0 593 2256
0 540 3831
0 510 4095
0 1934 0
0 1949 343
0 1920 1920
0 1878 3671
0 1864 4095
0 3433 0
0 3456 211
0 3447 1579
0 3410 3408
0 3403 4095
0 4095 0
0 4095 225
0 4095 1533
0 4095 3362
0 4095 4095
873 0 0
841 0 841
760 0 2442
678 0 3875
601 0 4095
650 650 0
651 650 651
608 608 2264
566 565 3852
544 543 4095
393 1998 0
414 2016 414
400 1992 1992
376 1952 3744
383 1941 4095
231 3520 0
241 3544 239
240 3536 1672
231 3500 3498
234 3493 4095
259 4095 0
270 4095 269
270 4095 1626
247 4095 3443
230 4095 4095
2327 0 0
2277 0 601
2185 0 2186
2100 0 3758
2038 0 4095
2194 542 0
2200 551 552
2160 517 2159
2112 480 3810
2084 467 4095
1949 1949 0
1971 1971 393
1953 1953 1953
1918 1918 3733
1913 1913 4095
1653 3520 0
1679 3545 245
1674 3541 1674
1639 3507 3506
1633 3503 4095
1605 4095 0
1601 4095 256
1558 4095 1558
1477 4095 3345
1428 4095 4095
3736 0 0
3719 0 380
3667 0 1960
3615 0 3615
3591 0 4095
3790 442 0
3799 456 457
3783 426 2040
3752 386 3752
3743 375 4095
3686 1861 0
3710 1885 344
3703 1871 1871
3677 1834 3676
3679 1828 4095
3439 3440 0
3464 3465 224
3462 3462 1592
3427 3428 3427
3420 3421 4095
3259 4095 0
3257 4095 207
3231 4095 1364
3165 4095 3165
3116 4095 4095
4095 0 0
4095 0 288
4095 0 1846
4095 0 3575
4095 0 4095
4095 423 0
4095 441 442
4095 420 1989
4095 382 3749
4095 377 4095
4095 1866 0
4095 1891 393
4095 1881 1881
4095 1844 3700
4095 1837 4095
4095 3441 0
4095 3466 236
4095 3463 1592
4095 3422 3421
4095 3399 4095
4095 4095 0
4095 4095 205
4095 4095 1246
4095 4095 3041
4095 4095 4095
