Postproduction/IWLTBAP - Humble/LUTs by IWLTBAP (3DL)/UTILITY/BMDFilm 4K to Alexa Log-C/U-BMDFILM-4K-ALEXA-LOG-C-LTL.3dl
# Copyright: (C) Copyright 2010-2018 by IWLTBAP SAS
# Cannot be resold, shared or otherwise redistributed
# Website: https://luts.iwltbap.com
0 256 512 768 1023
0 0 0
0 0 1426
0 0 2083
0 0 2588
0 0 4095
0 1369 0
0 1325 1295
0 1182 2026
0 814 2579
0 814 4095
0 1989 0
0 1969 814
0 1920 1876
0 1790 2557
0 1261 4093
0 2547 0
0 2543 814
0 2534 1263
0 2512 2485
0 2429 3926
0 3868 0
0 3856 814
0 3829 1212
0 3762 1639
0 3594 3406
1415 0 0
1336 0 1420
952 0 2080
814 0 2587
814 0 4095
1379 1339 0
1289 1290 1286
851 1113 2023
814 814 2579
814 814 4095
1277 1975 0
1125 1955 814
814 1905 1872
814 1771 2556
814 1243 4092
822 2544 0
814 2540 814
814 2531 1258
814 2509 2484
814 2422 3925
814 3859 0
814 3848 814
814 3820 1212
814 3754 1627
814 3585 3403
2065 0 0
2028 0 1406
1937 0 2073
1655 0 2586
1212 0 4095
2047 1256 0
2010 1185 1263
1917 899 2015
1619 814 2577
1212 814 4095
2006 1942 0
1967 1921 814
1867 1868 1863
1521 1724 2555
1212 1212 4090
1900 2538 0
1854 2534 814
1733 2525 1246
1270 2501 2482
1212 2404 3920
1525 3841 0
1419 3829 814
1230 3801 1212
1212 3733 1597
1212 3561 3397
2580 0 0
2574 0 1369
2560 0 2056
2521 0 2583
2283 0 4095
2577 862 0
2572 814 1197
2557 814 1997
2517 814 2575
2265 814 4095
2571 1858 0
2565 1834 814
2550 1773 1840
2507 1592 2552
2221 1212 4083
2555 2523 0
2547 2519 814
2530 2509 1216
2480 2480 2476
2105 2352 3910
2507 3796 0
2497 3784 814
2470 3755 1212
2361 3684 1557
1716 3505 3381
4095 0 0
4095 0 1261
4070 0 2015
3961 0 2577
3668 0 4095
4095 814 0
4095 814 945
4060 814 1952
3951 814 2568
3655 814 4095
4095 1595 0
4083 1550 814
4038 1412 1783
3927 1212 2543
3625 1212 4063
4053 2480 0
4033 2474 814
3986 2457 1212
3870 2407 2461
3552 2184 3885
3929 3686 0
3907 3672 814
3855 3641 1212
3726 3564 1542
3365 3365 3342
