Postproduction/IWLTBAP - Humble/LUTs by IWLTBAP (3DL)/UTILITY/BMDFilm 4K to Alexa Log-C/U-BMDFILM-4K-ALEXA-LOG-C-LTL.3dl
# Copyright: (C) Copyright 2010-2018 by IWLTBAP SAS
# Cannot be resold, shared or otherwise redistributed
# Website: https://luts.iwltbap.com
0 64 128 192 256 320 384 448 512 576 640 704 768 832 896 960 1023
0 0 0
0 0 634
0 0 1032
0 0 1257
0 0 1426
0 0 1584
0 0 1744
0 0 1909
0 0 2083
0 0 2239
0 0 2363
0 0 2474
0 0 2588
0 0 2719
0 0 2891
0 0 3170
0 0 4095
0 546 0
0 482 447
0 403 967
0 310 1225
0 285 1405
0 279 1568
0 279 1730
0 279 1897
0 279 2073
0 279 2234
0 279 2360
0 279 2472
0 279 2586
0 279 2718
0 279 2890
0 279 3168
0 279 4095
0 964 0
0 938 288
0 906 865
0 861 1184
0 793 1380
0 693 1548
0 567 1714
0 502 1883
0 497 2061
0 497 2228
0 497 2356
0 497 2469
0 497 2584
0 497 2716
0 497 2888
0 497 3165
0 497 4095
0 1200 0
0 1188 279
0 1174 684
0 1154 1120
0 1127 1345
0 1090 1522
0 1031 1693
0 935 1866
0 791 2046
0 681 2218
0 670 2352
0 670 2466
0 670 2582
0 670 2714
0 670 2885
0 670 3163
0 670 4095
0 1369 0
0 1361 279
0 1352 508
0 1340 1005
0 1325 1295
0 1305 1488
0 1278 1666
0 1240 1843
0 1182 2026
0 1081 2207
0 922 2346
0 816 2463
0 814 2579
0 814 2711
0 814 2883
0 814 3159
0 814 4095
0 1520 0
0 1514 279
0 1507 497
0 1499 795
0 1487 1216
0 1473 1442
0 1455 1630
0 1430 1814
0 1398 2002
0 1352 2190
0 1282 2338
0 1150 2458
0 985 2575
0 936 2707
0 936 2879
0 936 3155
0 936 4095
0 1671 0
0 1666 279
0 1660 497
0 1653 671
0 1644 1058
0 1632 1375
0 1617 1583
0 1599 1777
0 1574 1971
0 1542 2167
0 1499 2328
0 1437 2452
0 1334 2571
0 1158 2703
0 1043 2875
0 1043 3149
0 1043 4095
0 1827 0
0 1822 279
0 1817 497
0 1811 670
0 1803 850
0 1793 1256
0 1781 1517
0 1766 1727
0 1746 1930
0 1720 2136
0 1687 2313
0 1643 2444
0 1581 2565
0 1488 2699
0 1320 2869
0 1153 3142
0 1134 4095
0 1989 0
0 1986 279
0 1981 497
0 1976 670
0 1969 814
0 1961 1038
0 1950 1412
0 1937 1658
0 1920 1876
0 1899 2092
0 1872 2291
0 1836 2433
0 1790 2557
0 1726 2692
0 1633 2862
0 1469 3133
0 1261 4093
0 2160 0
0 2157 279
0 2153 497
0 2149 670
0 2143 814
0 2136 936
0 2127 1216
0 2116 1555
0 2101 1803
0 2083 2034
0 2060 2256
0 2030 2417
0 1992 2546
0 1942 2684
0 1875 2854
0 1778 3121
0 1620 4070
0 2311 0
0 2309 279
0 2307 497
0 2305 670
0 2302 814
0 2298 936
0 2293 1043
0 2287 1361
0 2278 1696
0 2267 1954
0 2251 2199
0 2229 2394
0 2198 2532
0 2158 2674
0 2103 2842
0 2030 3107
0 1928 4033
0 2432 0
0 2431 279
0 2430 497
0 2429 670
0 2427 814
0 2425 936
0 2422 1043
0 2419 1155
0 2415 1507
0 2409 1840
0 2402 2114
0 2392 2356
0 2378 2514
0 2357 2659
0 2325 2828
0 2272 3088
0 2195 3986
0 2547 0
0 2546 279
0 2545 497
0 2544 670
0 2543 814
0 2542 936
0 2540 1043
0 2537 1134
0 2534 1263
0 2530 1650
0 2525 1991
0 2520 2280
0 2512 2485
0 2501 2639
0 2486 2811
0 2464 3064
0 2429 3926
0 2675 0
0 2674 279
0 2673 497
0 2673 670
0 2672 814
0 2670 936
0 2669 1043
0 2667 1134
0 2664 1212
0 2661 1352
0 2657 1791
0 2652 2151
0 2646 2434
0 2637 2610
0 2626 2789
0 2611 3032
0 2592 3848
0 2830 0
0 2830 279
0 2829 497
0 2828 670
0 2827 814
0 2825 936
0 2824 1043
0 2822 1134
0 2819 1212
0 2816 1281
0 2813 1432
0 2809 1937
0 2803 2317
0 2796 2568
0 2787 2758
0 2775 2993
0 2759 3745
0 3068 0
0 3067 279
0 3066 497
0 3065 670
0 3063 814
0 3061 936
0 3059 1043
0 3056 1134
0 3052 1212
0 3048 1281
0 3042 1347
0 3036 1512
0 3028 2092
0 3019 2480
0 3006 2710
0 2990 2948
0 2969 3604
0 3868 0
0 3865 279
0 3863 497
0 3859 670
0 3856 814
0 3851 936
0 3845 1043
0 3838 1134
0 3829 1212
0 3817 1281
0 3803 1347
0 3785 1409
0 3762 1639
0 3734 2255
0 3698 2632
0 3653 2893
0 3594 3406
615 0 0
501 0 624
350 0 1029
283 0 1255
279 0 1425
279 0 1583
279 0 1743
279 0 1909
279 0 2082
279 0 2239
279 0 2362
279 0 2473
279 0 2587
279 0 2719
279 0 2891
279 0 3170
279 0 4095
559 503 0
437 434 435
300 355 963
280 292 1223
279 280 1404
279 279 1567
279 279 1729
279 279 1897
279 279 2072
279 279 2234
279 279 2359
279 279 2471
279 279 2586
279 279 2718
279 279 2889
279 279 3168
279 279 4095
496 946 0
362 919 285
285 885 859
279 837 1182
279 762 1378
279 659 1547
279 538 1713
279 499 1883
279 497 2060
279 497 2227
279 497 2356
279 497 2469
279 497 2584
279 497 2716
279 497 2888
279 497 3165
279 497 4095
404 1192 0
296 1180 279
280 1164 676
279 1143 1117
279 1116 1343
279 1077 1521
279 1013 1692
279 913 1865
279 770 2045
279 677 2218
279 670 2351
279 670 2466
279 670 2582
279 670 2714
279 670 2885
279 670 3162
279 670 4095
307 1364 0
281 1356 279
279 1346 506
279 1334 1000
279 1319 1294
279 1298 1487
279 1271 1665
279 1232 1843
279 1171 2026
279 1064 2206
279 905 2346
279 814 2462
279 814 2579
279 814 2711
279 814 2883
279 814 3159
279 814 4095
285 1516 0
279 1510 279
279 1503 497
279 1494 790
279 1483 1214
279 1468 1441
279 1450 1629
279 1425 1814
279 1392 2001
279 1345 2190
279 1272 2338
279 1137 2458
279 978 2575
279 936 2707
279 936 2879
279 936 3154
279 936 4095
279 1668 0
279 1663 279
279 1657 497
279 1649 670
279 1640 1054
279 1628 1373
279 1614 1582
279 1595 1776
279 1570 1970
279 1538 2167
279 1494 2327
279 1431 2452
279 1325 2571
279 1147 2703
279 1043 2875
279 1043 3149
279 1043 4095
279 1824 0
279 1819 279
279 1814 497
279 1808 670
279 1800 848
279 1790 1254
279 1778 1516
279 1762 1726
279 1742 1929
279 1717 2135
279 1683 2313
279 1639 2443
279 1577 2565
279 1482 2699
279 1312 2869
279 1148 3142
279 1134 4095
279 1987 0
279 1983 279
279 1979 497
279 1973 670
279 1966 814
279 1958 1034
279 1947 1411
279 1934 1657
279 1917 1876
279 1896 2091
279 1869 2291
279 1833 2433
279 1786 2557
279 1722 2692
279 1628 2862
279 1461 3133
279 1258 4093
279 2158 0
279 2155 279
279 2151 497
279 2147 670
279 2141 814
279 2134 936
279 2125 1214
279 2113 1553
279 2099 1802
279 2081 2033
279 2057 2255
279 2028 2417
279 1990 2546
279 1939 2684
279 1871 2854
279 1774 3121
279 1614 4070
279 2310 0
279 2308 279
279 2306 497
279 2304 670
279 2301 814
279 2297 936
279 2292 1043
279 2285 1359
279 2277 1695
279 2265 1954
279 2249 2199
279 2227 2394
279 2196 2532
279 2155 2674
279 2101 2842
279 2027 3107
279 1924 4033
279 2431 0
279 2431 279
279 2429 497
279 2428 670
279 2426 814
279 2424 936
279 2422 1043
279 2418 1153
279 2414 1506
279 2408 1840
279 2401 2114
279 2391 2356
279 2377 2514
279 2356 2659
279 2323 2828
279 2270 3088
279 2192 3986
279 2546 0
279 2546 279
279 2545 497
279 2544 670
279 2543 814
279 2541 936
279 2539 1043
279 2537 1134
279 2534 1262
279 2530 1648
279 2525 1991
279 2519 2280
279 2511 2485
279 2500 2639
279 2485 2810
279 2463 3064
279 2428 3926
279 2674 0
279 2674 279
279 2673 497
279 2672 670
279 2671 814
279 2670 936
279 2668 1043
279 2666 1134
279 2664 1212
279 2661 1352
279 2657 1790
279 2652 2150
279 2645 2433
279 2637 2610
279 2625 2789
279 2610 3032
279 2592 3848
279 2830 0
279 2829 279
279 2828 497
279 2828 670
279 2826 814
279 2825 936
279 2823 1043
279 2821 1134
279 2819 1212
279 2816 1281
279 2812 1431
279 2808 1936
279 2803 2316
279 2796 2567
279 2787 2758
279 2775 2993
279 2759 3744
279 3067 0
279 3066 279
279 3065 497
279 3064 670
279 3063 814
279 3061 936
279 3058 1043
279 3055 1134
279 3052 1212
279 3047 1281
279 3042 1347
279 3035 1510
279 3028 2091
279 3018 2479
279 3006 2709
279 2990 2948
279 2969 3604
279 3866 0
279 3863 279
279 3861 497
279 3858 670
279 3854 814
279 3849 936
279 3843 1043
279 3836 1134
279 3827 1212
279 3815 1281
279 3801 1347
279 3783 1409
279 3761 1637
279 3732 2255
279 3697 2631
279 3651 2893
279 3593 3405
1019 0 0
978 0 613
919 0 1025
829 0 1253
681 0 1424
525 0 1582
497 0 1742
497 0 1908
497 0 2082
497 0 2239
497 0 2362
497 0 2473
497 0 2587
497 0 2719
497 0 2891
497 0 3170
497 0 4095
1000 449 0
955 379 421
891 303 958
790 284 1221
635 279 1403
506 279 1565
497 279 1728
497 279 1896
497 279 2072
497 279 2233
497 279 2359
497 279 2471
497 279 2586
497 279 2717
497 279 2889
497 279 3168
497 279 4095
976 925 0
926 896 283
856 859 852
742 805 1180
587 725 1377
500 620 1546
497 521 1712
497 497 1882
497 497 2060
497 497 2227
497 497 2356
497 497 2469
497 497 2584
497 497 2716
497 497 2888
497 497 3165
497 497 4095
942 1182 0
885 1169 279
806 1153 666
684 1131 1114
535 1102 1342
497 1060 1520
497 992 1691
497 884 1864
497 744 2044
497 673 2218
497 670 2351
497 670 2466
497 670 2582
497 670 2713
497 670 2885
497 670 3162
497 670 4095
894 1357 0
829 1349 279
733 1340 503
606 1328 995
505 1311 1292
497 1290 1486
497 1262 1664
497 1221 1842
497 1157 2025
497 1044 2206
497 884 2345
497 814 2462
497 814 2579
497 814 2711
497 814 2882
497 814 3159
497 814 4095
825 1511 0
741 1505 279
640 1498 497
528 1489 783
497 1478 1211
497 1463 1440
497 1444 1628
497 1419 1813
497 1385 2001
497 1337 2189
497 1261 2338
497 1122 2458
497 970 2575
497 936 2707
497 936 2879
497 936 3154
497 936 4095
718 1664 0
626 1659 279
534 1653 497
499 1645 670
497 1636 1049
497 1624 1371
497 1609 1581
497 1590 1775
497 1565 1969
497 1533 2166
497 1488 2327
497 1424 2451
497 1315 2571
497 1135 2703
497 1043 2874
497 1043 3149
497 1043 4095
578 1820 0
521 1816 279
498 1811 497
497 1804 670
497 1797 846
497 1787 1251
497 1774 1514
497 1759 1725
497 1738 1928
497 1713 2134
497 1679 2312
497 1634 2443
497 1571 2565
497 1474 2698
497 1304 2869
497 1142 3141
497 1134 4095
504 1984 0
497 1980 279
497 1976 497
497 1970 670
497 1963 814
497 1955 1031
497 1944 1408
497 1931 1656
497 1914 1875
497 1893 2091
497 1865 2290
497 1829 2432
497 1782 2557
497 1717 2692
497 1622 2862
497 1451 3133
497 1254 4092
497 2155 0
497 2152 279
497 2149 497
497 2144 670
497 2138 814
497 2131 936
497 2122 1211
497 2111 1552
497 2096 1801
497 2078 2032
497 2054 2255
497 2025 2417
497 1986 2546
497 1936 2684
497 1867 2853
497 1770 3121
497 1606 4069
497 2308 0
497 2307 279
497 2305 497
497 2302 670
497 2299 814
497 2296 936
497 2291 1043
497 2284 1356
497 2275 1693
497 2263 1953
497 2247 2198
497 2224 2394
497 2194 2532
497 2152 2673
497 2097 2842
497 2024 3107
497 1920 4033
497 2431 0
497 2430 279
497 2429 497
497 2427 670
497 2426 814
497 2424 936
497 2421 1043
497 2417 1152
497 2413 1503
497 2407 1838
497 2400 2113
497 2390 2355
497 2375 2513
497 2354 2659
497 2321 2828
497 2267 3088
497 2189 3986
497 2546 0
497 2545 279
497 2544 497
497 2543 670
497 2542 814
497 2540 936
497 2538 1043
497 2536 1134
497 2533 1261
497 2529 1647
497 2524 1990
497 2518 2279
497 2510 2485
497 2500 2639
497 2485 2810
497 2462 3064
497 2426 3925
497 2674 0
497 2673 279
497 2673 497
497 2672 670
497 2671 814
497 2669 936
497 2668 1043
497 2666 1134
497 2663 1212
497 2660 1351
497 2656 1789
497 2651 2149
497 2645 2433
497 2636 2610
497 2625 2789
497 2610 3032
497 2591 3847
497 2829 0
497 2829 279
497 2828 497
497 2827 670
497 2826 814
497 2825 936
497 2823 1043
497 2821 1134
497 2818 1212
497 2815 1281
497 2812 1431
497 2808 1935
497 2802 2315
497 2795 2567
497 2786 2758
497 2774 2993
497 2758 3743
497 3066 0
497 3065 279
497 3065 497
497 3063 670
497 3062 814
497 3060 936
497 3058 1043
497 3055 1134
497 3051 1212
497 3047 1281
497 3041 1347
497 3035 1507
497 3027 2090
497 3017 2479
497 3005 2709
497 2989 2948
497 2968 3603
497 3864 0
497 3863 279
497 3859 497
497 3856 670
497 3853 814
497 3848 936
497 3842 1043
497 3834 1134
497 3825 1212
497 3814 1281
497 3800 1347
497 3781 1409
497 3759 1635
497 3731 2254
497 3695 2631
497 3649 2892
497 3591 3405
1245 0 0
1225 0 598
1200 0 1020
1165 0 1251
1112 0 1422
1023 0 1581
866 0 1741
695 0 1907
670 0 2081
670 0 2238
670 0 2362
670 0 2473
670 0 2587
670 0 2719
670 0 2891
670 0 3169
670 0 4095
1236 381 0
1215 315 405
1189 287 951
1152 280 1218
1096 279 1401
999 279 1564
832 279 1727
683 279 1895
670 279 2071
670 279 2233
670 279 2359
670 279 2471
670 279 2586
670 279 2717
670 279 2889
670 279 3167
