Postproduction/IWLTBAP - Humble/LUTs by IWLTBAP (3DL)/UTILITY/BMDFilm 4K to Alexa Log-C/U-BMDFILM-4K-ALEXA-LOG-C-LTL.3dl
# Copyright: (C) Copyright 2010-2018 by IWLTBAP SAS
# Cannot be resold, shared or otherwise redistributed
# Website: https://luts.iwltbap.com
0 128 256 384 512 640 768 896 1023
0 0 0
0 0 1032
0 0 1426
0 0 1744
0 0 2083
0 0 2363
0 0 2588
0 0 2891
0 0 4095
0 964 0
0 906 865
0 793 1380
0 567 1714
0 497 2061
0 497 2356
0 497 2584
0 497 2888
0 497 4095
0 1369 0
0 1352 508
0 1325 1295
0 1278 1666
0 1182 2026
0 922 2346
0 814 2579
0 814 2883
0 814 4095
0 1671 0
0 1660 497
0 1644 1058
0 1617 1583
0 1574 1971
0 1499 2328
0 1334 2571
0 1043 2875
0 1043 4095
0 1989 0
0 1981 497
0 1969 814
0 1950 1412
0 1920 1876
0 1872 2291
0 1790 2557
0 1633 2862
0 1261 4093
0 2311 0
0 2307 497
0 2302 814
0 2293 1043
0 2278 1696
0 2251 2199
0 2198 2532
0 2103 2842
0 1928 4033
0 2547 0
0 2545 497
0 2543 814
0 2540 1043
0 2534 1263
0 2525 1991
0 2512 2485
0 2486 2811
0 2429 3926
0 2830 0
0 2829 497
0 2827 814
0 2824 1043
0 2819 1212
0 2813 1432
0 2803 2317
0 2787 2758
0 2759 3745
0 3868 0
0 3863 497
0 3856 814
0 3845 1043
0 3829 1212
0 3803 1347
0 3762 1639
0 3698 2632
0 3594 3406
1019 0 0
919 0 1025
681 0 1424
497 0 1742
497 0 2082
497 0 2362
497 0 2587
497 0 2891
497 0 4095
976 925 0
856 859 852
587 725 1377
497 521 1712
497 497 2060
497 497 2356
497 497 2584
497 497 2888
497 497 4095
894 1357 0
733 1340 503
505 1311 1292
497 1262 1664
497 1157 2025
497 884 2345
497 814 2579
497 814 2882
497 814 4095
718 1664 0
534 1653 497
497 1636 1049
497 1609 1581
497 1565 1969
497 1488 2327
497 1315 2571
497 1043 2874
497 1043 4095
504 1984 0
497 1976 497
497 1963 814
497 1944 1408
497 1914 1875
497 1865 2290
497 1782 2557
497 1622 2862
497 1254 4092
497 2308 0
497 2305 497
497 2299 814
497 2291 1043
497 2275 1693
497 2247 2198
497 2194 2532
497 2097 2842
497 1920 4033
497 2546 0
497 2544 497
497 2542 814
497 2538 1043
497 2533 1261
497 2524 1990
497 2510 2485
497 2485 2810
497 2426 3925
497 2829 0
497 2828 497
497 2826 814
497 2823 1043
497 2818 1212
497 2812 1431
497 2802 2315
497 2786 2758
497 2758 3743
497 3864 0
497 3859 497
497 3853 814
497 3842 1043
497 3825 1212
497 3800 1347
497 3759 1635
497 3695 2631
497 3591 3405
1415 0 0
1385 0 1014
1336 0 1420
1239 0 1740
952 0 2080
814 0 2362
814 0 2587
814 0 2891
814 0 4095
1401 857 0
1370 771 833
1318 619 1372
1212 499 1709
905 497 2058
814 497 2355
814 497 2584
814 497 2887
814 497 4095
1379 1339 0
1346 1321 500
1289 1290 1286
1165 1236 1661
851 1113 2023
814 847 2345
814 814 2579
814 814 2882
814 814 4095
1343 1652 0
1305 1641 497
1238 1624 1037
1069 1597 1578
815 1551 1967
814 1471 2326
814 1283 2570
814 1043 2874
814 1043 4095
1277 1975 0
1228 1967 497
1125 1955 814
900 1935 1403
814 1905 1872
814 1855 2289
814 1771 2556
814 1606 2862
814 1243 4092
1118 2305 0
1022 2301 497
875 2296 814
814 2286 1043
814 2270 1690
814 2241 2196
814 2186 2532
814 2089 2842
814 1909 4031
822 2544 0
814 2543 497
814 2540 814
814 2537 1043
814 2531 1258
814 2523 1987
814 2509 2484
814 2482 2810
814 2422 3925
814 2828 0
814 2827 497
814 2824 814
814 2821 1043
814 2817 1212
814 2811 1430
814 2801 2314
814 2785 2757
814 2757 3742
814 3859 0
814 3855 497
814 3848 814
814 3837 1043
814 3820 1212
814 3795 1347
814 3754 1627
814 3689 2630
814 3585 3403
1729 0 0
1710 0 997
1680 0 1414
1631 0 1736
1545 0 2077
1355 0 2361
1043 0 2587
1043 0 2890
1043 0 4095
1720 715 0
1700 610 798
1670 508 1366
1620 497 1705
1532 497 2055
1331 497 2354
1043 497 2583
1043 497 2887
1043 497 4095
1706 1309 0
1686 1288 499
1654 1254 1277
1603 1189 1657
1511 1032 2020
1289 816 2344
1043 814 2578
1043 814 2882
1043 814 4095
1684 1635 0
1663 1623 497
1630 1605 1017
1576 1577 1572
1477 1529 1964
1223 1444 2325
1043 1229 2570
1043 1043 2874
1043 1043 4095
1648 1962 0
1626 1954 497
1591 1941 814
1532 1922 1394
1417 1890 1868
1126 1840 2288
1043 1753 2556
1043 1579 2861
1043 1221 4092
1589 2299 0
1564 2295 497
1523 2289 814
1452 2279 1043
1289 2262 1684
1046 2231 2193
1043 2175 2531
1043 2076 2841
1043 1891 4030
1480 2542 0
1446 2540 497
1386 2538 814
1261 2534 1043
1077 2529 1254
1043 2520 1983
1043 2505 2483
1043 2478 2810
1043 2415 3923
1196 2826 0
1130 2824 497
1081 2822 814
1043 2819 1043
1043 2815 1212
1043 2809 1428
1043 2799 2311
1043 2783 2757
1043 2754 3740
1043 3852 0
1043 3848 497
1043 3840 814
1043 3829 1043
1043 3813 1212
1043 3786 1347
1043 3746 1615
1043 3681 2629
1043 3576 3400
2065 0 0
2050 0 968
2028 0 1406
1993 0 1730
1937 0 2073
1842 0 2360
1655 0 2586
1237 0 2890
1212 0 4095
2058 516 0
2043 497 741
2021 497 1356
1986 497 1699
1929 497 2050
1833 497 2353
1641 497 2583
1223 497 2886
1212 497 4095
2047 1256 0
2032 1230 497
2010 1185 1263
1974 1090 1650
1917 899 2015
1818 814 2342
1619 814 2577
1212 814 2881
1212 814 4095
2031 1606 0
2016 1594 497
1993 1575 988
1957 1545 1564
1898 1493 1959
1796 1396 2323
1583 1150 2569
1212 1043 2873
1212 1043 4095
2006 1942 0
1990 1934 497
1967 1921 814
1929 1900 1380
1867 1868 1863
1759 1815 2285
1521 1724 2555
1212 1533 2860
1212 1212 4090
1966 2290 0
1949 2285 497
1924 2278 814
1884 2267 1043
1818 2249 1676
1698 2215 2189
1410 2157 2530
1212 2055 2841
1212 1863 4027
1900 2538 0
1881 2537 497
1854 2534 814
1809 2530 1043
1733 2525 1246
1583 2516 1977
1270 2501 2482
1212 2472 2809
1212 2404 3920
1784 2822 0
1762 2821 497
1727 2819 814
1670 2816 1043
1561 2812 1212
1332 2806 1425
1212 2796 2306
1212 2779 2756
1212 2750 3737
1525 3841 0
1476 3836 497
1419 3829 814
1314 3818 1043
1230 3801 1212
1212 3775 1347
1212 3733 1597
1212 3668 2627
1212 3561 3397
2354 0 0
2349 0 914
2342 0 1391
2331 0 1721
2310 0 2066
2268 0 2358
2166 0 2585
1955 0 2889
1417 0 4095
2352 497 0
2347 497 653
2340 497 1339
2328 497 1689
2307 497 2043
2263 497 2351
2159 497 2582
1945 497 2885
1412 497 4095
2348 1140 0
2344 1094 497
2336 1015 1239
2324 888 1639
2302 814 2008
2255 814 2340
2148 814 2576
1930 814 2880
1404 814 4095
2343 1560 0
2338 1546 497
2331 1525 939
2318 1490 1552
2294 1430 1951
2243 1298 2321
2131 1067 2568
1907 1043 2872
1389 1043 4095
2335 1910 0
2330 1901 497
2321 1888 814
2307 1866 1358
2280 1832 1854
2222 1776 2281
2105 1677 2554
1869 1449 2859
1356 1212 4088
2321 2273 0
2315 2268 497
2305 2260 814
2288 2248 1043
2255 2226 1663
2189 2190 2182
2063 2128 2529
1804 2022 2839
1347 1817 4023
2295 2532 0
2286 2531 497
2273 2528 814
2250 2525 1043
2207 2519 1234
2131 2509 1968
1993 2493 2480
1681 2462 2808
1347 2386 3916
2236 2818 0
2223 2816 497
2204 2815 814
2173 2812 1043
2120 2808 1212
2032 2802 1420
1868 2791 2300
1462 2774 2754
1347 2744 3732
2107 3823 0
2091 3818 497
2066 3811 814
2026 3800 1043
1961 3783 1212
1845 3756 1347
1581 3714 1568
1347 3648 2624
1347 3539 3390
2580 0 0
2578 0 812
2574 0 1369
2569 0 1707
2560 0 2056
2546 0 2355
2521 0 2583
2469 0 2887
2283 0 4095
2579 497 0
2577 497 527
2573 497 1312
2568 497 1674
2559 497 2033
2544 497 2348
2519 497 2580
2466 497 2884
2275 497 4095
2577 862 0
2575 833 497
2572 814 1197
2566 814 1623
2557 814 1997
2542 814 2336
2517 814 2575
2462 814 2878
2265 814 4095
2575 1477 0
2572 1460 497
2569 1433 871
2563 1386 1532
2554 1289 1939
2539 1116 2316
2513 1043 2566
2456 1043 2870
2248 1043 4095
2571 1858 0
2568 1849 497
2565 1834 814
2559 1811 1319
2550 1773 1840
2534 1710 2274
2507 1592 2552
2445 1314 2858
2221 1212 4083
2565 2243 0
2562 2237 497
2558 2227 814
2552 2212 1043
2542 2188 1642
2526 2148 2172
2497 2082 2526
2427 1968 2838
2178 1735 4018
2555 2523 0
2552 2522 497
2547 2519 814
2541 2515 1043
2530 2509 1216
2513 2498 1953
2480 2480 2476
2392 2444 2806
2105 2352 3910
2537 2811 0
2534 2810 497
2529 2808 814
2522 2805 1043
2510 2801 1212
2489 2794 1412
2446 2784 2289
2318 2766 2752
1971 2734 3725
2507 3796 0
2503 3791 497
2497 3784 814
2487 3772 1043
2470 3755 1212
2438 3727 1347
2361 3684 1557
2176 3617 2618
1716 3505 3381
2879 0 0
2877 0 606
2874 0 1331
2868 0 1685
2861 0 2040
2848 0 2350
2828 0 2581
2798 0 2885
2743 0 4095
2878 497 0
2876 497 497
2872 497 1265
2867 497 1651
2859 497 2016
2847 497 2343
2827 497 2578
2797 497 2881
2742 497 4095
2876 814 0
2874 814 497
2871 814 1112
2866 814 1597
2858 814 1979
2845 814 2331
2825 814 2572
2795 814 2876
2739 814 4095
2874 1280 0
2872 1244 497
2868 1198 822
2863 1120 1500
2855 1055 1920
2843 1043 2309
2822 1043 2563
2792 1043 2868
2735 1043 4095
2870 1770 0
2868 1758 497
2865 1741 814
2859 1713 1251
2851 1667 1818
2838 1585 2263
2818 1408 2548
2788 1212 2855
2729 1212 4076
2864 2186 0
2862 2178 497
2859 2167 814
2854 2150 1043
2845 2122 1607
2832 2078 2156
2812 2006 2523
2781 1876 2835
2719 1572 4008
2856 2508 0
2853 2506 497
2850 2503 814
2844 2499 1043
2836 2491 1212
2822 2479 1931
2803 2457 2470
2770 2410 2803
2703 2291 3900
2841 2801 0
2839 2800 497
2835 2798 814
2829 2795 1043
2820 2790 1212
2808 2783 1399
2788 2771 2273
2752 2752 2748
2680 2717 3713
2818 3753 0
2816 3748 497
2812 3741 814
2807 3729 1043
2799 3711 1212
2785 3682 1347
2762 3638 1551
2719 3567 2610
2632 3452 3366
4095 0 0
4095 0 497
4095 0 1261
4094 0 1649
4070 0 2015
4028 0 2342
3961 0 2577
3853 0 2881
3668 0 4095
4095 497 0
4095 497 497
4095 497 1168
4092 497 1613
4065 497 1990
4024 497 2334
3957 497 2574
3848 497 2878
3662 497 4095
4095 814 0
4095 814 497
4095 814 945
4087 814 1554
4060 814 1952
4018 814 2321
3951 814 2568
3842 814 2872
3655 814 4095
4095 1043 0
4095 1043 497
4094 1043 814
4079 1043 1444
4052 1043 1890
4009 1043 2297
3942 1043 2559
3831 1043 2864
3643 1043 4095
4095 1595 0
4093 1577 497
4083 1550 814
4066 1501 1154
4038 1412 1783
3995 1287 2245
3927 1212 2543
3816 1212 2851
3625 1212 4063
4083 2083 0
4075 2074 497
4063 2061 814
4046 2041 1043
4018 2009 1549
3974 1958 2130
3905 1869 2517
3791 1685 2830
3596 1390 3995
4053 2480 0
4045 2478 497
4033 2474 814
4014 2468 1043
3986 2457 1212
3941 2440 1894
3870 2407 2461
3753 2333 2799
3552 2184 3885
4005 2784 0
3997 2782 497
3984 2780 814
3966 2777 1043
3936 2772 1212
3889 2764 1371
3815 2751 2247
3692 2729 2743
3481 2691 3696
3929 3686 0
3920 3681 497
3907 3672 814
3887 3660 1043
3855 3641 1212
3806 3611 1347
3726 3564 1542
3595 3489 2598
3365 3365 3342
