Postproduction/IWLTBAP - Humble/LUTs by IWLTBAP (3DL)/UTILITY/REDLogFilm to Rec.709/U-REDLOGFILM-V2-LTR.3dl
# Copyright: (C) Copyright 2010-2018 by IWLTBAP SAS
# Cannot be resold, shared or otherwise redistributed
# Website: https://luts.iwltbap.com
0 128 256 384 512 640 768 896 1023
0 0 0
0 0 0
0 0 479
0 0 1086
0 0 1819
0 0 2803
0 0 3977
0 0 4095
0 0 4095
0 0 0
0 0 0
0 0 481
0 0 1087
0 0 1818
0 0 2800
0 0 3974
0 0 4095
0 0 4095
0 474 0
0 474 0
0 474 474
0 469 1081
0 460 1812
0 451 2794
0 444 3972
0 442 4095
0 443 4095
0 1047 0
0 1050 0
0 1054 439
0 1053 1053
0 1049 1782
0 1045 2761
0 1043 3957
0 1046 4095
0 1050 4095
0 1740 0
0 1749 0
0 1757 412
0 1760 1032
0 1759 1759
0 1758 2735
0 1758 3944
0 1764 4095
0 1772 4095
0 2689 0
0 2703 0
0 2718 402
0 2724 1024
0 2725 1751
0 2726 2726
0 2729 3939
0 2738 4095
0 2751 4095
0 3927 0
0 3936 0
0 3946 419
0 3950 1039
0 3951 1771
0 3951 2753
0 3952 3954
0 3958 4095
0 3965 4095
0 4095 0
0 4095 0
0 4095 474
0 4095 1090
0 4095 1833
0 4095 2836
0 4095 4001
0 4095 4095
0 4095 4095
216 4095 216
451 4095 461
663 4095 1107
704 4095 1620
642 4095 2212
537 4095 3063
475 4095 4058
513 4095 4095
2768 4095 4095
0 0 0
0 0 0
0 0 481
0 0 1087
0 0 1820
0 0 2805
0 0 3977
0 0 4095
0 0 4095
0 0 0
0 0 0
0 0 479
0 0 1085
0 0 1815
0 0 2797
0 0 3972
0 0 4095
0 0 4095
0 475 0
0 475 0
0 475 475
0 471 1083
0 464 1817
0 456 2802
0 451 3978
0 449 4095
0 451 4095
0 1059 0
0 1063 0
0 1068 454
0 1068 1069
0 1066 1803
0 1063 2791
0 1062 3976
0 1065 4095
0 1070 4095
0 1766 0
0 1775 0
0 1785 437
0 1789 1055
0 1789 1789
0 1787 2776
0 1789 3968
0 1794 4095
0 1804 4095
0 2732 0
0 2748 0
0 2763 431
0 2770 1050
0 2772 1784
0 2772 2772
0 2775 3966
0 2784 4095
0 2797 4095
0 3954 0
0 3963 0
0 3972 449
0 3977 1067
0 3977 1805
0 3977 2799
0 3979 3980
0 3983 4095
0 3991 4095
0 4095 0
0 4095 0
0 4095 500
0 4095 1114
0 4095 1863
0 4095 2874
0 4095 4022
0 4095 4095
15 4095 4095
846 4095 836
1023 4095 1023
1175 4095 1538
1189 4095 1955
1102 4095 2447
980 4095 3190
887 4095 4071
897 4095 4095
3346 4095 4095
480 0 0
481 0 0
481 0 481
475 0 1087
466 0 1819
456 0 2802
448 0 3976
443 0 4095
441 0 4095
477 0 0
477 0 0
476 0 476
470 0 1083
461 0 1814
452 0 2795
443 0 3971
440 0 4095
438 0 4095
476 476 0
478 478 0
479 479 479
476 476 1088
470 470 1824
464 464 2815
460 460 3986
460 460 4095
463 463 4095
459 1073 0
465 1078 0
472 1084 472
473 1086 1086
471 1084 1826
469 1082 2824
469 1081 3994
472 1085 4095
479 1091 4095
445 1794 0
453 1805 0
462 1815 462
465 1819 1079
465 1819 1819
465 1818 2817
466 1820 3992
471 1826 4095
479 1835 4095
440 2777 0
450 2793 0
459 2808 459
464 2815 1077
464 2816 1818
465 2816 2816
466 2819 3992
472 2828 4095
481 2842 4095
457 3981 0
467 3989 0
476 3998 476
480 4002 1092
480 4002 1836
480 4002 2841
481 4003 4004
486 4007 4095
493 4015 4095
508 4095 0
516 4095 0
523 4095 524
526 4095 1135
525 4095 1888
522 4095 2909
521 4095 4042
524 4095 4095
860 4095 4095
1650 4095 1294
1765 4095 1435
1859 4095 1859
1841 4095 2196
1741 4095 2613
1622 4095 3281
1525 4095 4074
1518 4095 4095
3829 4095 4095
1078 0 0
1078 0 0
1077 0 465
1072 0 1072
1063 0 1799
1053 0 2774
1045 0 3960
1040 0 4095
1038 0 4095
1073 0 0
1073 0 0
1073 0 459
1068 0 1068
1060 0 1795
1051 0 2771
1044 0 3958
1041 0 4095
1042 0 4095
1079 466 0
1082 469 0
1085 472 472
1083 470 1083
1079 466 1819
1075 461 2811
1072 458 3985
1074 460 4095
1078 465 4095
1076 1076 0
1083 1082 0
1089 1089 477
1091 1091 1091
1090 1090 1833
1088 1088 2835
1089 1089 4001
1093 1093 4095
1099 1099 4095
1069 1806 0
1077 1817 0
1085 1827 473
1089 1832 1089
1089 1832 1832
1089 1832 2836
1090 1834 4003
1096 1841 4095
1103 1850 4095
1067 2798 0
1076 2814 0
1085 2828 472
1089 2836 1089
1089 2837 1833
1090 2838 2838
1091 2840 4004
1097 2849 4095
1104 2862 4095
1082 3992 0
1091 4001 0
1099 4009 487
1102 4013 1102
1102 4013 1849
1101 4013 2858
1102 4013 4014
1106 4018 4095
1113 4024 4095
1125 4095 0
1132 4095 0
1138 4095 530
1140 4095 1140
1138 4095 1894
1135 4095 2915
1134 4095 4046
1135 4095 4095
1424 4095 4095
2011 4095 1257
2092 4095 1377
2154 4095 1789
2125 4095 2125
2028 4095 2549
1910 4095 3236
1817 4095 4073
1785 4095 4095
4093 4095 4095
1786 0 0
1785 0 0
1784 0 436
1777 0 1045
1766 0 1765
1753 0 2729
1743 0 3933
1738 0 4095
1735 0 4095
1781 0 0
1781 0 0
1781 0 434
1776 0 1044
1767 0 1767
1757 0 2734
1750 0 3938
1748 0 4095
1750 0 4095
1800 450 0
1805 454 0
1811 458 459
1811 458 1072
1807 455 1807
1803 452 2797
1802 451 3978
1805 453 4095
1812 459 4095
1810 1072 0
1819 1079 0
1828 1086 474
1831 1089 1088
1831 1088 1831
1830 1087 2833
1831 1088 4000
1836 1092 4095
1845 1099 4095
1807 1807 0
1818 1818 0
1829 1829 474
1834 1834 1090
1835 1835 1835
1835 1835 2840
1837 1837 4006
1844 1844 4095
1853 1853 4095
1807 2802 0
1819 2818 0
1830 2833 475
1835 2840 1091
1836 2842 1836
1836 2841 2841
1838 2844 4006
1844 2852 4095
1853 2864 4095
1824 3993 0
1835 4002 0
1845 4010 488
1849 4014 1102
1848 4013 1848
1847 4012 2856
1847 4012 4013
1851 4016 4095
1858 4022 4095
1872 4095 0
1880 4095 0
1888 4095 524
1889 4095 1134
1885 4095 1885
1880 4095 2901
1877 4095 4037
1877 4095 4095
1923 4095 4095
2342 4095 888
2389 4095 988
2432 4095 1446
2396 4095 1821
2307 4095 2306
2204 4095 3088
2121 4095 4059
2089 4095 4095
4095 4095 4095
2724 0 0
2723 0 0
2721 0 405
2712 0 1017
2697 0 1730
2681 0 2681
2668 0 3905
2662 0 4095
2661 0 4095
2722 0 0
2724 0 0
2726 0 408
2721 0 1022
2711 0 1740
2700 0 2700
2693 0 3920
2692 0 4095
2697 0 4095
2769 435 0
2779 441 0
2789 447 448
2791 448 1063
2788 446 1796
2784 444 2784
2783 443 3970
2788 446 4095
2798 453 4095
2798 1067 0
2811 1075 0
2824 1082 470
2830 1086 1086
2830 1086 1828
2829 1085 2830
2831 1086 3999
2839 1091 4095
2852 1098 4095
2801 1807 0
2816 1818 0
2832 1829 474
2839 1834 1091
2840 1835 1835
2841 1836 2841
2843 1838 4006
2852 1844 4095
2865 1854 4095
2802 2802 0
2818 2818 0
2833 2833 475
2840 2840 1091
2841 2841 1836
2840 2840 2840
2842 2842 4005
2849 2849 4095
2861 2861 4095
2821 3992 0
2835 4000 0
2847 4007 484
2852 4010 1098
2850 4009 1842
2846 4007 2846
2845 4006 4007
2850 4010 4095
2859 4016 4095
2876 4095 0
2885 4095 0
2894 4095 513
2893 4095 1123
2886 4095 1869
2877 4095 2878
2871 4095 4023
2870 4095 4095
2873 4095 4095
3014 4095 351
3036 4095 443
3051 4095 963
3026 4095 1415
2968 4095 1992
2911 4095 2910
2888 4095 4033
2884 4095 4095
3996 4095 4095
3916 0 0
3915 0 0
3915 0 379
3909 0 995
3896 0 1705
3879 0 2646
3866 0 3866
3859 0 4095
3858 0 4095
3920 0 0
3922 0 0
3924 0 391
3922 0 1009
3917 0 1725
3912 0 2680
3908 0 3908
3909 0 4095
3913 0 4095
3958 429 0
3964 437 0
3970 444 444
3972 445 1060
3971 444 1794
3969 442 2781
3968 442 3968
3973 446 4095
3979 453 4095
3981 1069 0
3989 1077 0
3997 1085 473
4000 1088 1088
4000 1089 1832
4000 1088 2835
4001 1090 4001
4006 1095 4095
4015 1102 4095
3986 1813 0
3994 1824 0
4003 1835 480
4007 1840 1095
4008 1841 1841
4008 1841 2849
4010 1843 4010
4016 1850 4095
4023 1860 4095
3986 2810 0
3995 2825 0
4003 2840 479
4006 2845 1094
4007 2846 1839
4006 2844 2844
4007 2846 4007
4012 2853 4095
4019 2864 4095
3993 3992 0
4000 3999 0
4007 4006 484
4009 4009 1097
4008 4008 1840
4006 4005 2842
4004 4004 4004
4006 4006 4095
4011 4012 4095
4018 4095 3
4022 4095 4
4027 4095 504
4026 4095 1112
4021 4095 1855
4016 4095 2857
4011 4095 4011
4010 4095 4095
4011 4095 4095
4036 4095 5
4038 4095 6
4040 4095 532
4036 4095 1124
4030 4095 1865
4023 4095 2868
4017 4095 4016
4014 4095 4095
4081 4095 4095
4095 0 0
4095 0 0
4095 0 366
4095 0 985
4095 0 1692
4095 0 2631
4095 0 3849
4095 0 4095
4095 0 4095
4095 0 0
4095 0 0
4095 0 390
4095 0 1010
4095 0 1728
4095 0 2687
4095 0 3913
4095 0 4095
4095 0 4095
4095 439 0
4095 446 0
4095 453 454
4095 456 1071
4095 456 1808
4095 454 2800
4095 455 3981
4095 459 4095
4095 467 4095
4095 1082 0
4095 1091 0
4095 1099 488
4095 1103 1103
4095 1103 1851
4095 1103 2861
4095 1105 4017
4095 1111 4095
4095 1120 4095
4095 1832 0
4095 1844 0
4095 1855 496
4095 1860 1111
4095 1861 1861
4095 1861 2875
4095 1863 4026
4095 1870 4095
4095 1898 4095
4095 2835 0
4095 2849 0
4095 2863 494
4095 2868 1108
4095 2868 1856
4095 2866 2867
4095 2867 4020
4095 2873 4095
4095 2883 4095
4095 4002 2
4095 4009 3
4095 4016 492
4095 4018 1104
4095 4016 1849
4095 4013 2853
4095 4011 4010
4095 4012 4095
4095 4015 4095
4095 4095 27
4095 4095 30
4095 4095 502
4095 4095 1111
4095 4095 1852
4095 4095 2851
4095 4095 4006
4095 4095 4095
4095 4095 4095
4095 4095 27
4095 4095 31
4095 4095 509
4095 4095 1116
4095 4095 1857
4095 4095 2857
4095 4095 4008
4095 4095 4095
4095 4095 4095
4095 724 724
4095 742 742
4095 760 1062
4095 652 1452
4095 446 1934
4095 215 2711
4095 34 3860
4095 4 4095
4095 119 4095
4095 1412 1411
4095 1519 1519
4095 1653 1874
4095 1681 2227
4095 1623 2609
4095 1562 3187
4095 1543 3982
4095 1622 4095
4095 1767 4095
4095 2993 2879
4095 3149 3050
4095 3302 3304
4095 3365 3473
4095 3368 3616
4095 3353 3815
4095 3374 4072
4095 3475 4095
4095 3619 4095
4095 3725 3616
4095 3875 3810
4095 4021 4010
4095 4074 4074
4095 4080 4083
4095 4078 4088
4095 4083 4095
4095 4095 4095
4095 4095 4095
4095 3921 3800
4095 4036 3995
4095 4095 4095
4095 4095 4095
4095 4095 4095
4095 4095 4095
4095 4095 4095
4095 4095 4095
4095 4095 4095
4095 3975 3730
4095 4036 3910
4095 4088 4072
4095 4094 4092
4095 4092 4089
4095 4088 4087
4095 4086 4095
4095 4093 4095
4095 4095 4095
4095 4086 3670
4095 4089 3796
4095 4092 3932
4095 4093 3961
4095 4091 3945
4095 4089 3977
4095 4088 4087
4095 4088 4095
4095 4094 4095
4095 4095 3804
4095 4095 3860
4095 4095 3915
4095 4095 3899
4095 4095 3867
4095 4095 3910
4095 4095 4079
4095 4095 4095
4095 4095 4095
4095 4095 3904
4095 4095 3945
4095 4095 3975
4095 4095 3932
4095 4095 3879
4095 4095 3928
4095 4095 4092
4095 4095 4095
4095 4095 4095
