Postproduction/IWLTBAP - Humble/LUTs by IWLTBAP (3DL)/UTILITY/REDLogFilm to Rec.709/U-REDLOGFILM-V1-LTR.3dl
# Copyright: (C) Copyright 2010-2018 by IWLTBAP SAS
# Cannot be resold, shared or otherwise redistributed
# Website: https://luts.iwltbap.com
0 256 512 768 1023
0 0 0
0 0 621
0 0 2220
0 0 3579
0 0 4095
0 621 0
0 621 621
0 621 2220
0 621 3579
0 621 4095
0 2220 0
0 2220 621
0 2220 2220
0 2220 3579
0 2220 4095
0 3579 0
0 3579 621
0 3579 2220
0 3579 3579
0 3579 4095
0 4095 0
0 4095 621
0 4095 2220
0 4095 3579
0 4095 4095
621 0 0
621 0 621
621 0 2220
621 0 3579
621 0 4095
621 621 0
621 621 621
621 621 2220
621 621 3579
621 621 4095
621 2220 0
621 2220 621
621 2220 2220
621 2220 3579
621 2220 4095
621 3579 0
621 3579 621
621 3579 2220
621 3579 3579
621 3579 4095
621 4095 0
621 4095 621
621 4095 2220
621 4095 3579
621 4095 4095
2220 0 0
2220 0 621
2220 0 2220
2220 0 3579
2220 0 4095
2220 621 0
2220 621 621
2220 621 2220
2220 621 3579
2220 621 4095
2220 2220 0
2220 2220 621
2220 2220 2220
2220 2220 3579
2220 2220 4095
2220 3579 0
2220 3579 621
2220 3579 2220
2220 3579 3579
2220 3579 4095
2220 4095 0
2220 4095 621
2220 4095 2220
2220 4095 3579
2220 4095 4095
3579 0 0
3579 0 621
3579 0 2220
3579 0 3579
3579 0 4095
3579 621 0
3579 621 621
3579 621 2220
3579 621 3579
3579 621 4095
3579 2220 0
3579 2220 621
3579 2220 2220
3579 2220 3579
3579 2220 4095
3579 3579 0
3579 3579 621
3579 3579 2220
3579 3579 3579
3579 3579 4095
3579 4095 0
3579 4095 621
3579 4095 2220
3579 4095 3579
3579 4095 4095
4095 0 0
4095 0 621
4095 0 2220
4095 0 3579
4095 0 4095
4095 621 0
4095 621 621
4095 621 2220
4095 621 3579
4095 621 4095
4095 2220 0
4095 2220 621
4095 2220 2220
4095 2220 3579
4095 2220 4095
4095 3579 0
4095 3579 621
4095 3579 2220
4095 3579 3579
4095 3579 4095
4095 4095 0
4095 4095 621
4095 4095 2220
4095 4095 3579
4095 4095 4095
