Postproduction/IWLTBAP - Humble/LUTs by IWLTBAP (3DL)/UTILITY/REDLogFilm to Rec.709/U-REDLOGFILM-V1-LTR.3dl
# Copyright: (C) Copyright 2010-2018 by IWLTBAP SAS
# Cannot be resold, shared or otherwise redistributed
# Website: https://luts.iwltbap.com
0 128 256 384 512 640 768 896 1023
0 0 0
0 0 158
0 0 621
0 0 1341
0 0 2220
0 0 3015
0 0 3579
0 0 3913
0 0 4095
0 158 0
0 158 158
0 158 621
0 158 1341
0 158 2220
0 158 3015
0 158 3579
0 158 3913
0 158 4095
0 621 0
0 621 158
0 621 621
0 621 1341
0 621 2220
0 621 3015
0 621 3579
0 621 3913
0 621 4095
0 1341 0
0 1341 158
0 1341 621
0 1341 1341
0 1341 2220
0 1341 3015
0 1341 3579
0 1341 3913
0 1341 4095
0 2220 0
0 2220 158
0 2220 621
0 2220 1341
0 2220 2220
0 2220 3015
0 2220 3579
0 2220 3913
0 2220 4095
0 3015 0
0 3015 158
0 3015 621
0 3015 1341
0 3015 2220
0 3015 3015
0 3015 3579
0 3015 3913
0 3015 4095
0 3579 0
0 3579 158
0 3579 621
0 3579 1341
0 3579 2220
0 3579 3015
0 3579 3579
0 3579 3913
0 3579 4095
0 3913 0
0 3913 158
0 3913 621
0 3913 1341
0 3913 2220
0 3913 3015
0 3913 3579
0 3913 3913
0 3913 4095
0 4095 0
0 4095 158
0 4095 621
0 4095 1341
0 4095 2220
0 4095 3015
0 4095 3579
0 4095 3913
0 4095 4095
158 0 0
158 0 158
158 0 621
158 0 1341
158 0 2220
158 0 3015
158 0 3579
158 0 3913
158 0 4095
158 158 0
158 158 158
158 158 621
158 158 1341
158 158 2220
158 158 3015
158 158 3579
158 158 3913
158 158 4095
158 621 0
158 621 158
158 621 621
158 621 1341
158 621 2220
158 621 3015
158 621 3579
158 621 3913
158 621 4095
158 1341 0
158 1341 158
158 1341 621
158 1341 1341
158 1341 2220
158 1341 3015
158 1341 3579
158 1341 3913
158 1341 4095
158 2220 0
158 2220 158
158 2220 621
158 2220 1341
158 2220 2220
158 2220 3015
158 2220 3579
158 2220 3913
158 2220 4095
158 3015 0
158 3015 158
158 3015 621
158 3015 1341
158 3015 2220
158 3015 3015
158 3015 3579
158 3015 3913
158 3015 4095
158 3579 0
158 3579 158
158 3579 621
158 3579 1341
158 3579 2220
158 3579 3015
158 3579 3579
158 3579 3913
158 3579 4095
158 3913 0
158 3913 158
158 3913 621
158 3913 1341
158 3913 2220
158 3913 3015
158 3913 3579
158 3913 3913
158 3913 4095
158 4095 0
158 4095 158
158 4095 621
158 4095 1341
158 4095 2220
158 4095 3015
158 4095 3579
158 4095 3913
158 4095 4095
621 0 0
621 0 158
621 0 621
621 0 1341
621 0 2220
621 0 3015
621 0 3579
621 0 3913
621 0 4095
621 158 0
621 158 158
621 158 621
621 158 1341
621 158 2220
621 158 3015
621 158 3579
621 158 3913
621 158 4095
621 621 0
621 621 158
621 621 621
621 621 1341
621 621 2220
621 621 3015
621 621 3579
621 621 3913
621 621 4095
621 1341 0
621 1341 158
621 1341 621
621 1341 1341
621 1341 2220
621 1341 3015
621 1341 3579
621 1341 3913
621 1341 4095
621 2220 0
621 2220 158
621 2220 621
621 2220 1341
621 2220 2220
621 2220 3015
621 2220 3579
621 2220 3913
621 2220 4095
621 3015 0
621 3015 158
621 3015 621
621 3015 1341
621 3015 2220
621 3015 3015
621 3015 3579
621 3015 3913
621 3015 4095
621 3579 0
621 3579 158
621 3579 621
621 3579 1341
621 3579 2220
621 3579 3015
621 3579 3579
621 3579 3913
621 3579 4095
621 3913 0
621 3913 158
621 3913 621
621 3913 1341
621 3913 2220
621 3913 3015
621 3913 3579
621 3913 3913
621 3913 4095
621 4095 0
621 4095 158
621 4095 621
621 4095 1341
621 4095 2220
621 4095 3015
621 4095 3579
621 4095 3913
621 4095 4095
1341 0 0
1341 0 158
1341 0 621
1341 0 1341
1341 0 2220
1341 0 3015
1341 0 3579
1341 0 3913
1341 0 4095
1341 158 0
1341 158 158
1341 158 621
1341 158 1341
1341 158 2220
1341 158 3015
1341 158 3579
1341 158 3913
1341 158 4095
1341 621 0
1341 621 158
1341 621 621
1341 621 1341
1341 621 2220
1341 621 3015
1341 621 3579
1341 621 3913
1341 621 4095
1341 1341 0
1341 1341 158
1341 1341 621
1341 1341 1341
1341 1341 2220
1341 1341 3015
1341 1341 3579
1341 1341 3913
1341 1341 4095
1341 2220 0
1341 2220 158
1341 2220 621
1341 2220 1341
1341 2220 2220
1341 2220 3015
1341 2220 3579
1341 2220 3913
1341 2220 4095
1341 3015 0
1341 3015 158
1341 3015 621
1341 3015 1341
1341 3015 2220
1341 3015 3015
1341 3015 3579
1341 3015 3913
1341 3015 4095
1341 3579 0
1341 3579 158
1341 3579 621
1341 3579 1341
1341 3579 2220
1341 3579 3015
1341 3579 3579
1341 3579 3913
1341 3579 4095
1341 3913 0
1341 3913 158
1341 3913 621
1341 3913 1341
1341 3913 2220
1341 3913 3015
1341 3913 3579
1341 3913 3913
1341 3913 4095
1341 4095 0
1341 4095 158
1341 4095 621
1341 4095 1341
1341 4095 2220
1341 4095 3015
1341 4095 3579
1341 4095 3913
1341 4095 4095
2220 0 0
2220 0 158
2220 0 621
2220 0 1341
2220 0 2220
2220 0 3015
2220 0 3579
2220 0 3913
2220 0 4095
2220 158 0
2220 158 158
2220 158 621
2220 158 1341
2220 158 2220
2220 158 3015
2220 158 3579
2220 158 3913
2220 158 4095
2220 621 0
2220 621 158
2220 621 621
2220 621 1341
2220 621 2220
2220 621 3015
2220 621 3579
2220 621 3913
2220 621 4095
2220 1341 0
2220 1341 158
2220 1341 621
2220 1341 1341
2220 1341 2220
2220 1341 3015
2220 1341 3579
2220 1341 3913
2220 1341 4095
2220 2220 0
2220 2220 158
2220 2220 621
2220 2220 1341
2220 2220 2220
2220 2220 3015
2220 2220 3579
2220 2220 3913
2220 2220 4095
2220 3015 0
2220 3015 158
2220 3015 621
2220 3015 1341
2220 3015 2220
2220 3015 3015
2220 3015 3579
2220 3015 3913
2220 3015 4095
2220 3579 0
2220 3579 158
2220 3579 621
2220 3579 1341
2220 3579 2220
2220 3579 3015
2220 3579 3579
2220 3579 3913
2220 3579 4095
2220 3913 0
2220 3913 158
2220 3913 621
2220 3913 1341
2220 3913 2220
2220 3913 3015
2220 3913 3579
2220 3913 3913
2220 3913 4095
2220 4095 0
2220 4095 158
2220 4095 621
2220 4095 1341
2220 4095 2220
2220 4095 3015
2220 4095 3579
2220 4095 3913
2220 4095 4095
3015 0 0
3015 0 158
3015 0 621
3015 0 1341
3015 0 2220
3015 0 3015
3015 0 3579
3015 0 3913
3015 0 4095
3015 158 0
3015 158 158
3015 158 621
3015 158 1341
3015 158 2220
3015 158 3015
3015 158 3579
3015 158 3913
3015 158 4095
3015 621 0
3015 621 158
3015 621 621
3015 621 1341
3015 621 2220
3015 621 3015
3015 621 3579
3015 621 3913
3015 621 4095
3015 1341 0
3015 1341 158
3015 1341 621
3015 1341 1341
3015 1341 2220
3015 1341 3015
3015 1341 3579
3015 1341 3913
3015 1341 4095
3015 2220 0
3015 2220 158
3015 2220 621
3015 2220 1341
3015 2220 2220
3015 2220 3015
3015 2220 3579
3015 2220 3913
3015 2220 4095
3015 3015 0
3015 3015 158
3015 3015 621
3015 3015 1341
3015 3015 2220
3015 3015 3015
3015 3015 3579
3015 3015 3913
3015 3015 4095
3015 3579 0
3015 3579 158
3015 3579 621
3015 3579 1341
3015 3579 2220
3015 3579 3015
3015 3579 3579
3015 3579 3913
3015 3579 4095
3015 3913 0
3015 3913 158
3015 3913 621
3015 3913 1341
3015 3913 2220
3015 3913 3015
3015 3913 3579
3015 3913 3913
3015 3913 4095
3015 4095 0
3015 4095 158
3015 4095 621
3015 4095 1341
3015 4095 2220
3015 4095 3015
3015 4095 3579
3015 4095 3913
3015 4095 4095
3579 0 0
3579 0 158
3579 0 621
3579 0 1341
3579 0 2220
3579 0 3015
3579 0 3579
3579 0 3913
3579 0 4095
3579 158 0
3579 158 158
3579 158 621
3579 158 1341
3579 158 2220
3579 158 3015
3579 158 3579
3579 158 3913
3579 158 4095
3579 621 0
3579 621 158
3579 621 621
3579 621 1341
3579 621 2220
3579 621 3015
3579 621 3579
3579 621 3913
3579 621 4095
3579 1341 0
3579 1341 158
3579 1341 621
3579 1341 1341
3579 1341 2220
3579 1341 3015
3579 1341 3579
3579 1341 3913
3579 1341 4095
3579 2220 0
3579 2220 158
3579 2220 621
3579 2220 1341
3579 2220 2220
3579 2220 3015
3579 2220 3579
3579 2220 3913
3579 2220 4095
3579 3015 0
3579 3015 158
3579 3015 621
3579 3015 1341
3579 3015 2220
3579 3015 3015
3579 3015 3579
3579 3015 3913
3579 3015 4095
3579 3579 0
3579 3579 158
3579 3579 621
3579 3579 1341
3579 3579 2220
3579 3579 3015
3579 3579 3579
3579 3579 3913
3579 3579 4095
3579 3913 0
3579 3913 158
3579 3913 621
3579 3913 1341
3579 3913 2220
3579 3913 3015
3579 3913 3579
3579 3913 3913
3579 3913 4095
3579 4095 0
3579 4095 158
3579 4095 621
3579 4095 1341
3579 4095 2220
3579 4095 3015
3579 4095 3579
3579 4095 3913
3579 4095 4095
3913 0 0
3913 0 158
3913 0 621
3913 0 1341
3913 0 2220
3913 0 3015
3913 0 3579
3913 0 3913
3913 0 4095
3913 158 0
3913 158 158
3913 158 621
3913 158 1341
3913 158 2220
3913 158 3015
3913 158 3579
3913 158 3913
3913 158 4095
3913 621 0
3913 621 158
3913 621 621
3913 621 1341
3913 621 2220
3913 621 3015
3913 621 3579
3913 621 3913
3913 621 4095
3913 1341 0
3913 1341 158
3913 1341 621
3913 1341 1341
3913 1341 2220
3913 1341 3015
3913 1341 3579
3913 1341 3913
3913 1341 4095
3913 2220 0
3913 2220 158
3913 2220 621
3913 2220 1341
3913 2220 2220
3913 2220 3015
3913 2220 3579
3913 2220 3913
3913 2220 4095
3913 3015 0
3913 3015 158
3913 3015 621
3913 3015 1341
3913 3015 2220
3913 3015 3015
3913 3015 3579
3913 3015 3913
3913 3015 4095
3913 3579 0
3913 3579 158
3913 3579 621
3913 3579 1341
3913 3579 2220
3913 3579 3015
3913 3579 3579
3913 3579 3913
3913 3579 4095
3913 3913 0
3913 3913 158
3913 3913 621
3913 3913 1341
3913 3913 2220
3913 3913 3015
3913 3913 3579
3913 3913 3913
3913 3913 4095
3913 4095 0
3913 4095 158
3913 4095 621
3913 4095 1341
3913 4095 2220
3913 4095 3015
3913 4095 3579
3913 4095 3913
3913 4095 4095
4095 0 0
4095 0 158
4095 0 621
4095 0 1341
4095 0 2220
4095 0 3015
4095 0 3579
4095 0 3913
4095 0 4095
4095 158 0
4095 158 158
4095 158 621
4095 158 1341
4095 158 2220
4095 158 3015
4095 158 3579
4095 158 3913
4095 158 4095
4095 621 0
4095 621 158
4095 621 621
4095 621 1341
4095 621 2220
4095 621 3015
4095 621 3579
4095 621 3913
4095 621 4095
4095 1341 0
4095 1341 158
4095 1341 621
4095 1341 1341
4095 1341 2220
4095 1341 3015
4095 1341 3579
4095 1341 3913
4095 1341 4095
4095 2220 0
4095 2220 158
4095 2220 621
4095 2220 1341
4095 2220 2220
4095 2220 3015
4095 2220 3579
4095 2220 3913
4095 2220 4095
4095 3015 0
4095 3015 158
4095 3015 621
4095 3015 1341
4095 3015 2220
4095 3015 3015
4095 3015 3579
4095 3015 3913
4095 3015 4095
4095 3579 0
4095 3579 158
4095 3579 621
4095 3579 1341
4095 3579 2220
4095 3579 3015
4095 3579 3579
4095 3579 3913
4095 3579 4095
4095 3913 0
4095 3913 158
4095 3913 621
4095 3913 1341
4095 3913 2220
4095 3913 3015
4095 3913 3579
4095 3913 3913
4095 3913 4095
4095 4095 0
4095 4095 158
4095 4095 621
4095 4095 1341
4095 4095 2220
4095 4095 3015
4095 4095 3579
4095 4095 3913
4095 4095 4095
