Postproduction/IWLTBAP - Humble/LUTs by IWLTBAP (3DL)/UTILITY/REDLogFilm to Rec.709/U-REDLOGFILM-V2-LTR.3dl
# Copyright: (C) Copyright 2010-2018 by IWLTBAP SAS
# Cannot be resold, shared or otherwise redistributed
# Website: https://luts.iwltbap.com
0 64 128 192 256 320 384 448 512 576 640 704 768 832 896 960 1023
0 0 0
0 0 0
0 0 0
0 0 134
0 0 479
0 0 777
0 0 1086
0 0 1427
0 0 1819
0 0 2273
0 0 2803
0 0 3418
0 0 3977
0 0 4095
0 0 4095
0 0 4095
0 0 4095
0 0 0
0 0 0
0 0 0
0 0 137
0 0 480
0 0 779
0 0 1087
0 0 1428
0 0 1819
0 0 2272
0 0 2802
0 0 3415
0 0 3976
0 0 4095
0 0 4095
0 0 4095
0 0 4095
0 0 0
0 0 0
0 0 0
0 0 137
0 0 481
0 0 778
0 0 1087
0 0 1427
0 0 1818
0 0 2271
0 0 2800
0 0 3413
0 0 3974
0 0 4095
0 0 4095
0 0 4095
0 0 4095
0 137 0
0 137 0
0 136 0
0 137 137
0 135 479
0 133 778
0 129 1086
0 124 1427
0 119 1817
0 112 2270
0 106 2799
0 101 3412
0 97 3974
0 94 4095
0 93 4095
0 92 4095
0 91 4095
0 474 0
0 474 0
0 474 0
0 474 129
0 474 474
0 472 773
0 469 1081
0 465 1422
0 460 1812
0 456 2266
0 451 2794
0 448 3408
0 444 3972
0 443 4095
0 442 4095
0 442 4095
0 443 4095
0 758 0
0 759 0
0 760 0
0 761 112
0 761 459
0 760 760
0 758 1069
0 755 1409
0 752 1799
0 749 2251
0 746 2780
0 744 3392
0 743 3966
0 742 4095
0 742 4095
0 743 4095
0 745 4095
0 1047 0
0 1048 0
0 1050 0
0 1052 88
0 1054 439
0 1054 744
0 1053 1053
0 1051 1393
0 1049 1782
0 1047 2234
0 1045 2761
0 1044 3374
0 1043 3957
0 1044 4095
0 1046 4095
0 1047 4095
0 1050 4095
0 1368 0
0 1371 0
0 1374 0
0 1378 69
0 1381 424
0 1382 732
0 1382 1041
0 1381 1381
0 1380 1769
0 1378 2220
0 1377 2747
0 1376 3357
0 1377 3950
0 1378 4095
0 1380 4095
0 1384 4095
0 1387 4095
0 1740 0
0 1744 0
0 1749 0
0 1754 54
0 1757 412
0 1760 722
0 1760 1032
0 1760 1372
0 1759 1759
0 1759 2210
0 1758 2735
0 1757 3345
0 1758 3944
0 1760 4095
0 1764 4095
0 1767 4095
0 1772 4095
0 2174 0
0 2181 0
0 2186 0
0 2192 42
0 2198 405
0 2201 716
0 2203 1026
0 2203 1365
0 2203 1753
0 2202 2202
0 2202 2727
0 2202 3336
0 2203 3940
0 2207 4095
0 2211 4095
0 2216 4095
0 2221 4095
0 2689 0
0 2696 0
0 2703 0
0 2711 38
0 2718 402
0 2723 714
0 2724 1024
0 2726 1364
0 2725 1751
0 2726 2201
0 2726 2726
0 2726 3334
0 2729 3939
0 2731 4095
0 2738 4095
0 2743 4095
0 2751 4095
0 3297 0
0 3306 0
0 3315 0
0 3324 43
0 3333 406
0 3338 717
0 3342 1028
0 3343 1368
0 3343 1757
0 3343 2207
0 3343 2733
0 3345 3344
0 3347 3943
0 3352 4095
0 3357 4095
0 3366 4095
0 3373 4095
0 3927 0
0 3932 0
0 3936 0
0 3942 61
0 3946 419
0 3948 729
0 3950 1039
0 3951 1381
0 3951 1771
0 3951 2224
0 3951 2753
0 3951 3367
0 3952 3954
0 3954 4095
0 3958 4095
0 3961 4095
0 3965 4095
0 4095 0
0 4095 0
0 4095 0
0 4095 89
0 4095 443
0 4095 750
0 4095 1062
0 4095 1405
0 4095 1798
0 4095 2255
0 4095 2788
0 4095 3409
0 4095 3973
0 4095 4095
0 4095 4095
0 4095 4095
0 4095 4095
0 4095 0
0 4095 0
0 4095 0
0 4095 126
0 4095 474
0 4095 778
0 4095 1090
0 4095 1436
0 4095 1833
0 4095 2295
0 4095 2836
0 4095 3463
0 4095 4001
0 4095 4095
0 4095 4095
0 4095 4095
0 4095 4095
0 4095 0
0 4095 0
0 4095 0
0 4095 163
0 4095 509
0 4095 807
0 4095 1121
0 4095 1470
0 4095 1871
0 4095 2339
0 4095 2885
0 4095 3521
0 4095 4029
0 4095 4095
0 4095 4095
0 4095 4095
48 4095 4095
216 4095 216
366 4095 366
451 4095 461
580 4095 788
663 4095 1107
694 4095 1362
704 4095 1620
671 4095 1888
642 4095 2212
580 4095 2591
537 4095 3063
492 4095 3625
475 4095 4058
492 4095 4095
513 4095 4095
605 4095 4095
2768 4095 4095
0 0 0
0 0 0
0 0 0
0 0 136
0 0 479
0 0 778
0 0 1086
0 0 1428
0 0 1819
0 0 2273
0 0 2804
0 0 3417
0 0 3978
0 0 4095
0 0 4095
0 0 4095
0 0 4095
0 0 0
0 0 0
0 0 0
0 0 137
0 0 480
0 0 778
0 0 1086
0 0 1428
0 0 1818
0 0 2272
0 0 2800
0 0 3414
0 0 3974
0 0 4095
0 0 4095
0 0 4095
0 0 4095
0 0 0
0 0 0
0 0 0
0 0 137
0 0 479
0 0 777
0 0 1085
0 0 1426
0 0 1816
0 0 2269
0 0 2798
0 0 3410
0 0 3973
0 0 4095
0 0 4095
0 0 4095
0 0 4095
0 136 0
0 135 0
0 135 0
0 135 135
0 135 479
0 132 777
0 128 1085
0 124 1426
0 118 1816
0 112 2269
0 105 2798
0 101 3412
0 97 3973
0 94 4095
0 93 4095
0 92 4095
0 92 4095
0 473 0
0 474 0
0 474 0
0 474 130
0 474 474
0 472 773
0 469 1082
0 465 1422
0 461 1814
0 457 2267
0 453 2798
0 449 3411
0 447 3974
0 445 4095
0 445 4095
0 446 4095
0 446 4095
0 760 0
0 761 0
0 762 0
0 763 115
0 763 461
0 763 763
0 761 1072
0 759 1413
0 756 1804
0 754 2258
0 751 2788
0 749 3403
0 747 3971
0 747 4095
0 748 4095
0 750 4095
0 751 4095
0 1051 0
0 1053 0
0 1056 0
0 1059 95
0 1060 446
0 1061 750
0 1060 1060
0 1059 1401
0 1057 1792
0 1055 2245
0 1054 2775
0 1052 3390
0 1051 3965
0 1053 4095
0 1054 4095
0 1058 4095
0 1060 4095
0 1377 0
0 1380 0
0 1384 0
0 1388 80
0 1390 434
0 1393 741
0 1392 1050
0 1392 1392
0 1391 1781
0 1390 2235
0 1388 2763
0 1388 3378
0 1388 3960
0 1389 4095
0 1392 4095
0 1395 4095
0 1399 4095
0 1752 0
0 1756 0
0 1762 0
0 1766 68
0 1771 424
0 1773 733
0 1774 1043
0 1774 1384
0 1773 1773
0 1773 2226
0 1772 2754
0 1772 3368
0 1772 3955
0 1775 4095
0 1778 4095
0 1783 4095
0 1787 4095
0 2191 0
0 2197 0
0 2204 0
0 2210 60
0 2215 418
0 2219 727
0 2220 1038
0 2221 1379
0 2221 1768
0 2220 2220
0 2220 2749
0 2220 3361
0 2222 3952
0 2225 4095
0 2230 4095
0 2235 4095
0 2241 4095
0 2710 0
0 2717 0
0 2725 0
0 2732 57
0 2740 416
0 2744 726
0 2747 1037
0 2748 1378
0 2748 1767
0 2748 2220
0 2748 2748
0 2749 3362
0 2750 3952
0 2755 4095
0 2760 4095
0 2767 4095
0 2773 4095
0 3323 0
0 3332 0
0 3341 0
0 3352 63
0 3359 420
0 3365 731
0 3368 1041
0 3368 1383
0 3370 1773
0 3370 2226
0 3370 2756
0 3370 3370
0 3373 3956
0 3377 4095
0 3384 4095
0 3392 4095
0 3399 4095
0 3941 0
0 3945 0
0 3950 0
0 3954 78
0 3958 433
0 3961 742
0 3963 1053
0 3964 1396
0 3963 1787
0 3964 2243
0 3963 2775
0 3964 3394
0 3965 3966
0 3967 4095
0 3970 4095
0 3973 4095
0 3978 4095
0 4095 0
0 4095 0
0 4095 0
0 4095 105
0 4095 456
0 4095 762
0 4095 1074
0 4095 1419
0 4095 1814
0 4095 2272
0 4095 2810
0 4095 3433
0 4095 3986
0 4095 4095
0 4095 4095
0 4095 4095
0 4095 4095
0 4095 0
0 4095 0
0 4095 0
0 4095 140
0 4095 487
0 4095 789
0 4095 1101
0 4095 1449
0 4095 1847
0 4095 2312
0 4095 2855
0 4095 3486
0 4095 4011
0 4095 4095
0 4095 4095
0 4095 4095
0 4095 4095
0 4095 0
0 4095 0
0 4095 0
0 4095 176
0 4095 520
0 4095 817
0 4095 1131
0 4095 1481
0 4095 1883
0 4095 2352
0 4095 2902
0 4095 3540
0 4095 4038
0 4095 4095
0 4095 4095
0 4095 4095
231 4095 4095
567 4095 567
647 4095 647
742 4095 752
835 4095 1028
910 4095 1318
957 4095 1565
933 4095 1780
912 4095 2035
858 4095 2323
824 4095 2691
760 4095 3127
719 4095 3663
685 4095 4066
674 4095 4095
705 4095 4095
766 4095 4095
3036 4095 4095
0 0 0
0 0 0
0 0 0
0 0 137
0 0 481
0 0 779
0 0 1087
0 0 1430
0 0 1820
0 0 2275
0 0 2805
0 0 3419
0 0 3977
0 0 4095
0 0 4095
0 0 4095
0 0 4095
0 0 0
0 0 0
0 0 0
0 0 137
0 0 480
0 0 778
0 0 1086
0 0 1427
0 0 1818
0 0 2271
0 0 2800
0 0 3412
0 0 3974
0 0 4095
0 0 4095
0 0 4095
0 0 4095
0 0 0
0 0 0
0 0 0
0 0 136
0 0 479
0 0 777
0 0 1085
0 0 1426
0 0 1815
0 0 2269
0 0 2797
0 0 3410
0 0 3972
0 0 4095
0 0 4095
0 0 4095
0 0 4095
0 135 0
0 135 0
0 135 0
0 135 135
0 134 478
0 132 777
0 128 1085
0 124 1426
0 119 1817
0 113 2270
0 107 2800
0 102 3413
0 98 3975
0 96 4095
0 95 4095
0 95 4095
0 94 4095
0 475 0
0 475 0
0 475 0
0 476 131
0 475 475
0 474 775
0 471 1083
0 468 1425
0 464 1817
0 460 2271
0 456 2802
0 453 3418
0 451 3978
0 449 4095
0 449 4095
0 450 4095
0 451 4095
0 763 0
0 764 0
0 766 0
0 767 120
0 768 466
0 767 767
0 766 1077
0 764 1419
0 761 1811
0 759 2267
0 757 2799
0 755 3417
0 754 3978
0 755 4095
0 755 4095
0 757 4095
0 759 4095
0 1059 0
0 1061 0
0 1063 0
0 1066 104
0 1068 454
0 1069 758
0 1068 1069
0 1068 1411
0 1066 1803
0 1065 2259
0 1063 2791
0 1062 3409
0 1062 3976
0 1063 4095
0 1065 4095
0 1068 4095
0 1070 4095
0 1388 0
0 1391 0
0 1395 0
0 1398 92
0 1402 445
0 1403 750
0 1404 1061
0 1403 1403
0 1402 1795
0 1401 2251
0 1400 2783
0 1400 3401
0 1400 3971
0 1402 4095
0 1405 4095
0 1409 4095
0 1412 4095
0 1766 0
0 1771 0
0 1775 0
0 1781 83
0 1785 437
0 1788 744
0 1789 1055
0 1789 1397
0 1789 1789
0 1788 2244
0 1787 2776
0 1787 3393
0 1789 3968
0 1791 4095
0 1794 4095
0 1799 4095
0 1804 4095
0 2210 0
0 2216 0
0 2222 0
0 2228 76
0 2234 432
0 2237 740
0 2239 1051
0 2240 1394
0 2239 1784
0 2240 2240
0 2239 2771
0 2240 3389
0 2241 3965
0 2245 4095
0 2249 4095
0 2255 4095
0 2261 4095
0 2732 0
0 2741 0
0 2748 0
0 2756 75
0 2763 431
0 2768 740
0 2770 1050
0 2771 1393
0 2772 1784
0 2771 2239
0 2772 2772
0 2772 3389
0 2775 3966
0 2778 4095
0 2784 4095
0 2790 4095
0 2797 4095
0 3352 0
0 3360 0
0 3370 0
0 3379 81
0 3388 436
0 3394 744
0 3396 1055
0 3398 1398
0 3397 1790
0 3398 2247
0 3398 2779
0 3399 3399
0 3401 3969
0 3405 4095
0 3412 4095
0 3419 4095
0 3428 4095
0 3954 0
0 3959 0
0 3963 0
0 3968 95
0 3972 449
0 3975 755
0 3977 1067
0 3977 1411
0 3977 1805
0 3977 2263
0 3977 2799
0 3978 3421
0 3979 3980
0 3981 4095
0 3983 4095
0 3987 4095
0 3991 4095
0 4095 0
0 4095 0
0 4095 0
0 4095 122
0 4095 470
0 4095 774
0 4095 1087
0 4095 1433
0 4095 1829
0 4095 2291
0 4095 2831
0 4095 3458
0 4095 3998
0 4095 4095
0 4095 4095
0 4095 4095
0 4095 4095
0 4095 0
0 4095 0
0 4095 0
0 4095 154
0 4095 500
0 4095 800
0 4095 1114
0 4095 1462
0 4095 1863
0 4095 2329
0 4095 2874
0 4095 3508
0 4095 4022
0 4095 4095
0 4095 4095
0 4095 4095
15 4095 4095
0 4095 0
0 4095 0
0 4095 0
0 4095 188
0 4095 531
0 4095 827
0 4095 1141
0 4095 1492
0 4095 1896
0 4095 2367
0 4095 2918
0 4095 3559
0 4095 4048
0 4095 4095
0 4095 4095
1 4095 4095
539 4095 4095
846 4095 836
934 4095 923
1023 4095 1023
1098 4095 1267
1175 4095 1538
1192 4095 1743
1189 4095 1955
1145 4095 2174
1102 4095 2447
1040 4095 2777
980 4095 3190
933 4095 3695
887 4095 4071
890 4095 4095
897 4095 4095
977 4095 4095
3346 4095 4095
137 0 0
138 0 0
138 0 0
138 0 138
139 0 482
137 0 780
133 0 1089
128 0 1430
123 0 1822
117 0 2275
112 0 2805
106 0 3419
101 0 3978
98 0 4095
96 0 4095
95 0 4095
93 0 4095
138 0 0
137 0 0
137 0 0
137 0 137
136 0 480
134 0 778
130 0 1086
125 0 1427
119 0 1817
113 0 2271
106 0 2799
101 0 3412
97 0 3974
93 0 4095
91 0 4095
90 0 4095
