Postproduction/IWLTBAP - Humble/LUTs by IWLTBAP (3DL)/UTILITY/REDLogFilm to Rec.709/U-REDLOGFILM-V2-LTR.3dl
# Copyright: (C) Copyright 2010-2018 by IWLTBAP SAS
# Cannot be resold, shared or otherwise redistributed
# Website: https://luts.iwltbap.com
0 256 512 768 1023
0 0 0
0 0 479
0 0 1819
0 0 3977
0 0 4095
0 474 0
0 474 474
0 460 1812
0 444 3972
0 443 4095
0 1740 0
0 1757 412
0 1759 1759
0 1758 3944
0 1772 4095
0 3927 0
0 3946 419
0 3951 1771
0 3952 3954
0 3965 4095
216 4095 216
663 4095 1107
642 4095 2212
475 4095 4058
2768 4095 4095
480 0 0
481 0 481
466 0 1819
448 0 3976
441 0 4095
476 476 0
479 479 479
470 470 1824
460 460 3986
463 463 4095
445 1794 0
462 1815 462
465 1819 1819
466 1820 3992
479 1835 4095
457 3981 0
476 3998 476
480 4002 1836
481 4003 4004
493 4015 4095
1650 4095 1294
1859 4095 1859
1741 4095 2613
1525 4095 4074
3829 4095 4095
1786 0 0
1784 0 436
1766 0 1765
1743 0 3933
1735 0 4095
1800 450 0
1811 458 459
1807 455 1807
1802 451 3978
1812 459 4095
1807 1807 0
1829 1829 474
1835 1835 1835
1837 1837 4006
1853 1853 4095
1824 3993 0
1845 4010 488
1848 4013 1848
1847 4012 4013
1858 4022 4095
2342 4095 888
2432 4095 1446
2307 4095 2306
2121 4095 4059
4095 4095 4095
3916 0 0
3915 0 379
3896 0 1705
3866 0 3866
3858 0 4095
3958 429 0
3970 444 444
3971 444 1794
3968 442 3968
3979 453 4095
3986 1813 0
4003 1835 480
4008 1841 1841
4010 1843 4010
4023 1860 4095
3993 3992 0
4007 4006 484
4008 4008 1840
4004 4004 4004
4011 4012 4095
4036 4095 5
4040 4095 532
4030 4095 1865
4017 4095 4016
4081 4095 4095
4095 724 724
4095 760 1062
4095 446 1934
4095 34 3860
4095 119 4095
4095 2993 2879
4095 3302 3304
4095 3368 3616
4095 3374 4072
4095 3619 4095
4095 3921 3800
4095 4095 4095
4095 4095 4095
4095 4095 4095
4095 4095 4095
4095 4086 3670
4095 4092 3932
4095 4091 3945
4095 4088 4087
4095 4094 4095
4095 4095 3904
4095 4095 3975
4095 4095 3879
4095 4095 4092
4095 4095 4095
