Postproduction/IWLTBAP - Humble/LUTs by IWLTBAP (3DL)/UTILITY/REDLogFilm to Rec.709/U-REDLOGFILM-V1-LTR.3dl
# Copyright: (C) Copyright 2010-2018 by IWLTBAP SAS
# Cannot be resold, shared or otherwise redistributed
# Website: https://luts.iwltbap.com
0 64 128 192 256 320 384 448 512 576 640 704 768 832 896 960 1023
0 0 0
0 0 6
0 0 158
0 0 359
0 0 621
0 0 952
0 0 1341
0 0 1780
0 0 2220
0 0 2648
0 0 3015
0 0 3325
0 0 3579
0 0 3764
0 0 3913
0 0 4019
0 0 4095
0 6 0
0 6 6
0 6 158
0 6 359
0 6 621
0 6 952
0 6 1341
0 6 1780
0 6 2220
0 6 2648
0 6 3015
0 6 3325
0 6 3579
0 6 3764
0 6 3913
0 6 4019
0 6 4095
0 158 0
0 158 6
0 158 158
0 158 359
0 158 621
0 158 952
0 158 1341
0 158 1780
0 158 2220
0 158 2648
0 158 3015
0 158 3325
0 158 3579
0 158 3764
0 158 3913
0 158 4019
0 158 4095
0 359 0
0 359 6
0 359 158
0 359 359
0 359 621
0 359 952
0 359 1341
0 359 1780
0 359 2220
0 359 2648
0 359 3015
0 359 3325
0 359 3579
0 359 3764
0 359 3913
0 359 4019
0 359 4095
0 621 0
0 621 6
0 621 158
0 621 359
0 621 621
0 621 952
0 621 1341
0 621 1780
0 621 2220
0 621 2648
0 621 3015
0 621 3325
0 621 3579
0 621 3764
0 621 3913
0 621 4019
0 621 4095
0 952 0
0 952 6
0 952 158
0 952 359
0 952 621
0 952 952
0 952 1341
0 952 1780
0 952 2220
0 952 2648
0 952 3015
0 952 3325
0 952 3579
0 952 3764
0 952 3913
0 952 4019
0 952 4095
0 1341 0
0 1341 6
0 1341 158
0 1341 359
0 1341 621
0 1341 952
0 1341 1341
0 1341 1780
0 1341 2220
0 1341 2648
0 1341 3015
0 1341 3325
0 1341 3579
0 1341 3764
0 1341 3913
0 1341 4019
0 1341 4095
0 1780 0
0 1780 6
0 1780 158
0 1780 359
0 1780 621
0 1780 952
0 1780 1341
0 1780 1780
0 1780 2220
0 1780 2648
0 1780 3015
0 1780 3325
0 1780 3579
0 1780 3764
0 1780 3913
0 1780 4019
0 1780 4095
0 2220 0
0 2220 6
0 2220 158
0 2220 359
0 2220 621
0 2220 952
0 2220 1341
0 2220 1780
0 2220 2220
0 2220 2648
0 2220 3015
0 2220 3325
0 2220 3579
0 2220 3764
0 2220 3913
0 2220 4019
0 2220 4095
0 2648 0
0 2648 6
0 2648 158
0 2648 359
0 2648 621
0 2648 952
0 2648 1341
0 2648 1780
0 2648 2220
0 2648 2648
0 2648 3015
0 2648 3325
0 2648 3579
0 2648 3764
0 2648 3913
0 2648 4019
0 2648 4095
0 3015 0
0 3015 6
0 3015 158
0 3015 359
0 3015 621
0 3015 952
0 3015 1341
0 3015 1780
0 3015 2220
0 3015 2648
0 3015 3015
0 3015 3325
0 3015 3579
0 3015 3764
0 3015 3913
0 3015 4019
0 3015 4095
0 3325 0
0 3325 6
0 3325 158
0 3325 359
0 3325 621
0 3325 952
0 3325 1341
0 3325 1780
0 3325 2220
0 3325 2648
0 3325 3015
0 3325 3325
0 3325 3579
0 3325 3764
0 3325 3913
0 3325 4019
0 3325 4095
0 3579 0
0 3579 6
0 3579 158
0 3579 359
0 3579 621
0 3579 952
0 3579 1341
0 3579 1780
0 3579 2220
0 3579 2648
0 3579 3015
0 3579 3325
0 3579 3579
0 3579 3764
0 3579 3913
0 3579 4019
0 3579 4095
0 3764 0
0 3764 6
0 3764 158
0 3764 359
0 3764 621
0 3764 952
0 3764 1341
0 3764 1780
0 3764 2220
0 3764 2648
0 3764 3015
0 3764 3325
0 3764 3579
0 3764 3764
0 3764 3913
0 3764 4019
0 3764 4095
0 3913 0
0 3913 6
0 3913 158
0 3913 359
0 3913 621
0 3913 952
0 3913 1341
0 3913 1780
0 3913 2220
0 3913 2648
0 3913 3015
0 3913 3325
0 3913 3579
0 3913 3764
0 3913 3913
0 3913 4019
0 3913 4095
0 4019 0
0 4019 6
0 4019 158
0 4019 359
0 4019 621
0 4019 952
0 4019 1341
0 4019 1780
0 4019 2220
0 4019 2648
0 4019 3015
0 4019 3325
0 4019 3579
0 4019 3764
0 4019 3913
0 4019 4019
0 4019 4095
0 4095 0
0 4095 6
0 4095 158
0 4095 359
0 4095 621
0 4095 952
0 4095 1341
0 4095 1780
0 4095 2220
0 4095 2648
0 4095 3015
0 4095 3325
0 4095 3579
0 4095 3764
0 4095 3913
0 4095 4019
0 4095 4095
6 0 0
6 0 6
6 0 158
6 0 359
6 0 621
6 0 952
6 0 1341
6 0 1780
6 0 2220
6 0 2648
6 0 3015
6 0 3325
6 0 3579
6 0 3764
6 0 3913
6 0 4019
6 0 4095
6 6 0
6 6 6
6 6 158
6 6 359
6 6 621
6 6 952
6 6 1341
6 6 1780
6 6 2220
6 6 2648
6 6 3015
6 6 3325
6 6 3579
6 6 3764
6 6 3913
6 6 4019
6 6 4095
6 158 0
6 158 6
6 158 158
6 158 359
6 158 621
6 158 952
6 158 1341
6 158 1780
6 158 2220
6 158 2648
6 158 3015
6 158 3325
6 158 3579
6 158 3764
6 158 3913
6 158 4019
6 158 4095
6 359 0
6 359 6
6 359 158
6 359 359
6 359 621
6 359 952
6 359 1341
6 359 1780
6 359 2220
6 359 2648
6 359 3015
6 359 3325
6 359 3579
6 359 3764
6 359 3913
6 359 4019
6 359 4095
6 621 0
6 621 6
6 621 158
6 621 359
6 621 621
6 621 952
6 621 1341
6 621 1780
6 621 2220
6 621 2648
6 621 3015
6 621 3325
6 621 3579
6 621 3764
6 621 3913
6 621 4019
6 621 4095
6 952 0
6 952 6
6 952 158
6 952 359
6 952 621
6 952 952
6 952 1341
6 952 1780
6 952 2220
6 952 2648
6 952 3015
6 952 3325
6 952 3579
6 952 3764
6 952 3913
6 952 4019
6 952 4095
6 1341 0
6 1341 6
6 1341 158
6 1341 359
6 1341 621
6 1341 952
6 1341 1341
6 1341 1780
6 1341 2220
6 1341 2648
6 1341 3015
6 1341 3325
6 1341 3579
6 1341 3764
6 1341 3913
6 1341 4019
6 1341 4095
6 1780 0
6 1780 6
6 1780 158
6 1780 359
6 1780 621
6 1780 952
6 1780 1341
6 1780 1780
6 1780 2220
6 1780 2648
6 1780 3015
6 1780 3325
6 1780 3579
6 1780 3764
6 1780 3913
6 1780 4019
6 1780 4095
6 2220 0
6 2220 6
6 2220 158
6 2220 359
6 2220 621
6 2220 952
6 2220 1341
6 2220 1780
6 2220 2220
6 2220 2648
6 2220 3015
6 2220 3325
6 2220 3579
6 2220 3764
6 2220 3913
6 2220 4019
6 2220 4095
6 2648 0
6 2648 6
6 2648 158
6 2648 359
6 2648 621
6 2648 952
6 2648 1341
6 2648 1780
6 2648 2220
6 2648 2648
6 2648 3015
6 2648 3325
6 2648 3579
6 2648 3764
6 2648 3913
6 2648 4019
6 2648 4095
6 3015 0
6 3015 6
6 3015 158
6 3015 359
6 3015 621
6 3015 952
6 3015 1341
6 3015 1780
6 3015 2220
6 3015 2648
6 3015 3015
6 3015 3325
6 3015 3579
6 3015 3764
6 3015 3913
6 3015 4019
6 3015 4095
6 3325 0
6 3325 6
6 3325 158
6 3325 359
6 3325 621
6 3325 952
6 3325 1341
6 3325 1780
6 3325 2220
6 3325 2648
6 3325 3015
6 3325 3325
6 3325 3579
6 3325 3764
6 3325 3913
6 3325 4019
6 3325 4095
6 3579 0
6 3579 6
6 3579 158
6 3579 359
6 3579 621
6 3579 952
6 3579 1341
6 3579 1780
6 3579 2220
6 3579 2648
6 3579 3015
6 3579 3325
6 3579 3579
6 3579 3764
6 3579 3913
6 3579 4019
6 3579 4095
6 3764 0
6 3764 6
6 3764 158
6 3764 359
6 3764 621
6 3764 952
6 3764 1341
6 3764 1780
6 3764 2220
6 3764 2648
6 3764 3015
6 3764 3325
6 3764 3579
6 3764 3764
6 3764 3913
6 3764 4019
6 3764 4095
6 3913 0
6 3913 6
6 3913 158
6 3913 359
6 3913 621
6 3913 952
6 3913 1341
6 3913 1780
6 3913 2220
6 3913 2648
6 3913 3015
6 3913 3325
6 3913 3579
6 3913 3764
6 3913 3913
6 3913 4019
6 3913 4095
6 4019 0
6 4019 6
6 4019 158
6 4019 359
6 4019 621
6 4019 952
6 4019 1341
6 4019 1780
6 4019 2220
6 4019 2648
6 4019 3015
6 4019 3325
6 4019 3579
6 4019 3764
6 4019 3913
6 4019 4019
6 4019 4095
6 4095 0
6 4095 6
6 4095 158
6 4095 359
6 4095 621
6 4095 952
6 4095 1341
6 4095 1780
6 4095 2220
6 4095 2648
6 4095 3015
6 4095 3325
6 4095 3579
6 4095 3764
6 4095 3913
6 4095 4019
6 4095 4095
158 0 0
158 0 6
158 0 158
158 0 359
158 0 621
158 0 952
158 0 1341
158 0 1780
158 0 2220
158 0 2648
158 0 3015
158 0 3325
158 0 3579
158 0 3764
158 0 3913
158 0 4019
158 0 4095
158 6 0
158 6 6
158 6 158
158 6 359
158 6 621
158 6 952
158 6 1341
158 6 1780
158 6 2220
158 6 2648
158 6 3015
158 6 3325
158 6 3579
158 6 3764
158 6 3913
158 6 4019
158 6 4095
158 158 0
158 158 6
158 158 158
158 158 359
158 158 621
158 158 952
158 158 1341
158 158 1780
158 158 2220
158 158 2648
158 158 3015
158 158 3325
158 158 3579
158 158 3764
158 158 3913
158 158 4019
158 158 4095
158 359 0
158 359 6
158 359 158
158 359 359
158 359 621
158 359 952
158 359 1341
158 359 1780
158 359 2220
158 359 2648
158 359 3015
158 359 3325
158 359 3579
158 359 3764
158 359 3913
158 359 4019
158 359 4095
158 621 0
158 621 6
158 621 158
158 621 359
158 621 621
158 621 952
158 621 1341
158 621 1780
158 621 2220
158 621 2648
158 621 3015
158 621 3325
158 621 3579
158 621 3764
158 621 3913
158 621 4019
158 621 4095
158 952 0
158 952 6
158 952 158
158 952 359
158 952 621
158 952 952
158 952 1341
158 952 1780
158 952 2220
158 952 2648
158 952 3015
158 952 3325
158 952 3579
158 952 3764
158 952 3913
158 952 4019
158 952 4095
158 1341 0
158 1341 6
158 1341 158
158 1341 359
158 1341 621
158 1341 952
158 1341 1341
158 1341 1780
158 1341 2220
158 1341 2648
158 1341 3015
158 1341 3325
158 1341 3579
158 1341 3764
158 1341 3913
158 1341 4019
158 1341 4095
158 1780 0
158 1780 6
158 1780 158
158 1780 359
158 1780 621
158 1780 952
158 1780 1341
158 1780 1780
158 1780 2220
158 1780 2648
158 1780 3015
158 1780 3325
158 1780 3579
158 1780 3764
158 1780 3913
158 1780 4019
158 1780 4095
158 2220 0
158 2220 6
158 2220 158
158 2220 359
158 2220 621
158 2220 952
158 2220 1341
158 2220 1780
158 2220 2220
158 2220 2648
158 2220 3015
158 2220 3325
158 2220 3579
158 2220 3764
158 2220 3913
158 2220 4019
158 2220 4095
158 2648 0
158 2648 6
158 2648 158
158 2648 359
158 2648 621
158 2648 952
158 2648 1341
158 2648 1780
158 2648 2220
158 2648 2648
158 2648 3015
158 2648 3325
158 2648 3579
158 2648 3764
158 2648 3913
158 2648 4019
158 2648 4095
158 3015 0
158 3015 6
158 3015 158
158 3015 359
158 3015 621
158 3015 952
158 3015 1341
158 3015 1780
158 3015 2220
158 3015 2648
158 3015 3015
158 3015 3325
158 3015 3579
158 3015 3764
158 3015 3913
158 3015 4019
158 3015 4095
158 3325 0
158 3325 6
158 3325 158
158 3325 359
158 3325 621
158 3325 952
158 3325 1341
158 3325 1780
158 3325 2220
158 3325 2648
158 3325 3015
158 3325 3325
158 3325 3579
158 3325 3764
158 3325 3913
158 3325 4019
158 3325 4095
158 3579 0
158 3579 6
158 3579 158
158 3579 359
158 3579 621
158 3579 952
158 3579 1341
158 3579 1780
158 3579 2220
158 3579 2648
158 3579 3015
158 3579 3325
158 3579 3579
158 3579 3764
158 3579 3913
158 3579 4019
158 3579 4095
158 3764 0
158 3764 6
158 3764 158
158 3764 359
158 3764 621
158 3764 952
158 3764 1341
158 3764 1780
158 3764 2220
158 3764 2648
158 3764 3015
158 3764 3325
158 3764 3579
158 3764 3764
158 3764 3913
158 3764 4019
158 3764 4095
158 3913 0
158 3913 6
158 3913 158
158 3913 359
158 3913 621
158 3913 952
158 3913 1341
158 3913 1780
158 3913 2220
158 3913 2648
158 3913 3015
158 3913 3325
158 3913 3579
158 3913 3764
158 3913 3913
158 3913 4019
158 3913 4095
158 4019 0
158 4019 6
158 4019 158
158 4019 359
158 4019 621
158 4019 952
158 4019 1341
158 4019 1780
158 4019 2220
158 4019 2648
158 4019 3015
158 4019 3325
158 4019 3579
158 4019 3764
158 4019 3913
158 4019 4019
158 4019 4095
158 4095 0
158 4095 6
158 4095 158
158 4095 359
158 4095 621
158 4095 952
158 4095 1341
158 4095 1780
158 4095 2220
158 4095 2648
158 4095 3015
158 4095 3325
158 4095 3579
158 4095 3764
158 4095 3913
158 4095 4019
158 4095 4095
359 0 0
359 0 6
359 0 158
359 0 359
359 0 621
359 0 952
359 0 1341
359 0 1780
359 0 2220
359 0 2648
359 0 3015
359 0 3325
359 0 3579
359 0 3764
359 0 3913
359 0 4019
359 0 4095
359 6 0
359 6 6
359 6 158
359 6 359
359 6 621
359 6 952
359 6 1341
359 6 1780
359 6 2220
359 6 2648
359 6 3015
359 6 3325
359 6 3579
359 6 3764
359 6 3913
359 6 4019
