Postproduction/IWLTBAP - Humble/LUTs by IWLTBAP (3DL)/UTILITY/DJI D-Log to Rec.709/LUTs by DJI/DJI_Phantom4_DLOG2sRGB_Improv.3dl
# DaVinci Resolve Cube (3D LUT).
# Converts DJI Phantom4 DLOG data to sRGB with color tuning
# Gamma as defined by ITU-Rec.1886.
0 128 256 384 512 640 768 896 1023
0 0 0
0 0 175
0 0 1022
0 19 1776
0 71 2637
0 137 3354
0 165 3889
0 0 4095
0 0 4095
0 173 0
0 169 149
0 152 1013
0 203 1778
0 239 2640
0 293 3357
0 285 3885
0 84 4095
0 0 4095
0 1061 0
0 1062 77
0 1047 995
0 1080 1743
0 1075 2599
0 999 3306
0 830 3854
0 618 4095
0 398 4095
0 1817 0
0 1816 12
0 1792 885
0 1783 1676
0 1751 2546
0 1702 3275
0 1636 3840
0 1569 4095
0 1485 4095
0 2592 0
0 2591 0
0 2584 334
0 2581 1456
0 2570 2437
0 2553 3218
0 2533 3814
0 2501 4095
0 2461 4095
0 3297 0
0 3297 0
0 3298 0
0 3290 1211
0 3288 2296
0 3275 3142
0 3263 3779
0 3246 4095
0 3227 4095
0 3847 0
0 3847 0
0 3847 0
0 3842 856
0 3841 2073
0 3837 3030
0 3831 3724
0 3825 4074
0 3812 4095
0 4095 0
0 4095 0
0 4095 0
0 4095 0
0 4095 1759
0 4095 2880
0 4095 3646
0 4095 4045
0 4095 4095
0 4095 0
0 4095 0
0 4095 0
0 4095 0
0 4095 1267
0 4095 2665
0 4095 3537
0 4095 4008
0 4095 4095
257 5 5
265 0 161
202 0 1024
131 21 1783
50 73 2641
0 137 3353
0 155 3889
0 0 4095
0 0 4095
166 155 0
155 154 155
101 149 1032
70 207 1790
19 244 2649
0 296 3360
0 265 3884
0 56 4095
0 0 4095
0 1065 0
0 1067 88
0 1049 1006
0 1075 1746
0 1061 2598
0 973 3302
0 805 3852
0 595 4095
0 370 4095
0 1804 0
0 1801 2
0 1780 873
0 1773 1668
0 1741 2545
0 1691 3271
0 1627 3838
0 1558 4095
0 1476 4095
0 2589 0
0 2587 0
0 2581 329
0 2578 1455
0 2567 2435
0 2549 3219
0 2525 3814
0 2493 4095
0 2456 4095
0 3297 0
0 3297 0
0 3293 0
0 3289 1211
0 3284 2294
0 3275 3142
0 3263 3779
0 3246 4095
0 3222 4095
0 3847 0
0 3847 0
0 3846 0
0 3842 851
0 3839 2072
0 3837 3030
0 3828 3724
0 3820 4073
0 3812 4095
0 4095 0
0 4095 0
0 4095 0
0 4095 0
0 4095 1759
0 4095 2879
0 4095 3646
0 4095 4045
0 4095 4095
0 4095 0
0 4095 0
0 4095 0
0 4095 0
0 4095 1266
0 4095 2665
0 4095 3537
0 4095 4008
0 4095 4095
1242 7 62
1264 0 228
1248 0 1081
1253 3 1801
1246 33 2644
1158 60 3352
739 18 3880
69 0 4095
0 0 4095
1092 183 135
1260 136 245
1249 121 1107
1263 163 1820
1243 189 2652
1101 197 3350
602 117 3880
0 0 4095
0 0 4095
1014 980 0
1010 979 36
952 948 952
873 950 1702
638 906 2568
225 819 3290
0 664 3851
0 473 4095
0 270 4095
0 1746 0
0 1745 0
0 1721 819
0 1714 1639
0 1680 2530
0 1631 3265
0 1577 3839
0 1508 4095
0 1423 4095
0 2564 0
0 2563 0
0 2557 305
0 2554 1446
0 2542 2433
0 2525 3214
0 2501 3815
0 2471 4095
0 2432 4095
0 3285 0
0 3285 0
0 3281 0
0 3275 1206
0 3272 2287
0 3263 3138
0 3249 3776
0 3231 4095
0 3211 4095
0 3838 0
0 3839 0
0 3839 0
0 3834 837
0 3833 2071
0 3829 3031
0 3824 3719
0 3816 4070
0 3808 4095
0 4095 0
0 4095 0
0 4095 0
0 4095 0
0 4095 1750
0 4095 2876
0 4095 3643
0 4095 4040
0 4095 4095
0 4095 0
0 4095 0
0 4095 0
0 4095 0
0 4095 1258
0 4095 2663
0 4095 3537
0 4095 4008
0 4095 4095
2317 75 289
2316 72 451
2304 48 1270
2289 69 1901
2233 33 2680
2129 0 3349
1960 0 3869
1724 0 4095
1380 0 4095
2254 224 306
2299 209 447
2284 183 1278
2263 190 1896
2201 131 2673
2085 9 3342
1918 0 3869
1672 0 4095
1335 0 4095
1908 835 138
1879 838 205
2019 751 940
1985 723 1683
1914 634 2554
1794 522 3280
1616 376 3846
1369 196 4095
1101 0 4095
1666 1601 0
1662 1599 0
1621 1579 700
1579 1571 1579
1480 1541 2500
1339 1497 3250
1138 1429 3829
870 1333 4095
138 1285 4095
778 2487 0
769 2487 0
716 2485 182
586 2482 1384
351 2478 2410
0 2474 3210
0 2448 3811
0 2413 4095
0 2374 4095
0 3255 0
0 3254 0
0 3253 0
0 3248 1188
0 3241 2279
0 3232 3134
0 3219 3775
0 3202 4095
0 3183 4095
0 3827 0
0 3827 0
0 3827 0
0 3822 807
0 3821 2057
0 3817 3023
0 3812 3719
0 3805 4070
0 3792 4095
0 4095 0
0 4095 0
0 4095 0
0 4095 0
0 4095 1738
0 4095 2870
0 4095 3642
0 4095 4041
0 4095 4095
0 4095 0
0 4095 0
0 4095 0
0 4095 0
0 4095 1246
0 4095 2655
0 4095 3533
0 4095 4004
0 4095 4095
3090 16 159
3139 1 271
3137 0 1137
3123 0 1795
3089 0 2613
3042 0 3311
2968 0 3854
2869 0 4095
2744 0 4095
3039 24 125
3106 5 220
3118 0 1100
3105 0 1779
3072 0 2602
3022 0 3302
2949 0 3855
2853 0 4095
2724 0 4095
2416 446 238
2419 442 236
3016 244 870
3006 225 1652
2979 162 2545
2932 79 3278
2864 0 3847
2764 0 4095
2628 0 4095
2828 1405 23
2824 1404 23
2583 1434 802
2810 1377 1519
2779 1349 2471
2719 1312 3234
2631 1255 3823
2503 1178 4095
2326 1078 4095
2492 2419 0
2491 2419 0
2475 2411 168
2447 2403 1393
2398 2392 2398
2322 2376 3195
2211 2348 3804
2050 2313 4095
1829 2269 4095
1677 3202 0
1674 3202 0
1653 3202 0
1588 3194 1156
1507 3189 2255
1377 3177 3121
1180 3161 3765
948 3137 4090
295 3122 4095
0 3807 0
0 3807 0
0 3804 0
0 3802 754
0 3797 2044
0 3793 3015
0 3788 3715
0 3780 4070
0 3768 4095
0 4095 0
0 4095 0
0 4095 0
0 4095 0
0 4095 1715
0 4095 2859
0 4095 3636
0 4095 4041
0 4092 4095
0 4095 0
0 4095 0
0 4095 0
0 4095 0
0 4095 1220
0 4095 2642
0 4095 3526
0 4095 4004
0 4095 4095
3529 73 73
3529 73 73
3801 0 897
3797 0 1668
3786 0 2552
3768 0 3281
3740 0 3845
3700 0 4095
3644 0 4095
3526 73 73
3526 73 73
3792 0 879
3792 0 1659
3782 0 2546
3764 0 3277
3732 0 3845
3692 0 4095
3636 0 4095
3496 72 72
3496 72 72
3763 0 779
3760 0 1614
3749 0 2522
3727 0 3265
3696 0 3837
3652 0 4095
3592 0 4095
3060 1213 446
3059 1212 446
2961 1221 769
3657 1048 1405
3643 1023 2414
3617 979 3203
3576 914 3806
3516 832 4095
3436 725 4095
3528 2269 0
3527 2268 0
3523 2263 49
3404 2272 1451
3480 2242 2378
3451 2221 3181
3403 2192 3797
3334 2155 4095
3250 2108 4095
3201 3127 0
3200 3126 0
3193 3124 0
3176 3116 1131
3151 3112 2232
3111 3102 3111
3049 3088 3758
2969 3070 4089
2857 3048 4095
2580 3767 0
2576 3767 0
2564 3767 0
2532 3763 658
2492 3758 2012
2423 3753 3000
2320 3748 3704
2172 3737 4063
1968 3727 4095
876 4086 0
870 4086 0
834 4086 0
729 4086 0
515 4086 1642
166 4085 2840
0 4081 3628
0 4077 4037
0 4073 4095
0 4095 0
0 4095 0
0 4095 0
0 4095 0
0 4095 1188
0 4095 2625
0 4095 3517
0 4095 4000
0 4095 4095
3805 78 78
3805 78 78
4095 0 757
4095 0 1599
4095 0 2516
4095 0 3260
4095 0 3836
4095 0 4095
4089 0 4095
3805 78 78
3805 78 78
4095 0 734
4095 0 1592
4095 0 2512
4095 0 3258
4095 0 3836
4095 0 4095
4085 0 4095
3805 78 78
3805 78 78
4095 0 615
4095 0 1543
4095 0 2488
4095 0 3244
4095 0 3828
4089 0 4095
4069 0 4095
3177 763 400
3177 761 399
3274 713 434
4084 488 1275
4085 450 2361
4079 387 3183
4068 294 3803
4057 180 4095
4037 30 4095
4025 2037 19
4025 2035 19
4024 2031 20
3528 2133 1624
4029 2006 2334
4025 1981 3161
4014 1950 3785
3998 1907 4095
3974 1854 4095
3962 3010 0
3960 3010 0
3958 3009 0
3953 3001 1074
3904 3005 2246
3927 2987 3090
3914 2973 3749
3890 2952 4083
3858 2925 4095
3773 3708 0
3773 3708 0
3769 3709 0
3761 3704 520
3748 3703 1980
3727 3697 2981
3695 3690 3695
3650 3679 4057
3593 3667 4095
3306 4067 0
3304 4067 0
3300 4064 0
3284 4062 0
3259 4061 1630
3221 4059 2823
3166 4057 3614
3093 4052 4028
2996 4048 4095
2211 4095 0
2207 4095 0
2193 4095 0
2161 4095 0
2095 4095 1130
2007 4095 2591
1878 4095 3499
1670 4095 3994
1372 4095 4095
3805 78 78
3805 78 78
4095 0 556
4095 0 1517
4095 0 2472
4095 0 3239
4095 0 3824
4095 0 4095
4095 0 4095
3805 78 78
3805 78 78
4095 0 530
4095 0 1509
4095 0 2471
4095 0 3236
4095 0 3824
4095 0 4095
4095 0 4095
3805 78 78
3805 78 78
4095 0 407
4095 0 1466
4095 0 2445
4095 0 3224
4095 0 3820
4095 0 4095
4095 0 4095
3805 78 78
3805 78 78
3976 32 161
4095 0 1369
4095 0 2392
4095 0 3196
4095 0 3806
4095 0 4095
4095 0 4095
3866 1714 233
3863 1712 235
3859 1707 239
3443 1806 1508
4095 1627 2289
4095 1595 3137
4095 1547 3774
4095 1485 4095
4095 1402 4095
4095 2846 0
4095 2846 0
4095 2844 0
4095 2833 1015
3867 2878 2353
4095 2818 3070
4095 2800 3738
4095 2776 4076
4095 2748 4095
4095 3628 0
4095 3628 0
4095 3627 0
4095 3624 330
4095 3619 1932
4095 3614 2958
4095 3602 3683
4095 3591 4053
4095 3578 4095
4073 4033 0
4073 4033 0
4073 4033 0
4069 4033 0
4061 4028 1563
4052 4028 2794
4039 4023 3600
4023 4019 4023
4003 4015 4095
3851 4095 0
3852 4095 0
3851 4095 0
3843 4095 0
3831 4095 1073
3814 4095 2556
3789 4095 3480
3753 4095 3987
3704 4095 4095
3805 78 78
3805 78 78
4074 6 300
4095 0 1428
4095 0 2423
4095 0 3212
4095 0 3811
4095 0 4095
4095 0 4095
3805 78 78
3805 78 78
4066 8 280
4095 0 1419
4095 0 2421
4095 0 3208
4095 0 3812
4095 0 4095
4095 0 4095
3805 78 78
3805 78 78
3989 29 172
4095 0 1377
4095 0 2395
4095 0 3196
4095 0 3808
4095 0 4095
4095 0 4095
3805 78 78
3805 78 78
3805 78 78
4095 0 1279
4095 0 2340
4095 0 3171
4095 0 3792
4095 0 4095
4095 0 4095
3285 1184 510
3284 1183 510
3281 1177 510
3923 1000 1025
4095 941 2174
4095 900 3080
4095 839 3745
4095 755 4083
4095 645 4095
4095 2598 0
4095 2597 0
4095 2597 0
4095 2586 925
3698 2675 2353
4095 2566 3043
4095 2544 3726
4095 2514 4072
4095 2480 4095
4095 3508 0
4095 3508 0
4095 3503 0
4095 3500 101
4095 3494 1878
4082 3492 2950
4095 3479 3671
4095 3464 4049
4095 3446 4095
4095 3993 0
4095 3992 0
4095 3993 0
4095 3993 0
4095 3992 1486
4095 3987 2762
4095 3983 3584
4095 3979 4019
4095 3975 4095
4095 4095 0
4095 4095 0
4095 4095 0
4095 4095 0
4095 4095 986
4095 4095 2511
4095 4095 3459
4095 4095 3978
4095 4095 4095
