Postproduction/IWLTBAP - Humble/LUTs by IWLTBAP (3DL)/UTILITY/DJI D-Log to Rec.709/LUTs by DJI/DJI_Phantom4_DLOG2Rec709.3dl
# DaVinci Resolve Cube (3D LUT).
# Converts DJI Phantom4 DLOG data to Rec709
# Gamma as defined by ITU-Rec.1886.
0 128 256 384 512 640 768 896 1023
0 0 0
0 0 105
0 0 586
0 0 1190
0 0 1830
0 0 2497
0 0 3189
0 0 3900
0 0 4095
0 105 0
0 103 92
0 95 577
0 78 1185
0 48 1826
0 4 2495
0 0 3187
0 0 3898
0 0 4095
0 584 0
0 583 26
0 577 529
0 565 1158
0 543 1808
0 510 2481
0 462 3176
0 393 3889
0 296 4095
0 1186 0
0 1185 0
0 1182 410
0 1175 1097
0 1163 1768
0 1145 2452
0 1120 3153
0 1087 3871
0 1045 4095
0 1824 0
0 1824 0
0 1822 168
0 1817 988
0 1809 1700
0 1797 2403
0 1781 3116
0 1760 3841
0 1733 4095
0 2492 0
0 2491 0
0 2490 0
0 2486 804
0 2480 1594
0 2471 2330
0 2460 3060
0 2445 3797
0 2426 4095
0 3183 0
0 3183 0
0 3182 0
0 3178 476
0 3174 1437
0 3167 2226
0 3158 2983
0 3147 3736
0 3132 4095
0 3896 0
0 3896 0
0 3894 0
0 3892 0
0 3888 1205
0 3882 2082
0 3875 2879
0 3866 3656
0 3854 4095
0 4095 0
0 4095 0
0 4095 0
0 4095 0
0 4095 837
0 4095 1887
0 4095 2744
0 4095 3553
0 4095 4095
159 0 0
154 0 103
118 0 585
38 0 1189
0 0 1829
0 0 2497
0 0 3188
0 0 3900
0 0 4095
97 91 0
90 90 90
54 82 576
0 65 1184
0 35 1825
0 0 2494
0 0 3186
0 0 3898
0 0 4095
0 575 0
0 573 24
0 568 527
0 555 1157
0 533 1807
0 500 2481
0 451 3175
0 381 3889
0 283 4095
0 1181 0
0 1180 0
0 1177 408
0 1170 1096
0 1158 1767
0 1140 2452
0 1115 3152
0 1082 3870
0 1039 4095
0 1821 0
0 1820 0
0 1818 166
0 1813 987
0 1805 1699
0 1794 2403
0 1777 3115
0 1756 3840
0 1729 4095
0 2489 0
0 2489 0
0 2487 0
0 2483 803
0 2477 1593
0 2469 2329
0 2457 3060
0 2442 3796
0 2423 4095
0 3181 0
0 3181 0
0 3179 0
0 3176 475
0 3172 1436
0 3165 2225
0 3156 2982
0 3145 3735
0 3130 4095
0 3894 0
0 3894 0
0 3893 0
0 3890 0
0 3886 1204
0 3881 2082
0 3873 2879
0 3864 3655
0 3853 4095
0 4095 0
0 4095 0
0 4095 0
0 4095 0
0 4095 836
0 4095 1886
0 4095 2744
0 4095 3553
0 4095 4095
790 0 0
791 0 93
772 0 577
726 0 1184
640 0 1825
494 0 2494
232 0 3185
0 0 3897
0 0 4095
630 59 20
751 25 81
735 15 567
687 0 1179
597 0 1821
441 0 2491
168 0 3183
0 0 3895
0 0 4095
552 525 0
546 524 14
520 518 519
456 504 1152
330 481 1803
125 445 2477
0 392 3173
0 315 3887
0 215 4095
0 1153 0
0 1152 0
0 1149 399
0 1142 1091
0 1130 1764
0 1111 2449
0 1086 3150
0 1052 3868
0 1008 4095
0 1802 0
0 1802 0
0 1799 155
0 1795 981
0 1787 1695
0 1775 2400
0 1758 3112
0 1737 3838
0 1710 4095
0 2475 0
0 2475 0
0 2473 0
0 2469 797
0 2463 1589
0 2455 2326
0 2443 3057
0 2428 3794
0 2409 4095
0 3170 0
0 3170 0
0 3169 0
0 3165 466
0 3161 1432
0 3154 2222
0 3145 2980
0 3134 3733
0 3119 4095
0 3885 0
0 3885 0
0 3884 0
0 3881 0
0 3877 1199
0 3872 2078
0 3864 2876
0 3855 3653
0 3844 4095
0 4095 0
0 4095 0
0 4095 0
0 4095 0
0 4095 829
0 4095 1883
0 4095 2741
0 4095 3550
0 4095 4095
1522 0 0
1521 0 72
1512 0 561
1488 0 1174
1445 0 1818
1377 0 2488
1277 0 3180
1135 0 3893
929 0 4095
1473 0 0
1500 0 59
1492 0 551
1468 0 1169
1424 0 1814
1355 0 2485
1253 0 3178
1108 0 3891
897 0 4095
1210 443 48
1159 455 167
1383 395 503
1359 378 1142
1311 350 1796
1236 305 2472
1125 244 3167
963 164 3882
718 65 4095
1133 1090 0
1130 1089 0
1115 1086 377
1081 1078 1080
1021 1065 1756
925 1046 2442
778 1019 3144
543 983 3863
118 936 4095
450 1760 0
444 1760 0
413 1757 131
338 1752 969
200 1744 1687
0 1732 2393
0 1715 3107
0 1693 3833
0 1666 4095
0 2444 0
0 2444 0
0 2442 0
0 2438 782
0 2432 1580
0 2424 2319
0 2412 3051
0 2396 3789
0 2377 4095
0 3146 0
0 3145 0
0 3144 0
0 3141 445
0 3136 1422
0 3130 2215
0 3121 2974
0 3109 3728
0 3094 4095
0 3865 0
0 3865 0
0 3864 0
0 3861 0
0 3857 1188
0 3851 2071
0 3844 2870
0 3835 3648
0 3823 4095
0 4095 0
0 4095 0
0 4095 0
0 4095 0
0 4095 815
0 4095 1875
0 4095 2735
0 4095 3545
0 4095 4095
2295 0 0
2294 0 35
2289 0 534
2275 0 1159
2248 0 1808
2205 0 2480
2144 0 3174
2061 0 3887
1952 0 4095
2280 0 0
2280 0 23
2276 0 524
2261 0 1154
2234 0 1804
2191 0 2477
2129 0 3172
2046 0 3885
1936 0 4095
1691 286 81
1778 264 122
2205 144 473
2191 126 1126
2163 95 1785
2118 51 2463
2055 0 3161
1968 0 3876
1853 0 4095
2057 977 0
2050 977 0
1883 1006 493
2024 965 1065
1995 950 1744
1947 928 2433
1877 898 3137
1782 858 3856
1654 805 4095
1749 1689 0
1747 1688 0
1737 1686 93
1714 1680 950
1676 1672 1675
1617 1659 2383
1532 1641 3098
1414 1618 3825
1252 1589 4095
1148 2391 0
1145 2391 0
1131 2389 0
1097 2385 758
1038 2379 1566
944 2370 2308
801 2358 3041
575 2342 3780
165 2322 4095
0 3104 0
0 3103 0
0 3102 0
0 3099 410
0 3094 1406
0 3087 2202
0 3078 2964
0 3066 3719
0 3051 4095
0 3830 0
0 3830 0
0 3829 0
0 3826 0
0 3822 1169
0 3817 2058
0 3810 2860
0 3800 3639
0 3788 4095
0 4095 0
0 4095 0
0 4095 0
0 4095 0
0 4095 791
0 4095 1861
0 4095 2724
0 4095 3536
0 4095 4095
3102 0 0
3101 0 0
3099 0 492
3089 0 1137
3070 0 1793
3040 0 2469
2998 0 3165
2941 0 3880
2867 0 4095
3091 0 0
3091 0 0
3089 0 482
3079 0 1132
3060 0 1789
3030 0 2466
2988 0 3163
2930 0 3878
2856 0 4095
2855 0 0
2963 0 0
3037 0 428
3028 0 1104
3009 0 1770
2979 0 2452
2935 0 3152
2877 0 3869
2801 0 4095
2536 869 0
2480 882 119
2343 922 597
2909 771 1041
2891 753 1729
2860 726 2421
2814 689 3127
2753 638 3848
2673 570 4095
2733 1578 0
2732 1577 0
2725 1575 37
2522 1608 1090
2679 1562 1659
2648 1547 2371
2598 1528 3088
2531 1503 3817
2444 1471 4095
2392 2313 0
2390 2313 0
2383 2311 0
2366 2307 724
2339 2301 1547
2297 2291 2295
2238 2279 3031
2159 2262 3771
2055 2241 4095
1820 3043 0
1818 3042 0
1808 3041 0
1787 3038 356
1750 3033 1383
1693 3026 2187
1613 3016 2951
1502 3003 3708
1350 2988 4095
524 3778 0
519 3778 0
492 3777 0
426 3774 0
297 3770 1141
92 3765 2039
0 3757 2844
0 3748 3625
0 3736 4095
0 4095 0
0 4095 0
0 4095 0
0 4095 0
0 4095 753
0 4095 1840
0 4095 2708
0 4095 3522
0 4095 4095
3938 0 0
3937 0 0
3936 0 431
3929 0 1106
3915 0 1773
3893 0 2455
3861 0 3154
3819 0 3871
3764 0 4095
3929 0 0
3929 0 0
3928 0 420
3921 0 1101
3908 0 1769
3885 0 2452
3853 0 3152
3811 0 3869
3756 0 4095
3885 0 0
3887 0 0
3888 0 360
3882 0 1072
3868 0 1751
3845 0 2438
3813 0 3141
3770 0 3860
3715 0 4095
2894 653 86
2892 655 160
3237 573 408
3790 410 1007
3777 382 1708
3755 339 2406
3722 277 3116
3678 197 3839
3620 97 4095
3608 1422 0
3586 1425 0
3384 1464 228
3034 1552 1211
3619 1396 1638
3598 1379 2355
3564 1358 3075
3517 1330 3806
3457 1294 4095
3422 2203 0
3421 2203 0
3416 2201 0
3404 2197 679
3182 2232 1702
3348 2183 2280
3316 2168 3018
3265 2150 3760
3199 2127 4095
3057 2960 0
3056 2960 0
3050 2958 0
3037 2955 279
3016 2950 1356
2984 2943 2169
2939 2933 2937
2880 2920 3696
2804 2904 4095
2497 3712 0
2496 3712 0
2489 3711 0
2473 3708 0
2446 3704 1107
2407 3698 2018
2351 3690 2828
2276 3680 3612
2178 3667 4095
1520 4095 0
1517 4095 0
1506 4095 0
1480 4095 0
1435 4095 701
1367 4095 1813
1268 4095 2687
1126 4095 3504
923 4095 4095
4095 0 0
4095 0 0
4095 0 341
4095 0 1066
4095 0 1748
4095 0 2437
4095 0 3140
4095 0 3860
4095 0 4095
4095 0 0
4095 0 0
4095 0 327
4095 0 1060
4095 0 1744
4095 0 2434
4095 0 3138
4095 0 3858
4095 0 4095
4095 0 0
4095 0 0
4095 0 263
4095 0 1030
4095 0 1725
4095 0 2420
4095 0 3127
4095 0 3848
4095 0 4095
3912 0 0
4089 0 0
4095 0 124
4095 0 962
4095 0 1681
4095 0 2388
4095 0 3101
4095 0 3827
4095 0 4095
4023 1282 0
3963 1295 0
3722 1356 458
3842 1343 1109
4095 1146 1609
4095 1126 2335
4095 1100 3060
4095 1066 3793
4095 1022 4095
4095 2051 0
4095 2051 0
4095 2051 0
4057 2110 921
3732 2192 1832
4095 2030 2259
4095 2014 3001
4095 1994 3746
4095 1970 4095
4095 2850 0
4095 2849 0
4095 2848 0
4095 2845 180
4095 2839 1323
3858 2876 2335
4032 2824 2922
3998 2809 3682
3946 2791 4095
3742 3626 0
3741 3625 0
3736 3624 0
3726 3621 0
3708 3617 1064
3682 3611 1993
3647 3603 2810
3600 3592 3598
3541 3580 4095
3188 4095 0
3186 4095 0
3181 4095 0
3169 4095 0
3148 4095 638
3117 4095 1784
3075 4095 2667
3018 4095 3488
2946 4095 4095
4095 0 0
4095 0 0
4095 0 218
4095 0 1012
4095 0 1715
4095 0 2414
4095 0 3123
4095 0 3846
4095 0 4095
4095 0 0
4095 0 0
4095 0 205
4095 0 1006
4095 0 1711
4095 0 2411
4095 0 3121
4095 0 3844
4095 0 4095
4095 0 0
4095 0 0
4095 0 140
4095 0 975
4095 0 1692
4095 0 2397
4095 0 3110
4095 0 3835
4095 0 4095
4095 0 0
4095 0 0
4095 0 0
4095 0 904
4095 0 1648
4095 0 2365
4095 0 3084
4095 0 3814
4095 0 4095
4095 1047 0
4095 1055 5
4095 1077 405
4095 832 850
4095 736 1572
4095 709 2310
4095 670 3041
4095 618 3778
4095 548 4095
4095 1863 0
4095 1867 0
4095 1902 0
4095 2037 1137
4095 2033 1766
4095 1820 2233
4095 1802 2982
4095 1780 3730
4095 1753 4095
4095 2705 0
4095 2705 0
4095 2703 0
4095 2702 77
4095 2771 1617
4095 2846 2471
4095 2679 2902
4095 2663 3666
4095 2644 4095
4095 3515 0
4095 3514 0
4095 3513 0
4095 3510 0
4095 3506 1009
4095 3500 1966
4095 3538 2985
4095 3483 3583
4095 3468 4095
4095 4095 0
4095 4095 0
4095 4095 0
4095 4095 0
4095 4095 553
4095 4095 1750
4095 4095 2644
4095 4095 3470
4095 4095 4095
