Postproduction/IWLTBAP - Humble/LUTs by IWLTBAP (3DL)/UTILITY/DJI D-Log to Rec.709/LUTs by DJI/DJI_Phantom4_DLOG2Rec709.3dl
# DaVinci Resolve Cube (3D LUT).
# Converts DJI Phantom4 DLOG data to Rec709
# Gamma as defined by ITU-Rec.1886.
0 64 128 192 256 320 384 448 512 576 640 704 768 832 896 960 1023
0 0 0
0 0 17
0 0 105
0 0 302
0 0 586
0 0 883
0 0 1190
0 0 1506
0 0 1830
0 0 2160
0 0 2497
0 0 2840
0 0 3189
0 0 3542
0 0 3900
0 0 4095
0 0 4095
0 17 0
0 17 15
0 16 103
0 13 300
0 8 585
0 0 882
0 0 1189
0 0 1505
0 0 1829
0 0 2160
0 0 2497
0 0 2840
0 0 3188
0 0 3542
0 0 3900
0 0 4095
0 0 4095
0 105 0
0 105 4
0 103 92
0 100 289
0 95 577
0 88 876
0 78 1185
0 65 1502
0 48 1826
0 28 2157
0 4 2495
0 0 2838
0 0 3187
0 0 3540
0 0 3898
0 0 4095
0 0 4095
0 301 0
0 300 0
0 299 68
0 296 265
0 291 560
0 284 863
0 274 1175
0 261 1494
0 244 1819
0 224 2152
0 200 2490
0 172 2834
0 140 3183
0 102 3537
0 61 3895
0 14 4095
0 0 4095
0 584 0
0 584 0
0 583 26
0 581 223
0 577 529
0 572 841
0 565 1158
0 555 1480
0 543 1808
0 528 2142
0 510 2481
0 488 2826
0 462 3176
0 430 3530
0 393 3889
0 349 4095
0 296 4095
0 880 0
0 880 0
0 879 0
0 877 162
0 875 481
0 871 808
0 866 1132
0 859 1459
0 850 1791
0 839 2127
0 827 2469
0 812 2815
0 794 3166
0 773 3521
0 749 3881
0 721 4095
0 690 4095
0 1186 0
0 1186 0
0 1185 0
0 1184 78
0 1182 410
0 1179 761
0 1175 1097
0 1170 1431
0 1163 1768
0 1155 2108
0 1145 2452
0 1134 2800
0 1120 3153
0 1105 3510
0 1087 3871
0 1067 4095
0 1045 4095
0 1501 0
0 1501 0
0 1501 0
0 1500 0
0 1498 305
0 1496 696
0 1492 1050
0 1488 1395
0 1483 1738
0 1476 2083
0 1468 2430
0 1459 2782
0 1449 3136
0 1437 3495
0 1423 3857
0 1407 4095
0 1390 4095
0 1824 0
0 1824 0
0 1824 0
0 1823 0
0 1822 168
0 1820 607
0 1817 988
0 1813 1347
0 1809 1700
0 1804 2051
0 1797 2403
0 1790 2758
0 1781 3116
0 1771 3476
0 1760 3841
0 1747 4095
0 1733 4095
0 2155 0
0 2155 0
0 2154 0
0 2154 0
0 2152 1
0 2151 485
0 2148 908
0 2145 1288
0 2141 1652
0 2137 2012
0 2132 2370
0 2125 2729
0 2118 3090
0 2110 3454
0 2100 3820
0 2090 4095
0 2078 4095
0 2492 0
0 2492 0
0 2491 0
0 2491 0
0 2490 0
0 2488 304
0 2486 804
0 2483 1213
0 2480 1594
0 2476 1964
0 2471 2330
0 2466 2695
0 2460 3060
0 2453 3427
0 2445 3797
0 2436 4095
0 2426 4095
0 2835 0
0 2835 0
0 2834 0
0 2834 0
0 2833 0
0 2831 71
0 2829 667
0 2827 1120
0 2824 1523
0 2821 1907
0 2817 2282
0 2812 2654
0 2807 3024
0 2801 3396
0 2794 3768
0 2786 4095
0 2777 4095
0 3183 0
0 3183 0
0 3183 0
0 3182 0
0 3182 0
0 3180 0
0 3178 476
0 3176 1004
0 3174 1437
0 3171 1839
0 3167 2226
0 3163 2606
0 3158 2983
0 3153 3359
0 3147 3736
0 3140 4095
0 3132 4095
0 3537 0
0 3537 0
0 3537 0
0 3536 0
0 3536 0
0 3534 0
0 3533 185
0 3531 854
0 3528 1333
0 3526 1758
0 3522 2160
0 3519 2550
0 3514 2935
0 3510 3317
0 3504 3698
0 3498 4080
0 3491 4095
0 3896 0
0 3896 0
0 3896 0
0 3895 0
0 3894 0
0 3893 0
0 3892 0
0 3890 654
0 3888 1205
0 3885 1662
0 3882 2082
0 3879 2485
0 3875 2879
0 3871 3269
0 3866 3656
0 3860 4042
0 3854 4095
0 4095 0
0 4095 0
0 4095 0
0 4095 0
0 4095 0
0 4095 0
0 4095 0
0 4095 351
0 4095 1045
0 4095 1547
0 4095 1992
0 4095 2411
0 4095 2816
0 4095 3214
0 4095 3608
0 4095 3999
0 4095 4095
0 4095 0
0 4095 0
0 4095 0
0 4095 0
0 4095 0
0 4095 0
0 4095 0
0 4095 0
0 4095 837
0 4095 1409
0 4095 1887
0 4095 2326
0 4095 2744
0 4095 3152
0 4095 3553
0 4095 3951
0 4095 4095
26 0 0
25 0 17
19 0 105
6 0 302
0 0 586
0 0 883
0 0 1190
0 0 1506
0 0 1830
0 0 2160
0 0 2497
0 0 2840
0 0 3189
0 0 3542
0 0 3900
0 0 4095
0 0 4095
16 15 0
15 15 15
9 13 103
0 11 300
0 6 585
0 0 882
0 0 1189
0 0 1505
0 0 1829
0 0 2160
0 0 2497
0 0 2840
0 0 3188
0 0 3542
0 0 3900
0 0 4095
0 0 4095
0 103 0
0 102 4
0 101 92
0 98 289
0 93 577
0 86 876
0 76 1185
0 63 1501
0 46 1826
0 26 2157
0 2 2495
0 0 2838
0 0 3187
0 0 3540
0 0 3898
0 0 4095
0 0 4095
0 299 0
0 298 0
0 297 67
0 294 264
0 289 559
0 282 863
0 272 1175
0 259 1493
0 242 1819
0 222 2151
0 198 2490
0 170 2833
0 137 3183
0 100 3536
0 58 3895
0 11 4095
0 0 4095
0 582 0
0 582 0
0 581 26
0 579 223
0 576 528
0 570 841
0 563 1158
0 554 1480
0 542 1808
0 527 2142
0 508 2481
0 486 2826
0 460 3176
0 429 3530
0 391 3889
0 347 4095
0 294 4095
0 879 0
0 878 0
0 878 0
0 876 162
0 874 481
0 870 808
0 864 1132
0 858 1459
0 849 1791
0 838 2127
0 826 2469
0 810 2815
0 793 3166
0 772 3521
0 748 3881
0 720 4095
0 688 4095
0 1185 0
0 1185 0
0 1184 0
0 1183 78
0 1181 410
0 1178 760
0 1174 1097
0 1169 1431
0 1162 1768
0 1154 2108
0 1144 2452
0 1133 2800
0 1120 3153
0 1104 3510
0 1087 3871
0 1066 4095
0 1044 4095
0 1500 0
0 1500 0
0 1500 0
0 1499 0
0 1497 305
0 1495 695
0 1491 1050
0 1487 1394
0 1482 1738
0 1475 2083
0 1468 2430
0 1459 2781
0 1448 3136
0 1436 3495
0 1422 3857
0 1407 4095
0 1389 4095
0 1824 0
0 1824 0
0 1823 0
0 1823 0
0 1821 168
0 1819 607
0 1816 988
0 1813 1347
0 1808 1700
0 1803 2051
0 1797 2403
0 1789 2758
0 1781 3115
0 1771 3476
0 1759 3841
0 1747 4095
0 1733 4095
0 2154 0
0 2154 0
0 2154 0
0 2153 0
0 2152 1
0 2150 484
0 2148 908
0 2145 1287
0 2141 1652
0 2136 2012
0 2131 2370
0 2125 2729
0 2118 3090
0 2109 3454
0 2100 3820
0 2089 4095
0 2078 4095
0 2491 0
0 2491 0
0 2491 0
0 2490 0
0 2489 0
0 2488 304
0 2485 804
0 2483 1213
0 2480 1594
0 2476 1964
0 2471 2330
0 2466 2695
0 2459 3060
0 2452 3427
0 2444 3796
0 2435 4095
0 2425 4095
0 2834 0
0 2834 0
0 2834 0
0 2833 0
0 2832 0
0 2831 71
0 2829 667
0 2827 1120
0 2824 1523
0 2820 1907
0 2816 2282
0 2812 2654
0 2806 3024
0 2800 3396
0 2793 3768
0 2785 4095
0 2777 4095
0 3183 0
0 3183 0
0 3183 0
0 3182 0
0 3181 0
0 3180 0
0 3178 476
0 3176 1003
0 3173 1437
0 3170 1839
0 3167 2225
0 3163 2606
0 3158 2983
0 3152 3359
0 3146 3736
0 3139 4095
0 3132 4095
0 3537 0
0 3537 0
0 3536 0
0 3536 0
0 3535 0
0 3534 0
0 3532 185
0 3530 854
0 3528 1333
0 3525 1758
0 3522 2159
0 3518 2550
0 3514 2935
0 3509 3317
0 3504 3698
0 3498 4080
0 3491 4095
0 3895 0
0 3895 0
0 3895 0
0 3895 0
0 3894 0
0 3893 0
0 3891 0
0 3890 654
0 3887 1205
0 3885 1662
0 3882 2082
0 3879 2485
0 3875 2879
0 3871 3269
0 3866 3656
0 3860 4042
0 3854 4095
0 4095 0
0 4095 0
0 4095 0
0 4095 0
0 4095 0
0 4095 0
0 4095 0
0 4095 351
0 4095 1045
0 4095 1547
0 4095 1992
0 4095 2411
0 4095 2816
0 4095 3214
0 4095 3607
0 4095 3999
0 4095 4095
0 4095 0
0 4095 0
0 4095 0
0 4095 0
0 4095 0
0 4095 0
0 4095 0
0 4095 0
0 4095 837
0 4095 1409
0 4095 1887
0 4095 2326
0 4095 2744
0 4095 3152
0 4095 3553
0 4095 3951
0 4095 4095
159 0 0
160 0 15
154 0 103
141 0 300
118 0 585
85 0 882
38 0 1189
0 0 1505
0 0 1829
0 0 2160
0 0 2497
0 0 2840
0 0 3188
0 0 3542
0 0 3900
0 0 4095
0 0 4095
128 10 4
148 4 14
144 2 101
131 0 298
108 0 583
74 0 881
27 0 1188
0 0 1504
0 0 1828
0 0 2159
0 0 2496
0 0 2839
0 0 3188
0 0 3541
0 0 3899
0 0 4095
0 0 4095
97 91 0
96 91 2
90 90 90
77 87 287
54 82 576
20 75 875
0 65 1184
0 51 1501
0 35 1825
0 15 2157
0 0 2494
0 0 2837
0 0 3186
0 0 3540
0 0 3898
0 0 4095
0 0 4095
0 287 0
0 287 0
0 286 66
0 283 263
0 278 558
0 271 862
0 261 1174
0 247 1493
0 231 1819
0 211 2151
0 187 2489
0 159 2833
0 126 3182
0 89 3536
0 47 3895
0 0 4095
0 0 4095
0 575 0
0 574 0
0 573 24
0 571 221
0 568 527
0 562 840
0 555 1157
0 545 1479
0 533 1807
0 518 2141
0 500 2481
0 477 2825
0 451 3175
0 419 3530
0 381 3889
0 336 4095
0 283 4095
0 873 0
0 873 0
0 872 0
0 870 160
0 868 479
0 864 807
0 859 1131
0 852 1459
0 843 1790
0 832 2127
0 819 2468
0 804 2814
0 786 3165
0 765 3521
0 741 3881
0 713 4095
0 681 4095
0 1181 0
0 1180 0
0 1180 0
0 1179 76
0 1177 408
0 1174 759
0 1170 1096
0 1164 1431
0 1158 1767
0 1149 2107
0 1140 2452
0 1128 2800
0 1115 3152
0 1099 3509
0 1082 3870
0 1062 4095
0 1039 4095
0 1497 0
0 1497 0
0 1496 0
0 1495 0
0 1494 303
0 1491 694
0 1488 1049
0 1484 1394
0 1478 1737
0 1472 2082
0 1464 2430
0 1455 2781
0 1444 3136
0 1432 3494
0 1418 3857
0 1403 4095
0 1385 4095
0 1821 0
0 1821 0
0 1820 0
0 1819 0
0 1818 166
0 1816 605
0 1813 987
0 1810 1346
0 1805 1699
0 1800 2050
0 1794 2403
0 1786 2757
0 1777 3115
0 1768 3476
0 1756 3840
0 1744 4095
0 1729 4095
0 2152 0
0 2152 0
0 2151 0
0 2151 0
0 2149 0
0 2148 483
0 2145 907
0 2142 1287
0 2138 1651
0 2134 2011
0 2128 2369
0 2122 2729
0 2115 3090
0 2107 3454
0 2097 3820
0 2087 4095
0 2075 4095
0 2489 0
0 2489 0
0 2489 0
0 2488 0
0 2487 0
0 2485 302
0 2483 803
0 2481 1212
0 2477 1593
0 2473 1963
0 2469 2329
0 2463 2694
0 2457 3060
0 2450 3427
0 2442 3796
0 2433 4095
0 2423 4095
0 2832 0
0 2832 0
0 2832 0
0 2831 0
0 2830 0
0 2829 69
0 2827 666
0 2825 1119
0 2822 1522
0 2818 1906
0 2814 2281
0 2810 2653
0 2804 3024
0 2798 3395
0 2791 3768
0 2783 4095
0 2775 4095
0 3181 0
0 3181 0
0 3181 0
0 3180 0
0 3179 0
0 3178 0
0 3176 475
0 3174 1003
0 3172 1436
0 3169 1838
0 3165 2225
0 3161 2605
0 3156 2982
0 3151 3359
0 3145 3735
0 3138 4095
0 3130 4095
0 3535 0
0 3535 0
0 3535 0
0 3534 0
0 3534 0
0 3532 0
0 3531 183
0 3529 853
0 3526 1332
0 3524 1757
0 3521 2159
0 3517 2549
0 3513 2934
0 3508 3316
0 3502 3698
0 3496 4080
0 3489 4095
0 3894 0
0 3894 0
0 3894 0
0 3893 0
0 3893 0
0 3891 0
0 3890 0
0 3888 652
0 3886 1204
0 3883 1661
0 3881 2082
0 3877 2485
0 3873 2879
0 3869 3268
0 3864 3655
0 3859 4042
0 3853 4095
0 4095 0
0 4095 0
0 4095 0
0 4095 0
0 4095 0
0 4095 0
0 4095 0
0 4095 349
0 4095 1044
0 4095 1546
0 4095 1992
0 4095 2411
0 4095 2816
0 4095 3213
0 4095 3607
0 4095 3999
0 4095 4095
0 4095 0
0 4095 0
0 4095 0
0 4095 0
0 4095 0
0 4095 0
0 4095 0
0 4095 0
0 4095 836
0 4095 1408
0 4095 1886
0 4095 2325
0 4095 2744
0 4095 3151
0 4095 3553
0 4095 3950
0 4095 4095
447 0 0
450 0 12
446 0 99
435 0 296
416 0 582
385 0 879
341 0 1187
279 0 1503
203 0 1827
109 0 2158
0 0 2496
0 0 2839
0 0 3187
0 0 3541
0 0 3899
0 0 4095
0 0 4095
426 0 0
437 0 10
437 0 97
426 0 294
406 0 580
376 0 878
329 0 1186
269 0 1503
192 0 1827
99 0 2158
0 0 2495
0 0 2838
0 0 3187
0 0 3540
0 0 3899
0 0 4095
