Postproduction/IWLTBAP - Humble/LUTs by IWLTBAP (3DL)/UTILITY/DJI D-Log to Rec.709/LUTs by DJI/DJI_Phantom4_DLOG2Rec709.3dl
# DaVinci Resolve Cube (3D LUT).
# Converts DJI Phantom4 DLOG data to Rec709
# Gamma as defined by ITU-Rec.1886.
0 256 512 768 1023
0 0 0
0 0 586
0 0 1830
0 0 3189
0 0 4095
0 584 0
0 577 529
0 543 1808
0 462 3176
0 296 4095
0 1824 0
0 1822 168
0 1809 1700
0 1781 3116
0 1733 4095
0 3183 0
0 3182 0
0 3174 1437
0 3158 2983
0 3132 4095
0 4095 0
0 4095 0
0 4095 837
0 4095 2744
0 4095 4095
790 0 0
772 0 577
640 0 1825
232 0 3185
0 0 4095
552 525 0
520 518 519
330 481 1803
0 392 3173
0 215 4095
0 1802 0
0 1799 155
0 1787 1695
0 1758 3112
0 1710 4095
0 3170 0
0 3169 0
0 3161 1432
0 3145 2980
0 3119 4095
0 4095 0
0 4095 0
0 4095 829
0 4095 2741
0 4095 4095
2295 0 0
2289 0 534
2248 0 1808
2144 0 3174
1952 0 4095
1691 286 81
2205 144 473
2163 95 1785
2055 0 3161
1853 0 4095
1749 1689 0
1737 1686 93
1676 1672 1675
1532 1641 3098
1252 1589 4095
0 3104 0
0 3102 0
0 3094 1406
0 3078 2964
0 3051 4095
0 4095 0
0 4095 0
0 4095 791
0 4095 2724
0 4095 4095
3938 0 0
3936 0 431
3915 0 1773
3861 0 3154
3764 0 4095
3885 0 0
3888 0 360
3868 0 1751
3813 0 3141
3715 0 4095
3608 1422 0
3384 1464 228
3619 1396 1638
3564 1358 3075
3457 1294 4095
3057 2960 0
3050 2958 0
3016 2950 1356
2939 2933 2937
2804 2904 4095
1520 4095 0
1506 4095 0
1435 4095 701
1268 4095 2687
923 4095 4095
4095 0 0
4095 0 218
4095 0 1715
4095 0 3123
4095 0 4095
4095 0 0
4095 0 140
4095 0 1692
4095 0 3110
4095 0 4095
4095 1047 0
4095 1077 405
4095 736 1572
4095 670 3041
4095 548 4095
4095 2705 0
4095 2703 0
4095 2771 1617
4095 2679 2902
4095 2644 4095
4095 4095 0
4095 4095 0
4095 4095 553
4095 4095 2644
4095 4095 4095
