Postproduction/IWLTBAP - Humble/LUTs by IWLTBAP (3DL)/UTILITY/DJI D-Log to Rec.709/LUTs by DJI/DJI_Phantom4_DLOG2sRGB.3dl
# DaVinci Resolve Cube (3D LUT).
# Converts DJI Phantom4 DLOG data to sRGB
# Gamma as defined by ITU-Rec.1886.
0 256 512 768 1023
0 0 0
0 0 826
0 0 2005
0 0 3238
0 0 4095
0 824 0
0 817 769
0 783 1984
0 701 3225
0 532 4095
0 2004 0
0 2001 383
0 1990 1889
0 1965 3176
0 1921 4095
0 3248 0
0 3246 0
0 3238 1655
0 3225 3069
0 3204 4095
0 4095 0
0 4095 0
0 4095 1101
0 4095 2874
0 4095 4095
1025 0 0
1005 0 816
880 0 2000
479 0 3233
0 0 4095
789 763 0
758 756 758
575 719 1978
0 628 3220
0 431 4095
0 1981 0
0 1978 362
0 1966 1882
0 1941 3171
0 1897 4095
0 3234 0
0 3231 0
0 3224 1648
0 3211 3063
0 3189 4095
0 4095 0
0 4095 0
0 4095 1092
0 4095 2868
0 4095 4095
2428 0 0
2424 0 777
2386 0 1986
2294 0 3225
2124 0 4095
1848 458 0
2342 328 714
2305 235 1962
2209 0 3209
2029 0 4095
1925 1870 0
1914 1867 254
1858 1854 1858
1727 1825 3152
1471 1775 4095
0 3160 0
0 3158 0
0 3150 1610
0 3137 3035
0 3114 4095
0 4095 0
0 4095 0
0 4095 1041
0 4095 2840
0 4095 4095
3900 0 0
3899 0 682
3880 0 1961
3834 0 3214
3751 0 4095
3851 0 0
3852 0 608
3834 0 1936
3788 0 3198
3703 0 4095
3649 1609 0
3547 1623 30
3608 1592 1824
3561 1555 3132
3468 1493 4095
3113 3027 0
3106 3025 0
3075 3016 1561
3008 3000 3007
2889 2974 4095
1723 4095 0
1710 4095 0
1643 4095 933
1490 4095 2782
1174 4095 4095
4095 0 0
4095 0 471
4095 0 1918
4095 0 3197
4095 0 4095
4095 0 0
4095 0 356
4095 0 1892
4095 0 3181
4095 0 4095
4095 1018 0
4095 1211 60
4095 946 1765
4095 879 3102
4095 751 4095
4095 2795 0
4095 2792 0
4095 2844 1769
4095 2768 2976
4095 2737 4095
4095 4095 0
4095 4095 0
4095 4095 790
4095 4095 2743
4095 4095 4095
