Postproduction/IWLTBAP - Humble/LUTs by IWLTBAP (3DL)/UTILITY/DJI D-Log to Rec.709/LUTs by DJI/DJI_Phantom4_DLOG2sRGB_Improv.3dl
# DaVinci Resolve Cube (3D LUT).
# Converts DJI Phantom4 DLOG data to sRGB with color tuning
# Gamma as defined by ITU-Rec.1886.
0 256 512 768 1023
0 0 0
0 0 1022
0 71 2637
0 165 3889
0 0 4095
0 1061 0
0 1047 995
0 1075 2599
0 830 3854
0 398 4095
0 2592 0
0 2584 334
0 2570 2437
0 2533 3814
0 2461 4095
0 3847 0
0 3847 0
0 3841 2073
0 3831 3724
0 3812 4095
0 4095 0
0 4095 0
0 4095 1267
0 4095 3537
0 4095 4095
1242 7 62
1248 0 1081
1246 33 2644
739 18 3880
0 0 4095
1014 980 0
952 948 952
638 906 2568
0 664 3851
0 270 4095
0 2564 0
0 2557 305
0 2542 2433
0 2501 3815
0 2432 4095
0 3838 0
0 3839 0
0 3833 2071
0 3824 3719
0 3808 4095
0 4095 0
0 4095 0
0 4095 1258
0 4095 3537
0 4095 4095
3090 16 159
3137 0 1137
3089 0 2613
2968 0 3854
2744 0 4095
2416 446 238
3016 244 870
2979 162 2545
2864 0 3847
2628 0 4095
2492 2419 0
2475 2411 168
2398 2392 2398
2211 2348 3804
1829 2269 4095
0 3807 0
0 3804 0
0 3797 2044
0 3788 3715
0 3768 4095
0 4095 0
0 4095 0
0 4095 1220
0 4095 3526
0 4095 4095
3805 78 78
4095 0 757
4095 0 2516
4095 0 3836
4089 0 4095
3805 78 78
4095 0 615
4095 0 2488
4095 0 3828
4069 0 4095
4025 2037 19
4024 2031 20
4029 2006 2334
4014 1950 3785
3974 1854 4095
3773 3708 0
3769 3709 0
3748 3703 1980
3695 3690 3695
3593 3667 4095
2211 4095 0
2193 4095 0
2095 4095 1130
1878 4095 3499
1372 4095 4095
3805 78 78
4074 6 300
4095 0 2423
4095 0 3811
4095 0 4095
3805 78 78
3989 29 172
4095 0 2395
4095 0 3808
4095 0 4095
3285 1184 510
3281 1177 510
4095 941 2174
4095 839 3745
4095 645 4095
4095 3508 0
4095 3503 0
4095 3494 1878
4095 3479 3671
4095 3446 4095
4095 4095 0
4095 4095 0
4095 4095 986
4095 4095 3459
4095 4095 4095
