Postproduction/IWLTBAP - Humble/LUTs by IWLTBAP (3DL)/UTILITY/DJI D-Log to Rec.709/LUTs by DJI/DJI_Phantom4_DLOG2sRGB.3dl
# DaVinci Resolve Cube (3D LUT).
# Converts DJI Phantom4 DLOG data to sRGB
# Gamma as defined by ITU-Rec.1886.
0 64 128 192 256 320 384 448 512 576 640 704 768 832 896 960 1023
0 0 0
0 0 48
0 0 270
0 0 544
0 0 826
0 0 1114
0 0 1407
0 0 1704
0 0 2005
0 0 2309
0 0 2616
0 0 2926
0 0 3238
0 0 3553
0 0 3870
0 0 4095
0 0 4095
0 48 0
0 47 42
0 43 266
0 35 542
0 21 824
0 1 1113
0 0 1406
0 0 1703
0 0 2004
0 0 2309
0 0 2616
0 0 2926
0 0 3238
0 0 3553
0 0 3869
0 0 4095
0 0 4095
0 269 0
0 268 12
0 266 243
0 260 530
0 250 816
0 234 1107
0 210 1401
0 177 1700
0 131 2001
0 74 2306
0 6 2613
0 0 2923
0 0 3236
0 0 3551
0 0 3868
0 0 4095
0 0 4095
0 542 0
0 542 0
0 540 188
0 537 502
0 532 799
0 524 1094
0 512 1392
0 497 1692
0 477 1994
0 452 2300
0 420 2608
0 379 2918
0 327 3231
0 256 3546
0 153 3863
0 20 4095
0 0 4095
0 824 0
0 823 0
0 822 76
0 820 453
0 817 769
0 811 1073
0 804 1376
0 795 1679
0 783 1984
0 768 2291
0 750 2600
0 728 2912
0 701 3225
0 670 3541
0 632 3858
0 587 4095
0 532 4095
0 1111 0
0 1111 0
0 1111 0
0 1109 369
0 1106 723
0 1103 1042
0 1097 1352
0 1091 1661
0 1083 1969
0 1072 2279
0 1060 2590
0 1045 2902
0 1028 3217
0 1008 3533
0 984 3851
0 957 4095
0 926 4095
0 1405 0
0 1404 0
0 1404 0
0 1403 217
0 1401 653
0 1398 997
0 1394 1320
0 1389 1636
0 1383 1949
0 1375 2262
0 1366 2576
0 1355 2890
0 1342 3206
0 1328 3524
0 1311 3843
0 1292 4095
0 1270 4095
0 1702 0
0 1702 0
0 1702 0
0 1701 0
0 1699 550
0 1697 935
0 1694 1276
0 1690 1602
0 1685 1922
0 1679 2240
0 1672 2557
0 1663 2875
0 1654 3193
0 1642 3512
0 1630 3832
0 1615 4095
0 1599 4095
0 2004 0
0 2004 0
0 2004 0
0 2003 0
0 2001 383
0 1999 850
0 1997 1219
0 1994 1559
0 1990 1889
0 1985 2213
0 1979 2534
0 1972 2855
0 1965 3176
0 1956 3497
0 1946 3820
0 1934 4095
0 1921 4095
0 2310 0
0 2310 0
0 2310 0
0 2309 0
0 2307 15
0 2306 732
0 2304 1144
0 2301 1505
0 2298 1847
0 2294 2179
0 2289 2506
0 2283 2831
0 2277 3155
0 2270 3480
0 2261 3804
0 2252 4095
0 2241 4095
0 2620 0
0 2619 0
0 2619 0
0 2618 0
0 2617 0
0 2615 554
0 2613 1047
0 2611 1437
0 2608 1795
0 2605 2138
0 2601 2472
0 2596 2803
0 2591 3131
0 2585 3458
0 2578 3785
0 2570 4095
0 2561 4095
0 2932 0
0 2932 0
0 2932 0
0 2931 0
0 2930 0
0 2928 207
0 2926 916
0 2924 1352
0 2922 1732
0 2919 2088
0 2916 2432
0 2912 2769
0 2907 3102
0 2902 3434
0 2896 3764
0 2889 4093
0 2882 4095
0 3248 0
0 3248 0
0 3248 0
0 3247 0
0 3246 0
0 3244 0
0 3242 731
0 3240 1244
0 3238 1655
0 3236 2028
0 3233 2384
0 3229 2729
0 3225 3069
0 3221 3405
0 3216 3739
0 3210 4071
0 3204 4095
0 3567 0
0 3567 0
0 3566 0
0 3566 0
0 3565 0
0 3563 0
0 3561 417
0 3559 1104
0 3557 1561
0 3555 1958
0 3553 2327
0 3550 2683
0 3546 3030
0 3542 3371
0 3538 3710
0 3533 4046
0 3527 4095
0 3888 0
0 3888 0
0 3888 0
0 3887 0
0 3886 0
0 3885 0
0 3883 0
0 3881 913
0 3879 1444
0 3877 1873
0 3875 2261
0 3872 2629
0 3869 2985
0 3866 3333
0 3862 3677
0 3858 4017
0 3853 4095
0 4095 0
0 4095 0
0 4095 0
0 4095 0
0 4095 0
0 4095 0
0 4095 0
0 4095 616
0 4095 1297
0 4095 1771
0 4095 2184
0 4095 2567
0 4095 2933
0 4095 3289
0 4095 3639
0 4095 3985
0 4095 4095
0 4095 0
0 4095 0
0 4095 0
0 4095 0
0 4095 0
0 4095 0
0 4095 0
0 4095 0
0 4095 1101
0 4095 1647
0 4095 2092
0 4095 2495
0 4095 2874
0 4095 3240
0 4095 3597
0 4095 3948
0 4095 4095
73 0 0
70 0 47
54 0 269
18 0 544
0 0 826
0 0 1114
0 0 1407
0 0 1704
0 0 2005
0 0 2309
0 0 2616
0 0 2926
0 0 3238
0 0 3553
0 0 3870
0 0 4095
0 0 4095
44 42 0
41 41 41
25 37 265
0 29 541
0 15 824
0 0 1113
0 0 1406
0 0 1703
0 0 2004
0 0 2308
0 0 2616
0 0 2925
0 0 3238
0 0 3552
0 0 3869
0 0 4095
0 0 4095
0 265 0
0 264 11
0 261 243
0 255 529
0 245 816
0 229 1107
0 205 1401
0 171 1699
0 125 2001
0 68 2306
0 0 2613
0 0 2923
0 0 3236
0 0 3551
0 0 3867
0 0 4095
0 0 4095
0 540 0
0 539 0
0 538 187
0 535 502
0 529 799
0 521 1094
0 510 1391
0 494 1691
0 474 1994
0 449 2300
0 417 2608
0 376 2918
0 323 3231
0 252 3546
0 147 3863
0 14 4095
0 0 4095
0 822 0
0 822 0
0 821 75
0 819 453
0 815 769
0 810 1073
0 803 1376
0 793 1679
0 781 1984
0 766 2291
0 748 2600
0 726 2912
0 699 3225
0 668 3540
0 630 3858
0 584 4095
0 529 4095
0 1110 0
0 1110 0
0 1109 0
0 1108 369
0 1105 722
0 1101 1042
0 1096 1352
0 1090 1661
0 1081 1969
0 1071 2279
0 1059 2590
0 1044 2902
0 1027 3217
0 1006 3533
0 983 3851
0 956 4095
0 924 4095
0 1404 0
0 1404 0
0 1403 0
0 1402 216
0 1400 653
0 1397 997
0 1393 1320
0 1388 1635
0 1382 1949
0 1374 2262
0 1365 2575
0 1354 2890
0 1341 3206
0 1327 3524
0 1310 3843
0 1291 4095
0 1269 4095
0 1702 0
0 1702 0
0 1701 0
0 1700 0
0 1698 549
0 1696 935
0 1693 1276
0 1689 1602
0 1684 1922
0 1678 2240
0 1671 2557
0 1663 2874
0 1653 3193
0 1642 3512
0 1629 3832
0 1614 4095
0 1598 4095
0 2004 0
0 2004 0
0 2003 0
0 2002 0
0 2001 382
0 1999 850
0 1996 1219
0 1993 1559
0 1989 1889
0 1984 2212
0 1979 2534
0 1972 2855
0 1964 3176
0 1955 3497
0 1945 3819
0 1933 4095
0 1921 4095
0 2310 0
0 2310 0
0 2309 0
0 2308 0
0 2307 14
0 2305 731
0 2303 1144
0 2300 1505
0 2297 1847
0 2293 2179
0 2288 2506
0 2283 2831
0 2276 3155
0 2269 3479
0 2261 3804
0 2251 4095
0 2241 4095
0 2619 0
0 2619 0
0 2619 0
0 2618 0
0 2617 0
0 2615 554
0 2613 1046
0 2611 1437
0 2608 1795
0 2604 2137
0 2600 2472
0 2596 2803
0 2590 3131
0 2584 3458
0 2577 3785
0 2569 4095
0 2561 4095
0 2932 0
0 2932 0
0 2931 0
0 2931 0
0 2929 0
0 2928 206
0 2926 916
0 2924 1352
0 2921 1732
0 2919 2088
0 2915 2432
0 2911 2769
0 2907 3102
0 2901 3433
0 2895 3764
0 2889 4093
0 2881 4095
0 3248 0
0 3247 0
0 3247 0
0 3247 0
0 3245 0
0 3244 0
0 3242 731
0 3240 1244
0 3238 1655
0 3235 2028
0 3232 2384
0 3229 2729
0 3225 3068
0 3221 3404
0 3215 3738
0 3210 4071
0 3203 4095
0 3566 0
0 3566 0
0 3566 0
0 3565 0
0 3564 0
0 3563 0
0 3561 416
0 3559 1104
0 3557 1561
0 3555 1957
0 3552 2327
0 3549 2683
0 3546 3029
0 3542 3371
0 3537 3709
0 3532 4046
0 3527 4095
0 3888 0
0 3888 0
0 3888 0
0 3887 0
0 3886 0
0 3885 0
0 3883 0
0 3881 913
0 3879 1444
0 3877 1873
0 3875 2261
0 3872 2629
0 3869 2984
0 3865 3333
0 3862 3676
0 3857 4017
0 3852 4095
0 4095 0
0 4095 0
0 4095 0
0 4095 0
0 4095 0
0 4095 0
0 4095 0
0 4095 616
0 4095 1296
0 4095 1771
0 4095 2183
0 4095 2566
0 4095 2933
0 4095 3289
0 4095 3639
0 4095 3985
0 4095 4095
0 4095 0
0 4095 0
0 4095 0
0 4095 0
0 4095 0
0 4095 0
0 4095 0
0 4095 0
0 4095 1101
0 4095 1647
0 4095 2092
0 4095 2494
0 4095 2874
0 4095 3240
0 4095 3597
0 4095 3948
0 4095 4095
363 0 0
363 0 43
355 0 266
334 0 541
295 0 824
229 0 1112
111 0 1405
0 0 1703
0 0 2004
0 0 2308
0 0 2615
0 0 2925
0 0 3237
0 0 3552
0 0 3869
0 0 4095
0 0 4095
290 26 9
345 11 37
338 6 261
316 0 539
276 0 822
205 0 1111
82 0 1405
0 0 1702
0 0 2003
0 0 2308
0 0 2615
0 0 2925
0 0 3237
0 0 3552
0 0 3869
0 0 4095
0 0 4095
254 241 0
251 241 6
239 238 239
210 231 527
153 220 814
61 203 1105
0 177 1400
0 140 1698
0 94 2000
0 37 2305
0 0 2612
0 0 2922
0 0 3235
0 0 3550
0 0 3867
0 0 4095
0 0 4095
0 527 0
0 527 0
0 525 182
0 522 500
0 516 797
0 508 1093
0 496 1390
0 481 1690
0 460 1993
0 434 2299
0 401 2607
0 358 2917
0 303 3230
0 227 3545
0 116 3863
0 0 4095
0 0 4095
0 814 0
0 814 0
0 813 70
0 810 450
0 807 767
0 802 1072
0 794 1375
0 785 1678
0 772 1983
0 757 2290
0 739 2599
0 716 2911
0 690 3224
0 658 3540
0 619 3857
0 573 4095
0 516 4095
0 1104 0
0 1104 0
0 1103 0
0 1102 366
0 1099 720
0 1095 1040
0 1090 1351
0 1084 1660
0 1075 1968
0 1065 2278
0 1052 2589
0 1038 2902
0 1020 3216
0 1000 3532
0 976 3851
0 949 4095
0 917 4095
0 1399 0
0 1399 0
0 1398 0
0 1397 212
0 1395 651
0 1392 995
0 1388 1318
0 1383 1634
0 1377 1948
0 1369 2261
0 1360 2575
0 1349 2889
0 1337 3205
0 1322 3523
0 1305 3842
0 1286 4095
0 1264 4095
0 1698 0
0 1698 0
0 1697 0
0 1696 0
0 1694 547
0 1692 933
0 1689 1275
0 1685 1601
0 1680 1921
0 1674 2239
0 1667 2556
0 1659 2874
0 1649 3192
0 1638 3511
0 1625 3832
0 1610 4095
0 1594 4095
0 2001 0
0 2000 0
0 2000 0
0 1999 0
0 1997 379
0 1996 848
0 1993 1217
0 1990 1558
0 1986 1888
0 1981 2212
0 1975 2533
0 1969 2854
0 1961 3175
0 1952 3496
0 1942 3819
0 1930 4095
0 1917 4095
0 2307 0
0 2307 0
0 2306 0
0 2306 0
0 2304 9
0 2302 729
0 2300 1143
0 2298 1504
0 2294 1846
0 2290 2178
0 2285 2505
0 2280 2830
0 2273 3155
0 2266 3479
0 2258 3803
0 2248 4095
0 2238 4095
0 2617 0
0 2617 0
0 2616 0
0 2615 0
0 2614 0
0 2612 551
0 2610 1045
0 2608 1436
0 2605 1794
0 2602 2136
0 2598 2471
0 2593 2802
0 2588 3130
0 2582 3458
0 2575 3785
0 2567 4095
0 2558 4095
0 2930 0
0 2929 0
0 2929 0
0 2928 0
0 2927 0
0 2925 202
0 2924 914
0 2922 1351
0 2919 1731
0 2916 2087
0 2913 2431
0 2909 2768
0 2904 3101
0 2899 3433
0 2893 3763
0 2887 4093
0 2879 4095
0 3246 0
0 3245 0
0 3245 0
0 3245 0
0 3243 0
0 3242 0
0 3240 729
0 3238 1243
0 3236 1654
0 3233 2027
0 3230 2383
0 3227 2728
0 3223 3068
0 3219 3404
0 3213 3738
0 3208 4071
0 3201 4095
0 3564 0
0 3564 0
0 3564 0
0 3564 0
0 3562 0
0 3561 0
0 3559 413
0 3557 1103
0 3555 1560
0 3553 1956
0 3550 2326
0 3547 2682
0 3544 3029
0 3540 3370
0 3536 3709
0 3531 4045
0 3525 4095
0 3886 0
0 3886 0
0 3886 0
0 3885 0
0 3884 0
0 3883 0
0 3881 0
0 3879 911
0 3877 1443
0 3875 1872
0 3873 2260
0 3870 2628
0 3867 2984
0 3864 3332
0 3860 3676
0 3856 4017
0 3851 4095
0 4095 0
0 4095 0
0 4095 0
0 4095 0
0 4095 0
0 4095 0
0 4095 0
0 4095 613
0 4095 1295
0 4095 1770
0 4095 2183
0 4095 2566
0 4095 2932
0 4095 3288
0 4095 3638
0 4095 3984
0 4095 4095
0 4095 0
0 4095 0
0 4095 0
0 4095 0
0 4095 0
0 4095 0
0 4095 0
0 4095 0
0 4095 1100
0 4095 1646
0 4095 2091
0 4095 2494
0 4095 2873
0 4095 3239
0 4095 3596
0 4095 3947
0 4095 4095
689 0 0
689 0 33
685 0 258
675 0 537
656 0 821
627 0 1110
583 0 1403
521 0 1701
431 0 2002
289 0 2306
18 0 2613
0 0 2923
0 0 3236
0 0 3551
0 0 3867
0 0 4095
0 0 4095
669 0 0
680 0 27
676 0 254
666 0 535
647 0 819
617 0 1109
573 0 1402
510 0 1700
417 0 2001
269 0 2305
0 0 2613
0 0 2923
0 0 3235
0 0 3550
0 0 3867
0 0 4095
