Postproduction/IWLTBAP - Humble/LUTs by IWLTBAP (3DL)/UTILITY/DJI D-Log to Rec.709/LUTs by DJI/DJI_Phantom4_DLOG2sRGB_Improv.3dl
# DaVinci Resolve Cube (3D LUT).
# Converts DJI Phantom4 DLOG data to sRGB with color tuning
# Gamma as defined by ITU-Rec.1886.
0 64 128 192 256 320 384 448 512 576 640 704 768 832 896 960 1023
0 0 0
0 0 17
0 0 175
0 0 549
0 0 1022
0 2 1328
0 19 1776
0 44 2215
0 71 2637
0 97 3015
0 137 3354
0 165 3666
0 165 3889
0 112 4034
0 0 4095
0 0 4095
0 0 4095
0 12 0
0 12 9
0 9 175
0 1 556
0 0 1034
0 28 1335
0 49 1779
0 71 2218
0 98 2640
0 127 3015
0 158 3354
0 192 3667
0 188 3889
0 127 4034
0 13 4095
0 0 4095
0 0 4095
0 173 0
0 174 0
0 169 149
0 159 530
0 152 1013
0 180 1325
0 203 1778
0 222 2218
0 239 2640
0 269 3023
0 293 3357
0 307 3667
0 285 3885
0 203 4029
0 84 4095
0 0 4095
0 0 4095
0 530 0
0 530 0
0 529 83
0 522 460
0 509 970
0 534 1291
0 556 1750
0 574 2200
0 592 2627
0 609 3008
0 607 3343
0 571 3653
0 491 3875
0 375 4025
0 251 4095
0 128 4095
0 15 4095
0 1061 0
0 1062 0
0 1062 77
0 1055 450
0 1047 995
0 1068 1310
0 1080 1743
0 1082 2178
0 1075 2599
0 1045 2974
0 999 3306
0 922 3618
0 830 3854
0 727 4011
0 618 4095
0 511 4095
0 398 4095
0 1493 95
0 1493 116
0 1490 210
0 1480 539
0 1458 1091
0 1455 1392
0 1443 1774
0 1419 2187
0 1387 2592
0 1344 2962
0 1296 3292
0 1245 3607
0 1185 3847
0 1124 4006
0 1057 4095
0 992 4095
0 929 4095
0 1817 0
0 1817 0
0 1816 12
0 1811 275
0 1792 885
0 1787 1269
0 1783 1676
0 1771 2120
0 1751 2546
0 1729 2932
0 1702 3275
0 1673 3597
0 1636 3840
0 1602 4004
0 1569 4095
0 1530 4095
0 1485 4095
0 2182 0
0 2182 0
0 2181 0
0 2179 0
0 2172 597
0 2164 1129
0 2165 1543
0 2159 2037
0 2152 2487
0 2141 2894
0 2131 3244
0 2114 3577
0 2099 3828
0 2080 3994
0 2055 4095
0 2032 4095
0 2004 4095
0 2592 0
0 2592 0
0 2591 0
0 2591 0
0 2584 334
0 2578 1046
0 2581 1456
0 2578 1973
0 2570 2437
0 2562 2856
0 2553 3218
0 2543 3557
0 2533 3814
0 2517 3988
0 2501 4095
0 2482 4095
0 2461 4095
0 2965 0
0 2964 0
0 2964 0
0 2964 0
0 2964 16
0 2956 897
0 2958 1346
0 2955 1891
0 2951 2373
0 2946 2812
0 2938 3185
0 2930 3526
0 2922 3796
0 2910 3978
0 2900 4095
0 2886 4095
0 2872 4095
0 3297 0
0 3297 0
0 3297 0
0 3297 0
0 3298 0
0 3293 580
0 3290 1211
0 3288 1780
0 3288 2296
0 3284 2754
0 3275 3142
0 3271 3496
0 3263 3779
0 3254 3964
0 3246 4095
0 3239 4095
0 3227 4095
0 3612 0
0 3612 0
0 3611 0
0 3610 0
0 3610 0
0 3610 129
0 3605 1075
0 3605 1631
0 3605 2195
0 3600 2682
0 3596 3092
0 3592 3454
0 3588 3753
0 3579 3951
0 3574 4088
0 3568 4095
0 3560 4095
0 3847 0
0 3847 0
0 3847 0
0 3847 0
0 3847 0
0 3847 0
0 3842 856
0 3842 1448
0 3841 2073
0 3837 2596
0 3837 3030
0 3832 3405
0 3831 3724
0 3829 3934
0 3825 4074
0 3820 4095
0 3812 4095
0 4003 0
0 4003 0
0 4003 0
0 4003 0
0 4003 0
0 4000 0
0 3999 329
0 3998 1243
0 3998 1930
0 3998 2494
0 3994 2958
0 3993 3348
0 3993 3687
0 3989 3912
0 3989 4057
0 3985 4095
0 3981 4095
0 4095 0
0 4095 0
0 4095 0
0 4095 0
0 4095 0
0 4095 0
0 4095 0
0 4095 1054
0 4095 1759
0 4095 2373
0 4095 2880
0 4095 3287
0 4095 3646
0 4095 3887
0 4095 4045
0 4095 4095
0 4095 4095
0 4095 0
0 4095 0
0 4095 0
0 4095 0
0 4095 0
0 4095 0
0 4095 0
0 4095 678
0 4095 1528
0 4095 2231
0 4095 2783
0 4095 3219
0 4095 3598
0 4095 3863
0 4095 4028
0 4095 4095
0 4095 4095
0 4095 0
0 4095 0
0 4095 0
0 4095 0
0 4095 0
0 4095 0
0 4095 0
0 4095 0
0 4095 1267
0 4095 2056
0 4095 2665
0 4095 3138
0 4095 3537
0 4095 3831
0 4095 4008
0 4095 4095
0 4095 4095
27 1 1
26 0 11
10 0 171
0 0 553
0 0 1025
0 4 1331
0 20 1778
0 46 2216
0 73 2639
0 98 3015
0 136 3354
0 165 3667
0 163 3889
0 108 4034
0 0 4095
0 0 4095
0 0 4095
14 12 0
13 13 13
3 11 183
0 2 560
0 2 1035
0 30 1338
0 50 1781
0 72 2218
0 99 2641
0 128 3016
0 158 3353
0 193 3668
0 187 3889
0 124 4034
0 9 4095
0 0 4095
0 0 4095
0 173 0
0 175 0
0 170 153
0 158 532
0 153 1018
0 181 1329
0 204 1780
0 223 2218
0 240 2642
0 269 3023
0 294 3356
0 306 3667
0 282 3885
0 200 4030
0 79 4095
0 0 4095
0 0 4095
0 530 0
0 531 0
0 529 87
0 522 464
0 508 973
0 535 1296
0 557 1752
0 575 2200
0 593 2627
0 608 3009
0 605 3343
0 567 3653
0 487 3875
0 369 4025
0 247 4095
0 124 4095
0 12 4095
0 1062 0
0 1062 0
0 1063 79
0 1056 452
0 1047 997
0 1068 1312
0 1078 1743
0 1081 2178
0 1073 2599
0 1044 2974
0 995 3306
0 917 3617
0 825 3854
0 722 4011
0 614 4095
0 506 4095
0 395 4095
0 1490 92
0 1490 114
0 1487 207
0 1476 537
0 1456 1089
0 1451 1390
0 1440 1773
0 1417 2185
0 1383 2590
0 1341 2962
0 1294 3292
0 1242 3606
0 1183 3845
0 1122 4006
0 1054 4095
0 990 4095
0 927 4095
0 1815 0
0 1815 0
0 1814 10
0 1809 273
0 1790 884
0 1785 1268
0 1781 1675
0 1770 2119
0 1749 2545
0 1727 2932
0 1701 3274
0 1670 3597
0 1634 3840
0 1600 4004
0 1568 4095
0 1529 4095
0 1483 4095
0 2181 0
0 2181 0
0 2180 0
0 2178 0
0 2170 596
0 2163 1128
0 2164 1543
0 2157 2037
0 2151 2487
0 2140 2894
0 2130 3244
0 2113 3577
0 2097 3828
0 2079 3994
0 2054 4095
0 2030 4095
0 2003 4095
0 2591 0
0 2591 0
0 2591 0
0 2591 0
0 2583 332
0 2578 1046
0 2579 1456
0 2578 1973
0 2570 2436
0 2562 2856
0 2553 3218
0 2542 3557
0 2532 3814
0 2517 3988
0 2500 4095
0 2480 4095
0 2461 4095
0 2964 0
0 2964 0
0 2964 0
0 2964 0
0 2965 16
0 2956 896
0 2957 1345
0 2955 1890
0 2951 2373
0 2945 2811
0 2938 3185
0 2930 3526
0 2921 3796
0 2909 3978
0 2898 4095
0 2886 4095
0 2871 4095
0 3297 0
0 3297 0
0 3297 0
0 3297 0
0 3297 0
0 3293 580
0 3289 1211
0 3288 1780
0 3287 2296
0 3283 2754
0 3275 3142
0 3271 3496
0 3263 3779
0 3255 3964
0 3247 4095
0 3238 4095
0 3226 4095
0 3611 0
0 3611 0
0 3610 0
0 3610 0
0 3610 0
0 3610 128
0 3605 1075
0 3605 1631
0 3604 2195
0 3601 2682
0 3596 3092
0 3592 3454
0 3588 3753
0 3579 3951
0 3573 4088
0 3568 4095
0 3559 4095
0 3847 0
0 3847 0
0 3847 0
0 3847 0
0 3847 0
0 3847 0
0 3842 855
0 3842 1448
0 3842 2073
0 3837 2595
0 3837 3030
0 3833 3405
0 3829 3724
0 3828 3934
0 3824 4073
0 3819 4095
0 3812 4095
0 4003 0
0 4003 0
0 4003 0
0 4003 0
0 4003 0
0 3999 0
0 3999 329
0 3998 1243
0 3998 1930
0 3998 2493
0 3993 2958
0 3993 3348
0 3993 3687
0 3989 3912
0 3989 4057
0 3985 4095
0 3981 4095
0 4095 0
0 4095 0
0 4095 0
0 4095 0
0 4095 0
0 4095 0
0 4095 0
0 4095 1053
0 4095 1759
0 4095 2373
0 4095 2880
0 4095 3287
0 4095 3646
0 4095 3887
0 4095 4045
0 4095 4095
0 4095 4095
0 4095 0
0 4095 0
0 4095 0
0 4095 0
0 4095 0
0 4095 0
0 4095 0
0 4095 678
0 4095 1528
0 4095 2231
0 4095 2783
0 4095 3219
0 4095 3598
0 4095 3863
0 4095 4028
0 4095 4095
0 4095 4095
0 4095 0
0 4095 0
0 4095 0
0 4095 0
0 4095 0
0 4095 0
0 4095 0
0 4095 0
0 4095 1267
0 4095 2056
0 4095 2665
0 4095 3138
0 4095 3537
0 4095 3831
0 4095 4008
0 4095 4095
0 4095 4095
257 5 5
255 5 5
265 0 161
235 0 545
202 0 1024
175 0 1333
131 21 1783
87 51 2219
50 73 2641
2 106 3019
0 137 3353
0 165 3667
0 155 3889
0 87 4034
0 0 4095
0 0 4095
0 0 4095
251 5 5
259 3 9
257 0 170
226 0 551
193 0 1032
163 18 1337
122 53 1787
85 77 2223
45 97 2641
0 134 3019
0 162 3356
0 190 3667
0 176 3889
0 103 4034
0 0 4095
0 0 4095
0 0 4095
166 155 0
164 156 0
155 154 155
134 148 539
101 149 1032
81 185 1343
70 207 1790
46 218 2225
19 244 2649
0 267 3026
0 296 3360
0 300 3667
0 265 3884
0 176 4030
0 56 4095
0 0 4095
0 0 4095
0 532 0
0 532 0
0 528 107
0 516 477
0 510 994
0 538 1315
0 560 1762
0 574 2207
0 593 2631
0 606 3013
0 596 3346
0 548 3654
0 463 3875
0 346 4025
0 218 4095
0 103 4095
0 0 4095
0 1065 0
0 1066 0
0 1067 88
0 1058 460
0 1049 1006
0 1067 1318
0 1075 1746
0 1075 2179
0 1061 2598
0 1030 2971
0 973 3302
0 895 3616
0 805 3852
0 698 4012
0 595 4095
0 489 4095
0 370 4095
0 1476 81
0 1476 101
0 1473 196
0 1462 523
0 1442 1076
0 1435 1378
0 1424 1761
0 1399 2178
0 1366 2587
0 1325 2958
0 1276 3290
0 1225 3607
0 1170 3844
0 1107 4006
0 1042 4095
0 978 4095
0 917 4095
0 1804 0
0 1804 0
0 1801 2
0 1796 265
0 1780 873
0 1776 1264
0 1773 1668
0 1757 2116
0 1741 2545
0 1720 2932
0 1691 3271
0 1660 3594
0 1627 3838
0 1595 4002
0 1558 4095
0 1518 4095
0 1476 4095
0 2174 0
0 2174 0
0 2174 0
0 2174 0
0 2162 588
0 2156 1127
0 2158 1542
0 2153 2036
0 2145 2486
0 2134 2893
0 2124 3245
0 2108 3575
0 2092 3828
0 2073 3994
0 2051 4095
0 2023 4095
0 1998 4095
0 2589 0
0 2588 0
0 2587 0
0 2584 0
0 2581 329
0 2574 1045
0 2578 1455
0 2571 1972
0 2567 2435
0 2560 2856
0 2549 3219
0 2540 3556
0 2525 3814
0 2510 3988
0 2493 4095
0 2477 4095
0 2456 4095
0 2965 0
0 2965 0
0 2964 0
0 2963 0
0 2961 11
0 2953 892
0 2955 1344
0 2951 1889
0 2947 2372
0 2941 2810
0 2936 3184
0 2927 3526
0 2918 3796
0 2909 3977
0 2897 4095
0 2883 4095
0 2869 4095
0 3297 0
0 3297 0
0 3297 0
0 3295 0
0 3293 0
0 3288 573
0 3289 1211
0 3288 1780
0 3284 2294
0 3280 2753
0 3275 3142
0 3268 3495
0 3263 3779
0 3254 3964
0 3246 4095
0 3234 4095
0 3222 4095
0 3610 0
0 3610 0
0 3610 0
0 3610 0
0 3610 0
0 3608 125
0 3605 1072
0 3605 1630
0 3600 2195
0 3598 2681
0 3596 3092
0 3589 3453
0 3583 3753
0 3580 3951
0 3571 4088
0 3563 4095
0 3555 4095
0 3847 0
0 3847 0
0 3847 0
0 3847 0
0 3846 0
0 3843 0
0 3842 851
0 3842 1447
0 3839 2072
0 3837 2595
0 3837 3030
0 3833 3405
0 3828 3724
0 3824 3933
0 3820 4073
0 3816 4095
0 3812 4095
0 4003 0
0 4003 0
0 4002 0
0 4000 0
0 3999 0
0 3999 0
0 3999 327
0 3998 1240
0 3998 1929
0 3998 2493
0 3993 2958
0 3993 3347
0 3989 3687
0 3989 3912
0 3985 4057
0 3985 4095
0 3981 4095
0 4095 0
0 4095 0
0 4095 0
0 4095 0
0 4095 0
0 4095 0
0 4095 0
0 4095 1049
0 4095 1759
0 4095 2373
0 4095 2879
0 4095 3287
0 4095 3646
0 4095 3887
0 4095 4045
0 4095 4095
0 4095 4095
0 4095 0
0 4095 0
0 4095 0
0 4095 0
0 4095 0
0 4095 0
0 4095 0
0 4095 676
0 4095 1524
0 4095 2231
0 4095 2782
0 4095 3219
0 4095 3598
0 4095 3863
0 4095 4027
0 4095 4095
0 4095 4095
0 4095 0
0 4095 0
0 4095 0
0 4095 0
0 4095 0
0 4095 0
0 4095 0
0 4095 0
0 4095 1266
0 4095 2056
0 4095 2665
0 4095 3138
0 4095 3537
0 4095 3831
0 4095 4008
0 4095 4095
0 4095 4095
759 16 16
758 16 16
807 0 145
781 0 522
754 0 1003
737 0 1318
694 0 1775
629 14 2217
539 52 2640
433 101 3023
304 144 3359
208 153 3667
55 127 3888
0 44 4030
0 0 4095
0 0 4095
0 0 4095
751 15 15
751 15 15
798 0 146
774 0 527
746 0 1011
729 0 1323
687 12 1779
615 41 2217
533 80 2643
420 129 3022
300 169 3361
200 178 3667
40 141 3885
0 55 4030
0 0 4095
0 0 4095
