Postproduction/IWLTBAP - Humble/LUTs by IWLTBAP (3DL)/UTILITY/DJI D-Log to Rec.709/LUTs by DJI/DJI_Phantom4_DLOG2sRGB.3dl
# DaVinci Resolve Cube (3D LUT).
# Converts DJI Phantom4 DLOG data to sRGB
# Gamma as defined by ITU-Rec.1886.
0 128 256 384 512 640 768 896 1023
0 0 0
0 0 270
0 0 826
0 0 1407
0 0 2005
0 0 2616
0 0 3238
0 0 3870
0 0 4095
0 269 0
0 266 243
0 250 816
0 210 1401
0 131 2001
0 6 2613
0 0 3236
0 0 3868
0 0 4095
0 824 0
0 822 76
0 817 769
0 804 1376
0 783 1984
0 750 2600
0 701 3225
0 632 3858
0 532 4095
0 1405 0
0 1404 0
0 1401 653
0 1394 1320
0 1383 1949
0 1366 2576
0 1342 3206
0 1311 3843
0 1270 4095
0 2004 0
0 2004 0
0 2001 383
0 1997 1219
0 1990 1889
0 1979 2534
0 1965 3176
0 1946 3820
0 1921 4095
0 2620 0
0 2619 0
0 2617 0
0 2613 1047
0 2608 1795
0 2601 2472
0 2591 3131
0 2578 3785
0 2561 4095
0 3248 0
0 3248 0
0 3246 0
0 3242 731
0 3238 1655
0 3233 2384
0 3225 3069
0 3216 3739
0 3204 4095
0 3888 0
0 3888 0
0 3886 0
0 3883 0
0 3879 1444
0 3875 2261
0 3869 2985
0 3862 3677
0 3853 4095
0 4095 0
0 4095 0
0 4095 0
0 4095 0
0 4095 1101
0 4095 2092
0 4095 2874
0 4095 3597
0 4095 4095
363 0 0
355 0 266
295 0 824
111 0 1405
0 0 2004
0 0 2615
0 0 3237
0 0 3869
0 0 4095
254 241 0
239 238 239
153 220 814
0 177 1400
0 94 2000
0 0 2612
0 0 3235
0 0 3867
0 0 4095
0 814 0
0 813 70
0 807 767
0 794 1375
0 772 1983
0 739 2599
0 690 3224
0 619 3857
0 516 4095
0 1399 0
0 1398 0
0 1395 651
0 1388 1318
0 1377 1948
0 1360 2575
0 1337 3205
0 1305 3842
0 1264 4095
0 2001 0
0 2000 0
0 1997 379
0 1993 1217
0 1986 1888
0 1975 2533
0 1961 3175
0 1942 3819
0 1917 4095
0 2617 0
0 2616 0
0 2614 0
0 2610 1045
0 2605 1794
0 2598 2471
0 2588 3130
0 2575 3785
0 2558 4095
0 3246 0
0 3245 0
0 3243 0
0 3240 729
0 3236 1654
0 3230 2383
0 3223 3068
0 3213 3738
0 3201 4095
0 3886 0
0 3886 0
0 3884 0
0 3881 0
0 3877 1443
0 3873 2260
0 3867 2984
0 3860 3676
0 3851 4095
0 4095 0
0 4095 0
0 4095 0
0 4095 0
0 4095 1100
0 4095 2091
0 4095 2873
0 4095 3596
0 4095 4095
1025 0 0
1023 0 246
1005 0 816
961 0 1401
880 0 2000
740 0 2611
479 0 3233
0 0 3864
0 0 4095
756 126 35
986 63 218
969 40 807
923 0 1395
837 0 1996
688 0 2608
395 0 3230
0 0 3862
0 0 4095
789 763 0
784 762 42
758 756 758
696 742 1369
575 719 1978
322 682 2594
0 628 3220
0 550 3853
0 431 4095
0 1370 0
0 1370 0
0 1366 639
0 1359 1312
0 1348 1942
0 1331 2570
0 1306 3201
0 1274 3838
0 1232 4095
0 1981 0
0 1981 0
0 1978 362
0 1973 1210
0 1966 1882
0 1955 2528
0 1941 3171
0 1921 3814
0 1897 4095
0 2602 0
0 2601 0
0 2599 0
0 2596 1037
0 2590 1788
0 2583 2466
0 2573 3126
0 2560 3780
0 2543 4095
0 3234 0
0 3233 0
0 3231 0
0 3228 718
0 3224 1648
0 3218 2378
0 3211 3063
0 3201 3733
0 3189 4095
0 3876 0
0 3876 0
0 3874 0
0 3871 0
0 3867 1436
0 3863 2255
0 3857 2979
0 3850 3671
0 3840 4095
0 4095 0
0 4095 0
0 4095 0
0 4095 0
0 4095 1092
0 4095 2086
0 4095 2868
0 4095 3592
0 4095 4095
1716 0 0
1715 0 199
1707 0 802
1685 0 1393
1646 0 1994
1583 0 2607
1492 0 3229
1361 0 3860
1171 0 4095
1695 0 0
1695 0 166
1687 0 792
1665 0 1387
1625 0 1990
1562 0 2604
1469 0 3227
1335 0 3858
1140 0 4095
1587 643 0
1501 658 83
1584 632 742
1561 615 1359
1518 586 1971
1448 539 2589
1345 469 3214
1195 358 3846
967 151 4095
1349 1309 0
1346 1308 0
1332 1304 618
1300 1297 1300
1244 1284 1934
1155 1266 2562
1017 1239 3193
795 1204 3829
345 1157 4095
693 1937 0
687 1937 0
657 1934 321
584 1929 1194
435 1922 1869
37 1911 2517
0 1895 3160
0 1876 3805
0 1850 4095
0 2568 0
0 2568 0
0 2566 0
0 2562 1018
0 2557 1775
0 2549 2455
0 2539 3116
0 2526 3771
0 2509 4095
0 3206 0
0 3206 0
0 3204 0
0 3201 693
0 3197 1634
0 3191 2366
0 3184 3053
0 3174 3724
0 3162 4095
0 3853 0
0 3853 0
0 3851 0
0 3848 0
0 3844 1421
0 3840 2243
0 3834 2969
0 3827 3662
0 3817 4095
0 4095 0
0 4095 0
0 4095 0
0 4095 0
0 4095 1073
0 4095 2073
0 4095 2858
0 4095 3582
0 4095 4095
2428 0 0
2428 0 103
2424 0 777
2411 0 1380
2386 0 1986
2348 0 2601
2294 0 3225
2221 0 3857
2124 0 4095
2415 0 0
2415 0 67
2411 0 767
2397 0 1374
2373 0 1982
2335 0 2598
2280 0 3222
2206 0 3854
2108 0 4095
1848 458 0
1806 473 173
2342 328 714
2330 296 1345
2305 235 1962
2265 121 2582
2209 0 3209
2131 0 3843
2029 0 4095
2210 1199 0
2208 1198 0
2058 1223 716
2178 1187 1286
2152 1173 1923
2108 1151 2554
2045 1121 3186
1959 1081 3824
1844 1028 4095
1925 1870 0
1923 1870 0
1914 1867 254
1893 1862 1176
1858 1854 1858
1805 1842 2508
1727 1825 3152
1620 1803 3796
1471 1775 4095
1367 2515 0
1364 2515 0
1350 2513 0
1318 2509 990
1264 2503 1757
1176 2494 2440
1042 2483 3101
830 2468 3756
424 2450 4095
0 3160 0
0 3159 0
0 3158 0
0 3154 650
0 3150 1610
0 3144 2347
0 3137 3035
0 3127 3707
0 3114 4095
0 3814 0
0 3814 0
0 3812 0
0 3809 0
0 3805 1395
0 3800 2223
0 3795 2951
0 3787 3645
0 3778 4095
0 4095 0
0 4095 0
0 4095 0
0 4095 0
0 4095 1041
0 4095 2053
0 4095 2840
0 4095 3565
0 4095 4095
3157 0 0
3157 0 0
3155 0 739
3146 0 1362
3129 0 1976
3103 0 2594
3066 0 3220
3017 0 3853
2953 0 4095
3147 0 0
3147 0 0
3145 0 728
3136 0 1356
3120 0 1971
3093 0 2591
3056 0 3217
3007 0 3851
2942 0 4095
2968 0 0
3093 0 0
3096 0 671
3087 0 1326
3070 0 1951
3044 0 2575
3006 0 3204
2955 0 3839
2890 0 4095
2973 1015 0
2917 1025 0
2453 1137 822
2978 997 1263
2962 979 1909
2935 952 2543
2894 915 3178
2840 863 3817
2770 794 4095
2821 1766 0
2819 1765 0
2813 1762 124
2637 1790 1298
2773 1750 1844
2745 1736 2497
2701 1717 3143
2641 1693 3789
2564 1663 4095
2514 2444 0
2513 2443 0
2506 2441 0
2490 2437 959
2466 2431 1740
2428 2422 2428
2376 2410 3092
2305 2395 3748
2212 2375 4095
1994 3102 0
1992 3102 0
1983 3100 0
1962 3096 594
1929 3091 1586
1878 3085 2329
1805 3076 3019
1704 3064 3692
1565 3050 4095
780 3756 0
775 3755 0
749 3754 0
686 3750 0
564 3746 1356
314 3741 2193
0 3735 2924
0 3727 3621
0 3718 4095
0 4095 0
0 4095 0
0 4095 0
0 4095 0
0 4095 993
0 4095 2021
0 4095 2813
0 4095 3540
0 4095 4095
3900 0 0
3900 0 0
3899 0 682
3892 0 1337
3880 0 1961
3861 0 2585
3834 0 3214
3798 0 3849
3751 0 4095
3892 0 0
3892 0 0
3891 0 671
3885 0 1331
3873 0 1957
3853 0 2582
3826 0 3211
3790 0 3846
3743 0 4095
3851 0 0
3852 0 0
3852 0 608
3846 0 1300
3834 0 1936
3815 0 2565
3788 0 3198
3751 0 3835
3703 0 4095
3295 755 0
3133 793 0
3233 789 630
3759 632 1232
3748 603 1890
3729 558 2530
3700 490 3168
3662 384 3809
3613 198 4095
3649 1609 0
3648 1608 0
3547 1623 30
3078 1734 1414
3608 1592 1824
3590 1576 2483
3561 1555 3132
3520 1528 3779
3468 1493 4095
3436 2342 0
3435 2342 0
3430 2339 0
3419 2335 914
3227 2365 1875
3371 2321 2414
3342 2307 3080
3298 2291 3738
3240 2270 4095
3113 3027 0
3112 3027 0
3106 3025 0
3094 3021 518
3075 3016 1561
3047 3009 2313
3008 3000 3007
2956 2989 3682
2889 2974 4095
2613 3696 0
2612 3696 0
2605 3694 0
2590 3691 0
2565 3686 1325
2530 3681 2174
2480 3674 2909
2414 3665 3607
2326 3653 4095
1723 4095 0
1721 4095 0
1710 4095 0
1685 4095 0
1643 4095 933
1581 4095 1985
1490 4095 2782
1361 4095 3511
1174 4095 4095
4095 0 0
4095 0 0
4095 0 599
4095 0 1303
4095 0 1942
4095 0 2573
4095 0 3206
4095 0 3844
4095 0 4095
4095 0 0
4095 0 0
4095 0 586
4095 0 1296
4095 0 1938
4095 0 2570
4095 0 3204
4095 0 3841
4095 0 4095
4095 0 0
4095 0 0
4095 0 512
4095 0 1265
4095 0 1917
4095 0 2554
4095 0 3190
4095 0 3830
4095 0 4095
3257 0 0
3575 0 0
4095 0 303
4095 0 1192
4095 0 1869
4095 0 2517
4095 0 3159
4095 0 3803
4095 0 4095
4095 1373 0
4095 1376 0
3925 1476 113
3779 1531 1318
4095 1351 1798
4095 1332 2465
4095 1307 3118
4095 1273 3768
4095 1229 4095
4095 2201 0
4095 2200 0
4095 2198 0
4023 2244 1102
3698 2324 1996
4095 2179 2396
4095 2164 3065
4095 2146 3726
4095 2123 4095
4056 2927 0
4056 2927 0
4051 2925 0
4042 2920 401
4028 2915 1529
3823 2947 2457
3974 2901 2994
3943 2887 3670
3899 2871 4095
3720 3619 0
3719 3619 0
3715 3617 0
3704 3613 0
3689 3609 1285
3666 3603 2152
3636 3596 2894
3595 3587 3595
3544 3575 4095
3233 4095 0
3231 4095 0
3226 4095 0
3214 4095 0
3194 4095 872
3168 4095 1959
3130 4095 2764
3081 4095 3498
3018 4095 4095
4095 0 0
4095 0 0
4095 0 471
4095 0 1258
4095 0 1918
4095 0 2559
4095 0 3197
4095 0 3838
4095 0 4095
4095 0 0
4095 0 0
4095 0 454
4095 0 1252
4095 0 1914
4095 0 2555
4095 0 3194
4095 0 3836
4095 0 4095
4095 0 0
4095 0 0
4095 0 356
4095 0 1219
4095 0 1892
4095 0 2539
4095 0 3181
4095 0 3824
4095 0 4095
4095 0 0
4095 0 0
4095 0 10
4095 0 1142
4095 0 1843
4095 0 2502
4095 0 3150
4095 0 3797
4095 0 4095
4095 1018 0
4095 1039 0
4095 1211 60
4095 1026 1067
4095 946 1765
4095 918 2443
4095 879 3102
4095 824 3755
4095 751 4095
4095 2005 0
4095 2005 0
4095 2003 0
4095 2170 1314
4095 2173 1934
4095 1982 2373
4095 1966 3048
4095 1945 3713
4095 1919 4095
4095 2795 0
4095 2794 0
4095 2792 0
4095 2788 194
4095 2844 1769
4095 2916 2581
4095 2768 2976
4095 2754 3656
4095 2737 4095
4095 3520 0
4095 3519 0
4095 3518 0
4095 3514 0
4095 3509 1233
4095 3503 2126
4095 3536 3045
4095 3488 3582
4095 3474 4095
4095 4095 0
4095 4095 0
4095 4095 0
4095 4095 0
4095 4095 790
4095 4095 1928
4095 4095 2743
4095 4095 3482
4095 4095 4095
