Postproduction/IWLTBAP - Humble/LUTs by IWLTBAP (3DL)/UTILITY/DJI D-Log to Rec.709/LUTs by DJI/Mavic Pro D-Log to sRGB Enhanced.3dl
0 128 256 384 512 640 768 896 1023
0 0 0
0 0 146
0 0 886
0 0 1967
0 0 3166
0 0 4095
0 0 4095
0 0 4095
0 0 4095
0 207 0
0 161 125
0 100 857
0 0 1919
0 0 3120
0 0 4095
0 0 4095
0 0 4095
0 0 4095
0 1055 0
0 1042 86
0 1004 912
0 888 2064
0 539 3280
0 0 4095
0 0 4095
0 0 4095
0 0 4095
0 2165 0
0 2161 0
0 2143 792
0 2094 1971
0 1952 3216
0 1485 4095
0 0 4095
0 0 4095
0 0 4095
0 3292 0
0 3291 0
0 3284 481
0 3267 1780
0 3220 3100
0 3085 4095
0 2607 4095
0 0 4095
0 0 4095
0 4095 0
0 4095 0
0 4095 0
0 4095 941
0 4095 2816
0 4095 4058
0 4051 4095
0 3689 4095
0 0 4095
0 4095 0
0 4095 0
0 4095 0
0 4095 0
0 4095 1991
0 4095 3939
0 4095 4095
0 4095 4095
0 4095 4095
0 4095 0
0 4095 0
0 4095 0
0 4095 0
0 4095 0
0 4095 3919
0 4095 4095
0 4095 4095
0 4095 4095
0 4095 0
0 4095 0
0 4095 0
0 4095 0
0 4095 0
0 4095 0
0 4095 4095
0 4095 4095
0 4095 4095
362 0 0
248 0 98
141 0 833
0 0 1913
0 0 3120
0 0 4095
0 0 4095
0 0 4095
0 0 4095
165 145 0
114 114 115
0 48 899
0 0 2014
0 0 3209
0 0 4095
0 0 4095
0 0 4095
0 0 4095
0 1018 0
0 1006 65
0 964 898
0 847 2057
0 488 3277
0 0 4095
0 0 4095
0 0 4095
0 0 4095
0 2157 0
0 2143 0
0 2125 778
0 2075 1964
0 1931 3213
0 1458 4095
0 0 4095
0 0 4095
0 0 4095
0 3288 0
0 3285 0
0 3278 466
0 3261 1773
0 3214 3097
0 3079 4095
0 2596 4095
0 0 4095
0 0 4095
0 4095 0
0 4095 0
0 4095 0
0 4095 928
0 4095 2812
0 4095 4057
0 4049 4095
0 3685 4095
0 0 4095
0 4095 0
0 4095 0
0 4095 0
0 4095 0
0 4095 1990
0 4095 3939
0 4095 4095
0 4095 4095
0 4095 4095
0 4095 0
0 4095 0
0 4095 0
0 4095 0
0 4095 0
0 4095 3918
0 4095 4095
0 4095 4095
0 4095 4095
0 4095 0
0 4095 0
0 4095 0
0 4095 0
0 4095 0
0 4095 0
0 4095 4095
0 4095 4095
0 4095 4095
1350 0 0
1298 0 84
1238 0 892
1065 0 2028
485 0 3235
0 0 4095
0 0 4095
0 0 4095
0 0 4095
1247 0 0
1228 0 65
1162 0 899
980 0 2059
329 0 3276
0 0 4095
0 0 4095
0 0 4095
0 0 4095
957 909 0
930 895 10
851 852 859
622 734 2035
0 337 3265
0 0 4095
0 0 4095
0 0 4095
0 0 4095
0 2107 0
0 2092 0
0 2074 741
0 2023 1942
0 1872 3202
0 1377 4095
0 0 4095
0 0 4095
0 0 4095
0 3275 0
0 3266 0
0 3260 425
0 3242 1753
0 3195 3090
0 3059 4095
0 2565 4095
0 0 4095
0 0 4095
0 4095 0
0 4095 0
0 4095 0
0 4095 885
0 4095 2802
0 4095 4056
0 4044 4095
0 3673 4095
0 0 4095
0 4095 0
0 4095 0
0 4095 0
0 4095 0
0 4095 1987
0 4095 3938
0 4095 4095
0 4095 4095
0 4095 4095
0 4095 0
0 4095 0
0 4095 0
0 4095 0
0 4095 0
0 4095 3916
0 4095 4095
0 4095 4095
0 4095 4095
0 4095 0
0 4095 0
0 4095 0
0 4095 0
0 4095 0
0 4095 0
0 4095 4095
0 4095 4095
0 4095 4095
2559 0 0
2568 0 0
2544 0 819
2481 0 2023
2286 0 3267
1530 0 4095
0 0 4095
0 0 4095
0 0 4095
2516 0 0
2526 0 0
2502 0 804
2437 0 2012
2233 0 3261
1442 0 4095
0 0 4095
0 0 4095
0 0 4095
2405 589 0
2398 570 0
2372 517 757
2298 366 1973
2072 0 3233
1167 0 4095
0 0 4095
0 0 4095
0 0 4095
2033 1967 0
2011 1951 0
1973 1930 628
1872 1873 1886
1563 1709 3175
170 1149 4095
0 0 4095
0 0 4095
0 0 4095
153 3226 0
112 3218 0
2 3211 296
0 3193 1697
0 3142 3069
0 3001 4095
0 2480 4095
0 0 4095
0 0 4095
0 4095 0
0 4095 0
0 4095 0
0 4095 766
0 4095 2773
0 4095 4051
0 4035 4095
0 3641 4095
0 0 4095
0 4095 0
0 4095 0
0 4095 0
0 4095 0
0 4095 1981
0 4095 3937
0 4095 4095
0 4095 4095
0 4095 4095
0 4095 0
0 4095 0
0 4095 0
0 4095 0
0 4095 0
0 4095 3908
0 4095 4095
0 4095 4095
0 4095 4095
0 4095 0
0 4095 0
0 4095 0
0 4095 0
0 4095 0
0 4095 0
0 4095 4095
0 4095 4095
0 4095 4095
3716 0 0
3726 0 0
3718 0 512
3697 0 1857
3638 0 3184
3451 0 4095
2718 0 4095
0 0 4095
0 0 4095
3701 0 0
3710 0 0
3702 0 495
3681 0 1847
3620 0 3178
3431 0 4095
2680 0 4095
0 0 4095
0 0 4095
3663 0 0
3661 0 0
3653 0 447
3629 0 1814
3566 0 3156
3368 0 4095
2573 0 4095
0 0 4095
0 0 4095
3540 1526 0
3530 1510 0
3520 1483 307
3490 1407 1736
3419 1179 3108
3202 358 4095
2261 0 4095
0 0 4095
0 0 4095
3150 3087 0
3140 3080 0
3127 3073 0
3094 3054 1544
2997 2998 3012
2672 2823 4092
872 2221 4095
0 0 4095
0 0 4095
73 4095 0
0 4095 0
0 4095 0
0 4095 372
0 4095 2688
0 4074 4039
0 4007 4095
0 3548 4095
0 0 4095
0 4095 0
0 4095 0
0 4095 0
0 4095 0
0 4095 2028
0 4095 3943
0 4095 4095
0 4095 4095
0 4095 4095
0 4095 0
0 4095 0
0 4095 0
0 4095 0
0 4095 0
0 4095 3891
0 4095 4095
0 4095 4095
0 4095 4095
0 4095 0
0 4095 0
0 4095 0
0 4095 0
0 4095 0
0 4095 0
0 4095 4095
0 4095 4095
0 4095 4095
4095 0 0
4095 0 0
4095 0 0
4095 0 1408
4095 0 3001
4095 0 4095
4095 0 4095
3833 0 4095
0 0 4095
4095 0 0
4095 0 0
4095 0 0
4095 0 1396
4095 0 2996
4095 0 4095
4095 0 4095
3822 0 4095
0 0 4095
4095 0 0
4095 0 0
4095 0 0
4095 0 1364
4095 0 2979
4095 0 4094
4095 0 4095
3781 0 4095
0 0 4095
4095 0 0
4095 0 0
4095 0 0
4095 0 1283
4095 0 2939
4095 0 4083
4095 0 4095
3675 0 4095
0 0 4095
4095 2622 0
4095 2611 0
4095 2600 0
4095 2569 1025
4095 2487 2838
4095 2232 4060
4095 1096 4095
3361 0 4095
0 0 4095
4074 4043 0
4072 4041 0
4070 4040 0
4065 4037 0
4048 4029 2433
4001 4001 4008
3723 3868 4095
1363 3243 4095
0 0 4095
1952 4095 0
1939 4095 0
1904 4095 0
1807 4095 0
1506 4095 2207
195 4095 3981
0 4095 4095
0 4095 4095
0 4095 4095
0 4095 0
0 4095 0
0 4095 0
0 4095 0
0 4095 0
0 4095 3840
0 4095 4095
0 4095 4095
0 4095 4095
0 4095 0
0 4095 0
0 4095 0
0 4095 0
0 4095 0
0 4095 0
0 4095 4095
0 4095 4095
0 4095 4095
4095 0 0
4095 0 0
4095 0 0
4095 0 0
4095 0 2463
4095 0 4011
4095 0 4095
4095 0 4095
4095 0 4095
4095 0 0
4095 0 0
4095 0 0
4095 0 0
4095 0 2457
4095 0 4011
4095 0 4095
4095 0 4095
4095 0 4095
4095 0 0
4095 0 0
4095 0 0
4095 0 0
4095 0 2432
4095 0 4008
4095 0 4095
4095 0 4095
4095 0 4095
4095 0 0
4095 0 0
4095 0 0
4095 0 0
4095 0 2363
4095 0 4000
4095 0 4095
4095 0 4095
4095 0 4095
4095 0 0
4095 0 0
4095 0 0
4095 0 0
4095 0 2146
4095 0 3961
4095 0 4095
4095 0 4095
4095 0 4095
4095 3636 0
4095 3633 0
4095 3628 0
4095 3617 0
4095 3587 1332
4095 3489 3861
4095 3195 4095
4095 1492 4095
4095 0 4095
4095 4095 0
4095 4095 0
4095 4095 0
4095 4095 0
4095 4095 1382
4095 4095 3917
4095 4095 4095
4095 4095 4095
3172 4095 4095
3405 4095 0
3400 4095 0
3387 4095 0
3352 4095 0
3255 4095 0
2945 4095 3647
1094 4095 4095
0 4095 4095
0 4095 4095
0 4095 0
0 4095 0
0 4095 0
0 4095 0
0 4095 0
0 4095 0
0 4095 4095
0 4095 4095
0 4095 4095
4095 0 0
4095 0 0
4095 0 0
4095 0 0
4095 0 0
4095 0 3476
4095 0 4095
4095 0 4095
4095 0 4095
4095 0 0
4095 0 0
4095 0 0
4095 0 0
4095 0 0
4095 0 3474
4095 0 4095
4095 0 4095
4095 0 4095
4095 0 0
4095 0 0
4095 0 0
4095 0 0
4095 0 0
4095 0 3467
4095 0 4095
4095 0 4095
4095 0 4095
4095 0 0
4095 0 0
4095 0 0
4095 0 0
4095 0 0
4095 0 3451
4095 0 4095
4095 0 4095
4095 0 4095
4095 0 0
4095 0 0
4095 0 0
4095 0 0
4095 0 0
4095 0 3429
4095 0 4095
4095 0 4095
4095 0 4095
4095 0 0
4095 0 0
4095 0 0
4095 0 0
4095 0 0
4095 0 3621
4095 0 4095
4095 0 4095
4095 0 4095
4095 4095 0
4095 4095 0
4095 4095 0
4095 4095 0
4095 4095 0
4095 4095 3555
4095 4095 4095
4095 4095 4095
4095 3626 4095
4095 4095 0
4095 4095 0
4095 4095 0
4095 4095 0
4095 4095 0
4095 4095 2768
4095 4095 4095
4095 4095 4095
4095 4095 4095
4095 4095 0
4095 4095 0
4095 4095 0
4095 4095 0
4095 4095 0
4095 4095 0
4064 4095 4095
2337 4095 4095
0 4095 4095
4095 0 0
4095 0 0
4095 0 0
4095 0 0
4095 0 0
4095 0 0
4095 0 4095
4095 0 4095
4095 0 4095
4095 0 0
4095 0 0
4095 0 0
4095 0 0
4095 0 0
4095 0 0
4095 0 4095
4095 0 4095
4095 0 4095
4095 0 0
4095 0 0
4095 0 0
4095 0 0
4095 0 0
4095 0 0
4095 0 4095
4095 0 4095
4095 0 4095
4095 0 0
4095 0 0
4095 0 0
4095 0 0
4095 0 0
4095 0 0
4095 0 4095
4095 0 4095
4095 0 4095
4095 0 0
4095 0 0
4095 0 0
4095 0 0
4095 0 0
4095 0 0
4095 0 4095
4095 0 4095
4095 0 4095
4095 0 0
4095 0 0
4095 0 0
4095 0 0
4095 0 0
4095 0 0
4095 0 4095
4095 0 4095
4095 0 4095
4095 0 0
4095 0 0
4095 0 0
4095 0 0
4095 0 0
4095 0 0
4095 0 4095
4095 0 4095
4095 0 4095
4095 4095 0
4095 4095 0
4095 4095 0
4095 4095 0
4095 4095 0
4095 4095 0
4095 4095 4095
4095 4095 4095
4095 4095 4095
4095 4095 0
4095 4095 0
4095 4095 0
4095 4095 0
4095 4095 0
4095 4095 0
4095 4095 3969
4095 4095 4095
4095 4095 4095
