Postproduction/IWLTBAP - Humble/LUTs by IWLTBAP (3DL)/UTILITY/DJI D-Log to Rec.709/LUTs by DJI/Mavic Pro D-Log to sRGB Enhanced.3dl
0 64 128 192 256 320 384 448 512 576 640 704 768 832 896 960 1023
0 0 0
0 0 0
0 0 146
0 0 475
0 0 886
0 0 1389
0 0 1967
0 0 2567
0 0 3166
0 0 3742
0 0 4095
0 0 4095
0 0 4095
0 0 4095
0 0 4095
0 0 4095
0 0 4095
0 0 0
0 0 0
0 0 132
0 0 469
0 0 856
0 0 1386
0 0 1965
0 0 2565
0 0 3165
0 0 3741
0 0 4095
0 0 4095
0 0 4095
0 0 4095
0 0 4095
0 0 4095
0 0 4095
0 207 0
0 175 0
0 161 125
0 138 452
0 100 857
0 39 1351
0 0 1919
0 0 2520
0 0 3120
0 0 3698
0 0 4095
0 0 4095
0 0 4095
0 0 4095
0 0 4095
0 0 4095
0 0 4095
0 591 0
0 581 0
0 568 120
0 548 484
0 514 933
0 460 1469
0 359 2071
0 174 2677
0 0 3279
0 0 3846
0 0 4095
0 0 4095
0 0 4095
0 0 4095
0 0 4095
0 0 4095
0 0 4095
0 1055 0
0 1051 0
0 1042 86
0 1027 457
0 1004 912
0 961 1456
0 888 2064
0 769 2674
0 539 3280
0 78 3851
0 0 4095
0 0 4095
0 0 4095
0 0 4095
0 0 4095
0 0 4095
0 0 4095
0 1588 0
0 1587 0
0 1580 29
0 1569 407
0 1551 864
0 1522 1415
0 1474 2028
0 1392 2644
0 1244 3253
0 978 3833
0 407 4095
0 0 4095
0 0 4095
0 0 4095
0 0 4095
0 0 4095
0 0 4095
0 2165 0
0 2165 0
0 2161 0
0 2154 309
0 2143 792
0 2125 1347
0 2094 1971
0 2043 2600
0 1952 3216
0 1793 3801
0 1485 4095
0 801 4095
0 0 4095
0 0 4095
0 0 4095
0 0 4095
0 0 4095
0 2732 0
0 2732 0
0 2730 0
0 2725 160
0 2718 673
0 2707 1249
0 2689 1892
0 2659 2537
0 2609 3164
0 2520 3755
0 2363 4095
0 2046 4095
0 1266 4095
0 0 4095
0 0 4095
0 0 4095
0 0 4095
0 3292 0
0 3292 0
0 3291 0
0 3288 0
0 3284 481
0 3278 1101
0 3267 1780
0 3249 2457
0 3220 3100
0 3170 3703
0 3085 4095
0 2927 4095
0 2607 4095
0 1804 4095
0 0 4095
0 0 4095
0 0 4095
0 3824 0
0 3824 0
0 3824 0
0 3822 0
0 3820 118
0 3816 854
0 3809 1600
0 3798 2332
0 3781 3015
0 3751 3637
0 3704 4085
0 3623 4095
0 3467 4095
0 3162 4095
0 2363 4095
0 0 4095
0 0 4095
0 4095 0
0 4095 0
0 4095 0
0 4095 0
0 4095 0
0 4095 0
0 4095 941
0 4095 1976
0 4095 2816
0 4095 3534
0 4095 4058
0 4092 4095
0 4051 4095
0 3960 4095
0 3689 4095
0 2858 4095
0 0 4095
0 4095 0
0 4095 0
0 4095 0
0 4095 0
0 4095 0
0 4095 0
0 4095 0
0 4095 964
0 4095 2383
0 4095 3318
0 4095 4003
0 4095 4095
0 4095 4095
0 4095 4095
0 4095 4095
0 4077 4095
0 3358 4095
0 4095 0
0 4095 0
0 4095 0
0 4095 0
0 4095 0
0 4095 0
0 4095 0
0 4095 0
0 4095 1991
0 4095 3156
0 4095 3939
0 4095 4095
0 4095 4095
0 4095 4095
0 4095 4095
0 4095 4095
0 4095 4095
0 4095 0
0 4095 0
0 4095 0
0 4095 0
0 4095 0
0 4095 0
0 4095 0
0 4095 0
0 4095 2037
0 4095 3272
0 4095 4028
0 4095 4095
0 4095 4095
0 4095 4095
0 4095 4095
0 4095 4095
0 4095 4095
0 4095 0
0 4095 0
0 4095 0
0 4095 0
0 4095 0
0 4095 0
0 4095 0
0 4095 0
0 4095 0
0 4095 2740
0 4095 3919
0 4095 4095
0 4095 4095
0 4095 4095
0 4095 4095
0 4095 4095
0 4095 4095
0 4095 0
0 4095 0
0 4095 0
0 4095 0
0 4095 0
0 4095 0
0 4095 0
0 4095 0
0 4095 0
0 4095 0
0 4095 3396
0 4095 4095
0 4095 4095
0 4095 4095
0 4095 4095
0 4095 4095
0 4095 4095
0 4095 0
0 4095 0
0 4095 0
0 4095 0
0 4095 0
0 4095 0
0 4095 0
0 4095 0
0 4095 0
0 4095 0
0 4095 0
0 4095 3965
0 4095 4095
0 4095 4095
0 4095 4095
0 4095 4095
0 4095 4095
4 0 0
0 0 0
0 0 139
0 0 469
0 0 881
0 0 1386
0 0 1965
0 0 2565
0 0 3165
0 0 3741
0 0 4095
0 0 4095
0 0 4095
0 0 4095
0 0 4095
0 0 4095
0 0 4095
0 0 0
0 0 0
0 0 106
0 0 436
0 0 840
0 0 1338
0 0 1917
0 0 2519
0 0 3121
0 0 3741
0 0 4095
0 0 4095
0 0 4095
0 0 4095
0 0 4095
0 0 4095
0 0 4095
0 185 0
0 160 0
0 145 122
0 121 459
0 82 878
0 19 1386
0 0 1956
0 0 2554
0 0 3137
0 0 3698
0 0 4095
0 0 4095
0 0 4095
0 0 4095
0 0 4095
0 0 4095
0 0 4095
0 573 0
0 564 0
0 551 113
0 530 480
0 497 931
0 442 1470
0 337 2073
0 151 2679
0 0 3283
0 0 3851
0 0 4095
0 0 4095
0 0 4095
0 0 4095
0 0 4095
0 0 4095
0 0 4095
0 1042 0
0 1037 0
0 1029 78
0 1014 452
0 990 907
0 945 1453
0 873 2062
0 753 2672
0 519 3280
0 53 3851
0 0 4095
0 0 4095
0 0 4095
0 0 4095
0 0 4095
0 0 4095
0 0 4095
0 1579 0
0 1576 0
0 1570 21
0 1559 399
0 1541 859
0 1512 1411
0 1465 2026
0 1380 2642
0 1232 3253
0 963 3832
0 383 4095
0 0 4095
0 0 4095
0 0 4095
0 0 4095
0 0 4095
0 0 4095
0 2159 0
0 2158 0
0 2154 0
0 2148 301
0 2136 787
0 2118 1343
0 2087 1969
0 2036 2599
0 1944 3215
0 1785 3800
0 1475 4095
0 786 4095
0 0 4095
0 0 4095
0 0 4095
0 0 4095
0 0 4095
0 2729 0
0 2728 0
0 2726 0
0 2722 153
0 2715 667
0 2703 1245
0 2685 1889
0 2655 2536
0 2605 3163
0 2516 3755
0 2358 4095
0 2039 4095
0 1256 4095
0 0 4095
0 0 4095
0 0 4095
0 0 4095
0 3290 0
0 3290 0
0 3289 0
0 3286 0
0 3282 475
0 3276 1097
0 3265 1777
0 3247 2455
0 3218 3099
0 3167 3702
0 3083 4095
0 2924 4095
0 2603 4095
0 1796 4095
0 0 4095
0 0 4095
0 0 4095
0 3823 0
0 3823 0
0 3822 0
0 3821 0
0 3818 110
0 3814 849
0 3808 1597
0 3797 2330
0 3779 3014
0 3750 3636
0 3702 4085
0 3621 4095
0 3466 4095
0 3160 4095
0 2358 4095
0 0 4095
0 0 4095
0 4095 0
0 4095 0
0 4095 0
0 4095 0
0 4095 0
0 4095 0
0 4095 936
0 4095 1974
0 4095 2814
0 4095 3534
0 4095 4057
0 4091 4095
0 4050 4095
0 3959 4095
0 3687 4095
0 2855 4095
0 0 4095
0 4095 0
0 4095 0
0 4095 0
0 4095 0
0 4095 0
0 4095 0
0 4095 0
0 4095 959
0 4095 2381
0 4095 3317
0 4095 4003
0 4095 4095
0 4095 4095
0 4095 4095
0 4095 4095
0 4077 4095
0 3356 4095
0 4095 0
0 4095 0
0 4095 0
0 4095 0
0 4095 0
0 4095 0
0 4095 0
0 4095 0
0 4095 1991
0 4095 3156
0 4095 3939
0 4095 4095
0 4095 4095
0 4095 4095
0 4095 4095
0 4095 4095
0 4095 4095
0 4095 0
0 4095 0
0 4095 0
0 4095 0
0 4095 0
0 4095 0
0 4095 0
0 4095 0
0 4095 2035
0 4095 3271
0 4095 4028
0 4095 4095
0 4095 4095
0 4095 4095
0 4095 4095
0 4095 4095
0 4095 4095
0 4095 0
0 4095 0
0 4095 0
0 4095 0
0 4095 0
0 4095 0
0 4095 0
0 4095 0
0 4095 0
0 4095 2738
0 4095 3919
0 4095 4095
0 4095 4095
0 4095 4095
0 4095 4095
0 4095 4095
0 4095 4095
0 4095 0
0 4095 0
0 4095 0
0 4095 0
0 4095 0
0 4095 0
0 4095 0
0 4095 0
0 4095 0
0 4095 0
0 4095 3395
0 4095 4095
0 4095 4095
0 4095 4095
0 4095 4095
0 4095 4095
0 4095 4095
0 4095 0
0 4095 0
0 4095 0
0 4095 0
0 4095 0
0 4095 0
0 4095 0
0 4095 0
0 4095 0
0 4095 0
0 4095 0
0 4095 3965
0 4095 4095
0 4095 4095
0 4095 4095
0 4095 4095
0 4095 4095
362 0 0
273 0 0
248 0 98
208 0 426
141 0 833
33 0 1332
0 0 1913
0 0 2517
0 0 3120
0 0 3740
0 0 4095
0 0 4095
0 0 4095
0 0 4095
0 0 4095
0 0 4095
0 0 4095
288 0 0
221 0 0
196 0 104
156 0 431
89 0 837
0 0 1334
0 0 1913
0 0 2516
0 0 3118
0 0 3697
0 0 4095
0 0 4095
0 0 4095
0 0 4095
0 0 4095
0 0 4095
0 0 4095
165 145 0
141 129 0
114 114 115
69 89 466
0 48 899
0 0 1424
0 0 2014
0 0 2614
0 0 3209
0 0 3766
0 0 4095
0 0 4095
0 0 4095
0 0 4095
0 0 4095
0 0 4095
0 0 4095
0 541 0
0 534 0
0 521 100
0 501 470
0 467 924
0 411 1467
0 298 2073
0 112 2681
0 0 3286
0 0 3854
0 0 4095
0 0 4095
0 0 4095
0 0 4095
0 0 4095
0 0 4095
0 0 4095
0 1018 0
0 1015 0
0 1006 65
0 991 441
0 964 898
0 920 1446
0 847 2057
0 726 2669
0 488 3277
0 14 3849
0 0 4095
0 0 4095
0 0 4095
0 0 4095
0 0 4095
0 0 4095
0 0 4095
0 1561 0
0 1559 0
0 1552 9
0 1541 386
0 1524 851
0 1494 1404
0 1446 2020
0 1359 2639
0 1211 3250
0 938 3831
0 344 4095
0 0 4095
0 0 4095
0 0 4095
0 0 4095
0 0 4095
0 0 4095
0 2157 0
0 2147 0
0 2143 0
0 2136 289
0 2125 778
0 2106 1336
0 2075 1964
0 2023 2595
0 1931 3213
0 1770 3798
0 1458 4095
0 760 4095
0 0 4095
0 0 4095
0 0 4095
0 0 4095
0 0 4095
0 2725 0
0 2722 0
0 2719 0
0 2715 141
0 2708 658
0 2697 1239
0 2678 1885
0 2648 2533
0 2598 3162
0 2509 3754
0 2349 4095
0 2028 4095
0 1237 4095
0 0 4095
0 0 4095
0 0 4095
0 0 4095
0 3288 0
0 3286 0
0 3285 0
0 3282 0
0 3278 466
0 3271 1091
0 3261 1773
0 3243 2452
0 3214 3097
0 3163 3701
0 3079 4095
0 2918 4095
0 2596 4095
0 1784 4095
0 0 4095
0 0 4095
0 0 4095
0 3821 0
0 3821 0
0 3820 0
0 3818 0
0 3816 97
0 3812 840
0 3805 1591
0 3794 2327
0 3777 3012
0 3747 3635
0 3700 4085
0 3618 4095
0 3462 4095
0 3156 4095
0 2349 4095
0 0 4095
0 0 4095
0 4095 0
0 4095 0
0 4095 0
0 4095 0
0 4095 0
0 4095 0
0 4095 928
0 4095 1970
0 4095 2812
0 4095 3533
0 4095 4057
0 4091 4095
0 4049 4095
0 3957 4095
0 3685 4095
0 2849 4095
0 0 4095
0 4095 0
0 4095 0
0 4095 0
0 4095 0
0 4095 0
0 4095 0
0 4095 0
0 4095 951
0 4095 2379
0 4095 3315
0 4095 4002
0 4095 4095
0 4095 4095
0 4095 4095
0 4095 4095
0 4076 4095
0 3353 4095
0 4095 0
0 4095 0
0 4095 0
0 4095 0
0 4095 0
0 4095 0
0 4095 0
0 4095 0
0 4095 1990
0 4095 3156
0 4095 3939
0 4095 4095
0 4095 4095
0 4095 4095
0 4095 4095
0 4095 4095
0 4095 4095
0 4095 0
0 4095 0
0 4095 0
0 4095 0
0 4095 0
0 4095 0
0 4095 0
0 4095 0
0 4095 2031
0 4095 3270
0 4095 4028
0 4095 4095
0 4095 4095
0 4095 4095
0 4095 4095
0 4095 4095
0 4095 4095
0 4095 0
0 4095 0
0 4095 0
0 4095 0
0 4095 0
0 4095 0
0 4095 0
0 4095 0
0 4095 0
0 4095 2736
0 4095 3918
0 4095 4095
0 4095 4095
0 4095 4095
0 4095 4095
0 4095 4095
0 4095 4095
0 4095 0
0 4095 0
0 4095 0
0 4095 0
0 4095 0
0 4095 0
0 4095 0
0 4095 0
0 4095 0
0 4095 0
0 4095 3394
0 4095 4095
0 4095 4095
0 4095 4095
0 4095 4095
0 4095 4095
0 4095 4095
0 4095 0
0 4095 0
0 4095 0
0 4095 0
0 4095 0
0 4095 0
0 4095 0
0 4095 0
0 4095 0
0 4095 0
0 4095 0
0 4095 3964
0 4095 4095
0 4095 4095
0 4095 4095
0 4095 4095
0 4095 4095
816 0 0
718 0 0
699 0 103
667 0 430
615 0 836
530 0 1334
384 0 1913
95 0 2516
0 0 3118
0 0 3697
0 0 4095
0 0 4095
0 0 4095
0 0 4095
0 0 4095
0 0 4095
0 0 4095
767 0 0
702 0 0
681 0 103
647 0 445
591 0 866
500 0 1378
337 0 1959
37 0 2553
0 0 3137
0 0 3697
0 0 4095
0 0 4095
0 0 4095
0 0 4095
0 0 4095
0 0 4095
