Postproduction/IWLTBAP - Humble/LUTs by IWLTBAP (3DL)/UTILITY/DJI D-Log to Rec.709/LUTs by DJI/Mavic Pro D-Log to Rec709.3dl
0 64 128 192 256 320 384 448 512 576 640 704 768 832 896 960 1023
0 0 0
0 0 0
0 0 58
0 0 196
0 0 416
0 0 683
0 0 999
0 0 1381
0 0 1849
0 0 2425
0 0 3140
0 0 4027
0 0 4095
0 0 4095
0 0 4095
0 0 4095
0 0 4095
0 0 0
0 0 0
0 0 55
0 0 193
0 0 413
0 0 682
0 0 998
0 0 1380
0 0 1848
0 0 2425
0 0 3139
0 0 4027
0 0 4095
0 0 4095
0 0 4095
0 0 4095
0 0 4095
0 75 0
0 71 0
0 65 50
0 55 188
0 40 409
0 14 679
0 0 996
0 0 1379
0 0 1847
0 0 2424
0 0 3139
0 0 4026
0 0 4095
0 0 4095
0 0 4095
0 0 4095
0 0 4095
0 228 0
0 225 0
0 219 42
0 209 180
0 193 402
0 167 674
0 125 992
0 55 1376
0 0 1845
0 0 2422
0 0 3137
0 0 4025
0 0 4095
0 0 4095
0 0 4095
0 0 4095
0 0 4095
0 465 0
0 462 0
0 458 30
0 449 167
0 436 390
0 413 666
0 375 986
0 306 1372
0 192 1841
0 7 2420
0 0 3135
0 0 4024
0 0 4095
0 0 4095
0 0 4095
0 0 4095
0 0 4095
0 745 0
0 742 0
0 739 9
0 733 146
0 724 371
0 708 652
0 682 977
0 638 1364
0 560 1836
0 413 2416
0 114 3132
0 0 4022
0 0 4095
0 0 4095
0 0 4095
0 0 4095
0 0 4095
0 1075 0
0 1073 0
0 1071 0
0 1067 112
0 1060 338
0 1048 630
0 1030 961
0 998 1353
0 946 1827
0 853 2409
0 681 3127
0 289 4018
0 0 4095
0 0 4095
0 0 4095
0 0 4095
0 0 4095
0 1475 0
0 1474 0
0 1472 0
0 1469 57
0 1464 281
0 1455 592
0 1441 934
0 1419 1333
0 1381 1813
0 1316 2398
0 1204 3119
0 997 4011
0 540 4095
0 0 4095
0 0 4095
0 0 4095
0 0 4095
0 1965 0
0 1964 0
0 1963 0
0 1961 0
0 1957 191
0 1951 527
0 1940 890
0 1923 1301
0 1895 1789
0 1848 2380
0 1769 3106
0 1632 4001
0 1379 4095
0 830 4095
0 0 4095
0 0 4095
0 0 4095
0 2571 0
0 2570 0
0 2569 0
0 2567 0
0 2564 42
0 2559 406
0 2552 812
0 2539 1247
0 2518 1749
0 2483 2351
0 2425 3084
0 2327 3984
0 2158 4095
0 1847 4095
0 1176 4095
0 0 4095
0 0 4095
0 3321 0
0 3320 0
0 3319 0
0 3318 0
0 3316 0
0 3312 167
0 3306 670
0 3297 1153
0 3281 1683
0 3255 2302
0 3212 3047
0 3140 3957
0 3019 4095
0 2808 4095
0 2423 4095
0 1597 4095
0 0 4095
0 4095 0
0 4095 0
0 4095 0
0 4095 0
0 4095 0
0 4095 0
0 4095 371
0 4095 983
0 4095 1568
0 4095 2219
0 4095 2986
0 4095 3911
0 4027 4095
0 3877 4095
0 3615 4095
0 3137 4095
0 2115 4095
0 4095 0
0 4095 0
0 4095 0
0 4095 0
0 4095 0
0 4095 0
0 4095 0
0 4095 630
0 4095 1360
0 4095 2078
0 4095 2884
0 4095 3836
0 4095 4095
0 4095 4095
0 4095 4095
0 4095 4095
0 4024 4095
0 4095 0
0 4095 0
0 4095 0
0 4095 0
0 4095 0
0 4095 0
0 4095 0
0 4095 0
0 4095 934
0 4095 1821
0 4095 2708
0 4095 3709
0 4095 4095
0 4095 4095
0 4095 4095
0 4095 4095
0 4095 4095
0 4095 0
0 4095 0
0 4095 0
0 4095 0
0 4095 0
0 4095 0
0 4095 0
0 4095 0
0 4095 0
0 4095 1300
0 4095 2391
0 4095 3490
0 4095 4095
0 4095 4095
0 4095 4095
0 4095 4095
0 4095 4095
0 4095 0
0 4095 0
0 4095 0
0 4095 0
0 4095 0
0 4095 0
0 4095 0
0 4095 0
0 4095 0
0 4095 0
0 4095 1749
0 4095 3097
0 4095 4095
0 4095 4095
0 4095 4095
0 4095 4095
0 4095 4095
0 4095 0
0 4095 0
0 4095 0
0 4095 0
0 4095 0
0 4095 0
0 4095 0
0 4095 0
0 4095 0
0 4095 0
0 4095 0
0 4095 2301
0 4095 3973
0 4095 4095
0 4095 4095
0 4095 4095
0 4095 4095
2 0 0
0 0 0
0 0 55
0 0 193
0 0 413
0 0 682
0 0 998
0 0 1380
0 0 1848
0 0 2425
0 0 3139
0 0 4027
0 0 4095
0 0 4095
0 0 4095
0 0 4095
0 0 4095
0 0 0
0 0 0
0 0 52
0 0 190
0 0 410
0 0 680
0 0 997
0 0 1379
0 0 1847
0 0 2424
0 0 3139
0 0 4026
0 0 4095
0 0 4095
0 0 4095
0 0 4095
0 0 4095
0 66 0
0 63 0
0 57 48
0 47 185
0 31 406
0 5 677
0 0 995
0 0 1378
0 0 1846
0 0 2423
0 0 3138
0 0 4026
0 0 4095
0 0 4095
0 0 4095
0 0 4095
0 0 4095
0 220 0
0 216 0
0 210 40
0 200 177
0 184 399
0 158 672
0 116 991
0 46 1375
0 0 1844
0 0 2422
0 0 3137
0 0 4025
0 0 4095
0 0 4095
0 0 4095
0 0 4095
0 0 4095
0 458 0
0 455 0
0 450 27
0 442 164
0 429 388
0 406 664
0 367 985
0 297 1371
0 184 1841
0 0 2419
0 0 3135
0 0 4024
0 0 4095
0 0 4095
0 0 4095
0 0 4095
0 0 4095
0 739 0
0 737 0
0 734 6
0 728 144
0 719 368
0 703 651
0 677 976
0 632 1363
0 553 1835
0 405 2415
0 106 3132
0 0 4021
0 0 4095
0 0 4095
0 0 4095
0 0 4095
0 0 4095
0 1071 0
0 1070 0
0 1067 0
0 1063 110
0 1056 335
0 1045 628
0 1026 960
0 995 1352
0 941 1827
0 849 2409
0 676 3127
0 280 4017
0 0 4095
0 0 4095
0 0 4095
0 0 4095
0 0 4095
0 1472 0
0 1471 0
0 1469 0
0 1466 54
0 1461 279
0 1452 591
0 1439 933
0 1416 1332
0 1378 1812
0 1313 2398
0 1201 3119
0 993 4011
0 533 4095
0 0 4095
0 0 4095
0 0 4095
0 0 4095
0 1963 0
0 1962 0
0 1961 0
0 1959 0
0 1955 188
0 1948 525
0 1938 888
0 1921 1300
0 1893 1788
0 1846 2380
0 1767 3105
0 1629 4001
0 1376 4095
0 825 4095
0 0 4095
0 0 4095
0 0 4095
0 2569 0
0 2568 0
0 2567 0
0 2565 0
0 2563 40
0 2558 403
0 2550 811
0 2537 1246
0 2516 1749
0 2481 2350
0 2424 3083
0 2326 3984
0 2156 4095
0 1845 4095
0 1172 4095
0 0 4095
0 0 4095
0 3320 0
0 3319 0
0 3318 0
0 3317 0
0 3315 0
0 3311 164
0 3305 669
0 3295 1152
0 3280 1682
0 3254 2301
0 3210 3047
0 3139 3957
0 3017 4095
0 2807 4095
0 2422 4095
0 1595 4095
0 0 4095
0 4095 0
0 4095 0
0 4095 0
0 4095 0
0 4095 0
0 4095 0
0 4095 368
0 4095 981
0 4095 1567
0 4095 2219
0 4095 2986
0 4095 3911
0 4026 4095
0 3876 4095
0 3614 4095
0 3136 4095
0 2113 4095
0 4095 0
0 4095 0
0 4095 0
0 4095 0
0 4095 0
0 4095 0
0 4095 0
0 4095 628
0 4095 1359
0 4095 2077
0 4095 2883
0 4095 3836
0 4095 4095
0 4095 4095
0 4095 4095
0 4095 4095
0 4023 4095
0 4095 0
0 4095 0
0 4095 0
0 4095 0
0 4095 0
0 4095 0
0 4095 0
0 4095 0
0 4095 932
0 4095 1821
0 4095 2708
0 4095 3708
0 4095 4095
0 4095 4095
0 4095 4095
0 4095 4095
0 4095 4095
0 4095 0
0 4095 0
0 4095 0
0 4095 0
0 4095 0
0 4095 0
0 4095 0
0 4095 0
0 4095 0
0 4095 1299
0 4095 2391
0 4095 3490
0 4095 4095
0 4095 4095
0 4095 4095
0 4095 4095
0 4095 4095
0 4095 0
0 4095 0
0 4095 0
0 4095 0
0 4095 0
0 4095 0
0 4095 0
0 4095 0
0 4095 0
0 4095 0
0 4095 1748
0 4095 3096
0 4095 4095
0 4095 4095
0 4095 4095
0 4095 4095
0 4095 4095
0 4095 0
0 4095 0
0 4095 0
0 4095 0
0 4095 0
0 4095 0
0 4095 0
0 4095 0
0 4095 0
0 4095 0
0 4095 0
0 4095 2300
0 4095 3973
0 4095 4095
0 4095 4095
0 4095 4095
0 4095 4095
129 0 0
123 0 0
113 0 51
96 0 188
68 0 409
23 0 679
0 0 996
0 0 1379
0 0 1847
0 0 2424
0 0 3139
0 0 4026
0 0 4095
0 0 4095
0 0 4095
0 0 4095
0 0 4095
103 0 0
96 0 0
86 0 48
69 0 185
41 0 406
0 0 677
0 0 995
0 0 1378
0 0 1846
0 0 2423
0 0 3138
0 0 4026
0 0 4095
0 0 4095
0 0 4095
0 0 4095
0 0 4095
59 52 0
53 48 0
42 42 43
25 33 181
0 17 402
0 0 674
0 0 993
0 0 1376
0 0 1845
0 0 2422
0 0 3137
0 0 4025
0 0 4095
0 0 4095
0 0 4095
0 0 4095
0 0 4095
0 206 0
0 202 0
0 196 35
0 186 173
0 170 395
0 144 669
0 102 989
0 32 1373
0 0 1843
0 0 2421
0 0 3136
0 0 4024
0 0 4095
0 0 4095
0 0 4095
0 0 4095
0 0 4095
0 447 0
0 443 0
0 438 22
0 430 160
0 416 383
0 393 661
0 353 983
0 283 1369
0 170 1840
0 0 2418
0 0 3134
0 0 4023
0 0 4095
0 0 4095
0 0 4095
0 0 4095
0 0 4095
0 731 0
0 729 0
0 725 2
0 720 139
0 710 364
0 694 648
0 668 973
0 623 1362
0 543 1834
0 392 2414
0 91 3131
0 0 4021
0 0 4095
0 0 4095
0 0 4095
0 0 4095
0 0 4095
0 1065 0
0 1064 0
0 1061 0
0 1057 105
0 1050 330
0 1038 625
0 1020 957
0 988 1350
0 935 1825
0 841 2408
0 667 3126
0 266 4017
0 0 4095
0 0 4095
0 0 4095
0 0 4095
0 0 4095
0 1468 0
0 1467 0
0 1465 0
0 1461 50
0 1456 274
0 1448 587
0 1434 931
0 1411 1331
0 1373 1811
0 1308 2397
0 1195 3118
0 987 4011
0 523 4095
0 0 4095
0 0 4095
0 0 4095
0 0 4095
0 1960 0
0 1959 0
0 1958 0
0 1955 0
0 1951 183
0 1945 522
0 1935 886
0 1918 1298
0 1889 1787
0 1843 2379
0 1763 3105
0 1625 4000
0 1371 4095
0 817 4095
0 0 4095
0 0 4095
0 0 4095
0 2566 0
0 2566 0
0 2565 0
0 2563 0
0 2560 35
0 2555 399
0 2547 808
0 2535 1244
0 2514 1747
0 2479 2349
0 2421 3082
0 2323 3984
0 2153 4095
0 1841 4095
0 1167 4095
0 0 4095
0 0 4095
0 3318 0
0 3317 0
0 3316 0
0 3315 0
0 3313 0
0 3309 160
0 3303 666
0 3293 1150
0 3278 1681
0 3252 2300
0 3208 3046
0 3136 3956
0 3015 4095
0 2805 4095
0 2419 4095
0 1590 4095
0 0 4095
0 4095 0
0 4095 0
0 4095 0
0 4095 0
0 4095 0
0 4095 0
0 4095 364
0 4095 979
0 4095 1565
0 4095 2218
0 4095 2985
0 4095 3911
0 4025 4095
0 3874 4095
0 3613 4095
0 3134 4095
0 2110 4095
0 4095 0
0 4095 0
0 4095 0
0 4095 0
0 4095 0
0 4095 0
0 4095 0
0 4095 625
0 4095 1357
0 4095 2076
0 4095 2883
0 4095 3835
0 4095 4095
0 4095 4095
0 4095 4095
0 4095 4095
0 4022 4095
0 4095 0
0 4095 0
0 4095 0
0 4095 0
0 4095 0
0 4095 0
0 4095 0
0 4095 0
0 4095 930
0 4095 1820
0 4095 2707
0 4095 3708
0 4095 4095
0 4095 4095
0 4095 4095
0 4095 4095
0 4095 4095
0 4095 0
0 4095 0
0 4095 0
0 4095 0
0 4095 0
0 4095 0
0 4095 0
0 4095 0
0 4095 0
0 4095 1298
0 4095 2390
0 4095 3489
0 4095 4095
0 4095 4095
0 4095 4095
0 4095 4095
0 4095 4095
0 4095 0
0 4095 0
0 4095 0
0 4095 0
0 4095 0
0 4095 0
0 4095 0
0 4095 0
0 4095 0
0 4095 0
0 4095 1747
0 4095 3096
0 4095 4095
0 4095 4095
0 4095 4095
0 4095 4095
0 4095 4095
0 4095 0
0 4095 0
0 4095 0
0 4095 0
0 4095 0
0 4095 0
0 4095 0
0 4095 0
0 4095 0
0 4095 0
0 4095 0
0 4095 2300
0 4095 3973
0 4095 4095
0 4095 4095
0 4095 4095
0 4095 4095
339 0 0
332 0 0
321 0 43
304 0 181
277 0 402
232 0 674
158 0 993
37 0 1376
0 0 1845
0 0 2422
0 0 3137
0 0 4025
0 0 4095
0 0 4095
0 0 4095
0 0 4095
0 0 4095
311 0 0
305 0 0
295 0 40
278 0 178
250 0 400
205 0 672
131 0 991
11 0 1375
0 0 1844
0 0 2422
0 0 3137
0 0 4025
0 0 4095
0 0 4095
0 0 4095
0 0 4095
