Postproduction/IWLTBAP - Humble/LUTs by IWLTBAP (3DL)/UTILITY/DJI D-Log to Rec.709/LUTs by DJI/Mavic Pro D-Log to sRGB Enhanced.3dl
0 256 512 768 1023
0 0 0
0 0 886
0 0 3166
0 0 4095
0 0 4095
0 1055 0
0 1004 912
0 539 3280
0 0 4095
0 0 4095
0 3292 0
0 3284 481
0 3220 3100
0 2607 4095
0 0 4095
0 4095 0
0 4095 0
0 4095 1991
0 4095 4095
0 4095 4095
0 4095 0
0 4095 0
0 4095 0
0 4095 4095
0 4095 4095
1350 0 0
1238 0 892
485 0 3235
0 0 4095
0 0 4095
957 909 0
851 852 859
0 337 3265
0 0 4095
0 0 4095
0 3275 0
0 3260 425
0 3195 3090
0 2565 4095
0 0 4095
0 4095 0
0 4095 0
0 4095 1987
0 4095 4095
0 4095 4095
0 4095 0
0 4095 0
0 4095 0
0 4095 4095
0 4095 4095
3716 0 0
3718 0 512
3638 0 3184
2718 0 4095
0 0 4095
3663 0 0
3653 0 447
3566 0 3156
2573 0 4095
0 0 4095
3150 3087 0
3127 3073 0
2997 2998 3012
872 2221 4095
0 0 4095
0 4095 0
0 4095 0
0 4095 2028
0 4095 4095
0 4095 4095
0 4095 0
0 4095 0
0 4095 0
0 4095 4095
0 4095 4095
4095 0 0
4095 0 0
4095 0 2463
4095 0 4095
4095 0 4095
4095 0 0
4095 0 0
4095 0 2432
4095 0 4095
4095 0 4095
4095 0 0
4095 0 0
4095 0 2146
4095 0 4095
4095 0 4095
4095 4095 0
4095 4095 0
4095 4095 1382
4095 4095 4095
3172 4095 4095
0 4095 0
0 4095 0
0 4095 0
0 4095 4095
0 4095 4095
4095 0 0
4095 0 0
4095 0 0
4095 0 4095
4095 0 4095
4095 0 0
4095 0 0
4095 0 0
4095 0 4095
4095 0 4095
4095 0 0
4095 0 0
4095 0 0
4095 0 4095
4095 0 4095
4095 0 0
4095 0 0
4095 0 0
4095 0 4095
4095 0 4095
4095 4095 0
4095 4095 0
4095 4095 0
4095 4095 3969
4095 4095 4095
