Postproduction/IWLTBAP - Humble/LUTs by IWLTBAP (3DL)/UTILITY/DJI D-Log to Rec.709/LUTs by DJI/Mavic Pro D-Log to Rec709.3dl
0 256 512 768 1023
0 0 0
0 0 416
0 0 1849
0 0 4095
0 0 4095
0 465 0
0 436 390
0 192 1841
0 0 4095
0 0 4095
0 1965 0
0 1957 191
0 1895 1789
0 1379 4095
0 0 4095
0 4095 0
0 4095 0
0 4095 1360
0 4095 4095
0 4024 4095
0 4095 0
0 4095 0
0 4095 0
0 4095 3973
0 4095 4095
613 0 0
571 0 392
181 0 1842
0 0 4095
0 0 4095
417 393 0
360 360 365
0 109 1835
0 0 4095
0 0 4095
0 1945 0
0 1936 164
0 1874 1782
0 1351 4095
0 0 4095
0 4095 0
0 4095 0
0 4095 1350
0 4095 4095
0 4015 4095
0 4095 0
0 4095 0
0 4095 0
0 4095 3970
0 4095 4095
2323 0 0
2310 0 203
2219 0 1792
1411 0 4095
0 0 4095
2270 0 0
2257 0 174
2164 0 1785
1322 0 4095
0 0 4095
1849 1794 0
1833 1785 0
1717 1717 1731
362 1126 4095
0 0 4095
0 4095 0
0 4095 0
0 4095 1283
0 4095 4095
0 3947 4095
0 4095 0
0 4095 0
0 4095 0
0 4095 3949
0 4095 4095
4095 0 0
4095 0 0
4095 0 1390
4095 0 4095
4095 0 4095
4095 0 0
4095 0 0
4095 0 1380
4095 0 4095
4089 0 4095
4095 0 0
4095 0 0
4095 0 1310
4095 0 4095
3881 0 4095
4095 4095 0
4095 4095 0
4095 4095 646
4095 4095 4095
1720 3423 4095
0 4095 0
0 4095 0
0 4095 0
0 4095 3790
0 4095 4095
4095 0 0
4095 0 0
4095 0 0
4095 0 4044
4095 0 4095
4095 0 0
4095 0 0
4095 0 0
4095 0 4040
4095 0 4095
4095 0 0
4095 0 0
4095 0 0
4095 0 4018
4095 0 4095
4095 0 0
4095 0 0
4095 0 0
4095 0 3853
4095 0 4095
4095 4095 0
4095 4095 0
4095 4095 0
4095 4095 2331
4095 4095 4095
