Postproduction/IWLTBAP - Humble/LUTs by IWLTBAP (3DL)/UTILITY/DJI D-Log to Rec.709/LUTs by DJI/Mavic Pro D-Log to Rec709.3dl
0 128 256 384 512 640 768 896 1023
0 0 0
0 0 58
0 0 416
0 0 999
0 0 1849
0 0 3140
0 0 4095
0 0 4095
0 0 4095
0 75 0
0 65 50
0 40 409
0 0 996
0 0 1847
0 0 3139
0 0 4095
0 0 4095
0 0 4095
0 465 0
0 458 30
0 436 390
0 375 986
0 192 1841
0 0 3135
0 0 4095
0 0 4095
0 0 4095
0 1075 0
0 1071 0
0 1060 338
0 1030 961
0 946 1827
0 681 3127
0 0 4095
0 0 4095
0 0 4095
0 1965 0
0 1963 0
0 1957 191
0 1940 890
0 1895 1789
0 1769 3106
0 1379 4095
0 0 4095
0 0 4095
0 3321 0
0 3319 0
0 3316 0
0 3306 670
0 3281 1683
0 3212 3047
0 3019 4095
0 2423 4095
0 0 4095
0 4095 0
0 4095 0
0 4095 0
0 4095 0
0 4095 1360
0 4095 2884
0 4095 4095
0 4095 4095
0 4024 4095
0 4095 0
0 4095 0
0 4095 0
0 4095 0
0 4095 0
0 4095 2391
0 4095 4095
0 4095 4095
0 4095 4095
0 4095 0
0 4095 0
0 4095 0
0 4095 0
0 4095 0
0 4095 0
0 4095 3973
0 4095 4095
0 4095 4095
129 0 0
113 0 51
68 0 409
0 0 996
0 0 1847
0 0 3139
0 0 4095
0 0 4095
0 0 4095
59 52 0
42 42 43
0 17 402
0 0 993
0 0 1845
0 0 3137
0 0 4095
0 0 4095
0 0 4095
0 447 0
0 438 22
0 416 383
0 353 983
0 170 1840
0 0 3134
0 0 4095
0 0 4095
0 0 4095
0 1065 0
0 1061 0
0 1050 330
0 1020 957
0 935 1825
0 667 3126
0 0 4095
0 0 4095
0 0 4095
0 1960 0
0 1958 0
0 1951 183
0 1935 886
0 1889 1787
0 1763 3105
0 1371 4095
0 0 4095
0 0 4095
0 3318 0
0 3316 0
0 3313 0
0 3303 666
0 3278 1681
0 3208 3046
0 3015 4095
0 2419 4095
0 0 4095
0 4095 0
0 4095 0
0 4095 0
0 4095 0
0 4095 1357
0 4095 2883
0 4095 4095
0 4095 4095
0 4022 4095
0 4095 0
0 4095 0
0 4095 0
0 4095 0
0 4095 0
0 4095 2390
0 4095 4095
0 4095 4095
0 4095 4095
0 4095 0
0 4095 0
0 4095 0
0 4095 0
0 4095 0
0 4095 0
0 4095 3973
0 4095 4095
0 4095 4095
613 0 0
602 0 31
571 0 392
481 0 987
181 0 1842
0 0 3136
0 0 4095
0 0 4095
0 0 4095
565 0 0
552 0 24
519 0 384
423 0 984
111 0 1840
0 0 3135
0 0 4095
0 0 4095
0 0 4095
417 393 0
402 385 3
360 360 365
241 292 974
0 109 1835
0 0 3132
0 0 4095
0 0 4095
0 0 4095
0 1039 0
0 1034 0
0 1023 310
0 992 948
0 905 1820
0 627 3123
0 0 4095
0 0 4095
0 0 4095
0 1945 0
0 1943 0
0 1936 164
0 1920 876
0 1874 1782
0 1747 3102
0 1351 4095
0 0 4095
0 0 4095
0 3309 0
0 3308 0
0 3304 0
0 3295 653
0 3269 1675
0 3200 3043
0 3006 4095
0 2407 4095
0 0 4095
0 4095 0
0 4095 0
0 4095 0
0 4095 0
0 4095 1350
0 4095 2880
0 4095 4095
0 4095 4095
0 4015 4095
0 4095 0
0 4095 0
0 4095 0
0 4095 0
0 4095 0
0 4095 2386
0 4095 4095
0 4095 4095
0 4095 4095
0 4095 0
0 4095 0
0 4095 0
0 4095 0
0 4095 0
0 4095 0
0 4095 3970
0 4095 4095
0 4095 4095
1304 0 0
1298 0 0
1282 0 342
1238 0 963
1113 0 1828
692 0 3128
0 0 4095
0 0 4095
0 0 4095
1279 0 0
1273 0 0
1256 0 335
1211 0 959
1083 0 1826
648 0 3127
0 0 4095
0 0 4095
0 0 4095
1209 233 0
1202 223 0
1185 198 313
1137 129 950
1001 0 1821
516 0 3124
0 0 4095
0 0 4095
0 0 4095
1000 965 0
992 960 0
972 948 258
915 915 923
745 821 1807
43 511 3116
0 0 4095
0 0 4095
0 0 4095
53 1905 0
37 1903 0
0 1896 112
0 1879 849
0 1833 1768
0 1702 3094
0 1293 4095
0 0 4095
0 0 4095
0 3286 0
0 3285 0
0 3282 0
0 3272 619
0 3246 1660
0 3176 3035
0 2981 4095
0 2375 4095
0 0 4095
0 4095 0
0 4095 0
0 4095 0
0 4095 0
0 4095 1332
0 4095 2871
0 4095 4095
0 4095 4095
0 3997 4095
0 4095 0
0 4095 0
0 4095 0
0 4095 0
0 4095 0
0 4095 2376
0 4095 4095
0 4095 4095
0 4095 4095
0 4095 0
0 4095 0
0 4095 0
0 4095 0
0 4095 0
0 4095 0
0 4095 3964
0 4095 4095
0 4095 4095
2323 0 0
2319 0 0
2310 0 203
2286 0 896
2219 0 1792
2031 0 3107
1411 0 4095
0 0 4095
0 0 4095
2308 0 0
2305 0 0
2296 0 195
2271 0 892
2204 0 1790
2015 0 3106
1387 0 4095
0 0 4095
0 0 4095
2270 0 0
2266 0 0
2257 0 174
2232 0 881
2164 0 1785
1970 0 3103
1322 0 4095
0 0 4095
0 0 4095
2163 738 0
2160 733 0
2150 717 120
2124 675 853
2052 552 1770
1846 104 3095
1133 0 4095
0 0 4095
0 0 4095
1849 1794 0
1845 1792 0
1833 1785 0
1802 1767 774
1717 1717 1731
1466 1577 3073
362 1126 4095
0 0 4095
0 0 4095
403 3225 0
387 3224 0
345 3220 0
225 3210 521
0 3184 1620
0 3112 3014
0 2912 4095
0 2287 4095
0 0 4095
0 4095 0
0 4095 0
0 4095 0
0 4095 0
0 4095 1283
0 4095 2849
0 4095 4095
0 4095 4095
0 3947 4095
0 4095 0
0 4095 0
0 4095 0
0 4095 0
0 4095 0
0 4095 2348
0 4095 4095
0 4095 4095
0 4095 4095
0 4095 0
0 4095 0
0 4095 0
0 4095 0
0 4095 0
0 4095 0
0 4095 3949
0 4095 4095
0 4095 4095
3877 0 0
3875 0 0
3869 0 0
3855 0 691
3818 0 1692
3716 0 3052
3427 0 4095
2480 0 4095
0 0 4095
3868 0 0
3866 0 0
3861 0 0
3847 0 686
3810 0 1690
3707 0 3051
3418 0 4095
2467 0 4095
0 0 4095
3846 0 0
3844 0 0
3839 0 0
3825 0 673
3787 0 1684
3684 0 3048
3392 0 4095
2431 0 4095
0 0 4095
3787 0 0
3785 0 0
3780 0 0
3765 0 638
3727 0 1668
3622 0 3039
3324 0 4095
2332 0 4095
0 0 4095
3623 1459 0
3621 1455 0
3615 1447 0
3600 1425 536
3560 1363 1626
3449 1184 3017
3134 501 4095
2045 0 4095
0 0 4095
3140 3055 0
3138 3054 0
3131 3050 0
3113 3039 179
3066 3011 1509
2935 2935 2956
2551 2721 4095
917 2035 4095
0 0 4095
981 4095 0
973 4095 0
952 4095 0
894 4095 0
721 4095 1141
1 4095 2788
0 4095 4095
0 4095 4095
0 3812 4095
0 4095 0
0 4095 0
0 4095 0
0 4095 0
0 4095 0
0 4095 2273
0 4095 4095
0 4095 4095
0 4095 4095
0 4095 0
0 4095 0
0 4095 0
0 4095 0
0 4095 0
0 4095 0
0 4095 3906
0 4095 4095
0 4095 4095
4095 0 0
4095 0 0
4095 0 0
4095 0 0
4095 0 1390
4095 0 2898
4095 0 4095
4095 0 4095
4095 0 4095
4095 0 0
4095 0 0
4095 0 0
4095 0 0
4095 0 1387
4095 0 2897
4095 0 4095
4095 0 4095
4095 0 4095
4095 0 0
4095 0 0
4095 0 0
4095 0 0
4095 0 1380
4095 0 2893
4095 0 4095
4095 0 4095
4089 0 4095
4095 0 0
4095 0 0
4095 0 0
4095 0 0
4095 0 1361
4095 0 2885
4095 0 4095
4095 0 4095
4034 0 4095
4095 0 0
4095 0 0
4095 0 0
4095 0 0
4095 0 1310
4095 0 2861
4095 0 4095
4095 0 4095
3881 0 4095
4095 2541 0
4095 2540 0
4095 2535 0
4095 2522 0
4095 2488 1163
4095 2394 2797
4095 2123 4095
4095 1111 4095
3438 0 4095
4095 4095 0
4095 4095 0
4095 4095 0
4095 4095 0
4095 4095 646
4095 4095 2617
4095 4095 4095
4095 4095 4095
1720 3423 4095
1820 4095 0
1816 4095 0
1804 4095 0
1773 4095 0
1686 4095 0
1430 4095 2057
250 4095 4095
0 4095 4095
0 4095 4095
0 4095 0
0 4095 0
0 4095 0
0 4095 0
0 4095 0
0 4095 0
0 4095 3790
0 4095 4095
0 4095 4095
4095 0 0
4095 0 0
4095 0 0
4095 0 0
4095 0 0
4095 0 2437
4095 0 4095
4095 0 4095
4095 0 4095
4095 0 0
4095 0 0
4095 0 0
4095 0 0
4095 0 0
4095 0 2435
4095 0 4095
4095 0 4095
4095 0 4095
4095 0 0
4095 0 0
4095 0 0
4095 0 0
4095 0 0
4095 0 2431
4095 0 4095
4095 0 4095
4095 0 4095
4095 0 0
4095 0 0
4095 0 0
4095 0 0
4095 0 0
4095 0 2421
4095 0 4095
4095 0 4095
4095 0 4095
4095 0 0
4095 0 0
4095 0 0
4095 0 0
4095 0 0
4095 0 2392
4095 0 4095
4095 0 4095
4095 0 4095
4095 0 0
4095 0 0
4095 0 0
4095 0 0
4095 0 0
4095 0 2314
4095 0 4095
4095 0 4095
4095 0 4095
4095 4095 0
4095 4095 0
4095 4095 0
4095 4095 0
4095 4095 0
4095 4095 2091
4095 3977 4095
4095 3558 4095
4095 2012 4095
4095 4095 0
4095 4095 0
4095 4095 0
4095 4095 0
4095 4095 0
4095 4095 1321
4095 4095 4095
4095 4095 4095
4095 4095 4095
3096 4095 0
3093 4095 0
3087 4095 0
3069 4095 0
3020 4095 0
2887 4095 0
2495 4095 3458
759 4095 4095
0 4095 4095
4095 0 0
4095 0 0
4095 0 0
4095 0 0
4095 0 0
4095 0 0
4095 0 4044
4095 0 4095
4095 0 4095
4095 0 0
4095 0 0
4095 0 0
4095 0 0
4095 0 0
4095 0 0
4095 0 4043
4095 0 4095
4095 0 4095
4095 0 0
4095 0 0
4095 0 0
4095 0 0
4095 0 0
4095 0 0
4095 0 4040
4095 0 4095
4095 0 4095
4095 0 0
4095 0 0
4095 0 0
4095 0 0
4095 0 0
4095 0 0
4095 0 4034
4095 0 4095
4095 0 4095
4095 0 0
4095 0 0
4095 0 0
4095 0 0
4095 0 0
4095 0 0
4095 0 4018
4095 0 4095
4095 0 4095
4095 0 0
4095 0 0
4095 0 0
4095 0 0
4095 0 0
4095 0 0
4095 0 3974
4095 0 4095
4095 0 4095
4095 0 0
4095 0 0
4095 0 0
4095 0 0
4095 0 0
4095 0 0
4095 0 3853
4095 0 4095
4095 0 4095
4095 4095 0
4095 4095 0
4095 4095 0
4095 4095 0
4095 4095 0
4095 4095 0
4095 4095 3510
4095 4095 4095
4095 4095 4095
4095 4095 0
4095 4095 0
4095 4095 0
4095 4095 0
4095 4095 0
4095 4095 0
4095 4095 2331
4095 4095 4095
4095 4095 4095
