Postproduction/IWLTBAP - Humble/LUTs by IWLTBAP (CUBE)/UTILITY/Fujifilm F-Log to Rec.709/LUTs by Fujifilm/FLog_FGamut_to_WDR_BT.709_33grid_V.1.00.cube
#title:FLog_FGamut_to_WDR_BT.709
#FUJIFILM Corporation
#Gamma:F-Log to Wide Dynamic Range curve
#Gamut:F-Gamut to ITU-R BT.709
#Version:1.00
LUT_3D_SIZE 5
0.000000 0.000000 0.000000 
0.194374 0.000000 0.000000 
0.625666 0.000000 0.000000 
1.000000 0.000000 0.000000 
1.000000 0.000000 0.000000 
0.000000 0.144852 0.000000 
0.143686 0.132028 0.000000 
0.610434 0.024763 0.000000 
1.000000 0.000000 0.000000 
1.000000 0.000000 0.000000 
0.000000 0.505688 0.000000 
0.000000 0.501579 0.000000 
0.499233 0.474171 0.000000 
0.957578 0.416633 0.000000 
1.000000 0.355484 0.000000 
0.000000 0.844643 0.000000 
0.000000 0.842265 0.000000 
0.116149 0.826722 0.000000 
0.827383 0.796025 0.000000 
1.000000 0.766505 0.000000 
0.000000 1.000000 0.000000 
0.000000 1.000000 0.000000 
0.000000 1.000000 0.000000 
0.681030 1.000000 0.000000 
1.000000 1.000000 0.000000 
0.000000 0.000000 0.147984 
0.188436 0.000000 0.146195 
0.623721 0.000000 0.134233 
1.000000 0.000000 0.108939 
1.000000 0.000000 0.081680 
0.000000 0.144008 0.138155 
0.133197 0.133197 0.133197 
0.608438 0.023546 0.123654 
1.000000 0.000000 0.096661 
1.000000 0.000000 0.067356 
0.000000 0.505410 0.057201 
0.000000 0.501299 0.054587 
0.496772 0.473875 0.037705 
0.956353 0.416295 0.005368 
1.000000 0.355090 0.000000 
0.000000 0.844482 0.000000 
0.000000 0.842103 0.000000 
0.107363 0.826557 0.000000 
0.825944 0.795853 0.000000 
1.000000 0.766326 0.000000 
0.000000 1.000000 0.000000 
0.000000 1.000000 0.000000 
0.000000 1.000000 0.000000 
0.679253 1.000000 0.000000 
1.000000 1.000000 0.000000 
0.000000 0.000000 0.508591 
0.146264 0.000000 0.507998 
0.611133 0.000000 0.504150 
1.000000 0.000000 0.496695 
1.000000 0.000000 0.489712 
0.000000 0.138524 0.505389 
0.078356 0.125254 0.504792 
0.595510 0.015765 0.500919 
1.000000 0.000000 0.493414 
1.000000 0.000000 0.486382 
0.000000 0.503631 0.483966 
0.000000 0.499505 0.483342 
0.474315 0.474315 0.474315 
0.948477 0.414131 0.471438 
1.000000 0.352563 0.464070 
0.000000 0.843451 0.439225 
0.000000 0.841069 0.438537 
0.041520 0.825501 0.434068 
0.816675 0.794753 0.425377 
1.000000 0.765180 0.417196 
0.000000 1.000000 0.392788 
0.000000 1.000000 0.392020 
0.000000 1.000000 0.387022 
0.667773 1.000000 0.377269 
1.000000 1.000000 0.368046 
0.000000 0.000000 0.843330 
0.030909 0.000000 0.842983 
0.586299 0.000000 0.840740 
1.000000 0.000000 0.836424 
1.000000 0.000000 0.832420 
0.000000 0.127594 0.841461 
0.000000 0.113481 0.841113 
0.569963 0.000901 0.838864 
0.994645 0.000000 0.834538 
1.000000 0.000000 0.830524 
0.000000 0.500214 0.829153 
0.000000 0.496060 0.828800 
0.448503 0.468324 0.826514 
0.933227 0.409967 0.822117 
1.000000 0.347686 0.818036 
0.000000 0.841477 0.804596 
0.000000 0.839089 0.804231 
0.000000 0.823480 0.801869 
0.794073 0.794073 0.794073 
1.000000 0.762985 0.793104 
0.000000 1.000000 0.780855 
0.000000 1.000000 0.780478 
0.000000 1.000000 0.778038 
0.645240 1.000000 0.773340 
1.000000 1.000000 0.768977 
0.000000 0.000000 1.000000 
0.000000 0.000000 1.000000 
0.562373 0.000000 1.000000 
0.990503 0.000000 1.000000 
1.000000 0.000000 1.000000 
0.000000 0.116908 1.000000 
0.000000 0.101867 1.000000 
0.545291 0.000000 1.000000 
0.981321 0.000000 1.000000 
1.000000 0.000000 1.000000 
0.000000 0.497042 1.000000 
0.000000 0.492860 1.000000 
0.416561 0.464931 1.000000 
0.918912 0.406088 1.000000 
1.000000 0.343130 1.000000 
0.000000 0.839652 1.000000 
0.000000 0.837258 1.000000 
0.000000 0.821612 1.000000 
0.781611 0.790699 1.000000 
1.000000 0.760954 1.000000 
0.000000 1.000000 1.000000 
0.000000 1.000000 1.000000 
0.000000 1.000000 1.000000 
0.623690 1.000000 1.000000 
1.000000 1.000000 1.000000 
