Postproduction/IWLTBAP - Humble/LUTs by IWLTBAP (CUBE)/UTILITY/Fujifilm F-Log to Rec.709/LUTs by Fujifilm/FLog_FGamut_to_FLog_BT.709_33grid_V.1.00.cube
#title:FLog_FGamut_to_FLog_BT.709
#FUJIFILM Corporation
#Gamma:F-Log to F-Log
#Gamut:F-Gamut to ITU-R BT.709
#Version:1.00
LUT_3D_SIZE 9
0.000000 0.000000 0.000000 
0.185306 0.000000 0.000629 
0.342405 0.000000 0.000000 
0.499478 0.000000 0.000000 
0.656541 0.000000 0.000000 
0.813600 0.000000 0.000000 
0.970657 0.000000 0.000000 
1.000000 0.000000 0.000000 
1.000000 0.000000 0.000000 
0.000000 0.136705 0.000000 
0.136307 0.124438 0.000000 
0.315767 0.101690 0.000000 
0.481455 0.060124 0.000000 
0.643086 0.000795 0.000000 
0.802958 0.000000 0.000000 
0.961910 0.000000 0.000000 
1.000000 0.000000 0.000000 
1.000000 0.000000 0.000000 
0.000000 0.269027 0.000000 
0.017708 0.262052 0.000000 
0.265402 0.249923 0.000000 
0.449427 0.230037 0.000000 
0.619710 0.199908 0.000000 
0.784667 0.154461 0.000000 
0.946967 0.078637 0.000000 
1.000000 0.000000 0.000000 
1.000000 0.000000 0.000000 
0.000000 0.401296 0.000000 
0.000000 0.396530 0.000000 
0.163233 0.388377 0.000000 
0.394459 0.375403 0.000000 
0.581360 0.356755 0.000000 
0.755243 0.331226 0.000000 
0.923177 0.296900 0.000000 
1.000000 0.250314 0.000000 
1.000000 0.185263 0.000000 
0.000000 0.533546 0.000000 
0.000000 0.529976 0.000000 
0.000000 0.523909 0.000000 
0.303025 0.514361 0.000000 
0.523502 0.500881 0.000000 
0.712383 0.482925 0.000000 
0.889116 0.459779 0.000000 
1.000000 0.430438 0.000000 
1.000000 0.394170 0.000000 
0.000000 0.665788 0.000000 
0.000000 0.662960 0.000000 
0.000000 0.658170 0.000000 
0.118424 0.650673 0.000000 
0.437268 0.640176 0.000000 
0.652540 0.626359 0.000000 
0.842867 0.608845 0.000000 
1.000000 0.587163 0.000000 
1.000000 0.561246 0.000000 
0.000000 0.798025 0.000000 
0.000000 0.795699 0.000000 
0.000000 0.791768 0.000000 
0.000000 0.785632 0.000000 
0.298694 0.777080 0.000000 
0.569403 0.765894 0.000000 
0.781574 0.751836 0.000000 
0.973006 0.734630 0.000000 
1.000000 0.714368 0.000000 
0.000000 0.930260 0.000000 
0.000000 0.928294 0.000000 
0.000000 0.924976 0.000000 
0.000000 0.919807 0.000000 
0.000000 0.912621 0.000000 
0.449177 0.903259 0.000000 
0.700500 0.891551 0.000000 
0.910605 0.877313 0.000000 
1.000000 0.860683 0.000000 
0.000000 1.000000 0.000000 
0.000000 1.000000 0.000000 
0.000000 1.000000 0.000000 
0.000000 1.000000 0.000000 
0.000000 1.000000 0.000000 
0.243749 1.000000 0.000000 
0.590576 1.000000 0.000000 
0.831006 1.000000 0.000000 
1.000000 1.000000 0.000000 
0.000000 0.000000 0.139482 
0.179706 0.000000 0.137768 
0.339157 0.000000 0.134848 
0.497243 0.000000 0.130232 
0.654862 0.000000 0.123671 
0.812267 0.000000 0.114840 
0.969559 0.000000 0.103284 
1.000000 0.000000 0.088296 
1.000000 0.000000 0.069589 
0.000000 0.135907 0.129935 
0.125008 0.125008 0.125008 
0.312260 0.100717 0.125058 
0.479135 0.059018 0.120189 
0.641370 0.000000 0.113246 
0.801606 0.000000 0.103857 
0.960802 0.000000 0.091478 
1.000000 0.000000 0.075359 
1.000000 0.000000 0.056480 
0.000000 0.268564 0.112641 
0.008058 0.261578 0.110655 
0.261287 0.249429 0.107260 
0.446940 0.229506 0.101858 
0.617925 0.199310 0.094101 
0.783281 0.153731 0.083493 
0.945839 0.077531 0.069744 
1.000000 0.000000 0.053265 
1.000000 0.000000 0.034386 
0.000000 0.400978 0.081636 
0.000000 0.396208 0.079237 
0.157037 0.388049 0.075194 
0.391627 0.375064 0.068928 
0.579451 0.356398 0.060282 
0.753798 0.330843 0.049129 
0.922017 0.296477 0.035360 
1.000000 0.249820 0.018881 
1.000000 0.184628 0.000003 
0.000000 0.533307 0.034086 
0.000000 0.529735 0.031685 
0.000000 0.523665 0.027641 
0.299380 0.514113 0.021376 
0.521373 0.500627 0.012730 
0.710844 0.482661 0.001576 
0.887907 0.459501 0.000000 
1.000000 0.430141 0.000000 
1.000000 0.393847 0.000000 
0.000000 0.665598 0.000000 
0.000000 0.662770 0.000000 
0.000000 0.657978 0.000000 
0.110575 0.650479 0.000000 
0.434712 0.639979 0.000000 
0.650850 0.626157 0.000000 
0.841585 0.608637 0.000000 
1.000000 0.586947 0.000000 
1.000000 0.561019 0.000000 
0.000000 0.797869 0.000000 
0.000000 0.795543 0.000000 
0.000000 0.791610 0.000000 
0.000000 0.785474 0.000000 
0.295001 0.776919 0.000000 
0.567452 0.765731 0.000000 
0.780181 0.751670 0.000000 
0.971912 0.734459 0.000000 
1.000000 0.714193 0.000000 
0.000000 0.930128 0.000000 
0.000000 0.928162 0.000000 
0.000000 0.924843 0.000000 
0.000000 0.919673 0.000000 
0.000000 0.912487 0.000000 
0.446688 0.903123 0.000000 
0.698933 0.891413 0.000000 
0.909428 0.877173 0.000000 
1.000000 0.860540 0.000000 
0.000000 1.000000 0.000000 
0.000000 1.000000 0.000000 
0.000000 1.000000 0.000000 
0.000000 1.000000 0.000000 
0.000000 1.000000 0.000000 
0.239311 1.000000 0.000000 
0.588698 1.000000 0.000000 
0.829704 1.000000 0.000000 
1.000000 1.000000 0.000000 
0.000000 0.000000 0.270975 
0.169948 0.000000 0.269975 
0.333618 0.000000 0.268285 
0.493456 0.000000 0.265645 
0.652023 0.000000 0.261965 
0.810017 0.000000 0.257148 
0.967708 0.000000 0.251090 
1.000000 0.000000 0.243666 
1.000000 0.000000 0.234913 
0.000000 0.134553 0.265477 
0.116593 0.122139 0.264458 
0.306269 0.099065 0.262736 
0.475202 0.057154 0.260047 
0.638467 0.000000 0.256295 
0.799323 0.000000 0.251383 
0.958932 0.000000 0.245200 
1.000000 0.000000 0.237617 
1.000000 0.000000 0.228666 
0.000000 0.267783 0.255973 
0.000000 0.260778 0.254921 
0.250015 0.250015 0.250015 
0.442719 0.228609 0.250362 
0.614905 0.198301 0.246481 
0.780940 0.152494 0.241395 
0.943936 0.075668 0.234986 
1.000000 0.000000 0.227111 
1.000000 0.000000 0.217795 
0.000000 0.400441 0.240532 
0.000000 0.395665 0.239421 
0.146165 0.387495 0.237541 
0.386812 0.374491 0.234601 
0.576219 0.355797 0.230492 
0.751357 0.330198 0.225098 
0.920059 0.295762 0.218283 
1.000000 0.248987 0.209885 
1.000000 0.183554 0.199907 
0.000000 0.532905 0.217644 
0.000000 0.529330 0.216434 
0.000000 0.523255 0.214384 
0.293148 0.513695 0.211174 
0.517767 0.500197 0.206677 
0.708244 0.482215 0.200754 
0.885866 0.459033 0.193239 
1.000000 0.429640 0.183923 
1.000000 0.393301 0.172767 
0.000000 0.665279 0.184687 
0.000000 0.662449 0.183303 
0.000000 0.657655 0.180952 
0.096475 0.650152 0.177262 
0.430371 0.639646 0.172069 
0.647992 0.625816 0.165184 
0.839421 0.608286 0.156371 
1.000000 0.586582 0.145309 
1.000000 0.560637 0.131833 
0.000000 0.797607 0.136021 
0.000000 0.795280 0.134276 
0.000000 0.791345 0.131302 
0.000000 0.785206 0.126597 
0.288682 0.776649 0.119902 
0.564150 0.765456 0.110877 
0.777830 0.751390 0.099037 
0.970065 0.734172 0.083618 
1.000000 0.713897 0.064762 
0.000000 0.929906 0.055487 
0.000000 0.927940 0.053085 
0.000000 0.924620 0.049042 
0.000000 0.919449 0.042776 
0.000000 0.912260 0.034130 
0.442465 0.902893 0.022977 
0.696285 0.891180 0.009208 
0.907440 0.876936 0.000000 
1.000000 0.860298 0.000000 
0.000000 1.000000 0.000000 
0.000000 1.000000 0.000000 
0.000000 1.000000 0.000000 
0.000000 1.000000 0.000000 
0.000000 1.000000 0.000000 
0.231668 1.000000 0.000000 
0.585520 1.000000 0.000000 
0.827506 1.000000 0.000000 
1.000000 1.000000 0.000000 
0.000000 0.000000 0.402462 
0.153918 0.000000 0.401773 
0.324864 0.000000 0.400610 
0.487531 0.000000 0.398801 
0.647599 0.000000 0.396293 
0.806519 0.000000 0.393033 
0.964832 0.000000 0.388972 
1.000000 0.000000 0.384058 
1.000000 0.000000 0.378351 
0.000000 0.132438 0.398686 
0.095053 0.119876 0.397991 
0.296769 0.096472 0.396817 
0.469043 0.054268 0.394991 
0.633943 0.000000 0.392459 
0.795774 0.000000 0.389168 
0.956027 0.000000 0.385068 
1.000000 0.000000 0.380104 
1.000000 0.000000 0.374339 
0.000000 0.266568 0.392242 
0.000000 0.259534 0.391535 
0.242928 0.247297 0.390343 
0.436101 0.227214 0.388488 
0.610197 0.196729 0.385914 
0.777298 0.150563 0.382568 
0.940980 0.072782 0.378398 
1.000000 0.000000 0.373349 
1.000000 0.000000 0.367482 
0.000000 0.399609 0.382003 
0.000000 0.394823 0.381278 
0.128055 0.386635 0.380054 
0.375023 0.375023 0.375023 
0.571177 0.354863 0.375507 
0.747560 0.329196 0.372071 
0.917018 0.294652 0.367786 
1.000000 0.247691 0.362595 
1.000000 0.181881 0.356558 
0.000000 0.532281 0.367388 
0.000000 0.528701 0.366635 
0.000000 0.522619 0.365363 
0.283247 0.513047 0.363385 
0.512129 0.499531 0.360638 
0.704196 0.481524 0.357064 
0.882695 0.458306 0.352605 
1.000000 0.428864 0.347197 
1.000000 0.392454 0.340900 
0.000000 0.664785 0.347635 
0.000000 0.661952 0.346841 
0.000000 0.657155 0.345501 
0.072088 0.649645 0.343413 
0.423561 0.639130 0.340513 
0.643539 0.625289 0.336737 
0.836056 0.607743 0.332019 
1.000000 0.586017 0.326288 
1.000000 0.560045 0.319605 
0.000000 0.797200 0.321647 
0.000000 0.794871 0.320792 
0.000000 0.790935 0.319349 
0.000000 0.784792 0.317100 
0.278638 0.776230 0.313972 
0.558994 0.765031 0.309894 
0.774173 0.750956 0.304791 
0.967198 0.733727 0.298577 
1.000000 0.713438 0.291309 
0.000000 0.929562 0.287677 
0.000000 0.927595 0.286730 
0.000000 0.924274 0.285129 
0.000000 0.919100 0.282631 
0.000000 0.911909 0.279152 
0.435842 0.902538 0.274605 
0.692163 0.890820 0.268896 
0.904352 0.876569 0.261919 
1.000000 0.859923 0.253717 
0.000000 1.000000 0.242602 
0.000000 1.000000 0.241499 
0.000000 1.000000 0.239633 
0.000000 1.000000 0.236716 
0.000000 1.000000 0.232639 
0.219386 1.000000 0.227288 
0.580562 1.000000 0.220530 
0.824088 1.000000 0.212206 
1.000000 1.000000 0.202323 
0.000000 0.000000 0.533946 
0.129520 0.000000 0.533427 
0.312413 0.000000 0.532554 
0.479236 0.000000 0.531197 
0.641444 0.000000 0.529318 
0.801665 0.000000 0.526885 
0.960850 0.000000 0.523864 
1.000000 0.000000 0.520226 
1.000000 0.000000 0.516026 
0.000000 0.129481 0.531110 
0.060971 0.116707 0.530589 
0.283188 0.092824 0.529710 
0.460411 0.050287 0.528346 
0.627647 0.000000 0.526457 
0.790848 0.000000 0.524010 
0.952004 0.000000 0.520972 
1.000000 0.000000 0.517313 
1.000000 0.000000 0.513088 
0.000000 0.264884 0.526295 
0.000000 0.257809 0.525769 
0.226554 0.245497 0.524882 
0.426803 0.225277 0.523505 
0.603639 0.194544 0.521598 
0.772245 0.147869 0.519127 
0.936885 0.068801 0.516060 
1.000000 0.000000 0.512365 
1.000000 0.000000 0.508098 
0.000000 0.398458 0.518711 
0.000000 0.393658 0.518177 
0.099711 0.385446 0.517277 
0.368537 0.372373 0.515878 
0.564144 0.353572 0.513942 
0.742288 0.327809 0.511434 
0.912805 0.293114 0.508319 
1.000000 0.245894 0.504566 
1.000000 0.179552 0.500231 
0.000000 0.531418 0.508030 
0.000000 0.527833 0.507485 
0.000000 0.521740 0.506565 
0.269053 0.512152 0.505136 
0.500031 0.500031 0.500031 
0.698571 0.480568 0.500594 
0.878300 0.457302 0.497411 
1.000000 0.427790 0.493573 
1.000000 0.391282 0.489139 
0.000000 0.664102 0.493883 
0.000000 0.661266 0.493322 
0.000000 0.656463 0.492375 
0.037353 0.648945 0.490904 
0.413984 0.638418 0.488867 
0.637343 0.624560 0.486226 
0.831390 0.606992 0.482947 
1.000000 0.585237 0.478991 
1.000000 0.559227 0.474419 
0.000000 0.796638 0.475811 
0.000000 0.794308 0.475227 
0.000000 0.790368 0.474244 
0.000000 0.784221 0.472716 
0.264222 0.775652 0.470599 
0.551800 0.764443 0.467854 
0.769098 0.750356 0.464443 
0.963226 0.733113 0.460327 
1.000000 0.712805 0.455566 
0.000000 0.929087 0.453209 
0.000000 0.927119 0.452596 
0.000000 0.923796 0.451563 
0.000000 0.918620 0.449958 
0.000000 0.911424 0.447733 
0.426539 0.902048 0.444846 
0.686432 0.890322 0.441257 
0.900073 0.876063 0.436922 
1.000000 0.859406 0.431903 
0.000000 1.000000 0.425235 
0.000000 1.000000 0.424583 
0.000000 1.000000 0.423482 
0.000000 1.000000 0.421770 
0.000000 1.000000 0.419396 
0.201426 1.000000 0.416314 
0.573649 1.000000 0.412479 
0.819347 1.000000 0.407841 
1.000000 1.000000 0.402464 
0.000000 0.000000 0.665429 
0.092339 0.000000 0.665017 
0.295640 0.000000 0.664324 
0.468317 0.000000 0.663247 
0.633412 0.000000 0.661760 
0.795357 0.000000 0.659835 
0.955687 0.000000 0.657450 
1.000000 0.000000 0.654585 
1.000000 0.000000 0.651285 
0.000000 0.125596 0.663179 
0.016170 0.112534 0.662766 
0.264750 0.087991 0.662070 
0.449032 0.045153 0.660990 
0.619425 0.000000 0.659497 
0.784446 0.000000 0.657565 
0.946787 0.000000 0.655172 
1.000000 0.000000 0.652295 
1.000000 0.000000 0.648983 
0.000000 0.262698 0.659369 
0.000000 0.255570 0.658954 
0.203820 0.243159 0.658253 
0.414506 0.222758 0.657167 
0.595069 0.191696 0.655664 
0.765674 0.144340 0.653720 
0.931574 0.063666 0.651312 
1.000000 0.000000 0.648417 
1.000000 0.000000 0.645084 
0.000000 0.396969 0.653393 
0.000000 0.392151 0.652973 
0.056076 0.383908 0.652266 
0.354280 0.370783 0.651169 
0.554937 0.351900 0.649652 
0.735427 0.326011 0.647689 
0.907338 0.291120 0.645257 
1.000000 0.243559 0.642333 
1.000000 0.176514 0.638966 
0.000000 0.530304 0.645031 
0.000000 0.526711 0.644606 
0.000000 0.520605 0.643889 
0.249693 0.510994 0.642777 
0.493888 0.497421 0.641238 
0.691244 0.479333 0.639248 
0.872595 0.456003 0.636782 
1.000000 0.426402 0.633817 
1.000000 0.389766 0.630402 
0.000000 0.663220 0.634056 
0.000000 0.660380 0.633623 
0.000000 0.655570 0.632893 
0.000000 0.648041 0.631760 
0.401300 0.637498 0.630193 
0.625038 0.625038 0.625038 
0.825330 0.606021 0.625653 
1.000000 0.584229 0.622633 
1.000000 0.558170 0.619153 
0.000000 0.795913 0.620211 
0.000000 0.793580 0.619767 
0.000000 0.789637 0.619020 
0.000000 0.783483 0.617860 
0.244528 0.774905 0.616256 
0.542375 0.763685 0.614180 
0.762497 0.749583 0.611607 
0.958077 0.732319 0.608513 
1.000000 0.711987 0.604948 
0.000000 0.928475 0.603188 
0.000000 0.926505 0.602731 
0.000000 0.923180 0.601962 
0.000000 0.918000 0.600767 
0.000000 0.910798 0.599115 
0.414234 0.901415 0.596977 
0.678964 0.889680 0.594325 
0.894521 0.875409 0.591136 
1.000000 0.858739 0.587460 
0.000000 1.000000 0.582605 
0.000000 1.000000 0.582132 
0.000000 1.000000 0.581334 
0.000000 1.000000 0.580095 
0.000000 1.000000 0.578381 
0.176120 1.000000 0.576162 
0.564602 1.000000 0.573410 
0.813189 1.000000 0.570099 
1.000000 1.000000 0.566280 
0.000000 0.000000 0.796911 
0.037461 0.000000 0.796572 
0.273652 0.000000 0.796001 
0.454476 0.000000 0.795115 
0.623347 0.000000 0.793891 
0.787496 0.000000 0.792309 
0.949270 0.000000 0.790351 
1.000000 0.000000 0.788001 
1.000000 0.000000 0.785300 
0.000000 0.120686 0.795059 
0.000000 0.107240 0.794719 
0.240283 0.081807 0.794147 
0.434575 0.038815 0.793259 
0.609116 0.000000 0.792031 
0.776464 0.000000 0.790445 
0.940303 0.000000 0.788483 
1.000000 0.000000 0.786127 
1.000000 0.000000 0.783418 
0.000000 0.259978 0.791927 
0.000000 0.252782 0.791585 
0.172505 0.240245 0.791011 
0.398812 0.219615 0.790119 
0.584308 0.188133 0.788886 
0.757478 0.139897 0.787293 
0.924973 0.057328 0.785322 
1.000000 0.000000 0.782956 
1.000000 0.000000 0.780235 
0.000000 0.395123 0.787025 
0.000000 0.390283 0.786682 
0.000777 0.382001 0.786103 
0.335890 0.368810 0.785205 
0.543348 0.349825 0.783964 
0.726862 0.323780 0.782361 
0.900540 0.288641 0.780376 
1.000000 0.240650 0.777993 
1.000000 0.172706 0.775254 
0.000000 0.528925 0.780192 
0.000000 0.525322 0.779845 
0.000000 0.519200 0.779261 
0.223817 0.509562 0.778354 
0.480791 0.495949 0.777102 
0.682083 0.477804 0.775482 
0.865497 0.454395 0.773478 
1.000000 0.424682 0.771073 
1.000000 0.387887 0.768307 
0.000000 0.662129 0.771267 
0.000000 0.659284 0.770916 
0.000000 0.654466 0.770324 
0.000000 0.646924 0.769406 
0.385080 0.636361 0.768138 
0.619118 0.622454 0.766498 
0.817781 0.604822 0.764468 
1.000000 0.582982 0.762032 
1.000000 0.556862 0.759230 
0.000000 0.795017 0.760081 
0.000000 0.792681 0.759724 
0.000000 0.788733 0.759123 
0.000000 0.782572 0.758191 
0.218132 0.773983 0.756902 
0.530503 0.762748 0.755236 
0.750046 0.750046 0.750046 
0.951678 0.731339 0.750697 
1.000000 0.710976 0.747850 
0.000000 0.927718 0.746446 
0.000000 0.925747 0.746083 
0.000000 0.922418 0.745470 
0.000000 0.917233 0.744519 
0.000000 0.910025 0.743204 
0.398530 0.900633 0.741505 
0.669624 0.888887 0.739401 
0.887615 0.874602 0.736875 
1.000000 0.857914 0.733969 
0.000000 1.000000 0.730142 
0.000000 1.000000 0.729770 
0.000000 1.000000 0.729142 
0.000000 1.000000 0.728168 
0.000000 1.000000 0.726822 
0.140299 1.000000 0.725081 
0.553224 1.000000 0.722926 
0.805516 1.000000 0.720338 
1.000000 1.000000 0.717360 
0.000000 0.000000 0.928393 
0.000000 0.000000 0.928106 
0.245054 0.000000 0.927623 
0.437334 0.000000 0.926874 
0.611072 0.000000 0.925840 
0.777974 0.000000 0.924503 
0.941528 0.000000 0.922850 
1.000000 0.000000 0.920868 
1.000000 0.000000 0.918591 
0.000000 0.114627 0.926827 
0.000000 0.100679 0.926539 
0.207827 0.074226 0.926055 
0.416620 0.031230 0.925305 
0.596533 0.000000 0.924269 
0.766794 0.000000 0.922930 
0.932479 0.000000 0.921274 
1.000000 0.000000 0.919288 
1.000000 0.000000 0.917007 
0.000000 0.256688 0.924180 
0.000000 0.249409 0.923892 
0.127964 0.236718 0.923407 
0.379199 0.215804 0.922654 
0.571153 0.183797 0.921614 
0.747542 0.134444 0.920271 
0.917004 0.049743 0.918610 
1.000000 0.000000 0.916617 
1.000000 0.000000 0.914329 
0.000000 0.392903 0.920045 
0.000000 0.388036 0.919756 
0.000000 0.379706 0.919268 
0.312550 0.366435 0.918511 
0.529136 0.347326 0.917467 
0.716468 0.321091 0.916117 
0.892331 0.285649 0.914447 
1.000000 0.237128 0.912445 
1.000000 0.168062 0.910145 
0.000000 0.527270 0.914293 
0.000000 0.523656 0.914001 
0.000000 0.517513 0.913510 
0.189062 0.507842 0.912748 
0.464626 0.494181 0.911696 
0.670945 0.475968 0.910337 
0.856917 0.452463 0.908655 
1.000000 0.422615 0.906639 
1.000000 0.385626 0.904322 
0.000000 0.660822 0.906801 
0.000000 0.657971 0.906507 
0.000000 0.653142 0.906011 
0.000000 0.645584 0.905243 
0.364753 0.634997 0.904181 
0.606753 0.621058 0.902809 
0.808647 0.603383 0.901112 
0.994434 0.581487 0.899077 
1.000000 0.555293 0.896739 
0.000000 0.793943 0.897449 
0.000000 0.791604 0.897152 
0.000000 0.787650 0.896650 
0.000000 0.781480 0.895873 
0.182508 0.772877 0.894799 
0.515926 0.761625 0.893411 
0.744282 0.747480 0.891695 
0.943958 0.730163 0.889636 
1.000000 0.709765 0.887271 
0.000000 0.926811 0.886106 
0.000000 0.924838 0.885804 
0.000000 0.921506 0.885296 
0.000000 0.916315 0.884507 
0.000000 0.909099 0.883418 
0.378902 0.899696 0.882011 
0.658262 0.887937 0.880270 
0.875053 0.875053 0.875053 
1.000000 0.856926 0.875782 
0.000000 1.000000 0.872627 
0.000000 1.000000 0.872320 
0.000000 1.000000 0.871803 
0.000000 1.000000 0.871001 
0.000000 1.000000 0.869893 
0.086118 1.000000 0.868461 
0.539280 1.000000 0.866691 
0.796229 1.000000 0.864566 
1.000000 0.999915 0.862125 
0.000000 0.000000 1.000000 
0.000000 0.000000 1.000000 
0.208382 0.000000 1.000000 
0.416914 0.000000 1.000000 
0.596738 0.000000 1.000000 
0.766951 0.000000 1.000000 
0.932605 0.000000 1.000000 
1.000000 0.000000 1.000000 
1.000000 0.000000 1.000000 
0.000000 0.107445 1.000000 
0.000000 0.092853 1.000000 
0.164716 0.065570 1.000000 
0.395146 0.022574 1.000000 
0.581824 0.000000 1.000000 
0.755594 0.000000 1.000000 
0.923459 0.000000 1.000000 
1.000000 0.000000 1.000000 
1.000000 0.000000 1.000000 
0.000000 0.252888 1.000000 
0.000000 0.245511 1.000000 
0.059965 0.232637 1.000000 
0.355540 0.211384 1.000000 
0.555742 0.178747 1.000000 
0.736025 0.128023 1.000000 
0.907814 0.041087 1.000000 
1.000000 0.000000 1.000000 
1.000000 0.000000 1.000000 
0.000000 0.390354 1.000000 
0.000000 0.385456 1.000000 
0.000000 0.377070 1.000000 
0.283763 0.363707 1.000000 
0.512420 0.344454 1.000000 
0.704404 0.317997 1.000000 
0.882858 0.282199 1.000000 
1.000000 0.233053 1.000000 
1.000000 0.162638 1.000000 
0.000000 0.525375 1.000000 
0.000000 0.521747 1.000000 
0.000000 0.515581 1.000000 
0.141768 0.505872 1.000000 
0.445456 0.492155 1.000000 
0.657987 0.473863 1.000000 
0.847009 0.450248 1.000000 
1.000000 0.420243 1.000000 
1.000000 0.383030 1.000000 
0.000000 0.659326 1.000000 
0.000000 0.656468 1.000000 
0.000000 0.651628 1.000000 
0.000000 0.644051 1.000000 
0.340135 0.633437 1.000000 
0.592310 0.619461 1.000000 
0.798083 0.601736 1.000000 
0.986041 0.579775 1.000000 
1.000000 0.553497 1.000000 
0.000000 0.792716 1.000000 
0.000000 0.790373 1.000000 
0.000000 0.786412 1.000000 
0.000000 0.780231 1.000000 
0.133553 0.771614 1.000000 
0.498756 0.760341 1.000000 
0.732710 0.746170 1.000000 
0.935061 0.728819 1.000000 
1.000000 0.708379 1.000000 
0.000000 0.925776 1.000000 
0.000000 0.923800 1.000000 
0.000000 0.920463 1.000000 
0.000000 0.915266 1.000000 
0.000000 0.908041 1.000000 
0.355224 0.898626 1.000000 
0.645034 0.886851 1.000000 
0.869643 0.872529 1.000000 
1.000000 0.855797 1.000000 
0.000000 1.000000 1.000000 
0.000000 1.000000 1.000000 
0.000000 1.000000 1.000000 
0.000000 1.000000 1.000000 
0.000000 1.000000 1.000000 
0.010676 1.000000 1.000000 
0.522898 1.000000 1.000000 
0.785483 1.000000 1.000000 
1.000000 1.000000 1.000000 
