Postproduction/IWLTBAP - Humble/LUTs by IWLTBAP (CUBE)/UTILITY/Fujifilm F-Log to Rec.709/LUTs by Fujifilm/FLog_FGamut_to_WDR_BT.709_33grid_V.1.00.cube
#title:FLog_FGamut_to_WDR_BT.709
#FUJIFILM Corporation
#Gamma:F-Log to Wide Dynamic Range curve
#Gamut:F-Gamut to ITU-R BT.709
#Version:1.00
LUT_3D_SIZE 9
0.000000 0.000000 0.000000 
0.029889 0.000000 0.000000 
0.194374 0.000000 0.000000 
0.384003 0.000000 0.000000 
0.625666 0.000000 0.000000 
0.845913 0.000000 0.000000 
1.000000 0.000000 0.000000 
1.000000 0.000000 0.000000 
1.000000 0.000000 0.000000 
0.000000 0.020392 0.000000 
0.019311 0.018150 0.000000 
0.188461 0.002457 0.000000 
0.380815 0.000000 0.000000 
0.623729 0.000000 0.000000 
0.844514 0.000000 0.000000 
1.000000 0.000000 0.000000 
1.000000 0.000000 0.000000 
1.000000 0.000000 0.000000 
0.000000 0.144852 0.000000 
0.000000 0.143294 0.000000 
0.143686 0.132028 0.000000 
0.358496 0.102914 0.000000 
0.610434 0.024763 0.000000 
0.834965 0.000000 0.000000 
1.000000 0.000000 0.000000 
1.000000 0.000000 0.000000 
1.000000 0.000000 0.000000 
0.000000 0.302520 0.000000 
0.000000 0.301675 0.000000 
0.000000 0.295701 0.000000 
0.300527 0.281410 0.000000 
0.578235 0.247649 0.000000 
0.812255 0.194286 0.000000 
0.999204 0.119760 0.000000 
1.000000 0.014312 0.000000 
1.000000 0.000000 0.000000 
0.000000 0.505688 0.000000 
0.000000 0.505176 0.000000 
0.000000 0.501579 0.000000 
0.103811 0.493141 0.000000 
0.499233 0.474171 0.000000 
0.759301 0.447221 0.000000 
0.957578 0.416633 0.000000 
1.000000 0.384891 0.000000 
1.000000 0.355484 0.000000 
0.000000 0.692219 0.000000 
0.000000 0.691851 0.000000 
0.000000 0.689267 0.000000 
0.000000 0.683238 0.000000 
0.363955 0.669865 0.000000 
0.679604 0.651309 0.000000 
0.897139 0.630927 0.000000 
1.000000 0.610603 0.000000 
1.000000 0.592588 0.000000 
0.000000 0.844643 0.000000 
0.000000 0.844346 0.000000 
0.000000 0.842265 0.000000 
0.000000 0.837418 0.000000 
0.116149 0.826722 0.000000 
0.581934 0.812008 0.000000 
0.827383 0.796025 0.000000 
1.000000 0.780285 0.000000 
1.000000 0.766505 0.000000 
0.000000 0.967832 0.000000 
0.000000 0.967576 0.000000 
0.000000 0.965785 0.000000 
0.000000 0.961620 0.000000 
0.000000 0.952449 0.000000 
0.467444 0.939887 0.000000 
0.753150 0.926313 0.000000 
0.946380 0.913019 0.000000 
1.000000 0.901445 0.000000 
0.000000 1.000000 0.000000 
0.000000 1.000000 0.000000 
0.000000 1.000000 0.000000 
0.000000 1.000000 0.000000 
0.000000 1.000000 0.000000 
0.336610 1.000000 0.000000 
0.681030 1.000000 0.000000 
0.891322 1.000000 0.000000 
1.000000 1.000000 0.000000 
0.000000 0.000000 0.022151 
0.028446 0.000000 0.021824 
0.193576 0.000000 0.019537 
0.383570 0.000000 0.014236 
0.625402 0.000000 0.002654 
0.845723 0.000000 0.000000 
1.000000 0.000000 0.000000 
1.000000 0.000000 0.000000 
1.000000 0.000000 0.000000 
0.000000 0.020227 0.020340 
0.018000 0.018000 0.018000 
0.187643 0.002292 0.017727 
0.380378 0.000000 0.012426 
0.623464 0.000000 0.000844 
0.844323 0.000000 0.000000 
1.000000 0.000000 0.000000 
1.000000 0.000000 0.000000 
1.000000 0.000000 0.000000 
0.000000 0.144737 0.008075 
0.000000 0.143179 0.007748 
0.142680 0.131906 0.005461 
0.358033 0.102770 0.000160 
0.610164 0.024598 0.000000 
0.834772 0.000000 0.000000 
1.000000 0.000000 0.000000 
1.000000 0.000000 0.000000 
1.000000 0.000000 0.000000 
0.000000 0.302457 0.000000 
0.000000 0.301613 0.000000 
0.000000 0.295637 0.000000 
0.299980 0.281344 0.000000 
0.577948 0.247575 0.000000 
0.812056 0.194194 0.000000 
0.999046 0.119630 0.000000 
1.000000 0.014146 0.000000 
1.000000 0.000000 0.000000 
0.000000 0.505650 0.000000 
0.000000 0.505138 0.000000 
0.000000 0.501541 0.000000 
0.102555 0.493102 0.000000 
0.498899 0.474131 0.000000 
0.759087 0.447178 0.000000 
0.957412 0.416587 0.000000 
1.000000 0.384842 0.000000 
1.000000 0.355431 0.000000 
0.000000 0.692192 0.000000 
0.000000 0.691824 0.000000 
0.000000 0.689240 0.000000 
0.000000 0.683211 0.000000 
0.363498 0.669836 0.000000 
0.679363 0.651280 0.000000 
0.896961 0.630897 0.000000 
1.000000 0.610572 0.000000 
1.000000 0.592556 0.000000 
0.000000 0.844621 0.000000 
0.000000 0.844324 0.000000 
0.000000 0.842243 0.000000 
0.000000 0.837396 0.000000 
0.114981 0.826699 0.000000 
0.581649 0.811985 0.000000 
0.827188 0.796002 0.000000 
1.000000 0.780261 0.000000 
1.000000 0.766481 0.000000 
0.000000 0.967813 0.000000 
0.000000 0.967557 0.000000 
0.000000 0.965766 0.000000 
0.000000 0.961601 0.000000 
0.000000 0.952430 0.000000 
0.467087 0.939868 0.000000 
0.752934 0.926293 0.000000 
0.946211 0.912999 0.000000 
1.000000 0.901424 0.000000 
0.000000 1.000000 0.000000 
0.000000 1.000000 0.000000 
0.000000 1.000000 0.000000 
0.000000 1.000000 0.000000 
0.000000 1.000000 0.000000 
0.336118 1.000000 0.000000 
0.680789 1.000000 0.000000 
0.891142 1.000000 0.000000 
1.000000 1.000000 0.000000 
0.000000 0.000000 0.147984 
0.019267 0.000000 0.147762 
0.188436 0.000000 0.146195 
0.380802 0.000000 0.142517 
0.623721 0.000000 0.134233 
0.844508 0.000000 0.122420 
1.000000 0.000000 0.108939 
1.000000 0.000000 0.094848 
1.000000 0.000000 0.081680 
0.000000 0.019175 0.146747 
0.008690 0.016933 0.146523 
0.182370 0.001240 0.144947 
0.377587 0.000000 0.141246 
0.621777 0.000000 0.132906 
0.843106 0.000000 0.121005 
1.000000 0.000000 0.107410 
1.000000 0.000000 0.093181 
1.000000 0.000000 0.079622 
0.000000 0.144008 0.138155 
0.000000 0.142443 0.137920 
0.133197 0.133197 0.133197 
0.355073 0.101849 0.132402 
0.608438 0.023546 0.123654 
0.833540 0.000000 0.111107 
1.000000 0.000000 0.096661 
1.000000 0.000000 0.081384 
1.000000 0.000000 0.067356 
0.000000 0.302061 0.116504 
0.000000 0.301216 0.116241 
0.000000 0.295233 0.114388 
0.296481 0.280921 0.110014 
0.576121 0.247101 0.100047 
0.810786 0.193612 0.085505 
0.998035 0.118796 0.068642 
1.000000 0.013094 0.052576 
1.000000 0.000000 0.038797 
0.000000 0.505410 0.057201 
0.000000 0.504898 0.056874 
0.000000 0.501299 0.054587 
0.094333 0.492856 0.049287 
0.496772 0.473875 0.037705 
0.757720 0.446907 0.022039 
0.956353 0.416295 0.005368 
1.000000 0.384526 0.000000 
1.000000 0.355090 0.000000 
0.000000 0.692019 0.000000 
0.000000 0.691651 0.000000 
0.000000 0.689066 0.000000 
0.000000 0.683036 0.000000 
0.360582 0.669657 0.000000 
0.677823 0.651096 0.000000 
0.895822 0.630706 0.000000 
1.000000 0.610375 0.000000 
1.000000 0.592352 0.000000 
0.000000 0.844482 0.000000 
0.000000 0.844185 0.000000 
0.000000 0.842103 0.000000 
0.000000 0.837256 0.000000 
0.107363 0.826557 0.000000 
0.579834 0.811840 0.000000 
0.825944 0.795853 0.000000 
1.000000 0.780109 0.000000 
1.000000 0.766326 0.000000 
0.000000 0.967693 0.000000 
0.000000 0.967437 0.000000 
0.000000 0.965646 0.000000 
0.000000 0.961480 0.000000 
0.000000 0.952308 0.000000 
0.464812 0.939744 0.000000 
0.751556 0.926167 0.000000 
0.945138 0.912871 0.000000 
1.000000 0.901295 0.000000 
0.000000 1.000000 0.000000 
0.000000 1.000000 0.000000 
0.000000 1.000000 0.000000 
0.000000 1.000000 0.000000 
0.000000 1.000000 0.000000 
0.332974 1.000000 0.000000 
0.679253 1.000000 0.000000 
0.889996 1.000000 0.000000 
1.000000 1.000000 0.000000 
0.000000 0.000000 0.305361 
0.000000 0.000000 0.305240 
0.176146 0.000000 0.304385 
0.374350 0.000000 0.302396 
0.619829 0.000000 0.298007 
0.841703 0.000000 0.291975 
1.000000 0.000000 0.285429 
1.000000 0.000000 0.278988 
1.000000 0.000000 0.273356 
0.000000 0.016751 0.304685 
0.000000 0.014510 0.304563 
0.169739 0.000000 0.303707 
0.371081 0.000000 0.301714 
0.617873 0.000000 0.297316 
0.840296 0.000000 0.291271 
1.000000 0.000000 0.284710 
1.000000 0.000000 0.278254 
1.000000 0.000000 0.272608 
0.000000 0.142316 0.300069 
0.000000 0.140738 0.299945 
0.120192 0.129317 0.299076 
0.348164 0.099709 0.297055 
0.604443 0.021123 0.292593 
0.830694 0.000000 0.286457 
1.000000 0.000000 0.279793 
1.000000 0.000000 0.273233 
1.000000 0.000000 0.267492 
0.000000 0.301147 0.289057 
0.000000 0.300299 0.288929 
0.000000 0.294299 0.288031 
0.281500 0.281500 0.281500 
0.571889 0.246005 0.281316 
0.807853 0.192266 0.274952 
0.995703 0.116859 0.268032 
1.000000 0.010671 0.261209 
1.000000 0.000000 0.255228 
0.000000 0.504856 0.263189 
0.000000 0.504344 0.263050 
0.000000 0.500741 0.262072 
0.073505 0.492288 0.259792 
0.491835 0.473284 0.254749 
0.754563 0.446280 0.247784 
0.953908 0.415622 0.240180 
1.000000 0.383799 0.232649 
1.000000 0.354305 0.226019 
0.000000 0.691621 0.223619 
0.000000 0.691252 0.223458 
0.000000 0.688666 0.222331 
0.000000 0.682632 0.219699 
0.353775 0.669245 0.213855 
0.674262 0.650671 0.205730 
0.893193 0.630267 0.196783 
1.000000 0.609920 0.187836 
1.000000 0.591882 0.179881 
0.000000 0.844161 0.173590 
0.000000 0.843864 0.173393 
0.000000 0.841781 0.172006 
0.000000 0.836932 0.168757 
0.088354 0.826228 0.161487 
0.575631 0.811505 0.151239 
0.823069 0.795511 0.139738 
1.000000 0.779759 0.127974 
1.000000 0.765969 0.117255 
0.000000 0.967417 0.111075 
0.000000 0.967161 0.110804 
0.000000 0.965369 0.108891 
0.000000 0.961202 0.104372 
0.000000 0.952027 0.094046 
0.459528 0.939459 0.078672 
0.748370 0.925877 0.062001 
0.942660 0.912576 0.045935 
1.000000 0.900996 0.032156 
0.000000 1.000000 0.035760 
0.000000 1.000000 0.035433 
0.000000 1.000000 0.033146 
0.000000 1.000000 0.027846 
0.000000 1.000000 0.016264 
0.325622 1.000000 0.000598 
0.675700 1.000000 0.000000 
0.887348 1.000000 0.000000 
1.000000 1.000000 0.000000 
0.000000 0.000000 0.508591 
0.000000 0.000000 0.508517 
0.146264 0.000000 0.507998 
0.359689 0.000000 0.506793 
0.611133 0.000000 0.504150 
0.835465 0.000000 0.500553 
1.000000 0.000000 0.496695 
1.000000 0.000000 0.492948 
1.000000 0.000000 0.489712 
0.000000 0.011394 0.508181 
0.000000 0.009152 0.508106 
0.138858 0.000000 0.507587 
0.356292 0.000000 0.506381 
0.609147 0.000000 0.503736 
0.834046 0.000000 0.500135 
1.000000 0.000000 0.496274 
1.000000 0.000000 0.492524 
1.000000 0.000000 0.489285 
0.000000 0.138524 0.505389 
0.000000 0.136915 0.505314 
0.078356 0.125254 0.504792 
0.332406 0.094875 0.503579 
0.595510 0.015765 0.500919 
0.824364 0.000000 0.497297 
1.000000 0.000000 0.493414 
1.000000 0.000000 0.489642 
1.000000 0.000000 0.486382 
0.000000 0.299116 0.498827 
0.000000 0.298263 0.498752 
0.000000 0.292225 0.498222 
0.269326 0.277773 0.496993 
0.562416 0.243568 0.494297 
0.801327 0.189263 0.490625 
0.990526 0.112502 0.486688 
1.000000 0.005313 0.482862 
1.000000 0.000000 0.479556 
0.000000 0.503631 0.483966 
0.000000 0.503117 0.483888 
0.000000 0.499505 0.483342 
0.026757 0.491030 0.482075 
0.474315 0.474315 0.474315 
0.747530 0.444891 0.475504 
0.948477 0.414131 0.471438 
1.000000 0.382187 0.467486 
1.000000 0.352563 0.464070 
0.000000 0.690740 0.462847 
0.000000 0.690371 0.462766 
0.000000 0.687781 0.462195 
0.000000 0.681738 0.460868 
0.338265 0.668332 0.457956 
0.666317 0.649730 0.453988 
0.887351 0.629294 0.449726 
1.000000 0.608913 0.445581 
1.000000 0.590843 0.441994 
0.000000 0.843451 0.439225 
0.000000 0.843153 0.439139 
0.000000 0.841069 0.438537 
0.000000 0.836215 0.437139 
0.041520 0.825501 0.434068 
0.566223 0.810763 0.429879 
0.816675 0.794753 0.425377 
0.996647 0.778985 0.420992 
1.000000 0.765180 0.417196 
0.000000 0.966805 0.415094 
0.000000 0.966550 0.415003 
0.000000 0.964757 0.414366 
0.000000 0.960587 0.412887 
0.000000 0.951405 0.409636 
0.447624 0.938827 0.405197 
0.741274 0.925235 0.400421 
0.937157 0.911924 0.395765 
1.000000 0.900335 0.391729 
0.000000 1.000000 0.392788 
0.000000 1.000000 0.392692 
0.000000 1.000000 0.392020 
0.000000 1.000000 0.390457 
0.000000 1.000000 0.387022 
0.308790 1.000000 0.382327 
0.667773 1.000000 0.377269 
0.881463 1.000000 0.372332 
1.000000 1.000000 0.368046 
0.000000 0.000000 0.692643 
0.000000 0.000000 0.692590 
0.097160 0.000000 0.692214 
0.339028 0.000000 0.691343 
0.599234 0.000000 0.689436 
0.826997 0.000000 0.686847 
1.000000 0.000000 0.684080 
1.000000 0.000000 0.681403 
1.000000 0.000000 0.679098 
0.000000 0.004191 0.692346 
0.000000 0.001949 0.692292 
0.087307 0.000000 0.691917 
0.335432 0.000000 0.691045 
0.597206 0.000000 0.689137 
0.825562 0.000000 0.686547 
1.000000 0.000000 0.683779 
1.000000 0.000000 0.681101 
1.000000 0.000000 0.678794 
0.000000 0.133306 0.690329 
0.000000 0.131652 0.690275 
0.015512 0.119646 0.689898 
0.310042 0.088134 0.689024 
0.583276 0.008562 0.687110 
0.815771 0.000000 0.684512 
1.000000 0.000000 0.681735 
1.000000 0.000000 0.679048 
1.000000 0.000000 0.676734 
0.000000 0.296367 0.685608 
0.000000 0.295506 0.685554 
0.000000 0.289415 0.685174 
0.241802 0.274830 0.684294 
0.549414 0.240259 0.682365 
0.792461 0.185164 0.679748 
0.983519 0.106464 0.676950 
1.000000 0.000000 0.674243 
1.000000 0.000000 0.671911 
0.000000 0.501978 0.675023 
0.000000 0.501463 0.674968 
0.000000 0.497839 0.674582 
0.000000 0.489334 0.673687 
0.465399 0.470209 0.671726 
0.737962 0.443017 0.669064 
0.941121 0.412119 0.666219 
1.000000 0.380009 0.663465 
1.000000 0.350208 0.661093 
0.000000 0.689553 0.660246 
0.000000 0.689183 0.660190 
0.000000 0.686589 0.659795 
0.000000 0.680535 0.658878 
0.316289 0.667103 0.656870 
0.650123 0.650123 0.650123 
0.879429 0.627984 0.651229 
1.000000 0.607556 0.648407 
1.000000 0.589443 0.645976 
0.000000 0.842495 0.644106 
0.000000 0.842197 0.644048 
0.000000 0.840110 0.643643 
0.000000 0.835250 0.642701 
0.000000 0.824523 0.640640 
0.553313 0.809766 0.637840 
0.807993 0.793733 0.634846 
0.989688 0.777942 0.631946 
1.000000 0.764117 0.629448 
0.000000 0.965983 0.628070 
0.000000 0.965727 0.628011 
0.000000 0.963933 0.627594 
0.000000 0.959759 0.626627 
0.000000 0.950568 0.624510 
0.431102 0.937978 0.621633 
0.731618 0.924372 0.618556 
0.929703 0.911047 0.615575 
1.000000 0.899445 0.613007 
0.000000 1.000000 0.613680 
0.000000 1.000000 0.613619 
0.000000 1.000000 0.613192 
0.000000 1.000000 0.612201 
0.000000 1.000000 0.610030 
0.284725 1.000000 0.607081 
0.656957 1.000000 0.603927 
0.873483 1.000000 0.600870 
1.000000 1.000000 0.598235 
0.000000 0.000000 0.843330 
0.000000 0.000000 0.843287 
0.030909 0.000000 0.842983 
0.315658 0.000000 0.842279 
0.586299 0.000000 0.840740 
0.817885 0.000000 0.838652 
1.000000 0.000000 0.836424 
1.000000 0.000000 0.834271 
1.000000 0.000000 0.832420 
0.000000 0.000000 0.843090 
0.000000 0.000000 0.843046 
0.020332 0.000000 0.842743 
0.311810 0.000000 0.842039 
0.584224 0.000000 0.840499 
0.816433 0.000000 0.838411 
1.000000 0.000000 0.836182 
1.000000 0.000000 0.834028 
1.000000 0.000000 0.832176 
0.000000 0.127594 0.841461 
0.000000 0.125889 0.841417 
0.000000 0.113481 0.841113 
0.284486 0.080377 0.840408 
0.569963 0.000901 0.838864 
0.806521 0.000000 0.836772 
0.994645 0.000000 0.834538 
1.000000 0.000000 0.832380 
1.000000 0.000000 0.830524 
0.000000 0.293416 0.837654 
0.000000 0.292547 0.837611 
0.000000 0.286399 0.837305 
0.209179 0.271668 0.836596 
0.535224 0.236694 0.835045 
0.782911 0.180724 0.832942 
0.976004 0.099795 0.830697 
1.000000 0.000000 0.828528 
1.000000 0.000000 0.826662 
0.000000 0.500214 0.829153 
0.000000 0.499697 0.829109 
0.000000 0.496060 0.828800 
0.000000 0.487524 0.828083 
0.448503 0.468324 0.826514 
0.727637 0.441015 0.824387 
0.933227 0.409967 0.822117 
1.000000 0.377678 0.819923 
1.000000 0.347686 0.818036 
0.000000 0.688289 0.817364 
0.000000 0.687918 0.817319 
0.000000 0.685319 0.817005 
0.000000 0.679252 0.816277 
0.291235 0.665793 0.814683 
0.643730 0.647114 0.812522 
0.870917 0.626587 0.810216 
1.000000 0.606110 0.807987 
1.000000 0.587949 0.806069 
0.000000 0.841477 0.804596 
0.000000 0.841179 0.804551 
0.000000 0.839089 0.804231 
0.000000 0.834223 0.803490 
0.000000 0.823480 0.801869 
0.539230 0.808703 0.799671 
0.794073 0.794073 0.794073 
0.982226 0.776832 0.795055 
1.000000 0.762985 0.793104 
0.000000 0.965108 0.792029 
0.000000 0.964852 0.791982 
0.000000 0.963055 0.791658 
0.000000 0.958877 0.790904 
0.000000 0.949677 0.789255 
0.412809 0.937074 0.787018 
0.721194 0.923453 0.784630 
0.921700 0.910113 0.782321 
1.000000 0.898498 0.780335 
0.000000 1.000000 0.780855 
0.000000 1.000000 0.780808 
0.000000 1.000000 0.780478 
0.000000 1.000000 0.779713 
0.000000 1.000000 0.778038 
0.256918 1.000000 0.775766 
0.645240 1.000000 0.773340 
0.864906 1.000000 0.770995 
1.000000 1.000000 0.768977 
0.000000 0.000000 0.964920 
0.000000 0.000000 0.964883 
0.000000 0.000000 0.964621 
0.291488 0.000000 0.964015 
0.573538 0.000000 0.962688 
0.808994 0.000000 0.960890 
0.996610 0.000000 0.958973 
1.000000 0.000000 0.957121 
1.000000 0.000000 0.955530 
0.000000 0.000000 0.964713 
0.000000 0.000000 0.964676 
0.000000 0.000000 0.964414 
0.287343 0.000000 0.963807 
0.571415 0.000000 0.962480 
0.807525 0.000000 0.960682 
0.995442 0.000000 0.958765 
1.000000 0.000000 0.956912 
1.000000 0.000000 0.955321 
0.000000 0.121915 0.963309 
0.000000 0.120156 0.963272 
0.000000 0.107323 0.963010 
0.257699 0.072990 0.962402 
0.556811 0.000000 0.961073 
0.797491 0.000000 0.959272 
0.987491 0.000000 0.957351 
1.000000 0.000000 0.955496 
1.000000 0.000000 0.953901 
0.000000 0.290545 0.960031 
0.000000 0.289668 0.959994 
0.000000 0.283464 0.959731 
0.173116 0.268588 0.959121 
0.521166 0.233213 0.957786 
0.773581 0.176360 0.955978 
0.968697 0.093095 0.954050 
1.000000 0.000000 0.952188 
1.000000 0.000000 0.950588 
0.000000 0.498508 0.952725 
0.000000 0.497988 0.952687 
0.000000 0.494339 0.952421 
0.000000 0.485772 0.951806 
0.431586 0.466499 0.950461 
0.717529 0.439076 0.948637 
0.925545 0.407882 0.946692 
1.000000 0.375419 0.944814 
1.000000 0.345239 0.943200 
0.000000 0.687067 0.942624 
0.000000 0.686696 0.942586 
0.000000 0.684091 0.942318 
0.000000 0.678014 0.941695 
0.265059 0.664527 0.940334 
0.632186 0.645809 0.938488 
0.862622 0.625237 0.936520 
1.000000 0.604711 0.934619 
1.000000 0.586506 0.932986 
0.000000 0.840494 0.931731 
0.000000 0.840196 0.931692 
0.000000 0.838103 0.931420 
0.000000 0.833231 0.930790 
0.000000 0.822474 0.929410 
0.525282 0.807676 0.927541 
0.789517 0.791598 0.925547 
0.974970 0.775760 0.923621 
1.000000 0.761892 0.921966 
0.000000 0.964263 0.921055 
0.000000 0.964006 0.921015 
0.000000 0.962208 0.920740 
0.000000 0.958026 0.920101 
0.000000 0.948817 0.918704 
0.394380 0.936201 0.916811 
0.710988 0.922566 0.914791 
0.910347 0.910347 0.910347 
1.000000 0.897583 0.911163 
0.000000 1.000000 0.911602 
0.000000 1.000000 0.911563 
0.000000 1.000000 0.911284 
0.000000 1.000000 0.910638 
0.000000 1.000000 0.909225 
0.227326 1.000000 0.907310 
0.633726 1.000000 0.905267 
0.856547 1.000000 0.903293 
1.000000 1.000000 0.901597 
0.000000 0.000000 1.000000 
0.000000 0.000000 1.000000 
0.000000 0.000000 1.000000 
0.269239 0.000000 1.000000 
0.562373 0.000000 1.000000 
0.801297 0.000000 1.000000 
0.990503 0.000000 1.000000 
1.000000 0.000000 1.000000 
1.000000 0.000000 1.000000 
0.000000 0.000000 1.000000 
0.000000 0.000000 1.000000 
0.000000 0.000000 1.000000 
0.264782 0.000000 1.000000 
0.560207 0.000000 1.000000 
0.799812 0.000000 1.000000 
0.989327 0.000000 1.000000 
1.000000 0.000000 1.000000 
1.000000 0.000000 1.000000 
0.000000 0.116908 1.000000 
0.000000 0.115098 1.000000 
0.000000 0.101867 1.000000 
0.232639 0.066667 1.000000 
0.545291 0.000000 1.000000 
0.789673 0.000000 1.000000 
0.981321 0.000000 1.000000 
1.000000 0.000000 1.000000 
1.000000 0.000000 1.000000 
0.000000 0.288066 1.000000 
0.000000 0.287183 1.000000 
0.000000 0.280929 1.000000 
0.136787 0.265926 1.000000 
0.508813 0.230197 1.000000 
0.765497 0.172555 1.000000 
0.962392 0.087124 1.000000 
1.000000 0.000000 1.000000 
1.000000 0.000000 1.000000 
0.000000 0.497042 1.000000 
0.000000 0.496521 1.000000 
0.000000 0.492860 1.000000 
0.000000 0.484267 1.000000 
0.416561 0.464931 1.000000 
0.708753 0.437409 1.000000 
0.918912 0.406088 1.000000 
1.000000 0.373473 1.000000 
1.000000 0.343130 1.000000 
0.000000 0.686020 1.000000 
0.000000 0.685648 1.000000 
0.000000 0.683039 1.000000 
0.000000 0.676951 1.000000 
0.240668 0.663442 1.000000 
0.622124 0.644690 1.000000 
0.855451 0.624079 1.000000 
1.000000 0.603512 1.000000 
1.000000 0.585267 1.000000 
0.000000 0.839652 1.000000 
0.000000 0.839353 1.000000 
0.000000 0.837258 1.000000 
0.000000 0.832380 1.000000 
0.000000 0.821612 1.000000 
0.513032 0.806797 1.000000 
0.781611 0.790699 1.000000 
0.968711 0.774841 1.000000 
1.000000 0.760954 1.000000 
0.000000 0.963539 1.000000 
0.000000 0.963282 1.000000 
0.000000 0.961483 1.000000 
0.000000 0.957297 1.000000 
0.000000 0.948080 1.000000 
0.377907 0.935453 1.000000 
0.702125 0.921806 1.000000 
0.907185 0.908439 1.000000 
1.000000 0.896800 1.000000 
0.000000 1.000000 1.000000 
0.000000 1.000000 1.000000 
0.000000 1.000000 1.000000 
0.000000 1.000000 1.000000 
0.000000 1.000000 1.000000 
0.199097 1.000000 1.000000 
0.623690 1.000000 1.000000 
0.849320 1.000000 1.000000 
1.000000 1.000000 1.000000 
