Postproduction/IWLTBAP - Humble/LUTs by IWLTBAP (CUBE)/UTILITY/Fujifilm F-Log to Rec.709/LUTs by Fujifilm/FLog_FGamut_to_FLog_BT.709_33grid_V.1.00.cube
#title:FLog_FGamut_to_FLog_BT.709
#FUJIFILM Corporation
#Gamma:F-Log to F-Log
#Gamut:F-Gamut to ITU-R BT.709
#Version:1.00
LUT_3D_SIZE 33
0.000000 0.000000 0.000000 
0.053818 0.000000 0.000981 
0.105435 0.000000 0.001896 
0.146020 0.000000 0.001315 
0.185306 0.000000 0.000629 
0.224585 0.000000 0.000000 
0.263861 0.000000 0.000000 
0.303134 0.000000 0.000000 
0.342405 0.000000 0.000000 
0.381675 0.000000 0.000000 
0.420943 0.000000 0.000000 
0.460211 0.000000 0.000000 
0.499478 0.000000 0.000000 
0.538744 0.000000 0.000000 
0.578010 0.000000 0.000000 
0.617276 0.000000 0.000000 
0.656541 0.000000 0.000000 
0.695806 0.000000 0.000000 
0.735071 0.000000 0.000000 
0.774335 0.000000 0.000000 
0.813600 0.000000 0.000000 
0.852864 0.000000 0.000000 
0.892128 0.000000 0.000000 
0.931393 0.000000 0.000000 
0.970657 0.000000 0.000000 
1.000000 0.000000 0.000000 
1.000000 0.000000 0.000000 
1.000000 0.000000 0.000000 
1.000000 0.000000 0.000000 
1.000000 0.000000 0.000000 
1.000000 0.000000 0.000000 
1.000000 0.000000 0.000000 
1.000000 0.000000 0.000000 
0.000000 0.034525 0.000000 
0.035639 0.030803 0.000000 
0.088772 0.026459 0.000000 
0.133393 0.022216 0.000000 
0.174872 0.017505 0.000000 
0.215728 0.011929 0.000000 
0.256190 0.005461 0.000000 
0.296386 0.000000 0.000000 
0.336394 0.000000 0.000000 
0.376266 0.000000 0.000000 
0.416035 0.000000 0.000000 
0.455724 0.000000 0.000000 
0.495351 0.000000 0.000000 
0.534927 0.000000 0.000000 
0.574464 0.000000 0.000000 
0.613967 0.000000 0.000000 
0.653442 0.000000 0.000000 
0.692894 0.000000 0.000000 
0.732326 0.000000 0.000000 
0.771741 0.000000 0.000000 
0.811141 0.000000 0.000000 
0.850529 0.000000 0.000000 
0.889906 0.000000 0.000000 
0.929274 0.000000 0.000000 
0.968633 0.000000 0.000000 
1.000000 0.000000 0.000000 
1.000000 0.000000 0.000000 
1.000000 0.000000 0.000000 
1.000000 0.000000 0.000000 
1.000000 0.000000 0.000000 
1.000000 0.000000 0.000000 
1.000000 0.000000 0.000000 
1.000000 0.000000 0.000000 
0.000000 0.069392 0.000000 
0.019393 0.065500 0.000000 
0.071282 0.061607 0.000000 
0.119415 0.057621 0.000000 
0.163567 0.052911 0.000000 
0.206254 0.047334 0.000000 
0.248053 0.040866 0.000000 
0.289269 0.033484 0.000000 
0.330082 0.025167 0.000000 
0.370603 0.015894 0.000000 
0.410907 0.005649 0.000000 
0.451045 0.000000 0.000000 
0.491053 0.000000 0.000000 
0.530958 0.000000 0.000000 
0.570779 0.000000 0.000000 
0.610531 0.000000 0.000000 
0.650226 0.000000 0.000000 
0.689873 0.000000 0.000000 
0.729480 0.000000 0.000000 
0.769053 0.000000 0.000000 
0.808595 0.000000 0.000000 
0.848112 0.000000 0.000000 
0.887606 0.000000 0.000000 
0.927081 0.000000 0.000000 
0.966539 0.000000 0.000000 
1.000000 0.000000 0.000000 
1.000000 0.000000 0.000000 
1.000000 0.000000 0.000000 
1.000000 0.000000 0.000000 
1.000000 0.000000 0.000000 
1.000000 0.000000 0.000000 
1.000000 0.000000 0.000000 
1.000000 0.000000 0.000000 
0.000000 0.103603 0.000000 
0.000756 0.100193 0.000000 
0.052650 0.096711 0.000000 
0.104017 0.093064 0.000000 
0.151455 0.088643 0.000000 
0.196261 0.083239 0.000000 
0.239552 0.076787 0.000000 
0.281882 0.069405 0.000000 
0.323559 0.061088 0.000000 
0.364771 0.051815 0.000000 
0.405640 0.041570 0.000000 
0.446248 0.030334 0.000000 
0.486654 0.018092 0.000000 
0.526899 0.004828 0.000000 
0.567015 0.000000 0.000000 
0.607025 0.000000 0.000000 
0.646946 0.000000 0.000000 
0.686795 0.000000 0.000000 
0.726581 0.000000 0.000000 
0.766315 0.000000 0.000000 
0.806003 0.000000 0.000000 
0.845652 0.000000 0.000000 
0.885266 0.000000 0.000000 
0.924851 0.000000 0.000000 
0.964409 0.000000 0.000000 
1.000000 0.000000 0.000000 
1.000000 0.000000 0.000000 
1.000000 0.000000 0.000000 
1.000000 0.000000 0.000000 
1.000000 0.000000 0.000000 
1.000000 0.000000 0.000000 
1.000000 0.000000 0.000000 
1.000000 0.000000 0.000000 
0.000000 0.136705 0.000000 
0.000000 0.133879 0.000000 
0.030848 0.131011 0.000000 
0.083962 0.128027 0.000000 
0.136307 0.124438 0.000000 
0.184016 0.120096 0.000000 
0.229262 0.114925 0.000000 
0.273010 0.108830 0.000000 
0.315767 0.101690 0.000000 
0.357831 0.093346 0.000000 
0.399390 0.083581 0.000000 
0.440569 0.072366 0.000000 
0.481455 0.060124 0.000000 
0.522109 0.046860 0.000000 
0.562577 0.032559 0.000000 
0.602894 0.017209 0.000000 
0.643086 0.000795 0.000000 
0.683174 0.000000 0.000000 
0.723173 0.000000 0.000000 
0.763098 0.000000 0.000000 
0.802958 0.000000 0.000000 
0.842763 0.000000 0.000000 
0.882519 0.000000 0.000000 
0.922233 0.000000 0.000000 
0.961910 0.000000 0.000000 
1.000000 0.000000 0.000000 
1.000000 0.000000 0.000000 
1.000000 0.000000 0.000000 
1.000000 0.000000 0.000000 
1.000000 0.000000 0.000000 
1.000000 0.000000 0.000000 
1.000000 0.000000 0.000000 
1.000000 0.000000 0.000000 
0.000000 0.169796 0.000000 
0.000000 0.167393 0.000000 
0.004973 0.164963 0.000000 
0.058116 0.162446 0.000000 
0.116619 0.159433 0.000000 
0.168587 0.155810 0.000000 
0.216515 0.151527 0.000000 
0.262133 0.146527 0.000000 
0.306281 0.140741 0.000000 
0.349424 0.134082 0.000000 
0.391846 0.126443 0.000000 
0.433733 0.117685 0.000000 
0.475210 0.107623 0.000000 
0.516365 0.095998 0.000000 
0.557263 0.082435 0.000000 
0.597954 0.067092 0.000000 
0.638473 0.050678 0.000000 
0.678849 0.033188 0.000000 
0.719106 0.014610 0.000000 
0.759261 0.000000 0.000000 
0.799328 0.000000 0.000000 
0.839320 0.000000 0.000000 
0.879247 0.000000 0.000000 
0.919116 0.000000 0.000000 
0.958935 0.000000 0.000000 
0.998710 0.000000 0.000000 
1.000000 0.000000 0.000000 
1.000000 0.000000 0.000000 
1.000000 0.000000 0.000000 
1.000000 0.000000 0.000000 
1.000000 0.000000 0.000000 
1.000000 0.000000 0.000000 
1.000000 0.000000 0.000000 
0.000000 0.202878 0.000000 
0.000000 0.200795 0.000000 
0.000000 0.198694 0.000000 
0.028048 0.196524 0.000000 
0.090553 0.193934 0.000000 
0.149169 0.190832 0.000000 
0.200862 0.187181 0.000000 
0.248969 0.182945 0.000000 
0.294905 0.178076 0.000000 
0.339406 0.172522 0.000000 
0.382898 0.166219 0.000000 
0.425652 0.159090 0.000000 
0.467846 0.151039 0.000000 
0.509606 0.141942 0.000000 
0.551021 0.131639 0.000000 
0.592158 0.119915 0.000000 
0.633067 0.106466 0.000000 
0.673787 0.090839 0.000000 
0.714348 0.072577 0.000000 
0.754775 0.052899 0.000000 
0.795087 0.032109 0.000000 
0.835300 0.010198 0.000000 
0.875427 0.000000 0.000000 
0.915479 0.000000 0.000000 
0.955466 0.000000 0.000000 
0.995394 0.000000 0.000000 
1.000000 0.000000 0.000000 
1.000000 0.000000 0.000000 
1.000000 0.000000 0.000000 
1.000000 0.000000 0.000000 
1.000000 0.000000 0.000000 
1.000000 0.000000 0.000000 
1.000000 0.000000 0.000000 
0.000000 0.235955 0.000000 
0.000000 0.234122 0.000000 
0.000000 0.232276 0.000000 
0.000000 0.230374 0.000000 
0.056481 0.228107 0.000000 
0.124411 0.225400 0.000000 
0.181650 0.222224 0.000000 
0.233133 0.218552 0.000000 
0.281390 0.214352 0.000000 
0.327601 0.209587 0.000000 
0.372415 0.204215 0.000000 
0.416224 0.198188 0.000000 
0.459284 0.191445 0.000000 
0.501766 0.183917 0.000000 
0.543795 0.175518 0.000000 
0.585460 0.166137 0.000000 
0.626828 0.155636 0.000000 
0.667951 0.143832 0.000000 
0.708868 0.130473 0.000000 
0.749612 0.115200 0.000000 
0.790209 0.097470 0.000000 
0.830679 0.076459 0.000000 
0.871039 0.053415 0.000000 
0.911302 0.029228 0.000000 
0.951482 0.003888 0.000000 
0.991588 0.000000 0.000000 
1.000000 0.000000 0.000000 
1.000000 0.000000 0.000000 
1.000000 0.000000 0.000000 
1.000000 0.000000 0.000000 
1.000000 0.000000 0.000000 
1.000000 0.000000 0.000000 
1.000000 0.000000 0.000000 
0.000000 0.269027 0.000000 
0.000000 0.267395 0.000000 
0.000000 0.265753 0.000000 
0.000000 0.264062 0.000000 
0.017708 0.262052 0.000000 
0.091682 0.259654 0.000000 
0.157841 0.256848 0.000000 
0.214084 0.253613 0.000000 
0.265402 0.249923 0.000000 
0.313785 0.245753 0.000000 
0.360235 0.241072 0.000000 
0.405329 0.235846 0.000000 
0.449427 0.230037 0.000000 
0.492770 0.223598 0.000000 
0.535523 0.216476 0.000000 
0.577806 0.208605 0.000000 
0.619710 0.199908 0.000000 
0.661300 0.190287 0.000000 
0.702631 0.179619 0.000000 
0.743742 0.167748 0.000000 
0.784667 0.154461 0.000000 
0.825432 0.139469 0.000000 
0.866058 0.122348 0.000000 
0.906565 0.102440 0.000000 
0.946967 0.078637 0.000000 
0.987275 0.052135 0.000000 
1.000000 0.024460 0.000000 
1.000000 0.000000 0.000000 
1.000000 0.000000 0.000000 
1.000000 0.000000 0.000000 
1.000000 0.000000 0.000000 
1.000000 0.000000 0.000000 
1.000000 0.000000 0.000000 
0.000000 0.302097 0.000000 
0.000000 0.300628 0.000000 
0.000000 0.299152 0.000000 
0.000000 0.297634 0.000000 
0.000000 0.295831 0.000000 
0.048787 0.293682 0.000000 
0.127605 0.291173 0.000000 
0.190998 0.288284 0.000000 
0.246483 0.284998 0.000000 
0.297668 0.281293 0.000000 
0.346160 0.277148 0.000000 
0.392821 0.272536 0.000000 
0.438166 0.267431 0.000000 
0.482528 0.261800 0.000000 
0.526132 0.255606 0.000000 
0.569138 0.248807 0.000000 
0.611663 0.241353 0.000000 
0.653794 0.233184 0.000000 
0.695599 0.224229 0.000000 
0.737131 0.214401 0.000000 
0.778431 0.203591 0.000000 
0.819533 0.191663 0.000000 
0.860463 0.178437 0.000000 
0.901246 0.163672 0.000000 
0.941899 0.147030 0.000000 
0.982438 0.128009 0.000000 
1.000000 0.105811 0.000000 
1.000000 0.079022 0.000000 
1.000000 0.048977 0.000000 
1.000000 0.017734 0.000000 
1.000000 0.000000 0.000000 
1.000000 0.000000 0.000000 
1.000000 0.000000 0.000000 
0.000000 0.335165 0.000000 
0.000000 0.333832 0.000000 
0.000000 0.332494 0.000000 
0.000000 0.331118 0.000000 
0.000000 0.329485 0.000000 
0.000936 0.327542 0.000000 
0.087048 0.325275 0.000000 
0.162526 0.322670 0.000000 
0.223967 0.319710 0.000000 
0.278858 0.316381 0.000000 
0.329933 0.312663 0.000000 
0.378520 0.308539 0.000000 
0.425367 0.303986 0.000000 
0.470939 0.298981 0.000000 
0.515542 0.293498 0.000000 
0.559389 0.287506 0.000000 
0.602632 0.280971 0.000000 
0.645385 0.273853 0.000000 
0.687734 0.266106 0.000000 
0.729745 0.257674 0.000000 
0.771471 0.248494 0.000000 
0.812955 0.238487 0.000000 
0.854229 0.227555 0.000000 
0.895323 0.215579 0.000000 
0.936259 0.202403 0.000000 
0.977056 0.187825 0.000000 
1.000000 0.171569 0.000000 
1.000000 0.153240 0.000000 
1.000000 0.132245 0.000000 
1.000000 0.107605 0.000000 
1.000000 0.077536 0.000000 
1.000000 0.043871 0.000000 
1.000000 0.011683 0.000000 
0.000000 0.368231 0.000000 
0.000000 0.367013 0.000000 
0.000000 0.365790 0.000000 
0.000000 0.364534 0.000000 
0.000000 0.363045 0.000000 
0.000000 0.361273 0.000000 
0.034650 0.359209 0.000000 
0.126125 0.356838 0.000000 
0.196814 0.354149 0.000000 
0.256802 0.351129 0.000000 
0.311214 0.347762 0.000000 
0.362196 0.344033 0.000000 
0.410866 0.339927 0.000000 
0.457880 0.335424 0.000000 
0.503658 0.330505 0.000000 
0.548483 0.325146 0.000000 
0.592555 0.319324 0.000000 
0.636021 0.313008 0.000000 
0.678989 0.306168 0.000000 
0.721545 0.298766 0.000000 
0.763754 0.290758 0.000000 
0.805668 0.282094 0.000000 
0.847329 0.272716 0.000000 
0.888772 0.262550 0.000000 
0.930026 0.251512 0.000000 
0.971113 0.239494 0.000000 
1.000000 0.226361 0.000000 
1.000000 0.211941 0.000000 
1.000000 0.196003 0.000000 
1.000000 0.178229 0.000000 
1.000000 0.158162 0.000000 
1.000000 0.135090 0.000000 
1.000000 0.110077 0.000000 
0.000000 0.401296 0.000000 
0.000000 0.400175 0.000000 
0.000000 0.399052 0.000000 
0.000000 0.397898 0.000000 
0.000000 0.396530 0.000000 
0.000000 0.394904 0.000000 
0.000000 0.393011 0.000000 
0.075811 0.390838 0.000000 
0.163233 0.388377 0.000000 
0.230676 0.385615 0.000000 
0.289538 0.382540 0.000000 
0.343555 0.379141 0.000000 
0.394459 0.375403 0.000000 
0.443202 0.371312 0.000000 
0.490365 0.366852 0.000000 
0.536330 0.362006 0.000000 
0.581360 0.356755 0.000000 
0.625642 0.351076 0.000000 
0.669317 0.344947 0.000000 
0.712490 0.338340 0.000000 
0.755243 0.331226 0.000000 
0.797641 0.323568 0.000000 
0.839736 0.315326 0.000000 
0.881570 0.306456 0.000000 
0.923177 0.296900 0.000000 
0.964586 0.286596 0.000000 
1.000000 0.275464 0.000000 
1.000000 0.263409 0.000000 
1.000000 0.250314 0.000000 
1.000000 0.236028 0.000000 
1.000000 0.220356 0.000000 
1.000000 0.203038 0.000000 
1.000000 0.185263 0.000000 
0.000000 0.434360 0.000000 
0.000000 0.433323 0.000000 
0.000000 0.432285 0.000000 
0.000000 0.431219 0.000000 
0.000000 0.429955 0.000000 
0.000000 0.428455 0.000000 
0.000000 0.426708 0.000000 
0.013742 0.424705 0.000000 
0.119577 0.422438 0.000000 
0.199148 0.419896 0.000000 
0.264235 0.417069 0.000000 
0.322198 0.413947 0.000000 
0.375885 0.410519 0.000000 
0.426721 0.406773 0.000000 
0.475529 0.402695 0.000000 
0.522827 0.398273 0.000000 
0.568963 0.393491 0.000000 
0.614182 0.388332 0.000000 
0.658660 0.382778 0.000000 
0.702531 0.376808 0.000000 
0.745898 0.370400 0.000000 
0.788839 0.363529 0.000000 
0.831418 0.356165 0.000000 
0.873688 0.348276 0.000000 
0.915688 0.339825 0.000000 
0.957455 0.330768 0.000000 
0.999016 0.321055 0.000000 
1.000000 0.310626 0.000000 
1.000000 0.299411 0.000000 
1.000000 0.287324 0.000000 
1.000000 0.274261 0.000000 
1.000000 0.260091 0.000000 
1.000000 0.245872 0.000000 
0.000000 0.467423 0.000000 
0.000000 0.466460 0.000000 
0.000000 0.465495 0.000000 
0.000000 0.464505 0.000000 
0.000000 0.463332 0.000000 
0.000000 0.461940 0.000000 
0.000000 0.460320 0.000000 
0.000000 0.458464 0.000000 
0.057678 0.456364 0.000000 
0.159787 0.454012 0.000000 
0.234275 0.451398 0.000000 
0.297570 0.448513 0.000000 
0.354800 0.445349 0.000000 
0.408205 0.441896 0.000000 
0.458982 0.438142 0.000000 
0.507848 0.434077 0.000000 
0.555269 0.429688 0.000000 
0.601562 0.424961 0.000000 
0.646956 0.419883 0.000000 
0.691617 0.414437 0.000000 
0.735674 0.408606 0.000000 
0.779223 0.402370 0.000000 
0.822344 0.395707 0.000000 
0.865097 0.388595 0.000000 
0.907534 0.381005 0.000000 
0.949696 0.372906 0.000000 
0.991618 0.364264 0.000000 
1.000000 0.355039 0.000000 
1.000000 0.345183 0.000000 
1.000000 0.334643 0.000000 
1.000000 0.323354 0.000000 
1.000000 0.311239 0.000000 
1.000000 0.299232 0.000000 
0.000000 0.500485 0.000000 
0.000000 0.499587 0.000000 
0.000000 0.498687 0.000000 
0.000000 0.497764 0.000000 
0.000000 0.496670 0.000000 
0.000000 0.495373 0.000000 
0.000000 0.493864 0.000000 
0.000000 0.492136 0.000000 
0.000000 0.490182 0.000000 
0.107106 0.487993 0.000000 
0.197923 0.485564 0.000000 
0.268852 0.482885 0.000000 
0.330736 0.479950 0.000000 
0.387354 0.476748 0.000000 
0.440517 0.473272 0.000000 
0.491242 0.469512 0.000000 
0.540161 0.465457 0.000000 
0.587693 0.461097 0.000000 
0.634132 0.456420 0.000000 
0.679688 0.451413 0.000000 
0.724521 0.446062 0.000000 
0.768752 0.440352 0.000000 
0.812475 0.434266 0.000000 
0.855767 0.427785 0.000000 
0.898687 0.420889 0.000000 
0.941286 0.413555 0.000000 
0.983603 0.405758 0.000000 
1.000000 0.397468 0.000000 
1.000000 0.388653 0.000000 
1.000000 0.379275 0.000000 
1.000000 0.369291 0.000000 
1.000000 0.358650 0.000000 
1.000000 0.348186 0.000000 
0.000000 0.533546 0.000000 
0.000000 0.532705 0.000000 
0.000000 0.531863 0.000000 
0.000000 0.530999 0.000000 
0.000000 0.529976 0.000000 
0.000000 0.528762 0.000000 
0.000000 0.527351 0.000000 
0.000000 0.525735 0.000000 
0.000000 0.523909 0.000000 
0.032487 0.521865 0.000000 
0.151780 0.519597 0.000000 
0.234741 0.517098 0.000000 
0.303025 0.514361 0.000000 
0.363769 0.511379 0.000000 
0.419871 0.508144 0.000000 
0.472823 0.504648 0.000000 
0.523502 0.500881 0.000000 
0.572469 0.496836 0.000000 
0.620103 0.492502 0.000000 
0.666675 0.487869 0.000000 
0.712383 0.482925 0.000000 
0.757377 0.477658 0.000000 
0.801772 0.472055 0.000000 
0.845661 0.466101 0.000000 
0.889116 0.459779 0.000000 
0.932196 0.453073 0.000000 
0.974950 0.445962 0.000000 
1.000000 0.438425 0.000000 
1.000000 0.430438 0.000000 
1.000000 0.421972 0.000000 
1.000000 0.412998 0.000000 
1.000000 0.403481 0.000000 
1.000000 0.394170 0.000000 
0.000000 0.566607 0.000000 
0.000000 0.565817 0.000000 
0.000000 0.565026 0.000000 
0.000000 0.564214 0.000000 
0.000000 0.563253 0.000000 
0.000000 0.562114 0.000000 
0.000000 0.560789 0.000000 
0.000000 0.559273 0.000000 
0.000000 0.557560 0.000000 
0.000000 0.555644 0.000000 
0.086985 0.553519 0.000000 
0.192927 0.551179 0.000000 
0.270655 0.548617 0.000000 
0.336894 0.545827 0.000000 
0.396697 0.542803 0.000000 
0.452356 0.539537 0.000000 
0.505124 0.536022 0.000000 
0.555762 0.532251 0.000000 
0.604772 0.528214 0.000000 
0.652500 0.523904 0.000000 
0.699196 0.519310 0.000000 
0.745045 0.514423 0.000000 
0.790190 0.509231 0.000000 
0.834742 0.503723 0.000000 
0.878787 0.497885 0.000000 
0.922398 0.491704 0.000000 
0.965631 0.485165 0.000000 
1.000000 0.478249 0.000000 
1.000000 0.470940 0.000000 
1.000000 0.463215 0.000000 
1.000000 0.455052 0.000000 
1.000000 0.446425 0.000000 
1.000000 0.438019 0.000000 
0.000000 0.599668 0.000000 
0.000000 0.598923 0.000000 
0.000000 0.598177 0.000000 
0.000000 0.597413 0.000000 
0.000000 0.596508 0.000000 
0.000000 0.595435 0.000000 
0.000000 0.594187 0.000000 
0.000000 0.592761 0.000000 
0.000000 0.591149 0.000000 
0.000000 0.589346 0.000000 
0.000000 0.587348 0.000000 
0.138456 0.585148 0.000000 
0.231956 0.582741 0.000000 
0.305921 0.580122 0.000000 
0.370527 0.577284 0.000000 
0.429539 0.574222 0.000000 
0.484816 0.570928 0.000000 
0.537420 0.567397 0.000000 
0.588022 0.563620 0.000000 
0.637071 0.559591 0.000000 
0.684885 0.555302 0.000000 
0.731696 0.550744 0.000000 
0.777678 0.545907 0.000000 
0.822965 0.540783 0.000000 
0.867664 0.535360 0.000000 
0.911859 0.529627 0.000000 
0.955618 0.523571 0.000000 
0.998999 0.517179 0.000000 
1.000000 0.510437 0.000000 
1.000000 0.503328 0.000000 
1.000000 0.495833 0.000000 
1.000000 0.487935 0.000000 
1.000000 0.480260 0.000000 
0.000000 0.632728 0.000000 
0.000000 0.632024 0.000000 
0.000000 0.631320 0.000000 
0.000000 0.630597 0.000000 
0.000000 0.629742 0.000000 
0.000000 0.628729 0.000000 
0.000000 0.627551 0.000000 
0.000000 0.626204 0.000000 
0.000000 0.624683 0.000000 
0.000000 0.622982 0.000000 
0.000000 0.621097 0.000000 
0.057493 0.619023 0.000000 
0.183765 0.616755 0.000000 
0.269585 0.614287 0.000000 
0.340700 0.611615 0.000000 
0.403973 0.608733 0.000000 
0.462313 0.605636 0.000000 
0.517254 0.602317 0.000000 
0.569712 0.598770 0.000000 
0.620281 0.594990 0.000000 
0.669366 0.590968 0.000000 
0.717260 0.586698 0.000000 
0.764178 0.582172 0.000000 
0.810284 0.577381 0.000000 
0.855706 0.572317 0.000000 
0.900545 0.566971 0.000000 
0.944882 0.561332 0.000000 
0.988784 0.555388 0.000000 
1.000000 0.549129 0.000000 
1.000000 0.542541 0.000000 
1.000000 0.535609 0.000000 
1.000000 0.528319 0.000000 
1.000000 0.521251 0.000000 
0.000000 0.665788 0.000000 
0.000000 0.665121 0.000000 
0.000000 0.664454 0.000000 
0.000000 0.663769 0.000000 
0.000000 0.662960 0.000000 
0.000000 0.662000 0.000000 
0.000000 0.660885 0.000000 
0.000000 0.659610 0.000000 
0.000000 0.658170 0.000000 
0.000000 0.656561 0.000000 
0.000000 0.654778 0.000000 
0.000000 0.652817 0.000000 
0.118424 0.650673 0.000000 
0.225698 0.648342 0.000000 
0.306228 0.645819 0.000000 
0.375106 0.643098 0.000000 
0.437268 0.640176 0.000000 
0.495028 0.637046 0.000000 
0.549673 0.633704 0.000000 
0.602001 0.630144 0.000000 
0.652540 0.626359 0.000000 
0.701659 0.622344 0.000000 
0.749627 0.618091 0.000000 
0.796645 0.613594 0.000000 
0.842867 0.608845 0.000000 
0.888416 0.603837 0.000000 
0.933387 0.598560 0.000000 
0.977860 0.593005 0.000000 
1.000000 0.587163 0.000000 
1.000000 0.581023 0.000000 
1.000000 0.574573 0.000000 
1.000000 0.567800 0.000000 
1.000000 0.561246 0.000000 
0.000000 0.698847 0.000000 
0.000000 0.698214 0.000000 
0.000000 0.697581 0.000000 
0.000000 0.696931 0.000000 
0.000000 0.696162 0.000000 
0.000000 0.695252 0.000000 
0.000000 0.694193 0.000000 
0.000000 0.692983 0.000000 
0.000000 0.691618 0.000000 
0.000000 0.690092 0.000000 
0.000000 0.688401 0.000000 
0.000000 0.686542 0.000000 
0.020356 0.684510 0.000000 
0.169772 0.682302 0.000000 
0.265508 0.679912 0.000000 
0.342145 0.677337 0.000000 
0.409217 0.674572 0.000000 
0.470440 0.671613 0.000000 
0.527695 0.668454 0.000000 
0.582077 0.665090 0.000000 
0.634287 0.661517 0.000000 
0.684798 0.657728 0.000000 
0.733948 0.653719 0.000000 
0.781985 0.649482 0.000000 
0.829097 0.645012 0.000000 
0.875429 0.640301 0.000000 
0.921098 0.635343 0.000000 
0.966195 0.630129 0.000000 
1.000000 0.624652 0.000000 
1.000000 0.618901 0.000000 
1.000000 0.612868 0.000000 
1.000000 0.606543 0.000000 
1.000000 0.600430 0.000000 
0.000000 0.731907 0.000000 
0.000000 0.731304 0.000000 
0.000000 0.730701 0.000000 
0.000000 0.730083 0.000000 
0.000000 0.729352 0.000000 
0.000000 0.728486 0.000000 
0.000000 0.727479 0.000000 
0.000000 0.726329 0.000000 
0.000000 0.725030 0.000000 
0.000000 0.723580 0.000000 
0.000000 0.721973 0.000000 
0.000000 0.720207 0.000000 
0.000000 0.718277 0.000000 
0.088833 0.716180 0.000000 
0.215597 0.713911 0.000000 
0.303867 0.711468 0.000000 
0.377509 0.708845 0.000000 
0.443092 0.706038 0.000000 
0.503510 0.703044 0.000000 
0.560320 0.699858 0.000000 
0.614468 0.696475 0.000000 
0.666571 0.692890 0.000000 
0.717057 0.689098 0.000000 
0.766235 0.685094 0.000000 
0.814336 0.680872 0.000000 
0.861536 0.676426 0.000000 
0.907972 0.671750 0.000000 
0.953754 0.666838 0.000000 
0.998971 0.661682 0.000000 
1.000000 0.656274 0.000000 
1.000000 0.650607 0.000000 
1.000000 0.644672 0.000000 
1.000000 0.638943 0.000000 
0.000000 0.764966 0.000000 
0.000000 0.764392 0.000000 
0.000000 0.763817 0.000000 
0.000000 0.763228 0.000000 
0.000000 0.762531 0.000000 
0.000000 0.761705 0.000000 
0.000000 0.760746 0.000000 
0.000000 0.759649 0.000000 
0.000000 0.758412 0.000000 
0.000000 0.757030 0.000000 
0.000000 0.755500 0.000000 
0.000000 0.753819 0.000000 
0.000000 0.751982 0.000000 
0.000000 0.749986 0.000000 
0.149803 0.747827 0.000000 
0.258200 0.745503 0.000000 
0.341179 0.743009 0.000000 
0.412439 0.740342 0.000000 
0.476773 0.737497 0.000000 
0.536493 0.734471 0.000000 
0.592910 0.731259 0.000000 
0.646846 0.727858 0.000000 
0.698852 0.724262 0.000000 
0.749315 0.720467 0.000000 
0.798520 0.716468 0.000000 
0.846681 0.712260 0.000000 
0.893963 0.707837 0.000000 
0.940497 0.703193 0.000000 
0.986387 0.698323 0.000000 
1.000000 0.693220 0.000000 
1.000000 0.687876 0.000000 
1.000000 0.682286 0.000000 
1.000000 0.676894 0.000000 
0.000000 0.798025 0.000000 
0.000000 0.797476 0.000000 
0.000000 0.796927 0.000000 
0.000000 0.796365 0.000000 
0.000000 0.795699 0.000000 
0.000000 0.794911 0.000000 
0.000000 0.793995 0.000000 
0.000000 0.792948 0.000000 
0.000000 0.791768 0.000000 
0.000000 0.790449 0.000000 
0.000000 0.788989 0.000000 
0.000000 0.787384 0.000000 
0.000000 0.785632 0.000000 
0.000000 0.783729 0.000000 
0.047156 0.781671 0.000000 
0.201065 0.779456 0.000000 
0.298694 0.777080 0.000000 
0.377706 0.774539 0.000000 
0.447025 0.771830 0.000000 
0.510294 0.768950 0.000000 
0.569403 0.765894 0.000000 
0.625470 0.762659 0.000000 
0.679215 0.759240 0.000000 
0.731131 0.755634 0.000000 
0.781574 0.751836 0.000000 
0.830803 0.747842 0.000000 
0.879020 0.743646 0.000000 
0.926380 0.739244 0.000000 
0.973006 0.734630 0.000000 
1.000000 0.729799 0.000000 
1.000000 0.724744 0.000000 
1.000000 0.719460 0.000000 
1.000000 0.714368 0.000000 
0.000000 0.831084 0.000000 
0.000000 0.830559 0.000000 
0.000000 0.830034 0.000000 
0.000000 0.829496 0.000000 
0.000000 0.828859 0.000000 
0.000000 0.828105 0.000000 
0.000000 0.827229 0.000000 
0.000000 0.826228 0.000000 
0.000000 0.825099 0.000000 
0.000000 0.823838 0.000000 
0.000000 0.822443 0.000000 
0.000000 0.820909 0.000000 
0.000000 0.819235 0.000000 
0.000000 0.817416 0.000000 
0.000000 0.815451 0.000000 
0.121711 0.813336 0.000000 
0.247319 0.811067 0.000000 
0.337710 0.808642 0.000000 
0.413624 0.806058 0.000000 
0.481329 0.803310 0.000000 
0.543682 0.800396 0.000000 
0.602252 0.797313 0.000000 
0.658003 0.794056 0.000000 
0.711574 0.790621 0.000000 
0.763409 0.787006 0.000000 
0.813832 0.783205 0.000000 
0.863084 0.779215 0.000000 
