Postproduction/IWLTBAP - Humble/LUTs by IWLTBAP (CUBE)/UTILITY/Fujifilm F-Log to Rec.709/LUTs by Fujifilm/FLog_FGamut_to_FLog_BT.709_33grid_V.1.00.cube
#title:FLog_FGamut_to_FLog_BT.709
#FUJIFILM Corporation
#Gamma:F-Log to F-Log
#Gamut:F-Gamut to ITU-R BT.709
#Version:1.00
LUT_3D_SIZE 5
0.000000 0.000000 0.000000 
0.342405 0.000000 0.000000 
0.656541 0.000000 0.000000 
0.970657 0.000000 0.000000 
1.000000 0.000000 0.000000 
0.000000 0.269027 0.000000 
0.265402 0.249923 0.000000 
0.619710 0.199908 0.000000 
0.946967 0.078637 0.000000 
1.000000 0.000000 0.000000 
0.000000 0.533546 0.000000 
0.000000 0.523909 0.000000 
0.523502 0.500881 0.000000 
0.889116 0.459779 0.000000 
1.000000 0.394170 0.000000 
0.000000 0.798025 0.000000 
0.000000 0.791768 0.000000 
0.298694 0.777080 0.000000 
0.781574 0.751836 0.000000 
1.000000 0.714368 0.000000 
0.000000 1.000000 0.000000 
0.000000 1.000000 0.000000 
0.000000 1.000000 0.000000 
0.590576 1.000000 0.000000 
1.000000 1.000000 0.000000 
0.000000 0.000000 0.270975 
0.333618 0.000000 0.268285 
0.652023 0.000000 0.261965 
0.967708 0.000000 0.251090 
1.000000 0.000000 0.234913 
0.000000 0.267783 0.255973 
0.250015 0.250015 0.250015 
0.614905 0.198301 0.246481 
0.943936 0.075668 0.234986 
1.000000 0.000000 0.217795 
0.000000 0.532905 0.217644 
0.000000 0.523255 0.214384 
0.517767 0.500197 0.206677 
0.885866 0.459033 0.193239 
1.000000 0.393301 0.172767 
0.000000 0.797607 0.136021 
0.000000 0.791345 0.131302 
0.288682 0.776649 0.119902 
0.777830 0.751390 0.099037 
1.000000 0.713897 0.064762 
0.000000 1.000000 0.000000 
0.000000 1.000000 0.000000 
0.000000 1.000000 0.000000 
0.585520 1.000000 0.000000 
1.000000 1.000000 0.000000 
0.000000 0.000000 0.533946 
0.312413 0.000000 0.532554 
0.641444 0.000000 0.529318 
0.960850 0.000000 0.523864 
1.000000 0.000000 0.516026 
0.000000 0.264884 0.526295 
0.226554 0.245497 0.524882 
0.603639 0.194544 0.521598 
0.936885 0.068801 0.516060 
1.000000 0.000000 0.508098 
0.000000 0.531418 0.508030 
0.000000 0.521740 0.506565 
0.500031 0.500031 0.500031 
0.878300 0.457302 0.497411 
1.000000 0.391282 0.489139 
0.000000 0.796638 0.475811 
0.000000 0.790368 0.474244 
0.264222 0.775652 0.470599 
0.769098 0.750356 0.464443 
1.000000 0.712805 0.455566 
0.000000 1.000000 0.425235 
0.000000 1.000000 0.423482 
0.000000 1.000000 0.419396 
0.573649 1.000000 0.412479 
1.000000 1.000000 0.402464 
0.000000 0.000000 0.796911 
0.273652 0.000000 0.796001 
0.623347 0.000000 0.793891 
0.949270 0.000000 0.790351 
1.000000 0.000000 0.785300 
0.000000 0.259978 0.791927 
0.172505 0.240245 0.791011 
0.584308 0.188133 0.788886 
0.924973 0.057328 0.785322 
1.000000 0.000000 0.780235 
0.000000 0.528925 0.780192 
0.000000 0.519200 0.779261 
0.480791 0.495949 0.777102 
0.865497 0.454395 0.773478 
1.000000 0.387887 0.768307 
0.000000 0.795017 0.760081 
0.000000 0.788733 0.759123 
0.218132 0.773983 0.756902 
0.750046 0.750046 0.750046 
1.000000 0.710976 0.747850 
0.000000 1.000000 0.730142 
0.000000 1.000000 0.729142 
0.000000 1.000000 0.726822 
0.553224 1.000000 0.722926 
1.000000 1.000000 0.717360 
0.000000 0.000000 1.000000 
0.208382 0.000000 1.000000 
0.596738 0.000000 1.000000 
0.932605 0.000000 1.000000 
1.000000 0.000000 1.000000 
0.000000 0.252888 1.000000 
0.059965 0.232637 1.000000 
0.555742 0.178747 1.000000 
0.907814 0.041087 1.000000 
1.000000 0.000000 1.000000 
0.000000 0.525375 1.000000 
0.000000 0.515581 1.000000 
0.445456 0.492155 1.000000 
0.847009 0.450248 1.000000 
1.000000 0.383030 1.000000 
0.000000 0.792716 1.000000 
0.000000 0.786412 1.000000 
0.133553 0.771614 1.000000 
0.732710 0.746170 1.000000 
1.000000 0.708379 1.000000 
0.000000 1.000000 1.000000 
0.000000 1.000000 1.000000 
0.000000 1.000000 1.000000 
0.522898 1.000000 1.000000 
1.000000 1.000000 1.000000 
