Postproduction/IWLTBAP - Humble/LUTs by IWLTBAP (CUBE)/UTILITY/Fujifilm F-Log to Rec.709/LUTs by Fujifilm/FLog_FGamut_to_WDR_BT.709_33grid_V.1.00.cube
#title:FLog_FGamut_to_WDR_BT.709
#FUJIFILM Corporation
#Gamma:F-Log to Wide Dynamic Range curve
#Gamut:F-Gamut to ITU-R BT.709
#Version:1.00
LUT_3D_SIZE 33
0.000000 0.000000 0.000000 
0.000000 0.000000 0.000000 
0.000000 0.000000 0.000000 
0.000000 0.000000 0.000000 
0.029889 0.000000 0.000000 
0.069492 0.000000 0.000000 
0.110240 0.000000 0.000000 
0.154355 0.000000 0.000000 
0.194374 0.000000 0.000000 
0.238189 0.000000 0.000000 
0.283800 0.000000 0.000000 
0.331668 0.000000 0.000000 
0.384003 0.000000 0.000000 
0.438923 0.000000 0.000000 
0.498735 0.000000 0.000000 
0.563400 0.000000 0.000000 
0.625666 0.000000 0.000000 
0.684481 0.000000 0.000000 
0.741196 0.000000 0.000000 
0.794954 0.000000 0.000000 
0.845913 0.000000 0.000000 
0.894461 0.000000 0.000000 
0.940532 0.000000 0.000000 
0.984400 0.000000 0.000000 
1.000000 0.000000 0.000000 
1.000000 0.000000 0.000000 
1.000000 0.000000 0.000000 
1.000000 0.000000 0.000000 
1.000000 0.000000 0.000000 
1.000000 0.000000 0.000000 
1.000000 0.000000 0.000000 
1.000000 0.000000 0.000000 
1.000000 0.000000 0.000000 
0.000000 0.000000 0.000000 
0.000000 0.000000 0.000000 
0.000000 0.000000 0.000000 
0.000000 0.000000 0.000000 
0.029889 0.000000 0.000000 
0.069492 0.000000 0.000000 
0.110240 0.000000 0.000000 
0.154355 0.000000 0.000000 
0.194374 0.000000 0.000000 
0.238189 0.000000 0.000000 
0.283800 0.000000 0.000000 
0.331668 0.000000 0.000000 
0.384003 0.000000 0.000000 
0.438923 0.000000 0.000000 
0.498735 0.000000 0.000000 
0.563400 0.000000 0.000000 
0.625666 0.000000 0.000000 
0.684481 0.000000 0.000000 
0.741196 0.000000 0.000000 
0.794954 0.000000 0.000000 
0.845913 0.000000 0.000000 
0.894461 0.000000 0.000000 
0.940532 0.000000 0.000000 
0.984400 0.000000 0.000000 
1.000000 0.000000 0.000000 
1.000000 0.000000 0.000000 
1.000000 0.000000 0.000000 
1.000000 0.000000 0.000000 
1.000000 0.000000 0.000000 
1.000000 0.000000 0.000000 
1.000000 0.000000 0.000000 
1.000000 0.000000 0.000000 
1.000000 0.000000 0.000000 
0.000000 0.000000 0.000000 
0.000000 0.000000 0.000000 
0.000000 0.000000 0.000000 
0.000000 0.000000 0.000000 
0.029889 0.000000 0.000000 
0.069492 0.000000 0.000000 
0.110240 0.000000 0.000000 
0.154355 0.000000 0.000000 
0.194374 0.000000 0.000000 
0.238189 0.000000 0.000000 
0.283800 0.000000 0.000000 
0.331668 0.000000 0.000000 
0.384003 0.000000 0.000000 
0.438923 0.000000 0.000000 
0.498735 0.000000 0.000000 
0.563400 0.000000 0.000000 
0.625666 0.000000 0.000000 
0.684481 0.000000 0.000000 
0.741196 0.000000 0.000000 
0.794954 0.000000 0.000000 
0.845913 0.000000 0.000000 
0.894461 0.000000 0.000000 
0.940532 0.000000 0.000000 
0.984400 0.000000 0.000000 
1.000000 0.000000 0.000000 
1.000000 0.000000 0.000000 
1.000000 0.000000 0.000000 
1.000000 0.000000 0.000000 
1.000000 0.000000 0.000000 
1.000000 0.000000 0.000000 
1.000000 0.000000 0.000000 
1.000000 0.000000 0.000000 
1.000000 0.000000 0.000000 
0.000000 0.000000 0.000000 
0.000000 0.000000 0.000000 
0.000000 0.000000 0.000000 
0.000000 0.000000 0.000000 
0.029889 0.000000 0.000000 
0.069492 0.000000 0.000000 
0.110240 0.000000 0.000000 
0.154355 0.000000 0.000000 
0.194374 0.000000 0.000000 
0.238189 0.000000 0.000000 
0.283800 0.000000 0.000000 
0.331668 0.000000 0.000000 
0.384003 0.000000 0.000000 
0.438923 0.000000 0.000000 
0.498735 0.000000 0.000000 
0.563400 0.000000 0.000000 
0.625666 0.000000 0.000000 
0.684481 0.000000 0.000000 
0.741196 0.000000 0.000000 
0.794954 0.000000 0.000000 
0.845913 0.000000 0.000000 
0.894461 0.000000 0.000000 
0.940532 0.000000 0.000000 
0.984400 0.000000 0.000000 
1.000000 0.000000 0.000000 
1.000000 0.000000 0.000000 
1.000000 0.000000 0.000000 
1.000000 0.000000 0.000000 
1.000000 0.000000 0.000000 
1.000000 0.000000 0.000000 
1.000000 0.000000 0.000000 
1.000000 0.000000 0.000000 
1.000000 0.000000 0.000000 
0.000000 0.020392 0.000000 
0.000000 0.020392 0.000000 
0.000000 0.020392 0.000000 
0.000000 0.020392 0.000000 
0.019311 0.018150 0.000000 
0.058914 0.015180 0.000000 
0.101173 0.011929 0.000000 
0.147247 0.007445 0.000000 
0.188461 0.002457 0.000000 
0.233218 0.000000 0.000000 
0.279552 0.000000 0.000000 
0.327995 0.000000 0.000000 
0.380815 0.000000 0.000000 
0.436131 0.000000 0.000000 
0.496281 0.000000 0.000000 
0.561237 0.000000 0.000000 
0.623729 0.000000 0.000000 
0.682721 0.000000 0.000000 
0.739580 0.000000 0.000000 
0.793456 0.000000 0.000000 
0.844514 0.000000 0.000000 
0.893144 0.000000 0.000000 
0.939287 0.000000 0.000000 
0.983217 0.000000 0.000000 
1.000000 0.000000 0.000000 
1.000000 0.000000 0.000000 
1.000000 0.000000 0.000000 
1.000000 0.000000 0.000000 
1.000000 0.000000 0.000000 
1.000000 0.000000 0.000000 
1.000000 0.000000 0.000000 
1.000000 0.000000 0.000000 
1.000000 0.000000 0.000000 
0.000000 0.042824 0.000000 
0.000000 0.042824 0.000000 
0.000000 0.042824 0.000000 
0.000000 0.042824 0.000000 
0.007676 0.040582 0.000000 
0.047279 0.037611 0.000000 
0.090582 0.034360 0.000000 
0.139126 0.029877 0.000000 
0.181780 0.024888 0.000000 
0.227642 0.018387 0.000000 
0.274811 0.010428 0.000000 
0.323911 0.000732 0.000000 
0.377278 0.000000 0.000000 
0.433038 0.000000 0.000000 
0.493569 0.000000 0.000000 
0.558848 0.000000 0.000000 
0.621591 0.000000 0.000000 
0.680779 0.000000 0.000000 
0.737798 0.000000 0.000000 
0.791805 0.000000 0.000000 
0.842972 0.000000 0.000000 
0.891694 0.000000 0.000000 
0.937915 0.000000 0.000000 
0.981913 0.000000 0.000000 
1.000000 0.000000 0.000000 
1.000000 0.000000 0.000000 
1.000000 0.000000 0.000000 
1.000000 0.000000 0.000000 
1.000000 0.000000 0.000000 
1.000000 0.000000 0.000000 
1.000000 0.000000 0.000000 
1.000000 0.000000 0.000000 
1.000000 0.000000 0.000000 
0.000000 0.074941 0.000000 
0.000000 0.074941 0.000000 
0.000000 0.074941 0.000000 
0.000000 0.074941 0.000000 
0.000000 0.072699 0.000000 
0.030619 0.069729 0.000000 
0.073958 0.066478 0.000000 
0.126872 0.061994 0.000000 
0.171862 0.057006 0.000000 
0.219450 0.050505 0.000000 
0.267893 0.042546 0.000000 
0.317977 0.032849 0.000000 
0.372157 0.020631 0.000000 
0.428572 0.005947 0.000000 
0.489658 0.000000 0.000000 
0.555409 0.000000 0.000000 
0.618516 0.000000 0.000000 
0.677988 0.000000 0.000000 
0.735239 0.000000 0.000000 
0.789434 0.000000 0.000000 
0.840758 0.000000 0.000000 
0.889613 0.000000 0.000000 
0.935947 0.000000 0.000000 
0.980042 0.000000 0.000000 
1.000000 0.000000 0.000000 
1.000000 0.000000 0.000000 
1.000000 0.000000 0.000000 
1.000000 0.000000 0.000000 
1.000000 0.000000 0.000000 
1.000000 0.000000 0.000000 
1.000000 0.000000 0.000000 
1.000000 0.000000 0.000000 
1.000000 0.000000 0.000000 
0.000000 0.108821 0.000000 
0.000000 0.108821 0.000000 
0.000000 0.108821 0.000000 
0.000000 0.108821 0.000000 
0.000000 0.106924 0.000000 
0.011844 0.104377 0.000000 
0.055183 0.101544 0.000000 
0.112008 0.097555 0.000000 
0.160124 0.092997 0.000000 
0.209898 0.086850 0.000000 
0.259899 0.078742 0.000000 
0.311164 0.069046 0.000000 
0.366303 0.056827 0.000000 
0.423482 0.042143 0.000000 
0.485211 0.023927 0.000000 
0.551506 0.001564 0.000000 
0.615031 0.000000 0.000000 
0.674828 0.000000 0.000000 
0.732343 0.000000 0.000000 
0.786753 0.000000 0.000000 
0.838255 0.000000 0.000000 
0.887261 0.000000 0.000000 
0.933723 0.000000 0.000000 
0.977930 0.000000 0.000000 
1.000000 0.000000 0.000000 
1.000000 0.000000 0.000000 
1.000000 0.000000 0.000000 
1.000000 0.000000 0.000000 
1.000000 0.000000 0.000000 
1.000000 0.000000 0.000000 
1.000000 0.000000 0.000000 
1.000000 0.000000 0.000000 
1.000000 0.000000 0.000000 
0.000000 0.144852 0.000000 
0.000000 0.144852 0.000000 
0.000000 0.144852 0.000000 
0.000000 0.144852 0.000000 
0.000000 0.143294 0.000000 
0.000000 0.141211 0.000000 
0.030590 0.138906 0.000000 
0.090347 0.135681 0.000000 
0.143686 0.132028 0.000000 
0.196812 0.127159 0.000000 
0.249088 0.121017 0.000000 
0.302025 0.113240 0.000000 
0.358496 0.102914 0.000000 
0.416722 0.089578 0.000000 
0.479324 0.071339 0.000000 
0.546351 0.048976 0.000000 
0.610434 0.024763 0.000000 
0.670664 0.000000 0.000000 
0.728530 0.000000 0.000000 
0.783227 0.000000 0.000000 
0.834965 0.000000 0.000000 
0.884170 0.000000 0.000000 
0.930802 0.000000 0.000000 
0.975155 0.000000 0.000000 
1.000000 0.000000 0.000000 
1.000000 0.000000 0.000000 
1.000000 0.000000 0.000000 
1.000000 0.000000 0.000000 
1.000000 0.000000 0.000000 
1.000000 0.000000 0.000000 
1.000000 0.000000 0.000000 
1.000000 0.000000 0.000000 
1.000000 0.000000 0.000000 
0.000000 0.180753 0.000000 
0.000000 0.180753 0.000000 
0.000000 0.180753 0.000000 
0.000000 0.180753 0.000000 
0.000000 0.179437 0.000000 
0.000000 0.177682 0.000000 
0.001237 0.175746 0.000000 
0.061015 0.173047 0.000000 
0.122085 0.170006 0.000000 
0.180201 0.165979 0.000000 
0.235621 0.160944 0.000000 
0.290772 0.154644 0.000000 
0.348959 0.146422 0.000000 
0.408510 0.136073 0.000000 
0.472201 0.122404 0.000000 
0.540131 0.104065 0.000000 
0.604900 0.081600 0.000000 
0.665659 0.056018 0.000000 
0.723952 0.029283 0.000000 
0.778995 0.001820 0.000000 
0.831019 0.000000 0.000000 
0.880466 0.000000 0.000000 
0.927302 0.000000 0.000000 
0.971831 0.000000 0.000000 
1.000000 0.000000 0.000000 
1.000000 0.000000 0.000000 
1.000000 0.000000 0.000000 
1.000000 0.000000 0.000000 
1.000000 0.000000 0.000000 
1.000000 0.000000 0.000000 
1.000000 0.000000 0.000000 
1.000000 0.000000 0.000000 
1.000000 0.000000 0.000000 
0.000000 0.218738 0.000000 
0.000000 0.218738 0.000000 
0.000000 0.218738 0.000000 
0.000000 0.218738 0.000000 
0.000000 0.217612 0.000000 
0.000000 0.216114 0.000000 
0.000000 0.214464 0.000000 
0.024522 0.212170 0.000000 
0.090965 0.209595 0.000000 
0.157693 0.206197 0.000000 
0.217893 0.201975 0.000000 
0.276203 0.196730 0.000000 
0.336745 0.189955 0.000000 
0.398067 0.181546 0.000000 
0.463190 0.170667 0.000000 
0.532293 0.156530 0.000000 
0.597945 0.140057 0.000000 
0.659379 0.121188 0.000000 
0.718216 0.098852 0.000000 
0.773698 0.072173 0.000000 
0.826085 0.044205 0.000000 
0.875836 0.015789 0.000000 
0.922930 0.000000 0.000000 
0.967682 0.000000 0.000000 
1.000000 0.000000 0.000000 
1.000000 0.000000 0.000000 
1.000000 0.000000 0.000000 
1.000000 0.000000 0.000000 
1.000000 0.000000 0.000000 
1.000000 0.000000 0.000000 
1.000000 0.000000 0.000000 
1.000000 0.000000 0.000000 
1.000000 0.000000 0.000000 
0.000000 0.258776 0.000000 
0.000000 0.258776 0.000000 
0.000000 0.258776 0.000000 
0.000000 0.258776 0.000000 
0.000000 0.257803 0.000000 
0.000000 0.256509 0.000000 
0.000000 0.255087 0.000000 
0.000000 0.253113 0.000000 
0.046335 0.250901 0.000000 
0.126322 0.247992 0.000000 
0.194378 0.244390 0.000000 
0.257360 0.239938 0.000000 
0.321192 0.234224 0.000000 
0.384901 0.227195 0.000000 
0.451908 0.218210 0.000000 
0.522530 0.206734 0.000000 
0.589310 0.193684 0.000000 
0.651602 0.179221 0.000000 
0.711124 0.162888 0.000000 
0.767158 0.144700 0.000000 
0.819998 0.124291 0.000000 
0.870129 0.100903 0.000000 
0.917545 0.073362 0.000000 
0.962573 0.044665 0.000000 
1.000000 0.015969 0.000000 
1.000000 0.000000 0.000000 
1.000000 0.000000 0.000000 
1.000000 0.000000 0.000000 
1.000000 0.000000 0.000000 
1.000000 0.000000 0.000000 
1.000000 0.000000 0.000000 
1.000000 0.000000 0.000000 
1.000000 0.000000 0.000000 
0.000000 0.302520 0.000000 
0.000000 0.302520 0.000000 
0.000000 0.302520 0.000000 
0.000000 0.302520 0.000000 
0.000000 0.301675 0.000000 
0.000000 0.300553 0.000000 
0.000000 0.299320 0.000000 
0.000000 0.297612 0.000000 
0.000000 0.295701 0.000000 
0.076687 0.293193 0.000000 
0.160976 0.290097 0.000000 
0.231720 0.286283 0.000000 
0.300527 0.281410 0.000000 
0.367657 0.275452 0.000000 
0.437274 0.267895 0.000000 
0.509951 0.258349 0.000000 
0.578235 0.247649 0.000000 
0.641656 0.236004 0.000000 
0.702076 0.223153 0.000000 
0.758828 0.209264 0.000000 
0.812255 0.194286 0.000000 
0.862877 0.178043 0.000000 
0.910708 0.160436 0.000000 
0.956091 0.141153 0.000000 
0.999204 0.119760 0.000000 
1.000000 0.095596 0.000000 
1.000000 0.068173 0.000000 
1.000000 0.040878 0.000000 
1.000000 0.014312 0.000000 
1.000000 0.000000 0.000000 
1.000000 0.000000 0.000000 
1.000000 0.000000 0.000000 
1.000000 0.000000 0.000000 
0.000000 0.348729 0.000000 
0.000000 0.348729 0.000000 
0.000000 0.348729 0.000000 
0.000000 0.348729 0.000000 
0.000000 0.347990 0.000000 
0.000000 0.347009 0.000000 
0.000000 0.345931 0.000000 
0.000000 0.344440 0.000000 
0.000000 0.342774 0.000000 
0.008462 0.340591 0.000000 
0.111683 0.337900 0.000000 
0.196969 0.334595 0.000000 
0.273598 0.330385 0.000000 
0.345666 0.325258 0.000000 
0.418867 0.318790 0.000000 
0.494276 0.310679 0.000000 
0.564515 0.301670 0.000000 
0.629387 0.291970 0.000000 
0.690947 0.281405 0.000000 
0.748604 0.270164 0.000000 
0.802768 0.258270 0.000000 
0.854002 0.245668 0.000000 
0.902349 0.232395 0.000000 
0.948173 0.218383 0.000000 
0.991668 0.203570 0.000000 
1.000000 0.187909 0.000000 
1.000000 0.171536 0.000000 
1.000000 0.154223 0.000000 
1.000000 0.135854 0.000000 
1.000000 0.116214 0.000000 
1.000000 0.094968 0.000000 
1.000000 0.071802 0.000000 
1.000000 0.051289 0.000000 
0.000000 0.398982 0.000000 
0.000000 0.398982 0.000000 
0.000000 0.398982 0.000000 
0.000000 0.398982 0.000000 
0.000000 0.398333 0.000000 
0.000000 0.397472 0.000000 
0.000000 0.396527 0.000000 
0.000000 0.395220 0.000000 
0.000000 0.393762 0.000000 
0.000000 0.391853 0.000000 
0.029947 0.389503 0.000000 
0.145313 0.386622 0.000000 
0.236470 0.382962 0.000000 
0.316390 0.378517 0.000000 
0.394862 0.372932 0.000000 
0.474101 0.365963 0.000000 
0.547002 0.358271 0.000000 
0.613809 0.350050 0.000000 
0.676870 0.341170 0.000000 
0.735710 0.331814 0.000000 
0.790828 0.322023 0.000000 
0.842853 0.311782 0.000000 
0.891862 0.301155 0.000000 
0.938250 0.290128 0.000000 
0.982232 0.278705 0.000000 
1.000000 0.266915 0.000000 
1.000000 0.254936 0.000000 
1.000000 0.242696 0.000000 
1.000000 0.230246 0.000000 
1.000000 0.217614 0.000000 
1.000000 0.204839 0.000000 
1.000000 0.192060 0.000000 
1.000000 0.180336 0.000000 
0.000000 0.452755 0.000000 
0.000000 0.452755 0.000000 
0.000000 0.452755 0.000000 
0.000000 0.452755 0.000000 
0.000000 0.452183 0.000000 
0.000000 0.451424 0.000000 
0.000000 0.450591 0.000000 
0.000000 0.449440 0.000000 
0.000000 0.448156 0.000000 
0.000000 0.446477 0.000000 
0.000000 0.444414 0.000000 
0.056350 0.441886 0.000000 
0.183143 0.438681 0.000000 
0.276994 0.434797 0.000000 
0.363608 0.429931 0.000000 
0.448342 0.423881 0.000000 
0.524898 0.417233 0.000000 
0.594293 0.410163 0.000000 
0.659327 0.402569 0.000000 
0.719700 0.394620 0.000000 
0.776045 0.386360 0.000000 
0.829079 0.377788 0.000000 
0.878929 0.368971 0.000000 
0.926029 0.359910 0.000000 
0.970623 0.350626 0.000000 
1.000000 0.341157 0.000000 
1.000000 0.331665 0.000000 
1.000000 0.322109 0.000000 
1.000000 0.312546 0.000000 
1.000000 0.303020 0.000000 
1.000000 0.293578 0.000000 
1.000000 0.284342 0.000000 
1.000000 0.276065 0.000000 
0.000000 0.505688 0.000000 
0.000000 0.505688 0.000000 
0.000000 0.505688 0.000000 
0.000000 0.505688 0.000000 
0.000000 0.505176 0.000000 
0.000000 0.504497 0.000000 
0.000000 0.503753 0.000000 
0.000000 0.502725 0.000000 
0.000000 0.501579 0.000000 
0.000000 0.500082 0.000000 
0.000000 0.498242 0.000000 
0.000000 0.495992 0.000000 
0.103811 0.493141 0.000000 
0.226413 0.489692 0.000000 
0.325651 0.485379 0.000000 
0.417951 0.480031 0.000000 
0.499233 0.474171 0.000000 
0.571854 0.467961 0.000000 
0.639291 0.461316 0.000000 
0.701502 0.454387 0.000000 
0.759301 0.447221 0.000000 
0.813519 0.439820 0.000000 
0.864350 0.432248 0.000000 
0.912278 0.424512 0.000000 
0.957578 0.416633 0.000000 
1.000000 0.408651 0.000000 
1.000000 0.400707 0.000000 
1.000000 0.392770 0.000000 
1.000000 0.384891 0.000000 
1.000000 0.377110 0.000000 
1.000000 0.369466 0.000000 
1.000000 0.362060 0.000000 
1.000000 0.355484 0.000000 
0.000000 0.555811 0.000000 
0.000000 0.555811 0.000000 
0.000000 0.555811 0.000000 
0.000000 0.555811 0.000000 
0.000000 0.555347 0.000000 
0.000000 0.554731 0.000000 
0.000000 0.554056 0.000000 
0.000000 0.553125 0.000000 
0.000000 0.552086 0.000000 
0.000000 0.550730 0.000000 
0.000000 0.549064 0.000000 
0.000000 0.547028 0.000000 
0.000000 0.544451 0.000000 
0.159988 0.541338 0.000000 
0.280675 0.537449 0.000000 
0.383457 0.532635 0.000000 
0.470720 0.527372 0.000000 
0.547236 0.521807 0.000000 
0.617490 0.515867 0.000000 
0.681814 0.509691 0.000000 
0.741261 0.503322 0.000000 
0.796808 0.496766 0.000000 
0.848730 0.490081 0.000000 
0.897573 0.483274 0.000000 
0.943653 0.476370 0.000000 
0.987118 0.469403 0.000000 
1.000000 0.462499 0.000000 
1.000000 0.455632 0.000000 
1.000000 0.448846 0.000000 
1.000000 0.442176 0.000000 
1.000000 0.435656 0.000000 
1.000000 0.429370 0.000000 
1.000000 0.423817 0.000000 
0.000000 0.603379 0.000000 
0.000000 0.603379 0.000000 
0.000000 0.603379 0.000000 
0.000000 0.603379 0.000000 
0.000000 0.602953 0.000000 
0.000000 0.602388 0.000000 
0.000000 0.601769 0.000000 
0.000000 0.600914 0.000000 
0.000000 0.599962 0.000000 
0.000000 0.598718 0.000000 
0.000000 0.597192 0.000000 
0.000000 0.595327 0.000000 
0.000000 0.592969 0.000000 
0.056702 0.590121 0.000000 
0.225685 0.586568 0.000000 
0.344064 0.582176 0.000000 
0.439097 0.577380 0.000000 
0.520362 0.572318 0.000000 
0.593928 0.566925 0.000000 
0.660679 0.561329 0.000000 
0.721988 0.555569 0.000000 
0.779019 0.549653 0.000000 
0.832149 0.543635 0.000000 
0.881998 0.537523 0.000000 
0.928928 0.531339 0.000000 
0.973121 0.525116 0.000000 
1.000000 0.518966 0.000000 
1.000000 0.512867 0.000000 
1.000000 0.506857 0.000000 
1.000000 0.500968 0.000000 
1.000000 0.495230 0.000000 
1.000000 0.489713 0.000000 
1.000000 0.484854 0.000000 
0.000000 0.649098 0.000000 
0.000000 0.649098 0.000000 
0.000000 0.649098 0.000000 
0.000000 0.649098 0.000000 
0.000000 0.648703 0.000000 
0.000000 0.648180 0.000000 
0.000000 0.647608 0.000000 
0.000000 0.646817 0.000000 
0.000000 0.645936 0.000000 
0.000000 0.644785 0.000000 
0.000000 0.643374 0.000000 
0.000000 0.641650 0.000000 
0.000000 0.639471 0.000000 
0.000000 0.636842 0.000000 
0.152431 0.633565 0.000000 
0.297826 0.629516 0.000000 
0.403510 0.625101 0.000000 
0.490738 0.620447 0.000000 
0.568275 0.615495 0.000000 
0.637852 0.610364 0.000000 
0.701289 0.605091 0.000000 
0.759994 0.599684 0.000000 
0.814471 0.594194 0.000000 
0.865433 0.588627 0.000000 
0.913299 0.583005 0.000000 
0.958288 0.577359 0.000000 
1.000000 0.571790 0.000000 
1.000000 0.566278 0.000000 
1.000000 0.560859 0.000000 
1.000000 0.555559 0.000000 
1.000000 0.550405 0.000000 
1.000000 0.545461 0.000000 
1.000000 0.541114 0.000000 
0.000000 0.692219 0.000000 
0.000000 0.692219 0.000000 
0.000000 0.692219 0.000000 
0.000000 0.692219 0.000000 
0.000000 0.691851 0.000000 
0.000000 0.691363 0.000000 
0.000000 0.690828 0.000000 
0.000000 0.690090 0.000000 
0.000000 0.689267 0.000000 
0.000000 0.688194 0.000000 
0.000000 0.686877 0.000000 
0.000000 0.685270 0.000000 
0.000000 0.683238 0.000000 
0.000000 0.680788 0.000000 
0.038019 0.677736 0.000000 
0.242978 0.673969 0.000000 
0.363955 0.669865 0.000000 
0.458708 0.665541 0.000000 
0.540962 0.660946 0.000000 
0.613782 0.656190 0.000000 
0.679604 0.651309 0.000000 
0.740155 0.646310 0.000000 
0.796103 0.641239 0.000000 
0.848269 0.636105 0.000000 
0.897139 0.630927 0.000000 
0.942979 0.625735 0.000000 
0.985476 0.620620 0.000000 
1.000000 0.615565 0.000000 
1.000000 0.610603 0.000000 
1.000000 0.605757 0.000000 
1.000000 0.601052 0.000000 
1.000000 0.596545 0.000000 
1.000000 0.592588 0.000000 
0.000000 0.733273 0.000000 
0.000000 0.733273 0.000000 
0.000000 0.733273 0.000000 
0.000000 0.733273 0.000000 
0.000000 0.732927 0.000000 
0.000000 0.732468 0.000000 
0.000000 0.731966 0.000000 
0.000000 0.731272 0.000000 
0.000000 0.730499 0.000000 
0.000000 0.729491 0.000000 
0.000000 0.728254 0.000000 
0.000000 0.726744 0.000000 
0.000000 0.724837 0.000000 
0.000000 0.722538 0.000000 
0.000000 0.719675 0.000000 
0.173146 0.716143 0.000000 
0.319004 0.712299 0.000000 
0.423677 0.708252 0.000000 
0.511668 0.703954 0.000000 
0.588261 0.699509 0.000000 
0.656788 0.694952 0.000000 
0.719394 0.690288 0.000000 
0.776956 0.685563 0.000000 
0.830430 0.680784 0.000000 
0.880385 0.675969 0.000000 
0.927137 0.671146 0.000000 
0.970402 0.666400 0.000000 
1.000000 0.661715 0.000000 
1.000000 0.657120 0.000000 
1.000000 0.652639 0.000000 
1.000000 0.648292 0.000000 
1.000000 0.644133 0.000000 
1.000000 0.640485 0.000000 
0.000000 0.772213 0.000000 
0.000000 0.772213 0.000000 
0.000000 0.772213 0.000000 
0.000000 0.772213 0.000000 
0.000000 0.771886 0.000000 
0.000000 0.771452 0.000000 
0.000000 0.770977 0.000000 
0.000000 0.770321 0.000000 
0.000000 0.769590 0.000000 
0.000000 0.768637 0.000000 
0.000000 0.767468 0.000000 
0.000000 0.766042 0.000000 
0.000000 0.764241 0.000000 
0.000000 0.762069 0.000000 
0.000000 0.759367 0.000000 
0.067755 0.756035 0.000000 
0.266855 0.752409 0.000000 
0.385274 0.748595 0.000000 
0.480356 0.744547 0.000000 
0.561364 0.740364 0.000000 
0.632954 0.736078 0.000000 
0.697838 0.731695 0.000000 
0.757164 0.727258 0.000000 
0.812054 0.722774 0.000000 
0.863171 0.718260 0.000000 
0.910894 0.713741 0.000000 
0.954972 0.709300 0.000000 
0.996079 0.704919 0.000000 
1.000000 0.700626 0.000000 
1.000000 0.696442 0.000000 
1.000000 0.692388 0.000000 
1.000000 0.688512 0.000000 
1.000000 0.685115 0.000000 
0.000000 0.809629 0.000000 
0.000000 0.809629 0.000000 
0.000000 0.809629 0.000000 
0.000000 0.809629 0.000000 
0.000000 0.809318 0.000000 
0.000000 0.808906 0.000000 
0.000000 0.808455 0.000000 
0.000000 0.807832 0.000000 
0.000000 0.807138 0.000000 
0.000000 0.806233 0.000000 
0.000000 0.805123 0.000000 
0.000000 0.803769 0.000000 
0.000000 0.802060 0.000000 
0.000000 0.800000 0.000000 
0.000000 0.797436 0.000000 
0.000000 0.794277 0.000000 
0.202514 0.790841 0.000000 
0.342110 0.787228 0.000000 
0.446346 0.783396 0.000000 
0.532657 0.779438 0.000000 
0.607782 0.775385 0.000000 
0.675233 0.771243 0.000000 
0.736513 0.767052 0.000000 
0.792950 0.762820 0.000000 
0.845327 0.758562 0.000000 
0.894095 0.754304 0.000000 
0.939042 0.750120 0.000000 
0.980889 0.745997 0.000000 
1.000000 0.741959 0.000000 
1.000000 0.738027 0.000000 
1.000000 0.734218 0.000000 
1.000000 0.730580 0.000000 
1.000000 0.727393 0.000000 
0.000000 0.844643 0.000000 
0.000000 0.844643 0.000000 
0.000000 0.844643 0.000000 
0.000000 0.844643 0.000000 
0.000000 0.844346 0.000000 
0.000000 0.843953 0.000000 
0.000000 0.843522 0.000000 
0.000000 0.842927 0.000000 
0.000000 0.842265 0.000000 
0.000000 0.841401 0.000000 
0.000000 0.840342 0.000000 
0.000000 0.839050 0.000000 
0.000000 0.837418 0.000000 
0.000000 0.835453 0.000000 
0.000000 0.833009 0.000000 
0.000000 0.829996 0.000000 
0.116149 0.826722 0.000000 
0.293958 0.823280 0.000000 
0.410192 0.819631 0.000000 
0.502804 0.815864 0.000000 
0.581934 0.812008 0.000000 
0.652207 0.808070 0.000000 
0.715595 0.804087 0.000000 
0.773679 0.800067 0.000000 
0.827383 0.796025 0.000000 
0.877244 0.791985 0.000000 
0.923094 0.788018 0.000000 
0.965705 0.784109 0.000000 
1.000000 0.780285 0.000000 
1.000000 0.776562 0.000000 
1.000000 0.772958 0.000000 
1.000000 0.769517 0.000000 
1.000000 0.766505 0.000000 
0.000000 0.878331 0.000000 
0.000000 0.878331 0.000000 
0.000000 0.878331 0.000000 
0.000000 0.878331 0.000000 
0.000000 0.878046 0.000000 
0.000000 0.877669 0.000000 
0.000000 0.877257 0.000000 
0.000000 0.876687 0.000000 
0.000000 0.876053 0.000000 
0.000000 0.875225 0.000000 
0.000000 0.874211 0.000000 
0.000000 0.872974 0.000000 
0.000000 0.871412 0.000000 
0.000000 0.869531 0.000000 
0.000000 0.867191 0.000000 
0.000000 0.864309 0.000000 
0.000000 0.861177 0.000000 
0.236847 0.857886 0.000000 
0.370344 0.854399 0.000000 
0.470828 0.850799 0.000000 
0.554662 0.847117 0.000000 
0.628141 0.843358 0.000000 
0.693870 0.839557 0.000000 
0.753755 0.835723 0.000000 
0.808895 0.831869 0.000000 
0.859926 0.828019 0.000000 
