Postproduction/IWLTBAP - Humble/LUTs by IWLTBAP (3DL)/UTILITY/Fujifilm F-Log to Rec.709/LUTs by Fujifilm/FLog_FGamut_to_WDR_BT.709_33grid_V.1.00.3dl
# title:FLog_FGamut_to_WDR_BT.709
# FUJIFILM Corporation
# Gamma:F-Log to Wide Dynamic Range curve
# Gamut:F-Gamut to ITU-R BT.709
# Version:1.00
0 128 256 384 512 640 768 896 1023
0 0 0
0 0 91
0 0 606
0 0 1250
0 0 2083
0 0 2836
0 0 3453
0 0 3951
0 0 4095
0 84 0
0 83 83
0 79 601
0 69 1248
0 47 2081
0 17 2835
0 0 3452
0 0 3950
0 0 4095
0 593 0
0 593 33
0 590 566
0 583 1229
0 567 2070
0 546 2827
0 522 3446
0 499 3945
0 479 4095
0 1239 0
0 1239 0
0 1237 477
0 1233 1184
0 1225 2043
0 1214 2808
0 1202 3430
0 1190 3931
0 1180 4095
0 2071 0
0 2071 0
0 2070 234
0 2067 1078
0 2062 1982
0 2056 2764
0 2048 3395
0 2041 3901
0 2035 4095
0 2835 0
0 2835 0
0 2834 0
0 2832 916
0 2829 1895
0 2824 2704
0 2819 3347
0 2814 3860
0 2809 4095
0 3459 0
0 3459 0
0 3458 0
0 3457 711
0 3454 1799
0 3450 2638
0 3446 3295
0 3442 3815
0 3438 4095
0 3963 0
0 3963 0
0 3963 0
0 3962 455
0 3959 1700
0 3956 2572
0 3952 3243
0 3949 3772
0 3946 4095
0 4095 0
0 4095 0
0 4095 0
0 4095 146
0 4095 1608
0 4095 2513
0 4095 3198
0 4095 3733
0 4095 4095
122 0 0
116 0 89
79 0 605
0 0 1250
0 0 2082
0 0 2836
0 0 3453
0 0 3951
0 0 4095
79 74 0
74 74 74
36 69 600
0 59 1247
0 37 2081
0 8 2835
0 0 3452
0 0 3950
0 0 4095
0 587 0
0 586 32
0 583 565
0 576 1228
0 561 2069
0 539 2827
0 516 3446
0 492 3945
0 471 4095
0 1235 0
0 1235 0
0 1233 476
0 1230 1183
0 1221 2042
0 1210 2807
0 1198 3430
0 1186 3931
0 1176 4095
0 2069 0
0 2069 0
0 2068 233
0 2065 1077
0 2060 1982
0 2053 2764
0 2046 3395
0 2039 3901
0 2033 4095
0 2833 0
0 2833 0
0 2832 0
0 2831 915
0 2827 1895
0 2822 2703
0 2817 3347
0 2812 3860
0 2808 4095
0 3458 0
0 3458 0
0 3457 0
0 3456 710
0 3453 1798
0 3449 2637
0 3445 3295
0 3441 3815
0 3437 4095
0 3962 0
0 3962 0
0 3962 0
0 3961 454
0 3958 1699
0 3955 2572
0 3951 3243
0 3948 3772
0 3945 4095
0 4095 0
0 4095 0
0 4095 0
0 4095 145
0 4095 1608
0 4095 2513
0 4095 3197
0 4095 3733
0 4095 4095
796 0 0
793 0 80
772 0 599
721 0 1246
599 0 2080
398 0 2835
127 0 3452
0 0 3950
0 0 4095
772 10 0
768 9 73
747 5 594
695 0 1244
569 0 2079
358 0 2833
83 0 3451
0 0 3949
0 0 4095
588 541 0
584 540 22
545 545 545
492 530 1225
321 513 2067
64 490 2825
0 465 3444
0 439 3944
0 417 4095
0 1211 0
0 1211 0
0 1209 468
0 1205 1179
0 1197 2040
0 1185 2806
0 1173 3429
0 1161 3930
0 1150 4095
0 2054 0
0 2054 0
0 2053 224
0 2051 1073
0 2045 1979
0 2039 2762
0 2031 3394
0 2024 3900
0 2018 4095
0 2823 0
0 2822 0
0 2822 0
0 2820 910
0 2816 1893
0 2812 2702
0 2806 3346
0 2801 3859
0 2797 4095
0 3449 0
0 3449 0
0 3448 0
0 3447 704
0 3444 1796
0 3440 2636
0 3436 3293
0 3432 3814
0 3429 4095
0 3955 0
0 3955 0
0 3954 0
0 3953 446
0 3951 1697
0 3947 2570
0 3944 3242
0 3940 3770
0 3937 4095
0 4095 0
0 4095 0
0 4095 0
0 4095 136
0 4095 1605
0 4095 2511
0 4095 3196
0 4095 3732
0 4095 4095
1572 0 0
1571 0 58
1559 0 584
1533 0 1238
1473 0 2075
1388 0 2831
1293 0 3449
1194 0 3948
1103 0 4095
1559 0 0
1558 0 51
1546 0 578
1520 0 1236
1459 0 2074
1374 0 2830
1277 0 3448
1177 0 3947
1084 0 4095
1468 421 0
1466 421 1
1454 417 542
1426 408 1216
1361 389 2062
1270 361 2822
1165 329 3441
1055 299 3941
953 273 4095
1231 1152 0
1228 1152 0
1214 1150 451
1153 1153 1153
1103 1137 2035
990 1125 2802
857 1112 3426
709 1100 3928
560 1089 4095
425 2019 0
420 2019 0
386 2018 202
301 2016 1064
110 2011 1974
0 2004 2759
0 1996 3391
0 1989 3898
0 1983 4095
0 2798 0
0 2798 0
0 2797 0
0 2795 900
0 2792 1887
0 2787 2698
0 2782 3343
0 2776 3856
0 2772 4095
0 3429 0
0 3429 0
0 3429 0
0 3427 691
0 3424 1790
0 3420 2632
0 3416 3290
0 3412 3812
0 3409 4095
0 3938 0
0 3938 0
0 3937 0
0 3936 427
0 3934 1691
0 3930 2566
0 3927 3239
0 3923 3768
0 3920 4095
0 4095 0
0 4095 0
0 4095 0
0 4095 114
0 4095 1599
0 4095 2507
0 4095 3193
0 4095 3729
0 4095 4095
2562 0 0
2561 0 11
2554 0 550
2538 0 1220
2503 0 2064
2454 0 2823
2401 0 3443
2349 0 3942
2303 0 4095
2554 0 0
2553 0 3
2546 0 544
2530 0 1218
2494 0 2063
2446 0 2822
2392 0 3442
2340 0 3941
2294 0 4095
2500 101 0
2499 101 0
2492 96 506
2475 86 1198
2439 65 2051
2389 35 2814
2334 4 3435
2280 0 3936
2233 0 4095
2368 1014 0
2367 1014 0
2359 1012 410
2342 1007 1152
2303 997 2024
2250 984 2794
2192 969 3420
2134 955 3922
2084 943 4095
2044 1942 0
2043 1942 0
2034 1941 154
2014 1938 1043
1942 1942 1942
1906 1926 2751
1837 1918 3385
1767 1910 3892
1706 1904 4095
1490 2743 0
1489 2743 0
1477 2742 0
1449 2741 876
1385 2737 1875
1295 2732 2690
1193 2726 3336
1085 2721 3851
986 2717 4095
476 3385 0
471 3385 0
440 3385 0
362 3383 661
170 3380 1778
0 3376 2623
0 3372 3284
0 3368 3806
0 3365 4095
0 3900 0
0 3900 0
0 3900 0
0 3899 385
0 3896 1677
0 3893 2557
0 3889 3232
0 3885 3762
0 3882 4095
0 4095 0
0 4095 0
0 4095 0
0 4095 67
0 4095 1585
0 4095 2498
0 4095 3186
0 4095 3723
0 4095 4095
3464 0 0
3463 0 0
3458 0 501
3447 0 1196
3421 0 2050
3387 0 2813
3349 0 3434
3313 0 3935
3281 0 4095
3458 0 0
3458 0 0
3453 0 496
3441 0 1193
3415 0 2048
3381 0 2811
3343 0 3433
3307 0 3934
3275 0 4095
3419 0 0
3418 0 0
3413 0 455
3402 0 1173
3376 0 2036
3341 0 2803
3303 0 3427
3266 0 3928
3234 0 4095
3326 796 0
3325 795 0
3320 793 350
3308 787 1126
3281 775 2009
3245 758 2784
3206 740 3411
3168 722 3915
3135 707 4095
3109 1831 0
3108 1831 0
3103 1830 90
3090 1828 1015
3061 1822 1947
3022 1814 2740
2980 1806 3376
2938 1798 3885
2902 1791 4095
2783 2667 0
2782 2667 0
2776 2666 0
2761 2664 842
2729 2661 1859
2662 2662 2662
2636 2650 3327
2589 2645 3843
2548 2640 4095
2383 3325 0
2382 3325 0
2374 3324 0
2357 3323 619
2319 3320 1760
2266 3316 2612
2208 3312 3275
2151 3307 3798
2101 3304 4095
1914 3849 0
1913 3849 0
1903 3848 0
1882 3847 322
1833 3844 1659
1765 3841 2546
1690 3837 3223
1615 3834 3754
1548 3831 4095
1378 4095 0
1376 4095 0
1364 4095 0
1333 4095 2
1264 4095 1566
1166 4095 2486
1052 4095 3177
931 4095 3715
815 4095 4095
4095 0 0
4095 0 0
4095 0 446
4095 0 1169
4095 0 2034
4095 0 2801
4095 0 3425
4081 0 3927
4056 0 4095
4095 0 0
4095 0 0
4095 0 440
4095 0 1166
4095 0 2032
4095 0 2800
4095 0 3424
4076 0 3926
4051 0 4095
4095 0 0
4095 0 0
4095 0 396
4095 0 1146
4095 0 2021
4095 0 2792
4073 0 3417
4044 0 3920
4019 0 4095
4092 490 0
4091 490 0
4087 486 281
4077 479 1098
4056 461 1993
4028 436 2772
3997 409 3402
3967 381 3907
3941 357 4095
3921 1706 0
3921 1706 0
3916 1705 22
3906 1702 984
3884 1696 1931
3854 1688 2728
3822 1679 3367
3790 1670 3877
3763 1663 4095
3674 2584 0
3673 2584 0
3668 2583 0
3658 2581 806
3634 2577 1842
3601 2572 2667
3566 2566 3318
3532 2560 3835
3503 2556 4095
3388 3260 0
3387 3260 0
3382 3259 0
3370 3258 572
3344 3255 1742
3309 3250 2600
3252 3252 3252
3233 3242 3790
3201 3238 4095
3084 3793 0
3083 3793 0
3078 3793 0
3065 3791 254
3036 3789 1640
2996 3785 2533
2953 3782 3213
2911 3778 3746
2875 3775 4095
2789 4095 0
2788 4095 0
2782 4095 0
2767 4095 0
2735 4095 1545
2690 4095 2473
2642 4095 3167
2595 4095 3707
2554 4095 4095
4095 0 0
4095 0 0
4095 0 388
4095 0 1142
4095 0 2019
4095 0 2790
4095 0 3416
4095 0 3919
4095 0 4095
4095 0 0
4095 0 0
4095 0 382
4095 0 1139
4095 0 2017
4095 0 2789
4095 0 3415
4095 0 3919
4095 0 4095
4095 0 0
4095 0 0
4095 0 333
4095 0 1119
4095 0 2005
4095 0 2781
4095 0 3409
4095 0 3913
4095 0 4095
4095 59 0
4095 58 0
4095 54 215
4095 44 1070
4095 22 1977
4095 0 2761
4095 0 3393
4095 0 3899
4095 0 4095
4095 1576 0
4095 1576 0
4095 1575 0
4095 1572 953
4095 1565 1914
4095 1556 2717
4095 1547 3358
4095 1537 3869
4095 1529 4095
4095 2500 0
4095 2500 0
4095 2499 0
4095 2498 769
4095 2493 1825
4095 2488 2655
4095 2482 3309
4095 2476 3827
4095 2471 4095
4095 3195 0
4095 3195 0
4095 3195 0
4095 3193 524
4081 3190 1724
4053 3186 2588
4022 3181 3256
3993 3177 3782
3967 3173 4095
3875 3739 0
3875 3739 0
3870 3738 0
3860 3737 188
3838 3734 1621
3807 3731 2521
3774 3727 3204
3728 3728 3728
3715 3720 4095
3650 4095 0
3649 4095 0
3645 4095 0
3634 4095 0
3610 4095 1525
3577 4095 2461
3542 4095 3157
3508 4095 3699
3478 4095 4095
4095 0 0
4095 0 0
4095 0 334
4095 0 1119
4095 0 2005
4095 0 2781
4095 0 3409
4095 0 3913
4095 0 4095
4095 0 0
4095 0 0
4095 0 326
4095 0 1116
4095 0 2004
4095 0 2780
4095 0 3408
4095 0 3912
4095 0 4095
4095 0 0
4095 0 0
4095 0 276
4095 0 1095
4095 0 1992
4095 0 2771
4095 0 3401
4095 0 3906
4095 0 4095
4095 0 0
4095 0 0
4095 0 159
4095 0 1045
4095 0 1964
4095 0 2751
4095 0 3385
4095 0 3893
4095 0 4095
4095 1456 0
4095 1455 0
4095 1454 0
4095 1451 926
4095 1444 1900
4095 1434 2707
4095 1424 3350
4095 1414 3862
4095 1405 4095
4095 2427 0
4095 2427 0
4095 2426 0
4095 2424 737
4095 2420 1810
4095 2414 2645
4095 2408 3301
4095 2402 3821
4095 2397 4095
4095 3139 0
4095 3139 0
4095 3138 0
4095 3137 480
4095 3133 1708
4095 3129 2578
4095 3124 3248
4095 3120 3775
4095 3116 4095
4095 3691 0
4095 3691 0
4095 3691 0
4095 3690 132
4095 3687 1604
4095 3683 2510
4095 3679 3195
4095 3676 3731
4095 3672 4095
4095 4095 0
4095 4095 0
4095 4095 0
4095 4095 0
4095 4095 1507
4095 4095 2450
4095 4095 3149
4095 4095 3692
4095 4095 4095
