Postproduction/IWLTBAP - Humble/LUTs by IWLTBAP (3DL)/UTILITY/Fujifilm F-Log to Rec.709/LUTs by Fujifilm/FLog_FGamut_to_WDR_BT.709_33grid_V.1.00.3dl
# title:FLog_FGamut_to_WDR_BT.709
# FUJIFILM Corporation
# Gamma:F-Log to Wide Dynamic Range curve
# Gamut:F-Gamut to ITU-R BT.709
# Version:1.00
0 256 512 768 1023
0 0 0
0 0 606
0 0 2083
0 0 3453
0 0 4095
0 593 0
0 590 566
0 567 2070
0 522 3446
0 479 4095
0 2071 0
0 2070 234
0 2062 1982
0 2048 3395
0 2035 4095
0 3459 0
0 3458 0
0 3454 1799
0 3446 3295
0 3438 4095
0 4095 0
0 4095 0
0 4095 1608
0 4095 3198
0 4095 4095
796 0 0
772 0 599
599 0 2080
127 0 3452
0 0 4095
588 541 0
545 545 545
321 513 2067
0 465 3444
0 417 4095
0 2054 0
0 2053 224
0 2045 1979
0 2031 3394
0 2018 4095
0 3449 0
0 3448 0
0 3444 1796
0 3436 3293
0 3429 4095
0 4095 0
0 4095 0
0 4095 1605
0 4095 3196
0 4095 4095
2562 0 0
2554 0 550
2503 0 2064
2401 0 3443
2303 0 4095
2500 101 0
2492 96 506
2439 65 2051
2334 4 3435
2233 0 4095
2044 1942 0
2034 1941 154
1942 1942 1942
1837 1918 3385
1706 1904 4095
476 3385 0
440 3385 0
170 3380 1778
0 3372 3284
0 3365 4095
0 4095 0
0 4095 0
0 4095 1585
0 4095 3186
0 4095 4095
4095 0 0
4095 0 446
4095 0 2034
4095 0 3425
4056 0 4095
4095 0 0
4095 0 396
4095 0 2021
4073 0 3417
4019 0 4095
3921 1706 0
3916 1705 22
3884 1696 1931
3822 1679 3367
3763 1663 4095
3388 3260 0
3382 3259 0
3344 3255 1742
3252 3252 3252
3201 3238 4095
2789 4095 0
2782 4095 0
2735 4095 1545
2642 4095 3167
2554 4095 4095
4095 0 0
4095 0 334
4095 0 2005
4095 0 3409
4095 0 4095
4095 0 0
4095 0 276
4095 0 1992
4095 0 3401
4095 0 4095
4095 1456 0
4095 1454 0
4095 1444 1900
4095 1424 3350
4095 1405 4095
4095 3139 0
4095 3138 0
4095 3133 1708
4095 3124 3248
4095 3116 4095
4095 4095 0
4095 4095 0
4095 4095 1507
4095 4095 3149
4095 4095 4095
