Postproduction/IWLTBAP - Humble/LUTs by IWLTBAP (3DL)/UTILITY/Fujifilm F-Log to Rec.709/LUTs by Fujifilm/FLog_FGamut_to_FLog_BT.709_33grid_V.1.00.3dl
# title:FLog_FGamut_to_FLog_BT.709
# FUJIFILM Corporation
# Gamma:F-Log to F-Log
# Gamut:F-Gamut to ITU-R BT.709
# Version:1.00
0 128 256 384 512 640 768 896 1023
0 0 0
0 0 571
0 0 1110
0 0 1648
0 0 2187
0 0 2725
0 0 3263
0 0 3802
0 0 4095
0 560 0
0 557 532
0 551 1087
0 542 1633
0 530 2175
0 514 2716
0 494 3256
0 469 3795
0 440 4095
0 1102 0
0 1100 461
0 1097 1048
0 1092 1606
0 1085 2155
0 1076 2700
0 1065 3243
0 1051 3785
0 1036 4095
0 1643 0
0 1642 334
0 1640 985
0 1636 1564
0 1632 2124
0 1626 2676
0 1618 3223
0 1609 3768
0 1598 4095
0 2185 0
0 2184 140
0 2182 891
0 2180 1504
0 2176 2080
0 2172 2641
0 2166 3195
0 2159 3744
0 2151 4095
0 2726 0
0 2726 0
0 2724 756
0 2722 1424
0 2719 2022
0 2716 2596
0 2711 3158
0 2706 3713
0 2700 4095
0 3268 0
0 3267 0
0 3266 557
0 3265 1317
0 3262 1948
0 3259 2540
0 3256 3113
0 3251 3675
0 3246 4095
0 3809 0
0 3809 0
0 3808 227
0 3807 1178
0 3805 1856
0 3802 2470
0 3799 3057
0 3795 3629
0 3791 4095
0 4095 0
0 4095 0
0 4095 0
0 4095 993
0 4095 1741
0 4095 2386
0 4095 2990
0 4095 3573
0 4095 4095
759 0 3
736 0 564
696 0 1106
630 0 1645
530 0 2184
378 0 2723
153 0 3262
0 0 3801
0 0 4095
558 510 0
512 512 512
477 500 1083
389 491 1630
250 478 2173
66 461 2714
0 439 3254
0 412 3794
0 380 4095
73 1073 0
33 1071 453
0 1068 1044
0 1063 1603
0 1056 2153
0 1047 2698
0 1035 3242
0 1021 3783
0 1005 4095
0 1624 0
0 1622 324
0 1620 980
0 1617 1561
0 1612 2122
0 1606 2674
0 1598 3221
0 1589 3766
0 1578 4095
0 2170 0
0 2169 130
0 2168 886
0 2165 1501
0 2161 2078
0 2157 2640
0 2151 3193
0 2144 3743
0 2137 4095
0 2715 0
0 2714 0
0 2713 751
0 2711 1420
0 2708 2020
0 2704 2595
0 2700 3157
0 2694 3712
0 2688 4095
0 3258 0
0 3258 0
0 3257 550
0 3255 1314
0 3253 1946
0 3250 2538
0 3246 3111
0 3242 3674
0 3237 4095
0 3801 0
0 3801 0
0 3800 217
0 3799 1174
0 3797 1853
0 3794 2468
0 3791 3055
0 3787 3627
0 3783 4095
0 4095 0
0 4095 0
0 4095 0
0 4095 989
0 4095 1739
0 4095 2384
0 4095 2988
0 4095 3572
0 4095 4095
1402 0 0
1389 0 552
1366 0 1099
1330 0 1640
1279 0 2181
1211 0 2720
1121 0 3260
1003 0 3799
853 0 4095
1293 416 0
1279 412 512
1254 406 1076
1215 395 1625
1160 380 2169
1084 360 2711
984 335 3252
851 304 3792
675 269 4095
1087 1023 0
1070 1021 439
1024 1024 1024
995 1013 1598
928 1005 2149
835 996 2696
706 984 3239
524 969 3781
246 953 4095
668 1590 0
643 1589 308
599 1587 973
524 1583 1556
408 1578 2118
230 1572 2671
3 1564 3219
0 1555 3764
0 1544 4095
0 2145 0
0 2144 113
0 2143 878
0 2140 1496
0 2137 2074
0 2132 2637
0 2126 3191
0 2119 3741
0 2111 4095
0 2695 0
0 2694 0
0 2693 741
0 2691 1415
0 2688 2016
0 2685 2592
0 2680 3154
0 2675 3710
0 2668 4095
0 3242 0
0 3242 0
0 3241 538
0 3239 1308
0 3237 1942
0 3234 2535
0 3230 3109
0 3225 3672
0 3220 4095
0 3788 0
0 3787 0
0 3786 201
0 3785 1168
0 3783 1849
0 3780 2465
0 3777 3053
0 3774 3625
0 3769 4095
0 4095 0
0 4095 0
0 4095 0
0 4095 981
0 4095 1734
0 4095 2381
0 4095 2986
0 4095 3570
0 4095 4095
2045 0 0
2036 0 533
2021 0 1088
1996 0 1633
1962 0 2175
1918 0 2716
1861 0 3256
1791 0 3796
1707 0 4095
1972 246 0
1962 242 492
1946 234 1065
1921 222 1617
1885 206 2164
1839 185 2707
1780 159 3248
1706 128 3789
1618 92 4095
1840 942 0
1830 940 417
1813 936 1025
1786 930 1591
1748 923 2144
1697 912 2691
1633 899 3236
1553 884 3778
1456 866 4095
1615 1537 0
1604 1536 282
1584 1534 961
1536 1536 1536
1509 1525 2113
1451 1518 2667
1375 1510 3215
1280 1501 3761
1162 1489 4095
1241 2106 0
1226 2105 88
1200 2104 865
1160 2101 1488
1102 2097 2069
1022 2093 2632
917 2087 3187
774 2080 3738
581 2072 4095
485 2665 0
453 2664 0
395 2662 726
295 2660 1406
153 2657 2010
0 2654 2587
0 2649 3151
0 2644 3707
0 2637 4095
0 3217 0
0 3217 0
0 3215 518
0 3214 1299
0 3211 1936
0 3208 2530
0 3205 3105
0 3200 3669
0 3195 4095
0 3767 0
0 3766 0
0 3765 175
0 3764 1157
0 3762 1843
0 3759 2460
0 3756 3049
0 3752 3622
0 3748 4095
0 4095 0
0 4095 0
0 4095 0
0 4095 969
0 4095 1727
0 4095 2375
0 4095 2982
0 4095 3567
0 4095 4095
2689 0 0
2682 0 506
2670 0 1073
2652 0 1623
2627 0 2168
2594 0 2710
2553 0 3251
2502 0 3791
2444 0 4095
2633 3 0
2626 0 464
2615 0 1050
2596 0 1607
2570 0 2156
2537 0 2701
2494 0 3243
2443 0 3785
2383 0 4095
2538 819 0
2530 816 385
2518 812 1009
2499 806 1580
2472 797 2136
2437 785 2685
2393 770 3230
2339 753 3774
2276 732 4095
2381 1461 0
2373 1459 247
2360 1457 944
2339 1453 1538
2310 1448 2105
2272 1441 2660
2225 1433 3210
2167 1422 3757
2098 1411 4095
2144 2051 0
2135 2050 52
2120 2048 846
2097 2046 1477
2048 2048 2048
2022 2037 2626
1969 2031 3182
1903 2024 3733
1824 2015 4095
1791 2622 0
1780 2621 0
1762 2619 705
1734 2617 1394
1695 2614 2002
1643 2611 2581
1577 2606 3146
1494 2600 3703
1393 2594 4095
1223 3182 0
1208 3181 0
1182 3180 491
1141 3179 1286
1082 3176 1927
1001 3173 2524
893 3169 3100
747 3165 3664
547 3160 4095
0 3737 0
0 3737 0
0 3736 140
0 3734 1143
0 3732 1833
0 3730 2453
0 3727 3043
0 3723 3618
0 3718 4095
0 4095 0
0 4095 0
0 4095 0
0 4095 953
0 4095 1717
0 4095 2368
0 4095 2976
0 4095 3562
0 4095 4095
3332 0 0
3326 0 470
3317 0 1053
3303 0 1609
3283 0 2158
3257 0 2702
3225 0 3245
3186 0 3786
3141 0 4095
3288 0 0
3283 0 425
3273 0 1029
3259 0 1594
3239 0 2146
3212 0 2693
3180 0 3237
3140 0 3779
3094 0 4095
3213 633 0
3208 630 342
3198 624 989
3183 617 1567
3162 606 2126
3135 591 2677
3102 573 3224
3061 551 3769
3014 524 4095
3093 1356 0
3087 1355 201
3077 1352 922
3061 1348 1524
3040 1342 2094
3012 1335 2652
2976 1326 3204
2934 1315 3751
2885 1302 4095
2917 1978 0
2911 1976 6
2900 1975 822
2884 1972 1462
2861 1968 2050
2831 1963 2618
2793 1957 3176
2748 1949 3728
2694 1940 4095
2672 2565 0
2665 2564 0
2654 2563 676
2635 2561 1379
2610 2558 1991
2560 2560 2560
2535 2549 3139
2485 2543 3697
2426 2537 4095
2332 3136 0
2324 3136 0
2310 3135 454
2289 3133 1269
2260 3130 1916
2221 3127 2515
2172 3123 3093
2113 3119 3659
2042 3114 4095
1839 3699 0
1829 3698 0
1812 3697 94
1785 3696 1125
1747 3694 1822
1696 3691 2445
1632 3688 3036
1552 3684 3612
1455 3680 4095
998 4095 0
980 4095 0
949 4095 0
898 4095 931
825 4095 1705
721 4095 2359
575 4095 2969
353 4095 3556
44 4095 4095
3975 0 0
3970 0 423
3963 0 1028
3951 0 1593
3935 0 2145
3914 0 2692
3887 0 3236
3856 0 3779
3819 0 4095
3939 0 0
3934 0 375
3927 0 1004
3915 0 1577
3898 0 2133
3877 0 2683
3851 0 3229
3819 0 3773
3782 0 4095
3878 322 0
3873 317 286
3865 310 962
3853 298 1550
3837 282 2113
3815 261 2667
3788 235 3216
3755 204 3762
3717 168 4095
3780 1216 0
3776 1214 145
3768 1211 894
3755 1207 1506
3738 1200 2082
3716 1192 2642
3688 1182 3196
3654 1170 3745
3615 1156 4095
3641 1883 0
3636 1882 0
3628 1880 791
3615 1877 1444
3597 1873 2037
3573 1867 2608
3544 1861 3167
3509 1853 3721
3469 1844 4095
3452 2493 0
3446 2492 0
3437 2491 640
3424 2489 1360
3405 2486 1978
3380 2482 2562
3349 2477 3130
3311 2471 3690
3268 2464 4095
3201 3079 0
3195 3078 0
3185 3077 406
3170 3075 1248
3149 3073 1902
3122 3070 2505
3071 3071 3071
3048 3061 3651
3000 3056 4095
2869 3651 0
2862 3650 0
2851 3649 38
2834 3648 1101
2811 3646 1807
2780 3643 2434
2742 3640 3028
2696 3636 3605
2641 3632 4095
2418 4095 0
2411 4095 0
2398 4095 0
2377 4095 903
2349 4095 1689
2312 4095 2348
2265 4095 2960
2208 4095 3549
2141 4095 4095
4095 0 0
4095 0 362
4095 0 998
4095 0 1573
4095 0 2130
4095 0 2681
4095 0 3227
4095 0 3771
4095 0 4095
4095 0 0
4095 0 309
4095 0 973
4095 0 1557
4095 0 2118
4095 0 2671
4095 0 3219
4095 0 3764
4095 0 4095
4095 0 0
4095 0 218
4095 0 930
4095 0 1529
4095 0 2098
4095 0 2655
4095 0 3206
4095 0 3754
4095 0 4095
4095 1025 0
4095 1023 77
4095 1020 859
4095 1014 1485
4095 1007 2066
4095 997 2630
4095 985 3186
4095 971 3736
4095 954 4095
4095 1763 0
4095 1761 0
4095 1759 753
4095 1756 1422
4095 1752 2021
4095 1746 2595
4095 1739 3158
4095 1731 3713
4095 1721 4095
4095 2404 0
4095 2404 0
4095 2402 595
4095 2400 1336
4095 2397 1961
4095 2392 2550
4095 2387 3121
4072 2381 3682
4038 2374 4095
3984 3008 0
3980 3008 0
3972 3006 342
3961 3005 1223
3944 3002 1885
3923 2999 2492
3897 2995 3074
3866 2990 3643
3829 2985 4095
3729 3593 0
3724 3592 0
3716 3591 0
3703 3590 1073
3686 3587 1789
3663 3585 2421
3635 3581 3018
3583 3583 3583
3561 3573 4095
3403 4095 0
3398 4095 0
3389 4095 0
3375 4095 869
3355 4095 1670
3330 4095 2335
3299 4095 2950
3261 4095 3540
3217 4095 4095
4095 0 0
4095 0 285
4095 0 962
4095 0 1549
4095 0 2113
4095 0 2667
4095 0 3216
4095 0 3762
4095 0 4095
4095 0 0
4095 0 231
4095 0 936
4095 0 1533
4095 0 2101
4095 0 2658
4095 0 3208
4095 0 3755
4095 0 4095
4095 0 0
4095 0 141
4095 0 892
4095 0 1505
4095 0 2081
4095 0 2642
4095 0 3195
4095 0 3744
4095 0 4095
4095 759 0
4095 756 0
4095 752 819
4095 745 1460
4095 735 2048
4095 723 2617
4095 707 3175
4095 688 3727
4095 666 4095
4095 1614 0
4095 1613 0
4095 1611 707
4095 1607 1396
4095 1602 2003
4095 1596 2581
4095 1588 3146
4095 1579 3703
4095 1569 4095
4095 2298 0
4095 2297 0
4095 2296 540
4095 2293 1309
4095 2290 1943
4095 2286 2535
4095 2280 3109
4095 2274 3672
4095 2267 4095
4095 2925 0
4095 2925 0
4095 2923 265
4095 2922 1193
4095 2919 1866
4095 2916 2477
4095 2911 3062
4095 2906 3633
4095 2901 4095
4095 3524 0
4095 3524 0
4095 3523 0
4095 3521 1039
4095 3519 1769
4095 3517 2406
4095 3513 3006
4095 3509 3586
4095 3504 4095
4095 4095 0
4095 4095 0
4095 4095 0
4095 4095 829
4095 4095 1648
4095 4095 2319
4095 4095 2938
4095 4095 3530
4095 4095 4095
