Postproduction/IWLTBAP - Humble/LUTs by IWLTBAP (3DL)/UTILITY/Fujifilm F-Log to Rec.709/LUTs by Fujifilm/FLog_FGamut_to_FLog_BT.709_33grid_V.1.00.3dl
# title:FLog_FGamut_to_FLog_BT.709
# FUJIFILM Corporation
# Gamma:F-Log to F-Log
# Gamut:F-Gamut to ITU-R BT.709
# Version:1.00
0 64 128 192 256 320 384 448 512 576 640 704 768 832 896 960 1023
0 0 0
0 0 299
0 0 571
0 0 840
0 0 1110
0 0 1379
0 0 1648
0 0 1917
0 0 2187
0 0 2456
0 0 2725
0 0 2994
0 0 3263
0 0 3533
0 0 3802
0 0 4071
0 0 4095
0 284 0
0 282 273
0 280 553
0 276 827
0 272 1099
0 267 1370
0 260 1641
0 253 1911
0 244 2181
0 234 2451
0 223 2721
0 211 2990
0 197 3260
0 182 3529
0 166 3799
0 148 4068
0 130 4095
0 560 0
0 558 245
0 557 532
0 554 812
0 551 1087
0 547 1360
0 542 1633
0 537 1904
0 530 2175
0 523 2445
0 514 2716
0 505 2986
0 494 3256
0 482 3526
0 469 3795
0 455 4065
0 440 4095
0 831 0
0 830 206
0 828 502
0 827 790
0 824 1070
0 821 1347
0 818 1621
0 814 1894
0 809 2166
0 804 2438
0 798 2709
0 791 2980
0 783 3250
0 775 3521
0 766 3791
0 756 4061
0 745 4095
0 1102 0
0 1101 155
0 1100 461
0 1098 761
0 1097 1048
0 1094 1329
0 1092 1606
0 1088 1881
0 1085 2155
0 1080 2428
0 1076 2700
0 1070 2972
0 1065 3243
0 1058 3514
0 1051 3785
0 1043 4055
0 1036 4095
0 1373 0
0 1372 91
0 1371 407
0 1370 724
0 1368 1020
0 1366 1306
0 1364 1587
0 1362 1865
0 1359 2141
0 1355 2416
0 1351 2689
0 1347 2962
0 1342 3234
0 1337 3506
0 1331 3777
0 1325 4048
0 1319 4095
0 1643 0
0 1643 14
0 1642 334
0 1641 677
0 1640 985
0 1638 1278
0 1636 1564
0 1634 1846
0 1632 2124
0 1629 2401
0 1626 2676
0 1622 2950
0 1618 3223
0 1614 3495
0 1609 3768
0 1604 4039
0 1598 4095
0 1914 0
0 1914 0
0 1913 244
0 1912 618
0 1911 942
0 1910 1245
0 1908 1537
0 1906 1822
0 1904 2104
0 1902 2383
0 1899 2660
0 1896 2935
0 1892 3210
0 1889 3484
0 1885 3757
0 1880 4029
0 1876 4095
0 2185 0
0 2184 0
0 2184 140
0 2183 545
0 2182 891
0 2181 1205
0 2180 1504
0 2178 1795
0 2176 2080
0 2174 2362
0 2172 2641
0 2169 2919
0 2166 3195
0 2163 3470
0 2159 3744
0 2155 4018
0 2151 4095
0 2456 0
0 2455 0
0 2455 21
0 2454 453
0 2453 830
0 2452 1159
0 2451 1467
0 2450 1764
0 2448 2053
0 2446 2338
0 2444 2620
0 2442 2900
0 2439 3178
0 2436 3454
0 2433 3730
0 2430 4004
0 2426 4095
0 2726 0
0 2726 0
0 2726 0
0 2725 332
0 2724 756
0 2723 1104
0 2722 1424
0 2721 1728
0 2719 2022
0 2718 2311
0 2716 2596
0 2714 2878
0 2711 3158
0 2709 3437
0 2706 3713
0 2703 3989
0 2700 4095
0 2997 0
0 2997 0
0 2996 0
0 2996 184
0 2995 667
0 2994 1041
0 2993 1374
0 2992 1687
0 2991 1988
0 2989 2281
0 2988 2570
0 2986 2854
0 2984 3137
0 2981 3417
0 2979 3695
0 2976 3972
0 2973 4095
0 3268 0
0 3268 0
0 3267 0
0 3267 21
0 3266 557
0 3265 967
0 3265 1317
0 3263 1640
0 3262 1948
0 3261 2247
0 3259 2540
0 3258 2828
0 3256 3113
0 3253 3395
0 3251 3675
0 3249 3954
0 3246 4095
0 3539 0
0 3538 0
0 3538 0
0 3538 0
0 3537 415
0 3536 880
0 3536 1252
0 3535 1588
0 3533 1905
0 3532 2210
0 3531 2507
0 3529 2798
0 3527 3086
0 3525 3371
0 3523 3653
0 3521 3933
0 3519 4095
0 3809 0
0 3809 0
0 3809 0
0 3808 0
0 3808 227
0 3807 777
0 3807 1178
0 3806 1529
0 3805 1856
0 3803 2168
0 3802 2470
0 3801 2766
0 3799 3057
0 3797 3344
0 3795 3629
0 3793 3911
0 3791 4095
0 4080 0
0 4080 0
0 4080 0
0 4079 0
0 4079 17
0 4078 650
0 4078 1093
0 4077 1463
0 4076 1802
0 4075 2122
0 4073 2430
0 4072 2730
0 4071 3025
0 4069 3315
0 4067 3602
0 4065 3887
0 4063 4095
0 4095 0
0 4095 0
0 4095 0
0 4095 0
0 4095 0
0 4095 490
0 4095 993
0 4095 1389
0 4095 1741
0 4095 2071
0 4095 2386
0 4095 2691
0 4095 2990
0 4095 3284
0 4095 3573
0 4095 3860
0 4095 4095
432 0 8
416 0 294
397 0 568
370 0 838
334 0 1108
287 0 1377
231 0 1647
165 0 1916
89 0 2186
2 0 2455
0 0 2724
0 0 2993
0 0 3263
0 0 3532
0 0 3801
0 0 4070
0 0 4095
292 252 0
256 256 256
252 248 550
223 244 824
186 240 1097
139 235 1369
83 228 1639
17 221 1910
0 212 2180
0 202 2450
0 191 2720
0 179 2989
0 165 3259
0 150 3529
0 134 3798
0 116 4068
0 99 4095
126 536 0
108 535 240
87 533 529
58 531 809
20 527 1085
0 523 1359
0 518 1631
0 513 1903
0 506 2174
0 498 2445
0 490 2715
0 480 2985
0 469 3255
0 457 3525
0 443 3795
0 428 4065
0 412 4095
0 814 0
0 812 201
0 811 499
0 809 788
0 807 1068
0 804 1345
0 801 1620
0 796 1893
0 792 2165
0 786 2437
0 780 2708
0 773 2979
0 765 3250
0 757 3520
0 747 3790
0 737 4060
0 727 4095
0 1088 0
0 1087 150
0 1086 457
0 1085 759
0 1083 1046
0 1081 1327
0 1078 1605
0 1075 1880
0 1071 2154
0 1067 2427
0 1062 2699
0 1057 2971
0 1051 3242
0 1044 3513
0 1037 3784
0 1029 4054
0 1021 4095
0 1362 0
0 1361 86
0 1360 403
0 1359 721
0 1357 1018
0 1356 1305
0 1353 1586
0 1351 1864
0 1348 2140
0 1344 2415
0 1340 2688
0 1336 2961
0 1331 3233
0 1326 3505
0 1320 3776
0 1314 4047
0 1308 4095
0 1634 0
0 1633 9
0 1633 330
0 1632 674
0 1631 983
0 1629 1277
0 1627 1563
0 1625 1844
0 1622 2123
0 1620 2400
0 1616 2675
0 1613 2949
0 1609 3222
0 1604 3495
0 1600 3767
0 1594 4039
0 1589 4095
0 1906 0
0 1906 0
0 1905 239
0 1904 615
0 1903 940
0 1902 1243
0 1900 1535
0 1898 1821
0 1896 2103
0 1894 2382
0 1891 2659
0 1888 2935
0 1884 3209
0 1881 3483
0 1877 3756
0 1872 4029
0 1868 4095
0 2178 0
0 2178 0
0 2177 135
0 2176 542
0 2175 889
0 2174 1204
0 2173 1503
0 2171 1794
0 2169 2079
0 2167 2361
0 2165 2641
0 2162 2918
0 2159 3194
0 2156 3469
0 2152 3743
0 2148 4017
0 2144 4095
0 2450 0
0 2449 0
0 2449 16
0 2448 449
0 2447 827
0 2446 1157
0 2445 1465
0 2443 1762
0 2442 2052
0 2440 2337
0 2438 2620
0 2435 2899
0 2433 3177
0 2430 3454
0 2427 3729
0 2423 4004
0 2420 4095
0 2721 0
0 2721 0
0 2720 0
0 2720 327
0 2719 754
0 2718 1103
0 2717 1422
0 2716 1726
0 2714 2021
0 2712 2311
0 2710 2596
0 2708 2878
0 2706 3158
0 2703 3436
0 2701 3713
0 2698 3989
0 2694 4095
0 2992 0
0 2992 0
0 2992 0
0 2991 179
0 2990 664
0 2990 1039
0 2989 1372
0 2987 1685
0 2986 1986
0 2984 2280
0 2983 2569
0 2981 2854
0 2979 3136
0 2976 3416
0 2974 3695
0 2971 3972
0 2968 4095
0 3263 0
0 3263 0
0 3263 0
0 3262 16
0 3262 554
0 3261 965
0 3260 1315
0 3259 1639
0 3258 1947
0 3256 2246
0 3255 2539
0 3253 2827
0 3251 3112
0 3249 3394
0 3247 3674
0 3244 3953
0 3242 4095
0 3535 0
0 3534 0
0 3534 0
0 3534 0
0 3533 411
0 3532 878
0 3531 1251
0 3530 1587
0 3529 1904
0 3528 2209
0 3527 2506
0 3525 2797
0 3523 3085
0 3521 3370
0 3519 3652
0 3517 3933
0 3515 4095
0 3806 0
0 3805 0
0 3805 0
0 3805 0
0 3804 223
0 3804 774
0 3803 1176
0 3802 1528
0 3801 1855
0 3800 2167
0 3798 2469
0 3797 2765
0 3795 3056
0 3793 3343
0 3791 3628
0 3789 3910
0 3787 4095
0 4077 0
0 4076 0
0 4076 0
0 4076 0
0 4075 13
0 4075 647
0 4074 1091
0 4073 1462
0 4072 1800
0 4071 2121
0 4070 2429
0 4068 2729
0 4067 3024
0 4065 3314
0 4064 3602
0 4062 3886
0 4060 4095
0 4095 0
0 4095 0
0 4095 0
0 4095 0
0 4095 0
0 4095 486
0 4095 991
0 4095 1387
0 4095 1740
0 4095 2070
0 4095 2385
0 4095 2690
0 4095 2989
0 4095 3283
0 4095 3573
0 4095 3860
0 4095 4095
759 0 3
748 0 289
736 0 564
719 0 835
696 0 1106
667 0 1376
630 0 1645
585 0 1915
530 0 2184
463 0 2454
378 0 2723
272 0 2993
153 0 3262
24 0 3531
0 0 3801
0 0 4070
0 0 4095
670 217 0
658 215 264
644 212 546
625 209 822
600 205 1095
567 199 1367
526 193 1638
475 185 1909
410 176 2179
329 166 2449
232 155 2719
124 143 2989
5 129 3258
0 115 3528
0 98 3798
0 81 4067
0 63 4095
558 510 0
545 508 235
512 512 512
507 504 806
477 500 1083
439 496 1357
389 491 1630
326 485 1902
250 478 2173
163 470 2444
66 461 2714
0 451 2984
0 439 3254
0 426 3524
0 412 3794
0 397 4064
0 380 4095
371 794 0
353 793 196
333 792 495
304 790 785
266 787 1066
219 784 1343
163 781 1618
97 777 1892
21 772 2164
0 766 2436
0 760 2707
0 753 2978
0 745 3249
0 736 3519
0 726 3789
0 716 4060
0 705 4095
73 1073 0
54 1072 145
33 1071 453
4 1070 756
0 1068 1044
0 1066 1325
0 1063 1603
0 1060 1879
0 1056 2153
0 1051 2426
0 1047 2698
0 1041 2970
0 1035 3242
0 1029 3513
0 1021 3783
0 1013 4054
0 1005 4095
0 1349 0
0 1348 81
0 1348 398
0 1347 718
0 1345 1016
0 1343 1303
0 1341 1584
0 1338 1863
0 1335 2139
0 1332 2414
0 1328 2687
0 1323 2960
0 1319 3232
0 1313 3504
0 1308 3776
0 1301 4047
0 1295 4095
0 1624 0
0 1623 4
0 1622 324
0 1622 671
0 1620 980
0 1619 1275
0 1617 1561
0 1615 1843
0 1612 2122
0 1609 2399
0 1606 2674
0 1602 2948
0 1598 3221
0 1594 3494
0 1589 3766
0 1584 4038
0 1578 4095
0 1897 0
0 1897 0
0 1896 234
0 1895 612
0 1894 938
0 1893 1241
0 1891 1534
0 1889 1820
0 1887 2102
0 1885 2381
0 1882 2658
0 1879 2934
0 1875 3208
0 1872 3482
0 1868 3755
0 1863 4028
0 1859 4095
0 2170 0
0 2170 0
0 2169 130
0 2169 538
0 2168 886
0 2166 1202
0 2165 1501
0 2163 1792
0 2161 2078
0 2159 2360
0 2157 2640
0 2154 2917
0 2151 3193
0 2148 3469
0 2144 3743
0 2141 4016
0 2137 4095
0 2443 0
0 2442 0
0 2442 11
0 2441 445
0 2440 825
0 2439 1155
0 2438 1464
0 2437 1761
0 2435 2051
0 2433 2336
0 2431 2619
0 2428 2898
0 2426 3176
0 2423 3453
0 2420 3728
0 2416 4003
0 2413 4095
0 2715 0
0 2714 0
0 2714 0
0 2713 322
0 2713 751
0 2712 1100
0 2711 1420
0 2709 1725
0 2708 2020
0 2706 2309
0 2704 2595
0 2702 2877
0 2700 3157
0 2697 3435
0 2694 3712
0 2691 3988
0 2688 4095
0 2987 0
0 2986 0
0 2986 0
0 2985 174
0 2985 661
0 2984 1037
0 2983 1371
0 2982 1684
0 2980 1985
0 2979 2279
0 2977 2568
0 2975 2853
0 2973 3135
0 2971 3415
0 2968 3694
0 2966 3971
0 2963 4095
0 3258 0
0 3258 0
0 3258 0
0 3257 11
0 3257 550
0 3256 963
0 3255 1314
0 3254 1637
0 3253 1946
0 3251 2245
0 3250 2538
0 3248 2826
0 3246 3111
0 3244 3393
0 3242 3674
0 3239 3953
0 3237 4095
0 3530 0
0 3530 0
0 3529 0
0 3529 0
0 3528 407
0 3528 875
0 3527 1249
0 3526 1585
0 3525 1902
0 3523 2207
0 3522 2505
0 3520 2797
0 3519 3084
0 3517 3369
0 3515 3652
0 3512 3932
0 3510 4095
0 3801 0
0 3801 0
0 3801 0
0 3800 0
0 3800 217
0 3799 771
0 3799 1174
0 3798 1526
0 3797 1853
0 3795 2166
0 3794 2468
0 3793 2764
0 3791 3055
0 3789 3343
0 3787 3627
0 3785 3910
0 3783 4095
0 4073 0
0 4072 0
0 4072 0
0 4072 0
0 4071 8
0 4071 644
0 4070 1088
0 4069 1460
0 4068 1799
0 4067 2119
0 4066 2428
0 4065 2728
0 4063 3023
0 4061 3314
0 4060 3601
0 4058 3885
0 4056 4095
0 4095 0
0 4095 0
0 4095 0
0 4095 0
0 4095 0
0 4095 482
0 4095 989
0 4095 1386
0 4095 1739
0 4095 2068
0 4095 2384
0 4095 2690
0 4095 2988
0 4095 3282
0 4095 3572
0 4095 3859
0 4095 4095
1081 0 0
1073 0 282
1064 0 559
1051 0 831
1034 0 1103
1014 0 1373
988 0 1643
957 0 1913
920 0 2183
877 0 2452
827 0 2722
767 0 2992
697 0 3261
614 0 3530
513 0 3800
385 0 4069
231 0 4095
1016 167 0
1007 165 256
998 163 540
985 160 818
967 155 1092
945 150 1364
918 143 1636
885 136 1907
845 127 2177
799 117 2448
744 106 2718
679 94 2988
602 80 3257
507 65 3527
389 49 3797
239 32 4066
