Postproduction/IWLTBAP - Humble/LUTs by IWLTBAP (3DL)/UTILITY/Fujifilm F-Log to Rec.709/LUTs by Fujifilm/FLog_FGamut_to_FLog_BT.709_33grid_V.1.00.3dl
# title:FLog_FGamut_to_FLog_BT.709
# FUJIFILM Corporation
# Gamma:F-Log to F-Log
# Gamut:F-Gamut to ITU-R BT.709
# Version:1.00
0 256 512 768 1023
0 0 0
0 0 1110
0 0 2187
0 0 3263
0 0 4095
0 1102 0
0 1097 1048
0 1085 2155
0 1065 3243
0 1036 4095
0 2185 0
0 2182 891
0 2176 2080
0 2166 3195
0 2151 4095
0 3268 0
0 3266 557
0 3262 1948
0 3256 3113
0 3246 4095
0 4095 0
0 4095 0
0 4095 1741
0 4095 2990
0 4095 4095
1402 0 0
1366 0 1099
1279 0 2181
1121 0 3260
853 0 4095
1087 1023 0
1024 1024 1024
928 1005 2149
706 984 3239
246 953 4095
0 2145 0
0 2143 878
0 2137 2074
0 2126 3191
0 2111 4095
0 3242 0
0 3241 538
0 3237 1942
0 3230 3109
0 3220 4095
0 4095 0
0 4095 0
0 4095 1734
0 4095 2986
0 4095 4095
2689 0 0
2670 0 1073
2627 0 2168
2553 0 3251
2444 0 4095
2538 819 0
2518 812 1009
2472 797 2136
2393 770 3230
2276 732 4095
2144 2051 0
2120 2048 846
2048 2048 2048
1969 2031 3182
1824 2015 4095
1223 3182 0
1182 3180 491
1082 3176 1927
893 3169 3100
547 3160 4095
0 4095 0
0 4095 0
0 4095 1717
0 4095 2976
0 4095 4095
3975 0 0
3963 0 1028
3935 0 2145
3887 0 3236
3819 0 4095
3878 322 0
3865 310 962
3837 282 2113
3788 235 3216
3717 168 4095
3641 1883 0
3628 1880 791
3597 1873 2037
3544 1861 3167
3469 1844 4095
3201 3079 0
3185 3077 406
3149 3073 1902
3071 3071 3071
3000 3056 4095
2418 4095 0
2398 4095 0
2349 4095 1689
2265 4095 2960
2141 4095 4095
4095 0 0
4095 0 962
4095 0 2113
4095 0 3216
4095 0 4095
4095 0 0
4095 0 892
4095 0 2081
4095 0 3195
4095 0 4095
4095 1614 0
4095 1611 707
4095 1602 2003
4095 1588 3146
4095 1569 4095
4095 2925 0
4095 2923 265
4095 2919 1866
4095 2911 3062
4095 2901 4095
4095 4095 0
4095 4095 0
4095 4095 1648
4095 4095 2938
4095 4095 4095
