Postproduction/IWLTBAP - Humble/LUTs by IWLTBAP (3DL)/UTILITY/Fujifilm F-Log to Rec.709/LUTs by Fujifilm/FLog_FGamut_to_WDR_BT.709_33grid_V.1.00.3dl
# title:FLog_FGamut_to_WDR_BT.709
# FUJIFILM Corporation
# Gamma:F-Log to Wide Dynamic Range curve
# Gamut:F-Gamut to ITU-R BT.709
# Version:1.00
0 64 128 192 256 320 384 448 512 576 640 704 768 832 896 960 1023
0 0 0
0 0 0
0 0 91
0 0 322
0 0 606
0 0 907
0 0 1250
0 0 1649
0 0 2083
0 0 2478
0 0 2836
0 0 3161
0 0 3453
0 0 3717
0 0 3951
0 0 4095
0 0 4095
0 0 0
0 0 0
0 0 91
0 0 322
0 0 606
0 0 907
0 0 1250
0 0 1649
0 0 2083
0 0 2478
0 0 2836
0 0 3161
0 0 3453
0 0 3717
0 0 3951
0 0 4095
0 0 4095
0 84 0
0 84 0
0 83 83
0 81 314
0 79 601
0 75 903
0 69 1248
0 59 1646
0 47 2081
0 32 2477
0 17 2835
0 1 3160
0 0 3452
0 0 3716
0 0 3950
0 0 4095
0 0 4095
0 307 0
0 307 0
0 306 63
0 304 294
0 302 587
0 298 893
0 292 1240
0 283 1641
0 270 2076
0 256 2473
0 241 2832
0 225 3157
0 209 3450
0 194 3714
0 179 3948
0 165 4095
0 153 4095
0 593 0
0 593 0
0 593 33
0 592 264
0 590 566
0 587 878
0 583 1229
0 576 1632
0 567 2070
0 557 2467
0 546 2827
0 534 3153
0 522 3446
0 511 3710
0 499 3945
0 488 4095
0 479 4095
0 896 0
0 896 0
0 895 0
0 895 218
0 893 532
0 891 854
0 888 1211
0 884 1618
0 877 2059
0 870 2458
0 862 2819
0 854 3146
0 846 3440
0 837 3705
0 830 3939
0 822 4095
0 816 4095
0 1239 0
0 1239 0
0 1239 0
0 1238 147
0 1237 477
0 1235 817
0 1233 1184
0 1230 1598
0 1225 2043
0 1219 2445
0 1214 2808
0 1208 3135
0 1202 3430
0 1196 3696
0 1190 3931
0 1184 4095
0 1180 4095
0 1634 0
0 1634 0
0 1634 0
0 1633 40
0 1632 385
0 1631 757
0 1630 1141
0 1627 1566
0 1623 2018
0 1619 2424
0 1615 2790
0 1610 3120
0 1605 3416
0 1601 3683
0 1596 3919
0 1592 4095
0 1589 4095
0 2071 0
0 2071 0
0 2071 0
0 2070 0
0 2070 234
0 2069 665
0 2067 1078
0 2065 1519
0 2062 1982
0 2059 2395
0 2056 2764
0 2052 3097
0 2048 3395
0 2045 3664
0 2041 3901
0 2038 4095
0 2035 4095
0 2471 0
0 2471 0
0 2471 0
0 2470 0
0 2470 63
0 2469 549
0 2468 1002
0 2466 1465
0 2464 1941
0 2461 2361
0 2458 2735
0 2455 3071
0 2452 3372
0 2449 3643
0 2446 3881
0 2444 4092
0 2441 4095
0 2835 0
0 2835 0
0 2835 0
0 2834 0
0 2834 0
0 2833 401
0 2832 916
0 2831 1405
0 2829 1895
0 2826 2324
0 2824 2704
0 2821 3044
0 2819 3347
0 2816 3620
0 2814 3860
0 2811 4072
0 2809 4095
0 3162 0
0 3162 0
0 3162 0
0 3162 0
0 3161 0
0 3161 215
0 3160 819
0 3159 1341
0 3157 1848
0 3155 2285
0 3153 2671
0 3150 3015
0 3148 3321
0 3146 3596
0 3143 3838
0 3141 4051
0 3140 4095
0 3459 0
0 3459 0
0 3459 0
0 3458 0
0 3458 0
0 3458 26
0 3457 711
0 3456 1273
0 3454 1799
0 3452 2246
0 3450 2638
0 3448 2986
0 3446 3295
0 3444 3572
0 3442 3815
0 3440 4030
0 3438 4095
0 3726 0
0 3726 0
0 3726 0
0 3726 0
0 3725 0
0 3725 0
0 3724 590
0 3723 1203
0 3721 1749
0 3720 2206
0 3718 2604
0 3716 2956
0 3714 3269
0 3712 3548
0 3710 3793
0 3708 4009
0 3707 4095
0 3963 0
0 3963 0
0 3963 0
0 3963 0
0 3963 0
0 3962 0
0 3962 455
0 3961 1132
0 3959 1700
0 3957 2168
0 3956 2572
0 3954 2928
0 3952 3243
0 3950 3525
0 3949 3772
0 3947 3988
0 3946 4095
0 4095 0
0 4095 0
0 4095 0
0 4095 0
0 4095 0
0 4095 0
0 4095 298
0 4095 1061
0 4095 1653
0 4095 2131
0 4095 2541
0 4095 2901
0 4095 3219
0 4095 3503
0 4095 3751
0 4095 3969
0 4095 4095
0 4095 0
0 4095 0
0 4095 0
0 4095 0
0 4095 0
0 4095 0
0 4095 146
0 4095 993
0 4095 1608
0 4095 2097
0 4095 2513
0 4095 2877
0 4095 3198
0 4095 3483
0 4095 3733
0 4095 3952
0 4095 4095
0 0 0
0 0 0
0 0 91
0 0 322
0 0 606
0 0 907
0 0 1250
0 0 1649
0 0 2083
0 0 2478
0 0 2836
0 0 3161
0 0 3453
0 0 3717
0 0 3951
0 0 4095
0 0 4095
0 0 0
0 0 0
0 0 91
0 0 322
0 0 606
0 0 907
0 0 1250
0 0 1649
0 0 2083
0 0 2478
0 0 2836
0 0 3161
0 0 3453
0 0 3717
0 0 3951
0 0 4095
0 0 4095
0 84 0
0 84 0
0 83 83
0 81 314
0 79 601
0 75 903
0 69 1248
0 59 1646
0 47 2081
0 32 2477
0 17 2835
0 1 3160
0 0 3452
0 0 3716
0 0 3950
0 0 4095
0 0 4095
0 307 0
0 307 0
0 306 63
0 304 294
0 302 587
0 298 893
0 292 1240
0 283 1641
0 270 2076
0 256 2473
0 241 2832
0 225 3157
0 209 3450
0 194 3714
0 179 3948
0 165 4095
0 153 4095
0 593 0
0 593 0
0 593 33
0 592 264
0 590 566
0 587 878
0 583 1229
0 576 1632
0 567 2070
0 557 2467
0 546 2827
0 534 3153
0 522 3446
0 511 3710
0 499 3945
0 488 4095
0 479 4095
0 896 0
0 896 0
0 895 0
0 895 218
0 893 532
0 891 854
0 888 1211
0 884 1618
0 877 2059
0 870 2458
0 862 2819
0 854 3146
0 846 3440
0 837 3705
0 830 3939
0 822 4095
0 816 4095
0 1239 0
0 1239 0
0 1239 0
0 1238 147
0 1237 477
0 1235 817
0 1233 1184
0 1230 1598
0 1225 2043
0 1219 2445
0 1214 2808
0 1208 3135
0 1202 3430
0 1196 3696
0 1190 3931
0 1184 4095
0 1180 4095
0 1634 0
0 1634 0
0 1634 0
0 1633 40
0 1632 385
0 1631 757
0 1630 1141
0 1627 1566
0 1623 2018
0 1619 2424
0 1615 2790
0 1610 3120
0 1605 3416
0 1601 3683
0 1596 3919
0 1592 4095
0 1589 4095
0 2071 0
0 2071 0
0 2071 0
0 2070 0
0 2070 234
0 2069 665
0 2067 1078
0 2065 1519
0 2062 1982
0 2059 2395
0 2056 2764
0 2052 3097
0 2048 3395
0 2045 3664
0 2041 3901
0 2038 4095
0 2035 4095
0 2471 0
0 2471 0
0 2471 0
0 2470 0
0 2470 63
0 2469 549
0 2468 1002
0 2466 1465
0 2464 1941
0 2461 2361
0 2458 2735
0 2455 3071
0 2452 3372
0 2449 3643
0 2446 3881
0 2444 4092
0 2441 4095
0 2835 0
0 2835 0
0 2835 0
0 2834 0
0 2834 0
0 2833 401
0 2832 916
0 2831 1405
0 2829 1895
0 2826 2324
0 2824 2704
0 2821 3044
0 2819 3347
0 2816 3620
0 2814 3860
0 2811 4072
0 2809 4095
0 3162 0
0 3162 0
0 3162 0
0 3162 0
0 3161 0
0 3161 215
0 3160 819
0 3159 1341
0 3157 1848
0 3155 2285
0 3153 2671
0 3150 3015
0 3148 3321
0 3146 3596
0 3143 3838
0 3141 4051
0 3140 4095
0 3459 0
0 3459 0
0 3459 0
0 3458 0
0 3458 0
0 3458 26
0 3457 711
0 3456 1273
0 3454 1799
0 3452 2246
0 3450 2638
0 3448 2986
0 3446 3295
0 3444 3572
0 3442 3815
0 3440 4030
0 3438 4095
0 3726 0
0 3726 0
0 3726 0
0 3726 0
0 3725 0
0 3725 0
0 3724 590
0 3723 1203
0 3721 1749
0 3720 2206
0 3718 2604
0 3716 2956
0 3714 3269
0 3712 3548
0 3710 3793
0 3708 4009
0 3707 4095
0 3963 0
0 3963 0
0 3963 0
0 3963 0
0 3963 0
0 3962 0
0 3962 455
0 3961 1132
0 3959 1700
0 3957 2168
0 3956 2572
0 3954 2928
0 3952 3243
0 3950 3525
0 3949 3772
0 3947 3988
0 3946 4095
0 4095 0
0 4095 0
0 4095 0
0 4095 0
0 4095 0
0 4095 0
0 4095 298
0 4095 1061
0 4095 1653
0 4095 2131
0 4095 2541
0 4095 2901
0 4095 3219
0 4095 3503
0 4095 3751
0 4095 3969
0 4095 4095
0 4095 0
0 4095 0
0 4095 0
0 4095 0
0 4095 0
0 4095 0
0 4095 146
0 4095 993
0 4095 1608
0 4095 2097
0 4095 2513
0 4095 2877
0 4095 3198
0 4095 3483
0 4095 3733
0 4095 3952
0 4095 4095
122 0 0
122 0 0
116 0 89
101 0 320
79 0 605
45 0 906
0 0 1250
0 0 1648
0 0 2082
0 0 2478
0 0 2836
0 0 3161
0 0 3453
0 0 3717
0 0 3951
0 0 4095
0 0 4095
122 0 0
122 0 0
116 0 89
101 0 320
79 0 605
45 0 906
0 0 1250
0 0 1648
0 0 2082
0 0 2478
0 0 2836
0 0 3161
0 0 3453
0 0 3717
0 0 3951
0 0 4095
0 0 4095
79 74 0
79 74 0
74 74 74
58 72 313
36 69 600
1 65 903
0 59 1247
0 50 1646
0 37 2081
0 23 2476
0 8 2835
0 0 3160
0 0 3452
0 0 3716
0 0 3950
0 0 4095
0 0 4095
0 298 0
0 298 0
0 297 62
0 295 293
0 293 586
0 289 893
0 283 1240
0 274 1640
0 261 2076
0 247 2473
0 231 2832
0 216 3157
0 200 3450
0 185 3714
0 170 3948
0 156 4095
0 144 4095
0 587 0
0 587 0
0 586 32
0 585 263
0 583 565
0 581 877
0 576 1228
0 570 1632
0 561 2069
0 550 2467
0 539 2827
0 527 3152
0 516 3446
0 504 3710
0 492 3945
0 481 4095
0 471 4095
0 891 0
0 891 0
0 891 0
0 890 216
0 889 531
0 887 854
0 884 1211
0 879 1618
0 872 2059
0 865 2458
0 857 2819
0 849 3146
0 841 3439
0 833 3705
0 825 3939
0 817 4095
0 811 4095
0 1235 0
0 1235 0
0 1235 0
0 1234 146
0 1233 476
0 1232 816
0 1230 1183
0 1226 1597
0 1221 2042
0 1216 2445
0 1210 2807
0 1204 3135
0 1198 3430
0 1192 3696
0 1186 3931
0 1181 4095
0 1176 4095
0 1631 0
0 1631 0
0 1631 0
0 1630 39
0 1630 384
0 1629 756
0 1627 1140
0 1624 1565
0 1620 2017
0 1616 2424
0 1612 2790
0 1607 3119
0 1603 3416
0 1598 3683
0 1594 3919
0 1590 4095
0 1586 4095
0 2069 0
0 2069 0
0 2069 0
0 2068 0
0 2068 233
0 2067 664
0 2065 1077
0 2063 1519
0 2060 1982
0 2057 2394
0 2053 2764
0 2050 3097
0 2046 3395
0 2043 3664
0 2039 3901
0 2036 4095
0 2033 4095
0 2469 0
0 2469 0
0 2469 0
0 2469 0
0 2468 62
0 2467 548
0 2466 1002
0 2465 1465
0 2462 1940
0 2459 2360
0 2456 2735
0 2453 3071
0 2450 3372
0 2447 3642
0 2445 3881
0 2442 4092
0 2440 4095
0 2833 0
0 2833 0
0 2833 0
0 2833 0
0 2832 0
0 2832 399
0 2831 915
0 2829 1405
0 2827 1895
0 2825 2324
0 2822 2703
0 2820 3043
0 2817 3347
0 2814 3619
0 2812 3860
0 2810 4071
0 2808 4095
0 3161 0
0 3161 0
0 3161 0
0 3161 0
0 3160 0
0 3160 214
0 3159 818
0 3157 1340
0 3155 1847
0 3153 2285
0 3151 2671
0 3149 3015
0 3147 3321
0 3144 3596
0 3142 3838
0 3140 4051
0 3138 4095
0 3458 0
0 3458 0
0 3458 0
0 3457 0
0 3457 0
0 3456 24
0 3456 710
0 3454 1272
0 3453 1798
0 3451 2246
0 3449 2637
0 3447 2985
0 3445 3295
0 3443 3571
0 3441 3815
0 3439 4029
0 3437 4095
0 3725 0
0 3725 0
0 3725 0
0 3724 0
0 3724 0
0 3724 0
0 3723 589
0 3722 1202
0 3720 1748
0 3718 2206
0 3717 2604
0 3715 2956
0 3713 3268
0 3711 3548
0 3709 3793
0 3707 4008
0 3706 4095
0 3962 0
0 3962 0
0 3962 0
0 3962 0
0 3962 0
0 3961 0
0 3961 454
0 3959 1131
0 3958 1699
0 3956 2168
0 3955 2572
0 3953 2928
0 3951 3243
0 3949 3524
0 3948 3772
0 3946 3988
0 3945 4095
0 4095 0
0 4095 0
0 4095 0
0 4095 0
0 4095 0
0 4095 0
0 4095 297
0 4095 1060
0 4095 1652
0 4095 2131
0 4095 2541
0 4095 2901
0 4095 3219
0 4095 3503
0 4095 3751
0 4095 3969
0 4095 4095
0 4095 0
0 4095 0
0 4095 0
0 4095 0
0 4095 0
0 4095 0
0 4095 145
0 4095 993
0 4095 1608
0 4095 2097
0 4095 2513
0 4095 2877
0 4095 3197
0 4095 3483
0 4095 3733
0 4095 3952
0 4095 4095
451 0 0
451 0 0
446 0 86
434 0 317
414 0 603
383 0 904
333 0 1249
252 0 1647
141 0 2082
16 0 2477
0 0 2836
0 0 3160
0 0 3453
0 0 3717
0 0 3951
0 0 4095
0 0 4095
451 0 0
451 0 0
446 0 86
434 0 317
414 0 603
383 0 904
333 0 1249
252 0 1647
141 0 2082
16 0 2477
0 0 2836
0 0 3160
0 0 3453
0 0 3717
0 0 3951
0 0 4095
