Postproduction/IWLTBAP - Humble/LUTs by IWLTBAP (3DL)/UTILITY/Panasonic Cine-D to Rec.709/U-PANASONIC-CINE-D-V1-LTR.3dl
# Copyright: (C) Copyright 2010-2018 by IWLTBAP SAS
# Cannot be resold, shared or otherwise redistributed
# Website: https://luts.iwltbap.com
0 64 128 192 256 320 384 448 512 576 640 704 768 832 896 960 1023
2 2 2
2 2 63
2 2 831
2 2 1388
2 2 1884
2 2 2344
2 2 2780
2 2 3195
2 2 3594
2 3 3956
2 3 4073
2 3 4073
2 3 4073
2 3 4073
2 3 4073
2 3 4073
2 3 4073
2 8 2
2 8 9
2 8 677
2 8 1247
2 8 1753
2 9 2225
2 9 2676
2 9 3114
2 9 3528
2 9 3910
2 9 4071
2 9 4071
2 9 4071
2 9 4071
2 9 4071
2 9 4071
2 9 4071
1 563 2
1 547 7
1 523 531
1 514 1105
1 506 1607
1 501 2069
1 496 2506
1 492 2920
1 489 3318
1 486 3702
1 484 4007
1 480 4044
1 476 4044
1 472 4044
1 469 4044
1 466 4044
1 463 4044
1 1048 2
1 1025 4
1 995 429
1 979 1003
1 968 1501
1 958 1960
1 950 2393
1 943 2805
1 936 3201
1 930 3582
1 926 3931
0 921 4040
0 915 4040
0 909 4040
0 904 4040
0 898 4040
1 893 4040
1 1452 2
1 1427 2
1 1396 328
1 1378 904
1 1365 1404
1 1354 1862
1 1344 2294
1 1335 2706
1 1327 3101
1 1320 3482
0 1314 3849
0 1308 4037
0 1300 4039
0 1293 4039
0 1286 4039
0 1280 4039
0 1274 4039
1 1820 2
1 1794 2
1 1761 239
1 1743 811
1 1729 1312
1 1717 1771
1 1706 2204
1 1697 2615
1 1688 3010
0 1679 3390
0 1672 3759
0 1665 4019
0 1657 4038
0 1649 4038
0 1641 4038
0 1634 4038
0 1627 4038
1 2163 2
1 2137 2
1 2104 151
1 2086 721
1 2070 1224
1 2058 1684
1 2046 2117
0 2036 2529
0 2026 2924
0 2017 3304
0 2009 3673
0 2001 3991
0 1992 4039
0 1984 4039
0 1975 4039
0 1968 4039
0 1961 4039
1 2491 1
1 2464 2
1 2430 57
1 2411 631
1 2396 1139
0 2383 1601
0 2371 2034
0 2360 2446
0 2350 2841
0 2340 3222
0 2332 3590
0 2323 3932
0 2313 4040
0 2304 4040
0 2296 4040
0 2288 4040
0 2280 4040
1 2804 1
1 2777 1
1 2742 16
1 2724 544
1 2708 1056
0 2694 1519
0 2682 1954
0 2671 2367
0 2661 2763
0 2650 3143
0 2641 3512
0 2632 3869
0 2622 4041
0 2612 4041
0 2604 4041
0 2595 4041
0 2587 4041
1 3104 1
1 3078 1
1 3043 10
1 3024 457
0 3008 975
0 2995 1441
0 2982 1876
0 2971 2290
0 2960 2686
0 2949 3067
0 2939 3435
0 2929 3795
0 2919 4033
0 2909 4042
0 2900 4042
0 2891 4042
0 2883 4042
1 3396 1
1 3369 1
1 3334 5
1 3315 368
0 3300 894
0 3286 1362
0 3273 1799
0 3261 2213
0 3250 2610
0 3239 2991
0 3229 3360
0 3219 3719
0 3207 4017
0 3198 4043
0 3188 4043
0 3179 4043
0 3170 4043
0 3678 0
0 3652 0
1 3616 1
0 3597 281
0 3582 812
0 3568 1284
0 3556 1722
0 3543 2137
0 3532 2535
0 3521 2916
0 3510 3286
0 3499 3645
0 3487 3972
0 3477 4044
0 3467 4044
0 3458 4044
0 3449 4044
0 3936 0
0 3914 0
0 3886 0
0 3870 202
0 3856 730
0 3843 1206
0 3830 1645
0 3818 2062
0 3806 2460
0 3795 2842
0 3784 3212
0 3772 3572
0 3761 3914
0 3750 4044
0 3740 4044
0 3731 4044
0 3721 4044
0 3998 0
0 3998 0
0 3998 0
0 3999 122
0 4001 647
0 4002 1126
0 4001 1568
0 4001 1986
0 4000 2385
0 3999 2768
0 3997 3138
0 3996 3498
0 3994 3849
0 3991 4042
0 3986 4043
0 3978 4043
0 3970 4043
0 3998 0
0 3998 0
0 3998 0
0 3999 44
0 4002 565
0 4005 1049
0 4007 1494
0 4009 1912
0 4010 2312
0 4011 2695
0 4011 3066
0 4011 3427
0 4011 3778
0 4010 4031
0 4010 4043
0 4010 4043
0 4010 4043
0 3998 0
0 3998 0
0 3998 0
0 3998 16
0 4002 484
0 4005 972
0 4007 1419
0 4008 1838
0 4010 2240
0 4011 2624
0 4011 2995
0 4011 3356
0 4011 3708
0 4010 4018
0 4010 4043
0 4010 4043
0 4010 4043
0 3998 0
0 3998 0
0 3998 0
0 3998 11
0 4001 403
0 4004 897
0 4006 1348
0 4008 1768
0 4010 2171
0 4011 2556
0 4011 2928
0 4011 3289
0 4011 3642
0 4011 3969
0 4010 4043
0 4010 4043
0 4010 4043
26 2 2
16 2 21
12 2 774
12 2 1334
12 2 1833
12 2 2295
12 2 2733
12 2 3150
12 2 3552
12 3 3926
12 3 4072
12 3 4072
13 3 4072
13 3 4072
14 3 4072
16 3 4072
20 3 4072
8 8 2
7 7 7
7 6 644
7 6 1223
6 6 1747
6 6 2225
6 6 2673
6 6 3096
6 6 3501
6 6 3887
6 6 4072
6 6 4072
6 6 4072
5 6 4072
5 6 4072
5 6 4072
5 6 4072
4 525 2
3 506 4
3 477 484
2 464 1058
2 455 1559
2 447 2021
1 440 2457
1 435 2871
1 430 3269
1 425 3653
1 422 3983
1 417 4045
1 413 4045
1 408 4045
1 403 4046
1 399 4046
1 395 4046
2 991 2
1 967 2
1 936 366
1 920 942
1 907 1442
1 896 1901
1 888 2335
1 879 2747
1 872 3143
1 866 3525
1 860 3886
1 855 4040
1 848 4040
1 842 4040
1 836 4040
1 831 4040
1 825 4040
1 1389 2
1 1364 2
1 1332 264
1 1314 837
1 1300 1338
1 1288 1798
1 1278 2231
1 1269 2643
1 1261 3038
1 1253 3420
0 1246 3789
0 1240 4027
0 1232 4039
0 1225 4039
0 1218 4039
0 1211 4039
0 1205 4039
1 1754 2
1 1728 2
1 1695 170
1 1676 740
1 1662 1243
1 1649 1703
1 1638 2136
1 1628 2549
1 1619 2944
0 1610 3325
0 1603 3695
0 1595 4000
0 1587 4038
0 1579 4038
0 1571 4038
0 1564 4038
0 1557 4038
1 2096 2
1 2070 2
1 2036 72
1 2017 645
1 2002 1152
1 1989 1614
1 1977 2047
0 1966 2460
0 1956 2855
0 1947 3237
0 1939 3606
0 1930 3944
0 1922 4039
0 1913 4039
0 1905 4039
0 1897 4039
0 1889 4039
1 2422 2
1 2395 2
1 2360 18
1 2341 552
1 2326 1064
1 2312 1527
0 2300 1961
0 2289 2375
0 2279 2771
0 2269 3152
0 2260 3522
0 2251 3876
0 2242 4040
0 2233 4040
0 2224 4039
0 2216 4039
0 2208 4039
1 2734 1
1 2707 1
1 2672 8
1 2652 462
1 2637 978
0 2624 1444
0 2611 1880
0 2599 2293
0 2589 2690
0 2579 3071
0 2569 3441
0 2560 3801
0 2550 4033
0 2541 4041
0 2531 4041
0 2523 4041
0 2515 4041
1 3034 1
1 3007 1
1 2972 4
1 2952 372
1 2936 895
0 2923 1363
0 2910 1801
0 2899 2215
0 2887 2612
0 2876 2994
0 2867 3363
0 2857 3723
0 2846 4016
0 2836 4042
0 2827 4042
0 2818 4042
0 2810 4042
1 3325 1
1 3298 1
1 3262 2
1 3243 282
0 3227 812
0 3214 1283
0 3201 1721
0 3189 2137
0 3178 2535
0 3166 2917
0 3156 3287
0 3146 3647
0 3135 3974
0 3125 4043
0 3115 4043
0 3106 4043
0 3097 4043
1 3608 1
1 3580 1
1 3545 1
0 3525 204
0 3509 729
0 3496 1204
0 3482 1643
0 3470 2060
0 3459 2459
0 3447 2841
0 3437 3212
0 3426 3572
0 3415 3914
0 3404 4044
0 3394 4044
0 3385 4044
0 3376 4044
0 3878 0
0 3854 0
0 3820 0
0 3798 121
0 3784 646
0 3770 1125
0 3757 1566
0 3745 1984
0 3733 2384
0 3722 2768
0 3710 3138
0 3699 3498
0 3688 3849
0 3676 4043
0 3666 4044
0 3657 4044
0 3648 4044
0 3998 0
0 3997 0
0 3992 0
0 3989 38
0 3989 559
0 3989 1043
0 3988 1488
0 3986 1907
0 3980 2307
0 3971 2691
0 3962 3062
0 3953 3423
0 3943 3775
0 3933 4033
0 3924 4043
0 3916 4043
0 3908 4043
0 3998 0
0 3998 0
0 3998 0
0 3998 14
0 4002 476
0 4004 965
0 4007 1412
0 4008 1832
0 4010 2234
0 4011 2618
0 4011 2990
0 4011 3351
0 4011 3703
0 4010 4015
0 4010 4043
0 4010 4043
0 4010 4043
0 3998 0
0 3998 0
0 3998 0
0 3998 9
0 4001 390
0 4004 886
0 4006 1336
0 4008 1757
0 4010 2160
0 4011 2546
0 4011 2918
0 4011 3280
0 4011 3632
0 4011 3962
0 4010 4043
0 4010 4043
0 4010 4043
0 3998 0
0 3998 0
0 3998 0
0 3998 4
0 4001 306
0 4004 811
0 4006 1264
0 4008 1686
0 4009 2090
0 4011 2477
0 4011 2849
0 4011 3212
0 4011 3565
0 4011 3904
0 4010 4043
0 4010 4043
0 4010 4043
764 2 2
743 2 11
713 2 692
698 2 1257
689 2 1759
683 2 2223
680 2 2664
679 2 3083
681 3 3489
687 3 3880
698 3 4064
720 3 4064
735 3 4064
745 3 4064
752 3 4064
758 3 4064
762 3 4064
648 7 2
650 6 6
635 5 614
631 5 1193
628 5 1701
626 5 2170
624 5 2613
622 5 3032
619 5 3434
616 5 3820
612 5 4052
610 5 4064
608 5 4065
606 5 4065
604 5 4065
602 5 4065
600 5 4065
473 447 2
451 425 2
417 395 400
399 379 978
387 368 1480
376 359 1942
367 351 2378
359 343 2793
352 337 3191
345 332 3574
338 328 3927
332 323 4045
327 318 4046
322 312 4046
318 307 4046
314 302 4046
309 297 4046
347 903 2
322 878 2
287 846 276
269 829 852
255 816 1354
243 805 1814
231 796 2249
222 787 2662
213 779 3058
205 772 3440
197 766 3810
189 761 4031
182 754 4039
176 747 4039
169 741 4039
164 735 4039
158 729 4039
241 1298 2
216 1272 2
181 1239 170
161 1220 740
145 1207 1245
130 1195 1706
118 1184 2140
106 1174 2553
95 1166 2949
84 1158 3331
74 1151 3701
63 1145 4002
53 1136 4038
48 1129 4038
44 1121 4038
41 1114 4038
37 1108 4038
145 1660 2
117 1634 2
79 1600 64
54 1581 637
43 1566 1145
35 1553 1607
26 1542 2042
20 1532 2455
17 1522 2852
15 1513 3234
14 1505 3603
12 1498 3943
11 1490 4038
10 1481 4038
9 1473 4038
9 1466 4038
8 1459 4038
49 2001 2
31 1975 2
16 1940 16
13 1920 538
10 1905 1050
9 1892 1514
9 1880 1950
8 1869 2364
7 1859 2761
6 1850 3143
6 1841 3513
5 1832 3869
5 1824 4038
4 1815 4038
4 1807 4038
3 1799 4038
3 1790 4038
13 2326 2
10 2299 2
7 2264 8
6 2244 441
5 2228 959
5 2215 1425
4 2202 1862
3 2191 2276
2 2180 2674
2 2170 3056
1 2161 3426
1 2153 3787
1 2144 4029
1 2134 4039
0 2125 4039
0 2117 4039
0 2109 4039
7 2638 1
5 2610 1
3 2576 3
2 2555 345
1 2539 871
1 2526 1340
0 2513 1777
0 2501 2193
0 2490 2591
0 2480 2973
0 2471 3344
0 2461 3704
0 2451 4008
0 2442 4040
0 2432 4040
0 2424 4040
0 2415 4040
3 2937 1
1 2910 1
1 2875 1
1 2854 258
1 2838 785
0 2825 1258
0 2812 1697
0 2800 2112
0 2789 2512
0 2778 2895
0 2768 3265
0 2758 3626
0 2748 3957
0 2738 4042
0 2728 4042
0 2720 4042
0 2711 4041
1 3229 1
1 3201 1
1 3166 1
1 3145 178
1 3129 700
0 3115 1175
0 3102 1616
0 3090 2033
0 3079 2433
0 3068 2817
0 3057 3188
0 3047 3548
0 3037 3895
0 3025 4043
0 3016 4043
0 3007 4043
0 2997 4043
1 3511 1
1 3483 1
1 3448 1
1 3426 96
0 3411 615
0 3397 1094
0 3384 1537
0 3372 1956
0 3360 2356
0 3349 2741
0 3338 3111
0 3328 3473
0 3317 3824
0 3305 4041
0 3296 4044
0 3286 4044
0 3277 4044
0 3785 0
0 3758 0
0 3722 0
0 3700 25
0 3685 529
0 3671 1014
0 3659 1459
0 3646 1879
0 3634 2280
0 3623 2666
0 3612 3037
0 3601 3398
0 3590 3750
0 3578 4030
0 3567 4044
0 3558 4044
0 3549 4044
0 3986 0
0 3981 0
0 3968 0
0 3952 12
0 3940 439
0 3929 932
0 3919 1380
0 3908 1801
0 3898 2203
0 3888 2589
0 3879 2961
0 3867 3323
0 3856 3675
0 3845 3997
0 3834 4044
0 3825 4044
0 3815 4044
0 3998 0
0 3998 0
0 3998 0
0 3998 6
0 4001 351
0 4004 851
0 4006 1302
0 4008 1724
0 4010 2128
0 4011 2514
0 4011 2887
0 4011 3249
0 4009 3602
0 4008 3937
0 4006 4043
0 4004 4043
0 4003 4043
0 3998 0
0 3998 0
0 3998 0
0 3998 1
0 4000 263
0 4003 771
0 4006 1225
0 4008 1649
0 4009 2054
0 4011 2441
0 4011 2814
0 4011 3177
0 4011 3531
0 4011 3875
0 4010 4042
0 4010 4043
0 4010 4043
0 3998 0
0 3998 0
0 3998 0
0 3998 0
0 3999 194
0 4003 694
0 4006 1151
0 4007 1577
0 4009 1982
0 4010 2371
0 4011 2745
0 4011 3109
0 4011 3463
0 4011 3809
0 4010 4036
0 4010 4043
0 4010 4043
1308 2 2
1289 2 11
1262 2 665
1251 2 1234
1245 2 1738
1242 2 2206
1245 2 2654
1251 2 3081
1265 2 3499
1275 3 3890
1280 3 4058
1286 3 4058
1289 3 4058
1292 3 4058
1295 3 4058
1296 3 4058
1298 3 4058
1244 6 2
1230 5 6
1207 5 606
1197 5 1179
1190 4 1683
1182 4 2148
1175 4 2588
1169 4 3004
1162 4 3404
1156 4 3788
1149 4 4039
1145 4 4059
1142 4 4059
1139 4 4059
1136 4 4059
1133 4 4059
