Postproduction/IWLTBAP - Humble/LUTs by IWLTBAP (3DL)/UTILITY/Panasonic Cine-D to Rec.709/U-PANASONIC-CINE-D-V2-LTR.3dl
# Copyright: (C) Copyright 2010-2018 by IWLTBAP SAS
# Cannot be resold, shared or otherwise redistributed
# Website: https://luts.iwltbap.com
0 128 256 384 512 640 768 896 1023
2 2 2
2 2 391
2 2 1269
2 2 1960
2 2 2589
2 2 3174
2 2 3730
2 3 4069
2 3 4073
1 434 2
1 430 436
1 438 1234
1 450 1902
1 463 2511
1 476 3075
1 490 3610
1 502 4023
1 512 4044
1 1231 2
1 1204 491
1 1197 1231
1 1193 1872
1 1192 2460
1 1192 3012
1 1194 3535
1 1197 3986
1 1198 4039
1 1825 3
1 1801 516
1 1791 1223
1 1784 1848
1 1780 2425
2 1778 2969
2 1777 3487
2 1777 3958
2 1778 4038
4 2364 5
3 2347 552
3 2337 1237
2 2330 1850
2 2326 2419
2 2323 2955
3 2321 3468
3 2320 3943
3 2318 4040
8 2874 8
7 2861 599
6 2852 1265
6 2845 1865
6 2839 2426
6 2835 2956
5 2832 3463
6 2829 3937
6 2825 4042
22 3359 21
16 3347 646
13 3339 1295
11 3331 1885
11 3326 2439
11 3321 2962
11 3317 3464
11 3311 3935
14 3307 4044
44 3820 44
43 3811 691
38 3803 1327
29 3796 1907
21 3790 2453
18 3784 2970
17 3779 3467
17 3772 3935
17 3768 4045
48 3998 49
58 4003 734
63 4006 1358
65 4009 1930
62 4011 2469
54 4011 2981
42 4012 3473
33 4012 3938
25 4011 4044
405 2 2
402 2 390
408 2 1227
427 2 1920
458 2 2558
499 2 3159
542 3 3726
578 3 4062
612 3 4065
435 411 2
414 392 398
413 393 1177
417 400 1837
424 407 2441
432 416 3004
440 427 3537
447 440 3991
457 450 4043
467 1160 2
439 1136 429
432 1130 1166
432 1129 1806
433 1130 2395
436 1133 2948
440 1138 3472
443 1144 3955
449 1149 4040
500 1769 2
478 1752 475
470 1745 1183
466 1741 1807
465 1740 2386
466 1740 2930
467 1741 3448
469 1744 3935
472 1745 4042
538 2323 2
518 2310 523
509 2302 1208
504 2298 1820
501 2295 2390
500 2293 2927
500 2293 3439
500 2294 3925
501 2293 4047
578 2841 6
559 2830 575
549 2823 1241
543 2818 1842
539 2814 2404
537 2811 2933
535 2809 3440
534 2808 3924
535 2806 4052
615 3330 11
597 3321 624
587 3315 1276
581 3310 1866
576 3305 2420
572 3301 2944
570 3298 3445
569 3296 3927
569 3294 4057
651 3796 30
635 3789 672
625 3783 1311
618 3777 1892
612 3772 2439
609 3768 2957
606 3764 3454
604 3762 3932
603 3759 4060
687 4001 68
672 4010 718
663 4015 1344
655 4019 1918
649 4021 2457
645 4024 2970
642 4027 3463
640 4030 3937
639 4031 4059
1276 2 2
1271 2 436
1291 2 1275
1318 2 1976
1342 2 2611
1360 2 3196
1371 2 3743
1375 3 4053
1385 3 4057
1216 427 1
1191 403 412
1182 401 1176
1174 405 1830
1169 411 2429
1166 419 2988
1165 430 3518
1163 443 3977
1165 454 4043
1191 1149 1
1168 1128 431
1153 1124 1160
1138 1123 1796
1130 1125 2383
1126 1128 2934
1124 1132 3457
1121 1140 3940
1122 1144 4044
1192 1755 2
1174 1740 471
1155 1734 1175
1137 1731 1798
1128 1730 2374
1123 1731 2918
1120 1733 3435
1117 1738 3922
1117 1740 4049
1207 2307 3
1189 2296 517
1165 2291 1201
1147 2288 1811
1137 2285 2379
1132 2285 2916
1128 2285 3428
1125 2287 3915
1125 2287 4056
1230 2825 5
1208 2816 566
1180 2811 1233
1163 2807 1832
1154 2805 2393
1148 2803 2923
1144 2802 3429
1142 2803 3915
1141 2801 4061
1252 3315 11
1226 3309 614
1198 3305 1267
1181 3300 1857
1172 3296 2410
1167 3293 2934
1163 3292 3436
1161 3291 3919
1160 3289 4066
1273 3782 18
1240 3779 660
1214 3773 1302
1201 3769 1883
1194 3765 2430
1189 3762 2948
1185 3760 3445
1183 3759 3925
1181 3755 4069
1294 4008 51
1257 4019 705
1234 4026 1336
1225 4031 1910
1218 4035 2449
1214 4039 2962
1210 4043 3456
1207 4046 3931
1205 4046 4068
2027 2 2
2022 2 551
2027 2 1359
2033 2 2033
2035 2 2643
2037 2 3210
2036 2 3745
2031 1 4045
2035 1 4051
1867 449 1
1840 425 436
1830 421 1188
1822 425 1835
1816 430 2428
1809 438 2984
1800 447 3510
1784 461 3975
1783 471 4042
1815 1152 1
1795 1134 443
1784 1130 1166
1775 1128 1799
1765 1129 2382
1754 1132 2931
1740 1137 3452
1722 1145 3937
1719 1149 4047
1800 1751 2
1786 1738 478
1774 1733 1178
1762 1731 1797
1749 1730 2372
1735 1731 2914
1715 1734 3429
1701 1739 3919
1697 1740 4055
1801 2301 4
1790 2292 519
1777 2287 1201
1762 2284 1809
1744 2283 2376
1724 2282 2911
1705 2283 3422
1695 2286 3911
1690 2286 4061
1812 2817 6
1802 2811 565
1786 2807 1231
1768 2803 1830
1746 2801 2389
1721 2799 2917
1709 2799 3424
1695 2800 3911
1690 2799 4067
1826 3307 17
1815 3303 610
1797 3298 1264
1776 3295 1853
1748 3292 2406
1727 3289 2928
1715 3288 3430
1702 3288 3914
1699 3287 4071
1839 3773 23
1828 3772 654
1806 3768 1298
1780 3764 1879
1748 3762 2425
1735 3759 2942
1722 3757 3439
1714 3756 3919
1712 3753 4074
1852 4012 25
1840 4027 697
1813 4034 1331
1784 4041 1906
1756 4046 2444
1746 4050 2958
1735 4053 3451
1730 4056 3926
1728 4056 4074
2683 2 2
2657 2 628
2647 2 1399
2641 2 2058
2638 2 2659
2634 1 3218
2627 1 3744
2617 1 4040
2618 1 4043
2456 475 1
2428 451 462
2416 448 1202
2407 450 1844
2399 454 2433
2393 461 2985
2387 469 3509
2377 481 3978
2376 488 4041
2387 1160 1
2370 1144 460
2359 1140 1178
2350 1138 1807
2342 1140 2387
2335 1142 2933
2327 1147 3452
2317 1155 3940
2313 1158 4051
2361 1753 2
2350 1742 488
2339 1737 1186
2329 1735 1803
2319 1735 2374
2310 1736 2914
2302 1739 3428
2291 1743 3920
2286 1744 4059
2354 2300 4
2346 2293 525
2334 2288 1207
2323 2285 1813
2311 2283 2377
2301 2283 2910
2291 2285 3420
2278 2287 3910
2270 2287 4065
2356 2814 8
2350 2809 567
2337 2805 1235
2324 2802 1831
2311 2800 2389
2299 2798 2915
2287 2798 3421
2270 2800 3908
2260 2799 4070
2363 3302 16
2357 3299 611
2344 3296 1266
2330 3292 1854
2315 3290 2404
2301 3288 2926
2287 3287 3426
2268 3287 3911
2260 3285 4074
2371 3769 40
2365 3768 654
2350 3765 1299
2335 3762 1879
2319 3760 2423
2303 3757 2939
2286 3755 3436
2268 3755 3917
2259 3752 4077
2378 4018 55
2372 4033 697
2357 4042 1332
2339 4048 1905
2323 4053 2443
2305 4057 2955
2283 4061 3448
2267 4064 3925
2259 4065 4077
3251 3 4
3219 2 678
3205 2 1428
3195 1 2076
3187 1 2670
3179 1 3223
3167 1 3742
3150 0 4030
3145 0 4032
2999 502 2
2973 479 493
2960 475 1221
2950 476 1856
2942 478 2443
2935 483 2992
2928 491 3512
2920 502 3975
2918 509 4044
2923 1170 2
2908 1157 483
2897 1153 1193
2887 1152 1817
2879 1153 2396
2872 1156 2939
2865 1161 3455
2858 1167 3942
2855 1169 4054
2890 1759 2
2880 1749 505
2869 1745 1197
2859 1743 1811
2850 1742 2381
2842 1744 2918
2836 1746 3431
2829 1750 3922
2824 1751 4062
2875 2302 4
2868 2295 536
2858 2292 1215
2847 2289 1820
2837 2288 2382
2827 2288 2913
2820 2289 3422
2812 2291 3911
2807 2291 4068
2870 2814 8
2865 2810 574
2854 2806 1241
2843 2804 1836
2831 2801 2392
2821 2800 2917
2813 2800 3422
2803 2802 3908
2797 2801 4073
2871 3300 15
2867 3299 612
2856 3295 1271
2843 3293 1858
2831 3291 2406
2821 3289 2927
2811 3288 3427
2800 3288 3910
2793 3286 4077
2874 3766 33
2871 3767 653
2858 3765 1303
2845 3762 1882
2833 3760 2424
2821 3757 2940
2810 3756 3436
2799 3754 3915
2792 3752 4080
2877 4022 75
2875 4038 694
2861 4047 1335
2847 4054 1907
2835 4060 2444
2823 4064 2956
2812 4068 3449
2800 4072 3923
2793 4073 4081
3778 3 4
3742 2 716
3724 1 1452
3711 1 2091
3698 1 2677
3683 1 3221
3662 1 3730
3643 1 4024
3633 1 4030
3513 526 2
3488 505 522
3474 500 1243
3463 500 1873
3454 503 2454
3445 508 3000
3437 516 3517
3432 525 3978
3429 531 4047
3432 1185 3
3417 1173 509
3405 1169 1212
3395 1168 1832
3386 1170 2406
3379 1172 2947
3373 1176 3463
3368 1181 3945
3365 1182 4057
3392 1767 3
3383 1758 525
3372 1755 1213
3362 1753 1823
3353 1753 2391
3346 1754 2926
3340 1756 3438
3333 1760 3926
3329 1760 4064
3371 2307 6
3366 2301 552
3355 2298 1228
3345 2296 1829
3335 2294 2390
3327 2294 2919
3320 2295 3427
3313 2298 3915
3308 2298 4070
3361 2816 12
3358 2813 584
3347 2810 1251
3336 2808 1843
3326 2806 2398
3317 2805 2921
3309 2805 3425
3300 2806 3911
3295 2805 4075
3358 3300 18
3356 3300 622
3345 3298 1278
3334 3296 1863
3323 3293 2411
3313 3292 2930
3304 3291 3429
3294 3291 3912
3289 3289 4079
3357 3765 25
3355 3768 661
3344 3766 1308
3332 3764 1886
3321 3762 2428
3310 3759 2943
3301 3758 3438
3291 3756 3916
3285 3754 4082
3357 4025 67
3356 4043 703
3344 4053 1341
3332 4060 1913
3321 4066 2449
3310 4070 2960
3301 4074 3452
3292 4077 3924
3285 4078 4084
4069 2 3
4062 1 750
4051 2 1470
4038 2 2095
4024 2 2668
4010 2 3201
4001 2 3709
3999 2 4024
3999 2 4031
3977 547 2
3959 527 551
3945 524 1265
3934 523 1890
3926 528 2466
3921 534 3008
3918 541 3525
3915 550 3988
3912 554 4049
3913 1200 3
3901 1190 531
3889 1186 1232
3879 1186 1848
3871 1187 2419
3864 1188 2957
3858 1191 3472
3854 1196 3955
3850 1197 4059
3873 1776 5
3866 1769 545
3855 1766 1231
3845 1765 1837
3836 1765 2401
3829 1765 2934
3823 1767 3445
3817 1771 3933
3813 1770 4066
3848 2312 8
3845 2308 567
3834 2306 1243
3824 2304 1840
3814 2302 2398
3806 2302 2926
3800 2303 3433
3793 2305 3920
3788 2305 4072
3834 2818 17
3832 2817 596
3822 2815 1262
3811 2814 1852
3801 2812 2404
3792 2810 2927
3785 2810 3430
3777 2812 3915
3772 2811 4076
3828 3301 33
3827 3303 635
3816 3301 1288
3805 3300 1871
3795 3297 2416
3785 3295 2935
3777 3294 3433
3768 3294 3916
3763 3293 4080
3824 3766 40
3823 3770 673
3812 3769 1316
3801 3767 1893
3790 3765 2433
3780 3763 2947
3772 3761 3442
3763 3760 3920
3757 3757 4084
3821 4027 36
3822 4048 715
3811 4058 1349
3799 4065 1920
3789 4071 2456
3779 4075 2965
3770 4079 3455
3761 4082 3927
3755 4083 4087
4071 4 23
4066 3 766
4059 3 1472
4052 3 2091
4044 3 2661
4032 3 3190
4027 3 3695
4027 3 4022
4027 2 4031
4054 572 2
4054 554 581
4051 552 1286
4048 553 1907
4045 557 2479
4044 560 3019
4044 566 3535
4044 573 3996
4044 577 4049
4053 1216 3
4059 1207 557
4058 1204 1253
4057 1203 1865
4057 1204 2432
4056 1205 2968
4056 1207 3480
4055 1212 3964
4054 1213 4060
4056 1787 6
4065 1780 567
4066 1779 1248
4067 1777 1851
4066 1777 2413
4065 1777 2944
4064 1779 3453
4063 1781 3940
4062 1781 4067
4061 2318 9
4073 2316 585
4075 2314 1258
4075 2312 1853
4074 2310 2408
4072 2310 2934
4071 2311 3439
4069 2313 3926
4068 2312 4072
4067 2821 17
4081 2822 612
4083 2822 1275
4082 2819 1862
4080 2817 2412
4079 2817 2934
4077 2816 3435
4075 2817 3919
4074 2816 4077
4076 3302 39
4089 3306 649
4089 3305 1299
4088 3304 1880
4086 3301 2424
4084 3300 2941
4082 3299 3438
4080 3299 3919
4079 3297 4081
4082 3767 67
4094 3774 684
4093 3772 1326
4092 3771 1902
4090 3769 2441
4088 3766 2953
4086 3765 3447
4084 3763 3924
4083 3761 4085
4084 4029 81
4094 4051 726
4094 4061 1360
4093 4068 1927
4093 4074 2462
4090 4078 2970
4088 4082 3460
4085 4085 3932
4086 4087 4087
