Postproduction/IWLTBAP - Humble/LUTs by IWLTBAP (3DL)/UTILITY/Panasonic Cine-D to Rec.709/U-PANASONIC-CINE-D-V1-LTR.3dl
# Copyright: (C) Copyright 2010-2018 by IWLTBAP SAS
# Cannot be resold, shared or otherwise redistributed
# Website: https://luts.iwltbap.com
0 128 256 384 512 640 768 896 1023
2 2 2
2 2 831
2 2 1884
2 2 2780
2 2 3594
2 3 4073
2 3 4073
2 3 4073
2 3 4073
1 563 2
1 523 531
1 506 1607
1 496 2506
1 489 3318
1 484 4007
1 476 4044
1 469 4044
1 463 4044
1 1452 2
1 1396 328
1 1365 1404
1 1344 2294
1 1327 3101
0 1314 3849
0 1300 4039
0 1286 4039
0 1274 4039
1 2163 2
1 2104 151
1 2070 1224
1 2046 2117
0 2026 2924
0 2009 3673
0 1992 4039
0 1975 4039
0 1961 4039
1 2804 1
1 2742 16
1 2708 1056
0 2682 1954
0 2661 2763
0 2641 3512
0 2622 4041
0 2604 4041
0 2587 4041
1 3396 1
1 3334 5
0 3300 894
0 3273 1799
0 3250 2610
0 3229 3360
0 3207 4017
0 3188 4043
0 3170 4043
0 3936 0
0 3886 0
0 3856 730
0 3830 1645
0 3806 2460
0 3784 3212
0 3761 3914
0 3740 4044
0 3721 4044
0 3998 0
0 3998 0
0 4002 565
0 4007 1494
0 4010 2312
0 4011 3066
0 4011 3778
0 4010 4043
0 4010 4043
0 3998 0
0 3998 0
0 4001 403
0 4006 1348
0 4010 2171
0 4011 2928
0 4011 3642
0 4010 4043
0 4010 4043
764 2 2
713 2 692
689 2 1759
680 2 2664
681 3 3489
698 3 4064
735 3 4064
752 3 4064
762 3 4064
473 447 2
417 395 400
387 368 1480
367 351 2378
352 337 3191
338 328 3927
327 318 4046
318 307 4046
309 297 4046
241 1298 2
181 1239 170
145 1207 1245
118 1184 2140
95 1166 2949
74 1151 3701
53 1136 4038
44 1121 4038
37 1108 4038
49 2001 2
16 1940 16
10 1905 1050
9 1880 1950
7 1859 2761
6 1841 3513
5 1824 4038
4 1807 4038
3 1790 4038
7 2638 1
3 2576 3
1 2539 871
0 2513 1777
0 2490 2591
0 2471 3344
0 2451 4008
0 2432 4040
0 2415 4040
1 3229 1
1 3166 1
1 3129 700
0 3102 1616
0 3079 2433
0 3057 3188
0 3037 3895
0 3016 4043
0 2997 4043
0 3785 0
0 3722 0
0 3685 529
0 3659 1459
0 3634 2280
0 3612 3037
0 3590 3750
0 3567 4044
0 3549 4044
0 3998 0
0 3998 0
0 4001 351
0 4006 1302
0 4010 2128
0 4011 2887
0 4009 3602
0 4006 4043
0 4003 4043
0 3998 0
0 3998 0
0 3999 194
0 4006 1151
0 4009 1982
0 4011 2745
0 4011 3463
0 4010 4036
0 4010 4043
1797 2 2
1759 2 661
1758 2 1750
1777 2 2682
1783 2 3512
1771 2 4054
1773 2 4054
1773 2 4054
1772 2 4054
1505 388 1
1453 329 336
1420 298 1417
1392 276 2315
1365 261 3126
1341 250 3874
1325 239 4045
1314 226 4045
1305 215 4046
1259 1217 1
1198 1156 76
1154 1125 1161
1111 1102 2060
1084 1084 2871
1061 1069 3623
1039 1058 4043
1024 1041 4043
1010 1026 4043
1059 1912 1
993 1849 7
938 1816 955
899 1792 1861
871 1772 2675
847 1755 3428
823 1740 4035
804 1722 4046
788 1706 4045
873 2544 1
803 2480 1
744 2446 765
709 2421 1681
679 2399 2499
653 2379 3254
628 2363 3952
607 2343 4049
588 2325 4048
688 3132 0
614 3068 1
565 3033 585
529 3007 1513
497 2984 2335
469 2963 3092
443 2943 3806
420 2923 4051
398 2904 4050
514 3687 0
440 3622 0
391 3585 403
352 3559 1351
319 3535 2176
288 3513 2936
261 3492 3651
235 3471 4050
215 3451 4050
347 3997 0
269 3996 0
219 3998 223
186 4001 1188
159 4002 2019
133 4001 2782
111 3996 3498
88 3980 4046
68 3962 4046
191 3996 0
128 3996 0
84 3998 80
47 4004 1032
24 4008 1868
17 4011 2635
15 4012 3354
13 4011 4018
11 4010 4043
2734 2 2
2706 2 728
2688 2 1797
2676 2 2695
2664 1 3505
2642 0 4042
2637 0 4042
2632 0 4042
2627 0 4042
2362 347 1
2309 284 297
2276 251 1376
2250 229 2273
2227 211 3083
2203 199 3831
2182 187 4042
2169 173 4042
2158 160 4042
2102 1163 1
2043 1101 30
2008 1069 1103
1976 1046 2005
1946 1027 2817
1911 1013 3569
1873 1002 4046
1856 984 4046
1839 968 4046
1901 1851 1
1837 1788 3
1800 1756 886
1763 1732 1798
1723 1712 2615
1677 1695 3369
1639 1682 4026
1619 1664 4054
1602 1647 4053
1721 2480 0
1653 2415 0
1613 2382 687
1568 2358 1612
1516 2337 2434
1471 2319 3191
1446 2303 3903
1425 2285 4059
1407 2266 4059
1551 3067 0
1482 3002 0
1436 2967 494
1379 2944 1438
1326 2922 2265
1295 2902 3026
1270 2886 3744
1249 2867 4063
1229 2848 4063
1383 3620 0
1313 3556 0
1262 3519 301
1196 3497 1272
1157 3474 2105
1128 3454 2869
1104 3436 3588
1080 3418 4066
1059 3397 4065
1211 4005 0
1137 3999 0
1085 3998 140
1028 4003 1107
996 3989 1947
967 3971 2716
942 3954 3435
918 3939 4057
896 3920 4065
1052 4003 0
975 4002 0
925 4003 19
876 4016 946
843 4022 1794
813 4026 2566
786 4031 3288
761 4034 3968
738 4034 4061
3558 2 2
3510 2 742
3482 1 1799
3461 1 2688
3439 1 3488
3409 0 4030
3400 0 4030
3392 0 4030
3385 0 4030
3136 313 1
3081 247 264
3047 211 1345
3020 188 2240
2996 167 3047
2970 151 3793
2946 139 4035
2932 122 4035
2920 107 4035
2866 1119 1
2806 1055 15
2773 1023 1057
2744 1000 1961
2716 981 2773
2689 966 3525
2664 953 4050
2647 935 4050
2631 918 4049
2662 1801 0
2598 1737 1
2566 1705 830
2534 1681 1746
2503 1661 2564
2474 1645 3319
2443 1631 4005
2423 1612 4058
2404 1594 4058
2481 2426 0
2415 2361 0
2382 2329 619
2347 2305 1554
2312 2284 2377
2278 2266 3136
2243 2251 3855
2213 2233 4064
2192 2214 4064
2313 3011 0
2246 2946 0
2209 2912 415
2172 2890 1375
2133 2868 2206
2093 2849 2968
2047 2832 3688
1998 2814 4069
1976 2795 4069
2151 3564 0
2082 3500 0
2043 3463 222
2003 3443 1203
1957 3421 2042
1905 3402 2809
1856 3384 3529
1817 3367 4072
1795 3346 4072
1986 4007 0
1916 3999 0
1873 3975 76
1830 3962 1033
1770 3945 1882
1714 3928 2654
1682 3911 3376
1657 3893 4048
1636 3872 4073
1833 4010 0
1761 4010 0
1714 4010 12
1670 4027 866
1602 4036 1726
1556 4043 2502
1530 4048 3228
1506 4052 3918
1484 4052 4071
4072 2 2
4065 1 742
4050 1 1792
4034 1 2672
4014 0 3460
4010 0 4029
4007 0 4030
4004 0 4030
4002 0 4030
3851 281 1
3798 216 235
3760 178 1317
3731 151 2210
3703 128 3015
3675 107 3758
3656 87 4036
3641 70 4035
3628 53 4034
3576 1081 1
3517 1016 10
3483 984 1018
3453 960 1923
3426 941 2736
3401 925 3487
3379 909 4050
3362 890 4053
3346 873 4052
3370 1759 0
3306 1693 0
3274 1661 780
3244 1637 1702
3214 1617 2521
3188 1600 3277
3163 1586 3975
3143 1567 4061
3126 1549 4061
3187 2380 0
3122 2314 0
3090 2281 559
3058 2258 1503
3027 2237 2329
2998 2219 3089
2972 2204 3809
2947 2186 4067
2928 2167 4067
3019 2962 0
2953 2897 0
2919 2863 347
2887 2841 1319
2853 2819 2152
2821 2801 2917
2792 2784 3638
2763 2767 4073
2743 2748 4072
2860 3515 0
2792 3449 0
2755 3412 171
2724 3393 1142
2688 3373 1985
2653 3354 2755
2620 3335 3477
2585 3319 4072
2563 3298 4076
2698 4007 0
2630 3967 0
2588 3930 25
2561 3919 965
2523 3902 1822
2484 3883 2597
2447 3864 3322
2407 3846 4003
2381 3825 4078
2547 4016 0
2478 4016 0
2432 4016 7
2405 4035 791
2364 4046 1663
2321 4054 2444
2274 4059 3172
2227 4064 3865
2196 4065 4077
4072 2 2
4066 1 736
4056 1 1784
4044 0 2662
4028 0 3448
4027 0 4026
4027 0 4030
4027 0 4030
4027 0 4030
4058 255 1
4060 191 209
4053 151 1291
4046 121 2182
4035 95 2982
4031 73 3729
4031 51 4035
4030 34 4034
4030 27 4033
4053 1044 0
4048 978 7
4046 946 982
4038 923 1890
4029 902 2702
4021 884 3454
4013 870 4047
4001 850 4054
3990 832 4054
4006 1717 0
3960 1652 0
3936 1620 735
3910 1598 1662
3884 1578 2482
3861 1560 3239
3838 1545 3946
3818 1525 4063
3799 1506 4063
3854 2336 0
3790 2271 0
3760 2238 502
3729 2216 1459
3699 2195 2286
3672 2176 3047
3648 2161 3768
3625 2143 4069
3605 2124 4069
3687 2917 0
3621 2851 0
3589 2817 289
3559 2796 1268
3527 2776 2104
3498 2757 2871
3471 2740 3593
3446 2724 4075
3425 2704 4075
3529 3469 0
3461 3403 0
3425 3365 125
3398 3347 1086
3365 3328 1934
3333 3309 2706
3304 3291 3429
3275 3275 4068
3254 3254 4078
3369 3985 0
3302 3927 0
3260 3889 16
3238 3876 903
3205 3858 1768
3172 3838 2546
3140 3819 3272
3109 3801 3961
3085 3781 4081
3218 4021 0
3149 4020 0
3103 4020 2
3084 4041 721
3049 4054 1607
3014 4062 2391
2981 4068 3121
2949 4072 3816
2922 4075 4081
4072 2 2
4066 1 729
4057 1 1775
4045 0 2651
4028 0 3436
4027 0 4023
4027 0 4030
4027 0 4030
4027 0 4030
4059 233 1
4060 168 187
4054 127 1267
4046 95 2159
4035 68 2959
4030 42 3703
4030 29 4034
4029 22 4033
4029 15 4032
4053 1014 0
4053 946 6
4056 913 949
4053 889 1858
4051 868 2670
4050 849 3422
4048 834 4040
4048 814 4053
4048 795 4053
4055 1681 0
4054 1615 0
4063 1583 693
4063 1561 1625
4062 1540 2445
4061 1521 3203
4059 1505 3915
4058 1486 4063
4058 1467 4063
4060 2296 0
4059 2229 0
4071 2196 451
4073 2175 1416
4072 2154 2245
4070 2136 3008
4068 2120 3728
4066 2102 4070
4066 2082 4070
4066 2873 0
4065 2807 0
4076 2772 241
4081 2755 1220
4077 2734 2060
4071 2716 2829
4065 2698 3551
4056 2683 4076
4048 2662 4076
4070 3423 0
4059 3357 0
4045 3318 80
4028 3305 1032
4001 3286 1886
3973 3267 2660
3948 3248 3385
3923 3232 4057
3902 3212 4080
4002 3946 0
3942 3887 0
3902 3845 12
3883 3833 844
3851 3815 1718
3820 3796 2499
3791 3778 3227
3763 3760 3921
3740 3740 4084
3861 4023 0
3792 4023 0
3746 4023 0
3730 4046 659
3698 4060 1556
3666 4069 2344
3636 4075 3076
3606 4080 3769
3580 4082 4086
4072 2 2
4066 1 721
4057 1 1766
4045 1 2641
4028 0 3425
4027 0 4020
4027 0 4030
4027 0 4030
4027 0 4030
4060 214 1
4061 148 167
4054 105 1246
4047 72 2138
4036 40 2938
4030 27 3681
4029 19 4032
4028 12 4032
4028 9 4031
4053 987 0
4053 919 4
4056 884 920
4052 859 1830
4050 837 2642
4049 818 3394
4048 802 4033
4048 781 4053
4047 762 4053
4054 1650 0
4054 1584 0
4063 1550 657
4063 1527 1592
4062 1506 2413
4060 1487 3171
4059 1470 3886
4058 1451 4063
4058 1431 4062
4059 2261 0
4059 2194 0
4070 2160 411
4072 2139 1378
4071 2118 2208
4069 2098 2971
4068 2082 3692
4066 2064 4070
4066 2044 4069
4066 2836 0
4065 2769 0
4075 2733 205
4082 2715 1178
4080 2695 2020
4078 2676 2790
4076 2658 3512
4073 2643 4074
4073 2622 4076
4073 3384 0
4072 3317 0
4077 3276 43
4089 3264 985
4088 3245 1842
4085 3226 2618
4082 3207 3344
4078 3190 4024
4078 3170 4080
4076 3909 0
4076 3845 0
4078 3801 8
4095 3791 790
4094 3774 1672
4091 3755 2455
4087 3736 3184
4084 3718 3879
4083 3698 4084
4076 4022 0
4076 4022 0
4076 4022 0
4094 4048 604
4094 4063 1506
4094 4072 2296
4091 4079 3031
4088 4084 3727
4086 4087 4087
