Postproduction/IWLTBAP - Humble/LUTs by IWLTBAP (3DL)/UTILITY/Panasonic Cine-D to Rec.709/U-PANASONIC-CINE-D-V2-LTR.3dl
# Copyright: (C) Copyright 2010-2018 by IWLTBAP SAS
# Cannot be resold, shared or otherwise redistributed
# Website: https://luts.iwltbap.com
0 64 128 192 256 320 384 448 512 576 640 704 768 832 896 960 1023
2 2 2
2 2 27
2 2 391
2 2 879
2 2 1269
2 2 1626
2 2 1960
2 2 2280
2 2 2589
2 2 2885
2 2 3174
2 2 3455
2 2 3730
2 3 3966
2 3 4069
2 3 4073
2 3 4073
2 17 2
2 18 20
2 18 431
2 19 872
2 20 1258
2 21 1614
2 27 1953
2 37 2280
2 46 2594
2 55 2893
2 64 3181
2 74 3458
2 83 3725
2 91 3956
2 100 4053
2 107 4062
2 114 4062
1 434 2
1 435 64
1 430 436
1 434 862
1 438 1234
1 445 1578
1 450 1902
1 456 2213
1 463 2511
1 469 2797
1 476 3075
1 483 3346
1 490 3610
1 496 3862
1 502 4023
1 507 4044
1 512 4044
1 876 2
1 862 77
1 853 468
1 849 870
1 849 1230
1 849 1565
1 851 1882
1 852 2188
1 855 2481
1 858 2764
1 860 3039
1 864 3307
1 867 3568
1 871 3821
1 875 4001
1 878 4040
1 880 4040
1 1231 2
1 1213 74
1 1204 491
1 1200 879
1 1197 1231
1 1195 1559
1 1193 1872
1 1193 2171
1 1192 2460
1 1192 2740
1 1192 3012
1 1193 3277
1 1194 3535
1 1195 3787
1 1197 3986
1 1198 4038
1 1198 4039
2 1542 3
2 1524 127
2 1515 506
2 1509 882
1 1505 1226
1 1501 1549
1 1499 1858
1 1497 2154
1 1495 2440
1 1493 2717
1 1492 2987
1 1492 3249
1 1492 3506
1 1492 3757
1 1492 3970
1 1492 4036
1 1492 4038
1 1825 3
1 1809 113
1 1801 516
1 1795 885
1 1791 1223
1 1787 1542
1 1784 1848
1 1781 2141
1 1780 2425
2 1778 2701
2 1778 2969
2 1777 3231
2 1777 3487
2 1777 3738
2 1777 3958
2 1778 4036
2 1778 4038
2 2095 4
2 2084 148
3 2077 531
3 2072 893
3 2067 1227
3 2064 1544
3 2061 1847
3 2059 2138
3 2057 2420
2 2056 2694
2 2055 2961
2 2054 3221
2 2054 3476
2 2054 3726
2 2053 3951
1 2053 4035
1 2051 4039
4 2364 5
4 2353 173
3 2347 552
3 2341 907
3 2337 1237
2 2333 1550
2 2330 1850
2 2328 2139
2 2326 2419
2 2324 2691
2 2323 2955
2 2322 3214
3 2321 3468
3 2320 3717
3 2320 3943
3 2318 4037
3 2318 4040
4 2623 4
4 2613 187
4 2608 574
4 2602 924
4 2598 1249
4 2594 1559
4 2591 1856
4 2589 2143
5 2587 2421
5 2585 2692
5 2583 2955
5 2582 3213
5 2580 3465
5 2579 3713
5 2578 3943
5 2577 4036
4 2576 4041
8 2874 8
8 2865 226
7 2861 599
7 2855 942
6 2852 1265
6 2847 1571
6 2845 1865
6 2842 2150
6 2839 2426
6 2838 2695
6 2835 2956
5 2833 3212
5 2832 3463
6 2830 3710
6 2829 3937
6 2826 4038
6 2825 4042
11 3119 11
10 3112 250
10 3107 621
10 3102 961
11 3098 1279
10 3094 1583
10 3091 1875
10 3088 2157
9 3086 2432
10 3083 2699
9 3081 2958
9 3079 3213
9 3078 3463
9 3076 3708
8 3074 3940
9 3071 4039
9 3070 4043
22 3359 21
18 3352 277
16 3347 646
14 3343 979
13 3339 1295
12 3335 1596
11 3331 1885
11 3328 2166
11 3326 2439
10 3323 2703
11 3321 2962
11 3319 3215
11 3317 3464
11 3314 3708
11 3311 3935
12 3309 4039
14 3307 4044
16 3593 15
15 3586 310
15 3582 668
15 3577 999
15 3573 1311
17 3570 1609
20 3566 1896
22 3563 2175
24 3560 2446
24 3557 2709
24 3555 2966
23 3552 3219
22 3550 3466
22 3547 3709
20 3544 3941
19 3541 4042
18 3540 4045
44 3820 44
44 3816 333
43 3811 691
41 3808 1018
38 3803 1327
34 3799 1622
29 3796 1907
24 3793 2184
21 3790 2453
19 3787 2715
18 3784 2970
17 3782 3221
17 3779 3467
17 3776 3709
17 3772 3935
17 3770 4039
17 3768 4045
47 3982 41
38 3983 362
30 3982 712
25 3980 1036
23 3978 1342
22 3977 1634
21 3976 1918
21 3976 2193
26 3977 2460
31 3979 2720
36 3981 2975
40 3983 3224
42 3986 3470
45 3987 3711
45 3984 3943
46 3981 4043
46 3976 4045
48 3998 49
54 4000 388
58 4003 734
61 4005 1055
63 4006 1358
65 4008 1648
65 4009 1930
64 4010 2203
62 4011 2469
59 4011 2728
54 4011 2981
49 4012 3229
42 4012 3473
37 4012 3714
33 4012 3938
29 4011 4039
25 4011 4044
17 2 2
16 2 20
15 2 403
15 2 871
16 2 1259
18 2 1615
19 2 1950
20 2 2270
21 2 2580
23 2 2877
25 2 3169
27 2 3454
28 2 3735
40 3 3976
57 3 4069
74 3 4072
92 3 4071
20 18 2
18 17 18
18 16 436
24 20 875
35 27 1262
46 36 1621
56 43 1958
66 50 2276
75 56 2579
85 63 2870
93 68 3151
100 74 3424
107 79 3688
113 84 3925
117 88 4045
121 92 4060
125 94 4060
66 430 2
63 422 65
59 414 419
58 413 838
56 415 1204
54 418 1544
51 421 1865
48 425 2172
44 429 2469
42 433 2754
42 436 3031
42 441 3301
42 445 3564
42 450 3818
42 455 4005
44 460 4043
54 463 4044
54 836 2
41 818 42
36 810 428
35 806 826
33 804 1185
34 803 1518
39 803 1834
46 805 2138
52 807 2431
58 809 2714
64 812 2989
71 814 3257
77 818 3517
82 822 3772
87 826 3977
91 829 4038
95 832 4039
75 1180 2
75 1162 74
77 1154 443
80 1149 832
82 1147 1182
83 1146 1510
85 1145 1823
85 1144 2123
85 1145 2413
84 1145 2693
83 1147 2965
81 1149 3231
78 1150 3490
76 1152 3743
74 1155 3965
70 1158 4036
68 1159 4038
114 1494 3
100 1478 92
89 1470 464
83 1465 841
79 1462 1185
75 1460 1509
70 1458 1817
65 1457 2115
65 1457 2402
69 1457 2680
74 1457 2951
78 1458 3215
83 1459 3472
88 1460 3725
94 1462 3947
99 1463 4034
104 1465 4038
107 1786 2
98 1774 90
94 1767 485
94 1763 855
98 1759 1194
102 1757 1513
106 1755 1819
109 1753 2113
113 1753 2398
115 1752 2675
118 1752 2943
119 1752 3205
120 1752 3461
119 1753 3712
119 1754 3943
118 1754 4035
119 1754 4039
149 2067 4
144 2056 141
141 2051 509
138 2046 871
135 2042 1205
131 2039 1521
129 2036 1823
126 2035 2115
122 2034 2397
119 2033 2671
117 2032 2938
117 2032 3198
117 2032 3453
116 2032 3703
117 2032 3933
118 2032 4033
123 2032 4040
168 2338 3
158 2328 147
151 2323 533
145 2318 888
140 2315 1218
138 2311 1530
138 2309 1830
138 2307 2119
139 2306 2400
141 2304 2672
144 2303 2937
146 2303 3196
150 2302 3449
152 2302 3698
155 2301 3932
156 2301 4038
158 2300 4041
189 2600 4
181 2591 177
179 2586 559
177 2582 908
176 2578 1233
175 2575 1543
174 2572 1840
174 2570 2127
174 2568 2405
174 2566 2675
173 2565 2938
171 2564 3196
170 2563 3448
169 2562 3695
170 2561 3927
168 2560 4035
169 2559 4043
224 2853 7
216 2846 212
210 2841 584
205 2836 927
202 2833 1250
198 2829 1556
195 2827 1850
192 2824 2135
189 2822 2411
188 2821 2680
187 2819 2941
187 2817 3197
188 2817 3448
188 2815 3695
190 2814 3928
190 2812 4041
192 2811 4045
246 3100 10
237 3094 233
232 3089 608
226 3085 948
222 3081 1266
218 3078 1569
217 3075 1862
216 3073 2144
215 3070 2419
215 3069 2685
215 3067 2945
215 3065 3199
216 3063 3450
216 3061 3695
216 3060 3927
216 3058 4040
217 3057 4047
271 3341 14
263 3336 266
259 3331 633
255 3327 968
252 3323 1283
249 3319 1584
247 3316 1873
244 3314 2154
243 3312 2427
241 3309 2692
240 3307 2950
239 3305 3203
238 3303 3452
237 3302 3696
236 3300 3929
236 3299 4044
236 3296 4049
299 3576 15
291 3571 296
286 3567 657
280 3563 989
276 3559 1300
273 3556 1599
270 3553 1886
267 3550 2165
265 3547 2436
263 3545 2699
261 3543 2956
260 3540 3208
260 3538 3455
260 3536 3699
261 3535 3933
261 3533 4045
261 3531 4051
322 3805 41
314 3801 320
309 3797 680
304 3794 1008
300 3790 1317
297 3786 1613
294 3783 1898
292 3780 2175
291 3777 2444
289 3775 2706
287 3772 2962
286 3770 3213
285 3768 3459
284 3766 3701
284 3765 3933
283 3763 4046
284 3760 4052
347 3975 24
339 3975 348
334 3974 702
329 3974 1027
325 3975 1333
322 3976 1627
319 3978 1910
316 3981 2186
313 3983 2453
311 3986 2713
310 3986 2968
308 3984 3217
307 3980 3462
306 3976 3704
305 3972 3937
305 3969 4048
305 3965 4052
370 3998 64
363 4002 376
357 4005 726
352 4007 1046
348 4009 1350
344 4011 1642
342 4012 1923
339 4013 2196
337 4014 2462
335 4015 2721
333 4015 2974
332 4016 3223
330 4017 3467
329 4018 3707
329 4019 3935
328 4020 4047
327 4020 4052
405 2 2
407 2 16
402 2 390
403 2 838
408 2 1227
416 2 1584
427 2 1920
441 2 2244
458 2 2558
477 2 2861
499 2 3159
522 3 3447
542 3 3726
560 3 3974
578 3 4062
596 3 4065
612 3 4065
450 22 2
453 26 32
452 30 435
460 35 872
468 40 1253
474 44 1602
481 47 1930
486 51 2243
491 54 2543
496 57 2831
501 59 3111
505 61 3382
510 63 3646
513 65 3890
517 67 4034
521 68 4057
524 67 4057
435 411 2
424 399 52
414 392 398
412 391 812
413 393 1177
415 396 1517
417 400 1837
420 403 2145
424 407 2441
428 411 2727
432 416 3004
436 421 3275
440 427 3537
444 433 3793
447 440 3991
452 446 4042
457 450 4043
450 814 2
433 798 31
424 789 412
420 787 809
418 786 1167
418 786 1499
419 787 1815
420 789 2118
422 792 2410
424 794 2693
427 797 2968
430 800 3236
433 804 3496
437 807 3751
439 812 3965
443 816 4038
447 819 4040
467 1160 2
449 1143 80
439 1136 429
434 1133 817
432 1130 1166
431 1129 1494
432 1129 1806
432 1129 2105
433 1130 2395
435 1131 2676
436 1133 2948
438 1135 3214
440 1138 3472
442 1141 3726
443 1144 3955
446 1147 4036
449 1149 4040
484 1475 2
468 1460 71
459 1454 452
453 1450 828
450 1447 1173
448 1445 1496
447 1444 1804
447 1443 2101
447 1444 2388
448 1444 2667
449 1445 2937
450 1446 3200
452 1447 3458
454 1449 3710
455 1452 3938
457 1454 4036
459 1455 4041
500 1769 2
487 1758 96
478 1752 475
473 1748 844
470 1745 1183
468 1743 1502
466 1741 1807
466 1740 2101
465 1740 2386
466 1739 2662
466 1740 2930
467 1740 3192
467 1741 3448
468 1742 3699
469 1744 3935
470 1745 4036
472 1745 4042
519 2051 3
508 2041 131
499 2036 499
494 2032 861
490 2029 1195
487 2026 1511
485 2025 1813
484 2023 2104
483 2023 2387
482 2022 2661
482 2022 2928
482 2022 3187
482 2022 3442
483 2023 3692
483 2024 3925
484 2024 4037
485 2024 4044
538 2323 2
528 2314 134
518 2310 523
513 2306 879
509 2302 1208
507 2300 1521
504 2298 1820
503 2296 2109
501 2295 2390
500 2294 2663
500 2293 2927
500 2293 3186
500 2293 3439
500 2293 3688
500 2294 3925
500 2293 4040
501 2293 4047
559 2586 4
548 2578 176
540 2573 550
534 2570 899
530 2566 1224
527 2564 1534
524 2562 1830
523 2560 2117
521 2558 2396
519 2557 2667
518 2556 2929
517 2555 3187
517 2555 3439
517 2555 3687
516 2555 3921
517 2554 4041
517 2553 4049
578 2841 6
567 2834 198
559 2830 575
554 2826 919
549 2823 1241
546 2820 1547
543 2818 1842
541 2816 2127
539 2814 2404
538 2812 2672
537 2811 2933
536 2810 3189
535 2809 3440
535 2808 3687
534 2808 3924
535 2808 4046
535 2806 4052
595 3089 10
586 3083 222
578 3079 600
573 3075 939
569 3072 1258
566 3070 1561
562 3067 1853
560 3065 2137
558 3063 2412
556 3061 2678
555 3059 2938
553 3058 3192
552 3057 3442
551 3056 3688
550 3055 3922
551 3055 4045
551 3053 4055
615 3330 11
605 3325 258
597 3321 624
592 3318 960
587 3315 1276
584 3312 1576
581 3310 1866
578 3307 2147
576 3305 2420
574 3303 2685
572 3301 2944
571 3300 3197
570 3298 3445
570 3297 3690
569 3296 3927
569 3295 4053
569 3294 4057
633 3565 20
624 3562 284
617 3558 649
612 3555 981
607 3552 1293
604 3548 1592
600 3546 1880
598 3543 2159
595 3541 2430
593 3539 2693
591 3537 2950
590 3535 3202
588 3533 3450
587 3533 3693
587 3532 3927
586 3531 4050
586 3529 4059
651 3796 30
642 3793 310
635 3789 672
630 3786 1001
625 3783 1311
622 3780 1606
618 3777 1892
615 3774 2170
612 3772 2439
611 3770 2700
609 3768 2957
607 3766 3207
606 3764 3454
605 3763 3696
604 3762 3932
604 3761 4054
603 3759 4060
668 3971 21
660 3974 337
654 3977 694
649 3980 1021
644 3983 1327
641 3986 1621
637 3988 1905
634 3990 2180
632 3988 2448
630 3984 2708
628 3979 2963
626 3975 3213
625 3972 3458
624 3970 3700
622 3969 3934
622 3967 4052
621 3966 4059
687 4001 68
679 4006 366
672 4010 718
668 4013 1039
663 4015 1344
659 4017 1636
655 4019 1918
652 4020 2192
649 4021 2457
647 4023 2717
645 4024 2970
643 4025 3218
642 4027 3463
641 4029 3704
640 4030 3937
640 4031 4053
639 4031 4059
875 2 2
873 2 19
863 2 401
864 2 845
871 2 1235
882 2 1595
897 2 1937
915 2 2266
932 2 2581
950 2 2884
965 2 3178
980 3 3461
993 3 3736
1004 3 3979
1013 3 4058
1022 3 4061
1028 3 4061
913 41 2
910 43 59
902 43 457
900 45 881
900 47 1253
901 48 1597
901 49 1922
901 50 2232
902 51 2529
902 51 2815
902 51 3093
903 50 3363
903 50 3626
902 50 3871
901 50 4028
902 49 4056
