Postproduction/IWLTBAP - Humble/LUTs by IWLTBAP (CUBE)/UTILITY/BMDFilm BMCC to Rec.709/U-BMDFILM-BMCC-V2-LTR.cube
# Copyright: (C) Copyright 2010-2018 by IWLTBAP SAS
# Cannot be resold, shared or otherwise redistributed
# Website: https://luts.iwltbap.com
TITLE "BMDFilm BMCC Version 2 (Utility LOG to Rec.709)"
LUT_3D_SIZE 32
0.000000 0.000000 0.000000
0.017792 0.000000 0.000000
0.078766 0.000000 0.000000
0.135681 0.000000 0.000000
0.185974 0.000000 0.000000
0.234100 0.000000 0.000000
0.281372 0.000000 0.000000
0.329407 0.000000 0.000000
0.378632 0.000000 0.000000
0.429382 0.000000 0.000000
0.482697 0.000000 0.000000
0.538635 0.000000 0.000000
0.597656 0.000000 0.000000
0.660187 0.000000 0.000000
0.726562 0.000000 0.000000
0.786804 0.000000 0.000000
0.829590 0.000000 0.000000
0.860809 0.000000 0.000000
0.886566 0.000000 0.000000
0.908997 0.000000 0.000000
0.929291 0.000000 0.000000
0.947784 0.000000 0.000000
0.965424 0.000000 0.000000
0.981995 0.000000 0.000000
0.996918 0.000000 0.000000
1.000000 0.000000 0.000000
1.000000 0.000000 0.000000
1.000000 0.000000 0.000000
1.000000 0.000000 0.000000
1.000000 0.000000 0.000000
1.000000 0.000000 0.000000
1.000000 0.000000 0.000000
0.000000 0.008972 0.000000
0.000000 0.000000 0.000000
0.057617 0.000000 0.000000
0.119171 0.000000 0.000000
0.173492 0.000000 0.000000
0.223969 0.000000 0.000000
0.272888 0.000000 0.000000
0.322174 0.000000 0.000000
0.372131 0.000000 0.000000
0.423920 0.000000 0.000000
0.477844 0.000000 0.000000
0.534332 0.000000 0.000000
0.593842 0.000000 0.000000
0.656799 0.000000 0.000000
0.723541 0.000000 0.000000
0.784698 0.000000 0.000000
0.828461 0.000000 0.000000
0.860107 0.000000 0.000000
0.886017 0.000000 0.000000
0.908600 0.000000 0.000000
0.928955 0.000000 0.000000
0.947540 0.000000 0.000000
0.965240 0.000000 0.000000
0.981812 0.000000 0.000000
0.996887 0.000000 0.000000
1.000000 0.000000 0.000000
1.000000 0.000000 0.000000
1.000000 0.000000 0.000000
1.000000 0.000000 0.000000
1.000000 0.000000 0.000000
1.000000 0.000000 0.000000
1.000000 0.000000 0.000000
0.000000 0.062836 0.000000
0.000000 0.053162 0.000000
0.035400 0.043518 0.000000
0.101105 0.032623 0.000000
0.160126 0.019318 0.000000
0.213104 0.003357 0.000000
0.264099 0.000000 0.000000
0.314606 0.000000 0.000000
0.365723 0.000000 0.000000
0.418335 0.000000 0.000000
0.472931 0.000000 0.000000
0.529785 0.000000 0.000000
0.589752 0.000000 0.000000
0.653107 0.000000 0.000000
0.720490 0.000000 0.000000
0.782562 0.000000 0.000000
0.827332 0.000000 0.000000
0.859344 0.000000 0.000000
0.885498 0.000000 0.000000
0.908203 0.000000 0.000000
0.928650 0.000000 0.000000
0.947296 0.000000 0.000000
0.965027 0.000000 0.000000
0.981689 0.000000 0.000000
0.996826 0.000000 0.000000
1.000000 0.000000 0.000000
1.000000 0.000000 0.000000
1.000000 0.000000 0.000000
1.000000 0.000000 0.000000
1.000000 0.000000 0.000000
1.000000 0.000000 0.000000
1.000000 0.000000 0.000000
0.000000 0.116150 0.000000
0.000000 0.108368 0.000000
0.010010 0.100128 0.000000
0.078094 0.090454 0.000000
0.143982 0.077728 0.000000
0.200745 0.063049 0.000000
0.253998 0.044861 0.000000
0.305969 0.022888 0.000000
0.358429 0.000000 0.000000
0.412048 0.000000 0.000000
0.467194 0.000000 0.000000
0.524872 0.000000 0.000000
0.585449 0.000000 0.000000
0.649261 0.000000 0.000000
0.717041 0.000000 0.000000
0.780121 0.000000 0.000000
0.826019 0.000000 0.000000
0.858490 0.000000 0.000000
0.884888 0.000000 0.000000
0.907776 0.000000 0.000000
0.928314 0.000000 0.000000
0.947052 0.000000 0.000000
0.964844 0.000000 0.000000
0.981506 0.000000 0.000000
0.996796 0.000000 0.000000
1.000000 0.000000 0.000000
1.000000 0.000000 0.000000
1.000000 0.000000 0.000000
1.000000 0.000000 0.000000
1.000000 0.000000 0.000000
1.000000 0.000000 0.000000
1.000000 0.000000 0.000000
0.000000 0.164642 0.000000
0.000000 0.158661 0.000000
0.000000 0.152191 0.000000
0.049408 0.145081 0.000000
0.123108 0.136200 0.000000
0.184814 0.125061 0.000000
0.241211 0.110443 0.000000
0.295563 0.091614 0.000000
0.349579 0.066864 0.000000
0.404175 0.036499 0.000000
0.460510 0.004272 0.000000
0.519073 0.000000 0.000000
0.580261 0.000000 0.000000
0.644714 0.000000 0.000000
0.712708 0.000000 0.000000
0.777252 0.000000 0.000000
0.824463 0.000000 0.000000
0.857452 0.000000 0.000000
0.884186 0.000000 0.000000
0.907196 0.000000 0.000000
0.927917 0.000000 0.000000
0.946716 0.000000 0.000000
0.964569 0.000000 0.000000
0.981293 0.000000 0.000000
0.996765 0.000000 0.000000
1.000000 0.000000 0.000000
1.000000 0.000000 0.000000
1.000000 0.000000 0.000000
1.000000 0.000000 0.000000
1.000000 0.000000 0.000000
1.000000 0.000000 0.000000
1.000000 0.000000 0.000000
0.000000 0.210266 0.000000
0.000000 0.205383 0.000000
0.000000 0.200409 0.000000
0.014923 0.194733 0.000000
0.093933 0.187836 0.000000
0.164734 0.179047 0.000000
0.225494 0.168365 0.000000
0.282440 0.154907 0.000000
0.338531 0.137299 0.000000
0.394836 0.113892 0.000000
0.452454 0.081696 0.000000
0.511993 0.039734 0.000000
0.574066 0.000000 0.000000
0.639191 0.000000 0.000000
0.707794 0.000000 0.000000
0.773499 0.000000 0.000000
0.822540 0.000000 0.000000
0.856232 0.000000 0.000000
0.883301 0.000000 0.000000
0.906586 0.000000 0.000000
0.927399 0.000000 0.000000
0.946350 0.000000 0.000000
0.964294 0.000000 0.000000
0.981079 0.000000 0.000000
0.996704 0.000000 0.000000
1.000000 0.000000 0.000000
1.000000 0.000000 0.000000
1.000000 0.000000 0.000000
1.000000 0.000000 0.000000
1.000000 0.000000 0.000000
1.000000 0.000000 0.000000
1.000000 0.000000 0.000000
0.000000 0.255371 0.000000
0.000000 0.251282 0.000000
0.000000 0.246948 0.000000
0.000000 0.242218 0.000000
0.053864 0.236542 0.000000
0.137268 0.229645 0.000000
0.205200 0.221161 0.000000
0.266388 0.210358 0.000000
0.325165 0.197174 0.000000
0.383514 0.180115 0.000000
0.442657 0.158264 0.000000
0.503448 0.128174 0.000000
0.566559 0.085052 0.000000
0.632538 0.031616 0.000000
0.701904 0.000000 0.000000
0.769287 0.000000 0.000000
0.820221 0.000000 0.000000
0.854767 0.000000 0.000000
0.882294 0.000000 0.000000
0.905792 0.000000 0.000000
0.926819 0.000000 0.000000
0.945892 0.000000 0.000000
0.963898 0.000000 0.000000
0.980774 0.000000 0.000000
0.996643 0.000000 0.000000
1.000000 0.000000 0.000000
1.000000 0.000000 0.000000
1.000000 0.000000 0.000000
1.000000 0.000000 0.000000
1.000000 0.000000 0.000000
1.000000 0.000000 0.000000
1.000000 0.000000 0.000000
0.000000 0.300629 0.000000
0.000000 0.297150 0.000000
0.000000 0.293640 0.000000
0.000000 0.289642 0.000000
0.007416 0.284851 0.000000
0.098389 0.278809 0.000000
0.178406 0.271759 0.000000
0.245758 0.263153 0.000000
0.308289 0.252472 0.000000
0.369324 0.238983 0.000000
0.430481 0.222229 0.000000
0.492859 0.200439 0.000000
0.557251 0.171509 0.000000
0.624542 0.130463 0.000000
0.694855 0.069061 0.000000
0.764191 0.004181 0.000000
0.817383 0.000000 0.000000
0.852936 0.000000 0.000000
0.881012 0.000000 0.000000
0.904907 0.000000 0.000000
0.926117 0.000000 0.000000
0.945343 0.000000 0.000000
0.963470 0.000000 0.000000
0.980438 0.000000 0.000000
0.996613 0.000000 0.000000
1.000000 0.000000 0.000000
1.000000 0.000000 0.000000
1.000000 0.000000 0.000000
1.000000 0.000000 0.000000
1.000000 0.000000 0.000000
1.000000 0.000000 0.000000
1.000000 0.000000 0.000000
0.000000 0.347168 0.000000
0.000000 0.343933 0.000000
0.000000 0.340851 0.000000
0.000000 0.337463 0.000000
0.000000 0.333344 0.000000
0.043762 0.328369 0.000000
0.141266 0.322357 0.000000
0.218842 0.315094 0.000000
0.287323 0.306000 0.000000
0.352020 0.295074 0.000000
0.415833 0.281250 0.000000
0.480255 0.264252 0.000000
0.546265 0.242310 0.000000
0.614685 0.213562 0.000000
0.686340 0.173889 0.000000
0.757935 0.113770 0.000000
0.813812 0.036926 0.000000
0.850739 0.000000 0.000000
0.879517 0.000000 0.000000
0.903778 0.000000 0.000000
0.925049 0.000000 0.000000
0.944672 0.000000 0.000000
0.962952 0.000000 0.000000
0.980011 0.000000 0.000000
0.996460 0.000000 0.000000
1.000000 0.000000 0.000000
1.000000 0.000000 0.000000
1.000000 0.000000 0.000000
1.000000 0.000000 0.000000
1.000000 0.000000 0.000000
1.000000 0.000000 0.000000
1.000000 0.000000 0.000000
0.000000 0.395081 0.000000
0.000000 0.392487 0.000000
0.000000 0.389832 0.000000
0.000000 0.386841 0.000000
0.000000 0.383240 0.000000
0.000000 0.378967 0.000000
0.085266 0.373535 0.000000
0.182281 0.367310 0.000000
0.259827 0.359711 0.000000
0.329956 0.350555 0.000000
0.397400 0.338959 0.000000
0.464539 0.324951 0.000000
0.532898 0.307190 0.000000
0.602997 0.284943 0.000000
0.675842 0.255768 0.000000
0.750214 0.216034 0.000000
0.809387 0.157349 0.000000
0.848053 0.072174 0.000000
0.877655 0.000000 0.000000
0.902466 0.000000 0.000000
0.924011 0.000000 0.000000
0.943878 0.000000 0.000000
0.962341 0.000000 0.000000
0.979523 0.000000 0.000000
0.996124 0.000000 0.000000
0.999969 0.000000 0.000000
1.000000 0.000000 0.000000
1.000000 0.000000 0.000000
1.000000 0.000000 0.000000
1.000000 0.000000 0.000000
1.000000 0.000000 0.000000
1.000000 0.000000 0.000000
0.000000 0.445312 0.000000
0.000000 0.443024 0.000000
0.000000 0.440704 0.000000
0.000000 0.437805 0.000000
0.000000 0.434692 0.000000
0.000000 0.430939 0.000000
0.012604 0.426453 0.000000
0.128510 0.421021 0.000000
0.223022 0.414459 0.000000
0.301544 0.406281 0.000000
0.374329 0.396667 0.000000
0.445312 0.384827 0.000000
0.516235 0.369965 0.000000
0.588531 0.351776 0.000000
0.663361 0.328522 0.000000
0.740326 0.298523 0.000000
0.803528 0.258331 0.000000
0.844727 0.200256 0.000000
0.875397 0.106750 0.000000
0.900818 0.000000 0.000000
0.922821 0.000000 0.000000
0.942963 0.000000 0.000000
0.961609 0.000000 0.000000
0.978912 0.000000 0.000000
0.995667 0.000000 0.000000
0.999878 0.000000 0.000000
1.000000 0.000000 0.000000
1.000000 0.000000 0.000000
1.000000 0.000000 0.000000
1.000000 0.000000 0.000000
1.000000 0.000000 0.000000
1.000000 0.000000 0.000000
0.000000 0.497833 0.000000
0.000000 0.495789 0.000000
0.000000 0.493744 0.000000
0.000000 0.491425 0.000000
0.000000 0.488647 0.000000
0.000000 0.485382 0.000000
0.000000 0.481384 0.000000
0.048401 0.476624 0.000000
0.169861 0.470917 0.000000
0.263885 0.463776 0.000000
0.344757 0.455444 0.000000
0.421082 0.445282 0.000000
0.495697 0.432617 0.000000
0.571075 0.417267 0.000000
0.647949 0.397949 0.000000
0.727631 0.373688 0.000000
0.796204 0.342499 0.000000
0.840546 0.301178 0.000000
0.872620 0.242462 0.000000
0.898834 0.145264 0.000000
0.921356 0.025726 0.000000
0.941803 0.000000 0.000000
0.960693 0.000000 0.000000
0.978210 0.000000 0.000000
0.995087 0.000000 0.000000
0.999786 0.000000 0.000000
1.000000 0.000000 0.000000
1.000000 0.000000 0.000000
1.000000 0.000000 0.000000
1.000000 0.000000 0.000000
1.000000 0.000000 0.000000
1.000000 0.000000 0.000000
0.000000 0.553467 0.000000
0.000000 0.551666 0.000000
0.000000 0.549805 0.000000
0.000000 0.547760 0.000000
0.000000 0.545319 0.000000
0.000000 0.542358 0.000000
0.000000 0.538910 0.000000
0.000000 0.534698 0.000000
0.087433 0.529419 0.000000
0.210571 0.523346 0.000000
0.305756 0.516052 0.000000
0.390076 0.507233 0.000000
0.470093 0.496277 0.000000
0.549255 0.483124 0.000000
0.629364 0.466736 0.000000
0.711273 0.446655 0.000000
0.785919 0.421173 0.000000
0.835022 0.388580 0.000000
0.869202 0.345367 0.000000
0.896393 0.285400 0.000000
0.919525 0.187347 0.000000
0.940460 0.059235 0.000000
0.959625 0.000000 0.000000
0.977386 0.000000 0.000000
0.994385 0.000000 0.000000
0.999664 0.000000 0.000000
1.000000 0.000000 0.000000
1.000000 0.000000 0.000000
1.000000 0.000000 0.000000
1.000000 0.000000 0.000000
1.000000 0.000000 0.000000
1.000000 0.000000 0.000000
0.000000 0.612335 0.000000
0.000000 0.610718 0.000000
0.000000 0.609100 0.000000
0.000000 0.607239 0.000000
0.000000 0.605072 0.000000
0.000000 0.602478 0.000000
0.000000 0.599365 0.000000
0.000000 0.595642 0.000000
0.000000 0.590942 0.000000
0.125580 0.585602 0.000000
0.251648 0.579163 0.000000
0.349396 0.571411 0.000000
0.437378 0.561798 0.000000
0.522125 0.550446 0.000000
0.606171 0.536530 0.000000
0.691437 0.519196 0.000000
0.772339 0.497711 0.000000
0.828247 0.471069 0.000000
0.864685 0.436584 0.000000
0.893188 0.391602 0.000000
0.917328 0.329163 0.000000
0.938782 0.230682 0.000000
0.958344 0.092834 0.000000
0.976318 0.000000 0.000000
0.993591 0.000000 0.000000
0.999542 0.000000 0.000000
1.000000 0.000000 0.000000
1.000000 0.000000 0.000000
1.000000 0.000000 0.000000
1.000000 0.000000 0.000000
1.000000 0.000000 0.000000
1.000000 0.000000 0.000000
0.000000 0.674866 0.000000
0.000000 0.673401 0.000000
0.000000 0.671906 0.000000
0.000000 0.670288 0.000000
0.000000 0.668365 0.000000
0.000000 0.666016 0.000000
0.000000 0.663269 0.000000
0.000000 0.659943 0.000000
0.000000 0.655975 0.000000
0.000702 0.651001 0.000000
0.165497 0.645294 0.000000
0.293243 0.638458 0.000000
0.394684 0.630188 0.000000
0.487549 0.620026 0.000000
0.577301 0.607941 0.000000
0.666718 0.592896 0.000000
0.755127 0.574707 0.000000
0.819336 0.551971 0.000000
0.859283 0.523529 0.000000
0.889496 0.487366 0.000000
0.914642 0.440002 0.000000
0.936737 0.374542 0.000000
0.956757 0.274048 0.000000
0.975067 0.124390 0.000000
0.992584 0.000000 0.000000
0.999359 0.000000 0.000000
1.000000 0.000000 0.000000
1.000000 0.000000 0.000000
1.000000 0.000000 0.000000
1.000000 0.000000 0.000000
1.000000 0.000000 0.000000
1.000000 0.000000 0.000000
0.000000 0.740784 0.000000
0.000000 0.739624 0.000000
0.000000 0.738403 0.000000
0.000000 0.737091 0.000000
0.000000 0.735474 0.000000
0.000000 0.733490 0.000000
0.000000 0.730988 0.000000
0.000000 0.728058 0.000000
0.000000 0.724518 0.000000
0.000000 0.720276 0.000000
0.033234 0.715118 0.000000
0.205902 0.708893 0.000000
0.336151 0.701599 0.000000
0.442505 0.692810 0.000000
0.540619 0.681946 0.000000
0.635986 0.669067 0.000000
0.731262 0.653046 0.000000
0.807190 0.633728 0.000000
0.852295 0.609558 0.000000
0.884857 0.579376 0.000000
0.911346 0.541016 0.000000
0.934265 0.490753 0.000000
0.954620 0.422211 0.000000
0.973602 0.318329 0.000000
0.991394 0.155090 0.000000
0.999207 0.000000 0.000000
1.000000 0.000000 0.000000
1.000000 0.000000 0.000000
1.000000 0.000000 0.000000
1.000000 0.000000 0.000000
1.000000 0.000000 0.000000
1.000000 0.000000 0.000000
0.000000 0.797394 0.000000
0.000000 0.796661 0.000000
0.000000 0.795898 0.000000
0.000000 0.795013 0.000000
0.000000 0.793976 0.000000
0.000000 0.792694 0.000000
0.000000 0.791016 0.000000
0.000000 0.789001 0.000000
0.000000 0.786621 0.000000
0.000000 0.783783 0.000000
0.000000 0.780304 0.000000
0.069824 0.776093 0.000000
0.247101 0.770782 0.000000
0.381073 0.764526 0.000000
0.492645 0.756805 0.000000
0.596893 0.747131 0.000000
0.698608 0.734283 0.000000
0.788910 0.717468 0.000000
0.843079 0.696625 0.000000
0.878937 0.670898 0.000000
0.907196 0.638794 0.000000
0.931183 0.598022 0.000000
0.952271 0.544769 0.000000
0.971741 0.472443 0.000000
0.989929 0.363892 0.000000
0.998962 0.185852 0.000000
1.000000 0.000000 0.000000
1.000000 0.000000 0.000000
1.000000 0.000000 0.000000
1.000000 0.000000 0.000000
1.000000 0.000000 0.000000
1.000000 0.000000 0.000000
0.000000 0.836578 0.000000
0.000000 0.836121 0.000000
0.000000 0.835480 0.000000
0.000000 0.834930 0.000000
0.000000 0.834320 0.000000
0.000000 0.833588 0.000000
0.000000 0.832733 0.000000
0.000000 0.831665 0.000000
0.000000 0.830383 0.000000
0.000000 0.828857 0.000000
0.000000 0.826965 0.000000
0.000000 0.824707 0.000000
0.107269 0.821899 0.000000
0.289276 0.818420 0.000000
0.427979 0.814087 0.000000
0.546051 0.808594 0.000000
0.656952 0.801239 0.000000
0.761841 0.791626 0.000000
0.830231 0.778015 0.000000
0.871277 0.760132 0.000000
0.901947 0.736176 0.000000
0.927368 0.701935 0.000000
0.949432 0.658539 0.000000
0.969543 0.601929 0.000000
0.988190 0.525055 0.000000
0.998657 0.411407 0.000000
1.000000 0.217224 0.000000
1.000000 0.000000 0.000000
1.000000 0.000000 0.000000
1.000000 0.000000 0.000000
1.000000 0.000000 0.000000
1.000000 0.000000 0.000000
0.000000 0.866272 0.000000
0.000000 0.865967 0.000000
0.000000 0.865479 0.000000
0.000000 0.865082 0.000000
0.000000 0.864655 0.000000
0.000000 0.864166 0.000000
0.000000 0.863617 0.000000
0.000000 0.862885 0.000000
0.000000 0.862061 0.000000
0.000000 0.861023 0.000000
0.000000 0.859802 0.000000
0.000000 0.858337 0.000000
0.000000 0.856567 0.000000
0.142609 0.854340 0.000000
0.332397 0.851685 0.000000
0.477631 0.848389 0.000000
0.602905 0.844238 0.000000
0.720886 0.839020 0.000000
0.811920 0.832092 0.000000
0.860809 0.823090 0.000000
0.894989 0.810699 0.000000
0.922394 0.792114 0.000000
0.945862 0.764191 0.000000
0.966858 0.723022 0.000000
0.986084 0.662720 0.000000
0.998322 0.581116 0.000000
1.000000 0.460968 0.000000
1.000000 0.249603 0.000000
1.000000 0.000000 0.000000
1.000000 0.000000 0.000000
1.000000 0.000000 0.000000
1.000000 0.000000 0.000000
0.000000 0.890869 0.000000
0.000000 0.890686 0.000000
0.000000 0.890442 0.000000
0.000000 0.890167 0.000000
0.000000 0.889893 0.000000
0.000000 0.889526 0.000000
0.000000 0.889130 0.000000
0.000000 0.888641 0.000000
0.000000 0.888000 0.000000
0.000000 0.887268 0.000000
0.000000 0.886444 0.000000
0.000000 0.885376 0.000000
0.000000 0.884125 0.000000
0.000000 0.882599 0.000000
0.177094 0.880768 0.000000
0.377319 0.878510 0.000000
0.530060 0.875732 0.000000
0.663269 0.872284 0.000000
0.780304 0.868042 0.000000
0.846588 0.862427 0.000000
0.886169 0.855316 0.000000
0.916290 0.845886 0.000000
0.941406 0.832581 0.000000
0.963470 0.812836 0.000000
0.983215 0.780334 0.000000
0.997894 0.727509 0.000000
1.000000 0.640594 0.000000
1.000000 0.513458 0.000000
1.000000 0.283600 0.000000
1.000000 0.000000 0.000000
1.000000 0.000000 0.000000
1.000000 0.000000 0.000000
0.000000 0.912750 0.000000
0.000000 0.912567 0.000000
0.000000 0.912415 0.000000
0.000000 0.912231 0.000000
0.000000 0.911987 0.000000
0.000000 0.911743 0.000000
0.000000 0.911407 0.000000
0.000000 0.911041 0.000000
0.000000 0.910614 0.000000
0.000000 0.910065 0.000000
0.000000 0.909424 0.000000
0.000000 0.908630 0.000000
0.000000 0.907715 0.000000
0.000000 0.906586 0.000000
0.000000 0.905243 0.000000
0.211670 0.903625 0.000000
0.424530 0.901642 0.000000
0.585785 0.899170 0.000000
0.727631 0.896179 0.000000
0.824249 0.892242 0.000000
0.874146 0.887573 0.000000
0.908356 0.881592 0.000000
0.935760 0.873688 0.000000
0.959229 0.862915 0.000000
0.979980 0.847870 0.000000
0.997406 0.824066 0.000000
1.000000 0.781830 0.000000
1.000000 0.703979 0.000000
1.000000 0.568970 0.000000
1.000000 0.318939 0.000000
1.000000 0.000000 0.000000
1.000000 0.000000 0.000000
0.000000 0.932587 0.000000
0.000000 0.932495 0.000000
0.000000 0.932373 0.000000
0.000000 0.932220 0.000000
0.000000 0.932037 0.000000
0.000000 0.931854 0.000000
0.000000 0.931610 0.000000
0.000000 0.931305 0.000000
0.000000 0.930969 0.000000
0.000000 0.930542 0.000000
0.000000 0.930054 0.000000
0.000000 0.929474 0.000000
0.000000 0.928741 0.000000
0.000000 0.927917 0.000000
0.000000 0.926880 0.000000
0.000000 0.925629 0.000000
0.247314 0.923950 0.000000
0.474152 0.922119 0.000000
0.645081 0.919922 0.000000
0.784760 0.917175 0.000000
0.856232 0.913849 0.000000
0.897736 0.909668 0.000000
0.928467 0.904327 0.000000
0.953705 0.897430 0.000000
0.975952 0.888062 0.000000
0.995911 0.875458 0.000000
1.000000 0.856628 0.000000
1.000000 0.824036 0.000000
1.000000 0.761017 0.000000
1.000000 0.627899 0.000000
1.000000 0.356232 0.000000
1.000000 0.000000 0.000000
0.000000 0.950836 0.000000
0.000000 0.950775 0.000000
0.000000 0.950653 0.000000
0.000000 0.950531 0.000000
0.000000 0.950409 0.000000
0.000000 0.950226 0.000000
0.000000 0.950043 0.000000
0.000000 0.949829 0.000000
0.000000 0.949554 0.000000
0.000000 0.949219 0.000000
0.000000 0.948853 0.000000
0.000000 0.948364 0.000000
0.000000 0.947815 0.000000
0.000000 0.947174 0.000000
0.000000 0.946350 0.000000
0.000000 0.945435 0.000000
0.000000 0.944244 0.000000
0.284088 0.942871 0.000000
0.526398 0.941193 0.000000
0.708282 0.939117 0.000000
0.826691 0.936615 0.000000
0.882324 0.933533 0.000000
0.918549 0.929718 0.000000
0.946869 0.924591 0.000000
0.970886 0.918335 0.000000
0.992249 0.910126 0.000000
0.999786 0.899017 0.000000
1.000000 0.882904 0.000000
1.000000 0.857391 0.000000
1.000000 0.804688 0.000000
1.000000 0.690613 0.000000
1.000000 0.395691 0.000000
0.000000 0.968262 0.000000
0.000000 0.968170 0.000000
0.000000 0.968109 0.000000
0.000000 0.968018 0.000000
0.000000 0.967926 0.000000
0.000000 0.967804 0.000000
0.000000 0.967621 0.000000
0.000000 0.967438 0.000000
0.000000 0.967255 0.000000
0.000000 0.966980 0.000000
0.000000 0.966675 0.000000
0.000000 0.966309 0.000000
0.000000 0.965881 0.000000
0.000000 0.965363 0.000000
0.000000 0.964722 0.000000
0.000000 0.963959 0.000000
0.000000 0.963043 0.000000
0.000000 0.961975 0.000000
0.322144 0.960663 0.000000
0.582001 0.959076 0.000000
0.768036 0.957153 0.000000
0.858490 0.954559 0.000000
0.904968 0.951630 0.000000
0.937836 0.948059 0.000000
0.964386 0.943481 0.000000
0.987335 0.937683 0.000000
0.999176 0.930145 0.000000
1.000000 0.919800 0.000000
1.000000 0.905640 0.000000
1.000000 0.883759 0.000000
1.000000 0.842316 0.000000
1.000000 0.743042 0.000000
0.000000 0.984680 0.000000
0.000000 0.984589 0.000000
0.000000 0.984528 0.000000
0.000000 0.984467 0.000000
0.000000 0.984375 0.000000
0.000000 0.984283 0.000000
0.000000 0.984161 0.000000
0.000000 0.984009 0.000000
0.000000 0.983826 0.000000
0.000000 0.983612 0.000000
0.000000 0.983398 0.000000
0.000000 0.983093 0.000000
0.000000 0.982727 0.000000
0.000000 0.982330 0.000000
0.000000 0.981812 0.000000
0.000000 0.981232 0.000000
0.000000 0.980499 0.000000
0.000000 0.979645 0.000000
0.000000 0.978607 0.000000
0.362122 0.977356 0.000000
0.641144 0.975830 0.000000
0.812988 0.973969 0.000000
0.884369 0.971741 0.000000
0.925110 0.968964 0.000000
0.955902 0.965546 0.000000
0.980896 0.961243 0.000000
0.998413 0.955780 0.000000
1.000000 0.948456 0.000000
1.000000 0.939087 0.000000
1.000000 0.926056 0.000000
1.000000 0.906525 0.000000
1.000000 0.872742 0.000000
0.000000 0.997772 0.000000
0.000000 0.997772 0.000000
0.000000 0.997742 0.000000
0.000000 0.997742 0.000000
0.000000 0.997711 0.000000
0.000000 0.997711 0.000000
0.000000 0.997681 0.000000
0.000000 0.997650 0.000000
0.000000 0.997620 0.000000
0.000000 0.997589 0.000000
0.000000 0.997559 0.000000
0.000000 0.997498 0.000000
0.000000 0.997437 0.000000
0.000000 0.997375 0.000000
0.000000 0.997314 0.000000
0.000000 0.997192 0.000000
0.000000 0.997070 0.000000
0.000000 0.996613 0.000000
0.000000 0.995789 0.000000
0.000000 0.994781 0.000000
0.404205 0.993591 0.000000
0.704132 0.992126 0.000000
0.847534 0.990356 0.000000
0.906830 0.988159 0.000000
0.943970 0.985504 0.000000
0.972748 0.981995 0.000000
0.996826 0.977905 0.000000
1.000000 0.972687 0.000000
1.000000 0.965973 0.000000
1.000000 0.957092 0.000000
1.000000 0.944702 0.000000
1.000000 0.926971 0.000000
0.000000 1.000000 0.000000
0.000000 1.000000 0.000000
0.000000 1.000000 0.000000
0.000000 1.000000 0.000000
0.000000 1.000000 0.000000
0.000000 1.000000 0.000000
0.000000 1.000000 0.000000
0.000000 1.000000 0.000000
0.000000 1.000000 0.000000
0.000000 1.000000 0.000000
0.000000 1.000000 0.000000
0.000000 1.000000 0.000000
0.000000 1.000000 0.000000
0.000000 1.000000 0.000000
0.000000 1.000000 0.000000
0.000000 1.000000 0.000000
0.000000 1.000000 0.000000
0.000000 1.000000 0.000000
0.000000 0.999908 0.000000
0.000000 0.999756 0.000000
0.000000 0.999603 0.000000
0.448975 0.999420 0.000000
0.761078 0.999207 0.000000
0.876007 0.998901 0.000000
0.927124 0.998535 0.000000
0.961670 0.998138 0.000000
0.989136 0.997650 0.000000
0.999908 0.994080 0.000000
1.000000 0.989105 0.000000
1.000000 0.982422 0.000000
1.000000 0.973938 0.000000
1.000000 0.962433 0.000000
0.000000 1.000000 0.000000
0.000000 1.000000 0.000000
0.000000 1.000000 0.000000
0.000000 1.000000 0.000000
0.000000 1.000000 0.000000
0.000000 1.000000 0.000000
0.000000 1.000000 0.000000
0.000000 1.000000 0.000000
0.000000 1.000000 0.000000
0.000000 1.000000 0.000000
0.000000 1.000000 0.000000
0.000000 1.000000 0.000000
0.000000 1.000000 0.000000
0.000000 1.000000 0.000000
0.000000 1.000000 0.000000
0.000000 1.000000 0.000000
0.000000 1.000000 0.000000
