Postproduction/IWLTBAP - Humble/LUTs by IWLTBAP (CUBE)/UTILITY/BMDFilm BMCC to Rec.709/U-BMDFILM-BMCC-V1-LTR.cube
# Copyright: (C) Copyright 2010-2018 by IWLTBAP SAS
# Cannot be resold, shared or otherwise redistributed
# Website: https://luts.iwltbap.com
TITLE "BMDFilm BMCC Version 1 (Utility LOG to Rec.709)"
LUT_3D_SIZE 8
DOMAIN_MIN 0.000000 0.000000 0.000000
DOMAIN_MAX 0.903226 0.903226 0.903226
0.000000 0.000000 0.000000
0.199493 0.000000 0.000000
0.482086 0.000000 0.000000
0.775238 0.000000 0.000000
0.958099 0.000000 0.000000
0.969818 0.000000 0.000000
0.980591 0.000000 0.000000
0.991150 0.000000 0.000000
0.000000 0.108246 0.000000
0.080658 0.079437 0.000000
0.371826 0.036469 0.000000
0.681671 0.007263 0.000000
0.942963 0.006256 0.000000
0.969757 0.006256 0.000000
0.980591 0.006256 0.000000
0.991150 0.006256 0.000000
0.000000 0.293182 0.000000
0.006470 0.271942 0.000000
0.247650 0.242798 0.000000
0.567017 0.196777 0.000000
0.893066 0.134583 0.000000
0.969757 0.100677 0.000000
0.980591 0.084656 0.000000
0.991150 0.072662 0.000000
0.000000 0.491119 0.000000
0.006104 0.472076 0.000000
0.099487 0.451294 0.000000
0.432678 0.415283 0.000000
0.778900 0.366333 0.000000
0.968567 0.321320 0.000000
0.980591 0.277405 0.000000
0.991150 0.261261 0.000000
0.000000 0.696075 0.000000
0.006073 0.681763 0.000000
0.021942 0.660950 0.000000
0.257172 0.639496 0.000000
0.640320 0.599518 0.000000
0.938324 0.555969 0.000000
0.980286 0.521179 0.000000
0.991150 0.455170 0.000000
0.000000 0.893890 0.000000
0.006073 0.883789 0.000000
0.021942 0.863922 0.000000
0.094727 0.847473 0.000000
0.451782 0.824677 0.000000
0.845276 0.784485 0.000000
0.981232 0.760468 0.000000
0.991394 0.727661 0.000000
0.000000 0.977509 0.000000
0.006012 0.977509 0.000000
0.021912 0.977509 0.000000
0.044739 0.977509 0.000000
0.257446 0.977509 0.000000
0.685608 0.970245 0.000000
0.970215 0.947632 0.000000
0.992065 0.937653 0.000000
0.000000 0.988068 0.000000
0.006012 0.988068 0.000000
0.021912 0.988068 0.000000
0.037567 0.988068 0.000000
0.197937 0.988068 0.000000
0.471863 0.988068 0.000000
0.924347 0.989685 0.000000
0.992065 0.989746 0.000000
0.000000 0.000000 0.221222
0.180542 0.000000 0.180389
0.464386 0.000000 0.115295
0.761169 0.000000 0.046753
0.956970 0.000000 0.011688
0.969788 0.000000 0.006287
0.980591 0.000000 0.006256
0.991150 0.000000 0.006256
0.000000 0.095276 0.098236
0.066772 0.068054 0.069519
0.358185 0.029358 0.031219
0.670990 0.006348 0.006653
0.939240 0.006256 0.006256
0.969757 0.006256 0.006256
0.980591 0.006256 0.006256
0.991150 0.006256 0.006256
0.000000 0.283630 0.006805
0.006104 0.261871 0.006378
0.237457 0.233551 0.006195
0.557343 0.188293 0.006073
0.886932 0.125031 0.006104
0.969757 0.092957 0.006256
0.980591 0.078156 0.006256
0.991150 0.066681 0.006256
0.000000 0.482300 0.006439
0.006104 0.463898 0.006439
0.089966 0.442993 0.006348
0.423950 0.408203 0.006073
0.771484 0.359497 0.006073
0.968170 0.313873 0.006012
0.980591 0.271057 0.006256
0.991150 0.255493 0.006256
0.000000 0.689301 0.006348
0.006073 0.675323 0.006348
0.021942 0.654327 0.006348
0.248199 0.633942 0.006012
0.633972 0.594391 0.006012
0.936890 0.550903 0.006012
0.980286 0.515594 0.006012
0.991150 0.450684 0.006256
0.000000 0.889191 0.006073
0.006073 0.879333 0.006073
0.021942 0.859558 0.006073
0.091461 0.843231 0.006073
0.446198 0.820984 0.006012
0.841919 0.781281 0.005981
0.981232 0.757355 0.005920
0.991394 0.724701 0.005981
0.000000 0.977509 0.006012
0.006012 0.977509 0.006012
0.021912 0.977509 0.006012
0.043152 0.977509 0.006012
0.253387 0.977509 0.006012
0.681732 0.969757 0.005920
0.969788 0.946442 0.005920
0.992065 0.936462 0.005920
0.000000 0.988068 0.006012
0.006012 0.988068 0.006012
0.021912 0.988068 0.006012
0.037445 0.988068 0.006012
0.196136 0.988068 0.006012
0.469971 0.988068 0.006012
0.923065 0.989685 0.005920
0.992065 0.989746 0.005920
0.000000 0.000000 0.538086
0.152435 0.000000 0.499786
0.438385 0.000000 0.438385
0.736755 0.000000 0.367218
0.954712 0.000000 0.290405
0.969757 0.000000 0.245117
0.980591 0.000000 0.215881
0.991150 0.000000 0.191071
0.000000 0.075378 0.415619
0.047791 0.049774 0.386108
0.334900 0.019897 0.338928
0.651245 0.006256 0.276001
0.933350 0.006256 0.194641
0.969757 0.006256 0.161774
0.980591 0.006256 0.138885
0.991150 0.006256 0.120972
0.000000 0.269440 0.276276
0.006073 0.248230 0.254364
0.216858 0.223114 0.225464
0.543671 0.177551 0.172638
0.880127 0.112701 0.104584
0.969727 0.083069 0.083496
0.980591 0.069580 0.070129
0.991150 0.057587 0.058350
0.000000 0.470337 0.123291
0.006073 0.452240 0.104828
0.079559 0.432373 0.085754
0.412201 0.398682 0.052795
0.761932 0.349091 0.029175
0.967499 0.301544 0.022980
0.980591 0.259613 0.028107
0.991150 0.244049 0.025940
0.000000 0.679230 0.022186
0.006073 0.664917 0.022186
0.021942 0.644104 0.022247
0.233459 0.623779 0.021942
0.622437 0.584625 0.021912
0.932587 0.539398 0.021912
0.980286 0.504059 0.021912
0.991150 0.439575 0.022125
0.000000 0.879730 0.021942
0.006073 0.869934 0.021942
0.021942 0.849609 0.021942
0.084106 0.832794 0.021942
0.432190 0.811310 0.021912
0.831726 0.771515 0.021851
0.981232 0.746307 0.021851
0.991364 0.713470 0.021851
0.000000 0.977509 0.021912
0.006012 0.977509 0.021912
0.021912 0.977509 0.021912
0.037109 0.977509 0.021912
0.238159 0.977509 0.021912
0.666046 0.964386 0.021851
0.967926 0.939667 0.021851
0.992065 0.928772 0.021851
0.000000 0.988068 0.021912
0.006012 0.988068 0.021912
0.021912 0.988068 0.021912
0.036926 0.988068 0.021912
0.182678 0.988068 0.021912
0.456055 0.988068 0.021912
0.913940 0.989685 0.021851
0.992065 0.989746 0.021851
0.000000 0.000000 0.857941
0.117279 0.000000 0.828857
0.402832 0.000000 0.772888
0.707123 0.000000 0.708130
0.949310 0.000000 0.644348
0.969421 0.000000 0.575531
0.980591 0.000000 0.505310
0.991150 0.000000 0.479431
0.000000 0.050629 0.747955
0.030243 0.029327 0.722321
0.303986 0.008698 0.680908
0.622437 0.006195 0.623291
0.918457 0.006165 0.557068
0.969452 0.006165 0.487946
0.980591 0.006256 0.429230
0.991150 0.006256 0.407532
0.000000 0.249634 0.611847
0.006073 0.228607 0.591095
0.180389 0.206177 0.565979
0.515747 0.160675 0.521515
0.859344 0.093201 0.467316
0.969513 0.069794 0.392426
0.980591 0.058533 0.344696
0.991150 0.047607 0.320801
0.000000 0.453491 0.467133
0.006073 0.436279 0.449371
0.066071 0.416199 0.427948
0.382233 0.387848 0.390076
0.744232 0.338989 0.329895
0.966919 0.287018 0.248596
0.980591 0.248779 0.248871
0.991150 0.233337 0.233582
0.000000 0.663940 0.296661
0.006073 0.650940 0.280334
0.021942 0.629761 0.256531
0.194489 0.613953 0.225861
0.611786 0.575134 0.138123
0.928619 0.528839 0.107147
0.980255 0.492859 0.110474
0.991150 0.429901 0.125946
0.000000 0.871643 0.113983
0.006073 0.861511 0.105804
0.021942 0.840973 0.089233
0.078796 0.824219 0.078796
0.414215 0.802795 0.054199
0.822601 0.762604 0.037415
0.981201 0.735626 0.037445
0.991364 0.702118 0.038696
0.000000 0.977509 0.062775
0.006012 0.977509 0.057587
0.021912 0.977509 0.041626
0.036926 0.977509 0.036926
0.223755 0.977173 0.036926
0.648712 0.958801 0.036896
0.964722 0.932495 0.036896
0.992065 0.920288 0.036896
0.000000 0.988068 0.043579
0.006012 0.988068 0.042023
0.021912 0.988068 0.037445
0.036926 0.988068 0.036926
0.169373 0.988068 0.036926
0.441986 0.988068 0.036926
0.901276 0.989685 0.036896
0.992065 0.989746 0.036896
0.000000 0.000000 0.958130
0.096252 0.000000 0.958099
0.360382 0.000000 0.957916
0.670685 0.000000 0.954498
0.940338 0.000000 0.939697
0.968842 0.000000 0.918701
0.979889 0.000000 0.866028
0.991150 0.000000 0.767822
0.000000 0.031372 0.958069
0.017761 0.015808 0.957825
0.262115 0.006714 0.952271
0.583710 0.006165 0.930969
0.899658 0.006165 0.898590
0.968872 0.006104 0.862854
0.979919 0.006104 0.792633
0.991150 0.006256 0.700012
0.000000 0.226898 0.920807
0.006073 0.205444 0.909698
0.156647 0.180145 0.897034
0.476898 0.135925 0.869354
0.834656 0.072937 0.833649
0.968872 0.053131 0.783508
0.979919 0.043976 0.704254
0.991150 0.037048 0.613708
0.000000 0.433960 0.815033
0.006073 0.416656 0.799255
0.052582 0.396576 0.780029
0.312195 0.374756 0.753357
0.710846 0.323914 0.704407
0.962769 0.263794 0.665100
0.980072 0.229095 0.595520
0.991150 0.217590 0.528381
0.000000 0.647278 0.669006
0.006012 0.633911 0.655365
0.021912 0.613037 0.633636
0.172455 0.592896 0.612854
0.569092 0.567932 0.564087
0.916107 0.520355 0.501923
0.980255 0.477295 0.398071
0.991150 0.416107 0.416138
0.000000 0.854309 0.495544
0.006012 0.845337 0.483459
0.021912 0.824341 0.458588
0.069794 0.807678 0.435455
0.346558 0.795471 0.387390
0.815063 0.753876 0.247131
0.981201 0.724182 0.228058
0.991302 0.690033 0.233734
0.000000 0.977509 0.314606
0.006012 0.977509 0.304810
0.021912 0.977509 0.271851
0.036926 0.977509 0.240967
0.209717 0.975006 0.209717
0.627014 0.952881 0.140656
0.961426 0.925842 0.096527
0.992065 0.912231 0.089050
0.000000 0.988068 0.245087
0.006012 0.988068 0.240082
0.021912 0.988068 0.210297
0.036926 0.988068 0.181396
0.157623 0.988068 0.157654
0.429199 0.988068 0.121765
0.885834 0.989685 0.061066
0.992065 0.989746 0.052643
0.000000 0.000000 0.969727
0.080963 0.000000 0.969727
0.334534 0.000000 0.969727
0.616516 0.000000 0.969238
0.927551 0.000000 0.968628
0.968018 0.000000 0.967834
0.978485 0.000000 0.967255
0.989899 0.000000 0.966461
0.000000 0.023682 0.969727
0.012573 0.011017 0.969727
0.243439 0.006470 0.969696
0.529480 0.006256 0.969269
0.873230 0.006104 0.968658
0.968018 0.006012 0.967865
0.978485 0.005920 0.967255
0.989929 0.006073 0.966400
0.000000 0.200745 0.969269
0.006195 0.178589 0.969452
0.153473 0.154053 0.969666
0.439819 0.115112 0.969360
0.799896 0.066559 0.968689
0.968048 0.043457 0.967865
0.978516 0.035492 0.967224
0.989990 0.028992 0.966034
0.000000 0.417023 0.967957
0.006012 0.399872 0.967926
0.045288 0.377930 0.967926
0.296051 0.348114 0.967712
0.669006 0.304810 0.963135
0.960266 0.221222 0.958405
0.978577 0.206970 0.949493
0.990082 0.193359 0.924957
0.000000 0.629669 0.953827
0.006012 0.617004 0.948181
0.021912 0.594452 0.938110
0.156403 0.574493 0.927948
0.495056 0.555603 0.909760
0.892212 0.504364 0.877563
0.979950 0.459198 0.862396
0.990326 0.394135 0.805450
0.000000 0.837677 0.861267
0.005981 0.828888 0.853546
0.021851 0.807770 0.834381
0.057648 0.791412 0.818176
0.298065 0.772705 0.795013
0.761261 0.752441 0.741577
0.980988 0.719971 0.695526
0.991425 0.674530 0.559662
0.000000 0.977570 0.743469
0.005920 0.977570 0.733734
0.021851 0.977570 0.700867
0.036896 0.976410 0.668213
0.182037 0.966339 0.633392
0.553375 0.945465 0.572662
0.957062 0.922546 0.398346
0.992035 0.898773 0.376434
0.000000 0.988068 0.543579
0.006012 0.988068 0.538879
0.021912 0.988068 0.508575
0.036926 0.988068 0.477905
0.141266 0.988068 0.450989
0.411896 0.988068 0.411896
0.863098 0.989655 0.305298
0.992065 0.989746 0.250671
0.000000 0.000000 0.980499
0.067596 0.000000 0.980499
0.319153 0.000000 0.980499
0.577393 0.000000 0.980499
0.884644 0.000000 0.979523
0.967377 0.000000 0.978241
0.978394 0.000000 0.978241
0.988983 0.000000 0.978210
0.000000 0.017090 0.980499
0.008911 0.007477 0.980499
0.230011 0.006287 0.980499
0.495483 0.006287 0.980499
0.810455 0.006104 0.979584
0.967377 0.005920 0.978271
0.978394 0.005920 0.978241
0.988983 0.005920 0.978210
0.000000 0.187592 0.980499
0.006256 0.166931 0.980499
0.143921 0.144592 0.980499
0.413544 0.108429 0.980499
0.728668 0.064331 0.979614
0.967346 0.038666 0.978271
0.978394 0.031708 0.978241
0.988983 0.026428 0.978210
0.000000 0.384430 0.979462
0.006104 0.366852 0.979492
0.045807 0.344147 0.979523
0.304230 0.312531 0.979828
0.615570 0.266113 0.979767
0.953369 0.213684 0.978302
0.978394 0.197296 0.978241
0.988983 0.181885 0.978210
0.000000 0.613647 0.978668
0.006012 0.600464 0.978668
0.021912 0.577820 0.978668
0.155273 0.557648 0.978638
0.435486 0.527740 0.978668
0.873291 0.482117 0.979736
0.979187 0.416840 0.979004
0.988983 0.378998 0.978180
0.000000 0.826935 0.978821
0.005920 0.817841 0.978821
0.021851 0.795959 0.978821
0.053833 0.778290 0.978821
0.291748 0.753326 0.978821
0.711823 0.742371 0.980347
0.980072 0.704529 0.979462
0.990997 0.657349 0.979248
0.000000 0.977570 0.978760
0.005920 0.977570 0.978760
0.021851 0.977051 0.978485
0.036896 0.966675 0.971100
0.161591 0.951843 0.960815
0.439087 0.938171 0.946472
0.923615 0.918549 0.909576
0.991913 0.896637 0.878693
0.000000 0.988190 0.967316
0.005920 0.988190 0.964539
0.021851 0.988190 0.948730
0.036896 0.988190 0.925079
0.113861 0.988190 0.902130
0.379578 0.988159 0.865723
0.786499 0.990784 0.778137
0.992218 0.990326 0.622192
0.000000 0.000000 0.991058
0.057495 0.000000 0.991058
0.306946 0.000000 0.991058
0.565765 0.000000 0.991058
0.822052 0.000000 0.991058
0.966309 0.000000 0.989532
0.978363 0.000000 0.988800
0.988983 0.000000 0.988800
0.000000 0.012909 0.991058
0.007263 0.006348 0.991058
0.219055 0.006287 0.991058
0.484650 0.006287 0.991058
0.749084 0.006287 0.991058
0.966217 0.006012 0.989594
0.978363 0.005920 0.988800
0.988983 0.005920 0.988800
0.000000 0.178375 0.991058
0.006256 0.157959 0.991058
0.135162 0.135803 0.991058
0.403717 0.100098 0.991058
0.671997 0.066010 0.991058
0.964905 0.035004 0.989655
0.978363 0.028534 0.988800
0.988983 0.024384 0.988800
0.000000 0.365021 0.991058
0.006256 0.348358 0.991058
0.047852 0.326935 0.991058
0.298798 0.300140 0.991058
0.576080 0.263397 0.991058
0.930695 0.209503 0.989746
0.978363 0.188538 0.988800
0.988983 0.172943 0.988800
0.000000 0.573212 0.989502
0.006073 0.559448 0.989594
0.021942 0.535339 0.989746
0.170258 0.513550 0.989960
0.454956 0.477051 0.990051
0.817444 0.415710 0.989990
0.978363 0.385345 0.988800
0.988983 0.370605 0.988800
0.000000 0.814392 0.989380
0.005920 0.804932 0.989380
0.021851 0.783142 0.989380
0.053040 0.764862 0.989380
0.289154 0.740326 0.989349
0.569672 0.717133 0.989777
0.979553 0.676025 0.990753
0.990082 0.606323 0.989899
0.000000 0.977570 0.989349
0.005920 0.977570 0.989349
0.021851 0.975464 0.989349
0.036896 0.962311 0.989349
0.155823 0.945312 0.989349
0.443451 0.915771 0.989380
0.902802 0.909088 0.991241
0.991730 0.883911 0.991241
0.000000 0.988129 0.989319
0.005920 0.988129 0.989319
0.021851 0.988129 0.989319
0.036896 0.988129 0.989319
0.105103 0.988129 0.989319
0.363159 0.988129 0.989319
0.618164 0.989838 0.990326
0.990509 0.990662 0.987762
