Postproduction/IWLTBAP - Humble/LUTs by IWLTBAP (CUBE)/UTILITY/BMDFilm BMCC to Rec.709/U-BMDFILM-BMCC-V2-LTR.cube
# Copyright: (C) Copyright 2010-2018 by IWLTBAP SAS
# Cannot be resold, shared or otherwise redistributed
# Website: https://luts.iwltbap.com
TITLE "BMDFilm BMCC Version 2 (Utility LOG to Rec.709)"
LUT_3D_SIZE 5
DOMAIN_MIN 0.000000 0.000000 0.000000
DOMAIN_MAX 0.903226 0.903226 0.903226
0.000000 0.000000 0.000000
0.329407 0.000000 0.000000
0.726562 0.000000 0.000000
0.947784 0.000000 0.000000
1.000000 0.000000 0.000000
0.000000 0.300629 0.000000
0.245758 0.263153 0.000000
0.694855 0.069061 0.000000
0.945343 0.000000 0.000000
1.000000 0.000000 0.000000
0.000000 0.674866 0.000000
0.000000 0.659943 0.000000
0.577301 0.607941 0.000000
0.936737 0.374542 0.000000
1.000000 0.000000 0.000000
0.000000 0.932587 0.000000
0.000000 0.931305 0.000000
0.000000 0.926880 0.000000
0.897736 0.909668 0.000000
1.000000 0.761017 0.000000
0.000000 1.000000 0.000000
0.000000 1.000000 0.000000
0.000000 1.000000 0.000000
0.000000 1.000000 0.000000
1.000000 1.000000 0.000000
0.000000 0.000000 0.331390
0.308472 0.000000 0.317932
0.718048 0.000000 0.268616
0.947113 0.000000 0.002869
1.000000 0.000000 0.000000
0.000000 0.261475 0.234955
0.217529 0.217621 0.215668
0.685883 0.000000 0.138092
0.944641 0.000000 0.000000
1.000000 0.000000 0.000000
0.000000 0.659302 0.000000
0.000000 0.643768 0.000000
0.566162 0.590118 0.000000
0.935944 0.343353 0.000000
1.000000 0.000000 0.000000
0.000000 0.931244 0.000000
0.000000 0.929932 0.000000
0.000000 0.925201 0.000000
0.896454 0.907837 0.000000
1.000000 0.751099 0.000000
0.000000 1.000000 0.000000
0.000000 1.000000 0.000000
0.000000 1.000000 0.000000
0.000000 1.000000 0.000000
1.000000 1.000000 0.000000
0.000000 0.000000 0.729950
0.227600 0.000000 0.724365
0.689178 0.000000 0.705505
0.944916 0.000000 0.637573
1.000000 0.000000 0.289642
0.000000 0.055725 0.694000
0.085846 0.000000 0.688049
0.655396 0.000000 0.667999
0.942352 0.000000 0.595123
1.000000 0.000000 0.156219
0.000000 0.604980 0.557709
0.000000 0.587769 0.550049
0.527557 0.527740 0.524017
0.933380 0.208405 0.423492
1.000000 0.000000 0.000000
0.000000 0.926636 0.000000
0.000000 0.924988 0.000000
0.000000 0.920197 0.000000
0.891876 0.901520 0.000000
1.000000 0.711975 0.000000
0.000000 1.000000 0.000000
0.000000 1.000000 0.000000
0.000000 1.000000 0.000000
0.000000 1.000000 0.000000
1.000000 1.000000 0.000000
0.000000 0.000000 0.948730
0.000000 0.000000 0.948273
0.579529 0.000000 0.946838
0.936981 0.000000 0.941803
1.000000 0.000000 0.921539
0.000000 0.000000 0.945953
0.000000 0.000000 0.945526
0.537811 0.000000 0.944000
0.934143 0.000000 0.938782
1.000000 0.000000 0.917542
0.000000 0.355835 0.936188
0.000000 0.324036 0.935669
0.365723 0.182709 0.933990
0.923859 0.000000 0.927948
1.000000 0.000000 0.902954
0.000000 0.908539 0.889191
0.000000 0.906769 0.888245
0.000000 0.900604 0.885071
0.875183 0.875305 0.873352
1.000000 0.521820 0.807281
0.000000 1.000000 0.000000
0.000000 1.000000 0.000000
0.000000 1.000000 0.000000
0.000000 1.000000 0.000000
1.000000 1.000000 0.000000
0.000000 0.000000 1.000000
0.000000 0.000000 1.000000
0.000000 0.000000 1.000000
0.901184 0.000000 1.000000
1.000000 0.000000 1.000000
0.000000 0.000000 1.000000
0.000000 0.000000 1.000000
0.000000 0.000000 1.000000
0.896576 0.000000 1.000000
1.000000 0.000000 1.000000
0.000000 0.000000 1.000000
0.000000 0.000000 1.000000
0.000000 0.000000 1.000000
0.879028 0.000000 1.000000
1.000000 0.000000 1.000000
0.000000 0.739105 1.000000
0.000000 0.728058 1.000000
0.000000 0.683075 1.000000
0.743195 0.487885 1.000000
1.000000 0.000000 1.000000
0.000000 1.000000 1.000000
0.000000 1.000000 1.000000
0.000000 1.000000 1.000000
0.000000 1.000000 0.999786
0.999207 0.999207 0.999084
