Postproduction/IWLTBAP - Humble/LUTs by IWLTBAP (CUBE)/UTILITY/BMDFilm BMCC to Rec.709/U-BMDFILM-BMCC-V1-LTR.cube
# Copyright: (C) Copyright 2010-2018 by IWLTBAP SAS
# Cannot be resold, shared or otherwise redistributed
# Website: https://luts.iwltbap.com
TITLE "BMDFilm BMCC Version 1 (Utility LOG to Rec.709)"
LUT_3D_SIZE 32
0.000000 0.000000 0.000000
0.026459 0.000000 0.000000
0.059845 0.000000 0.000000
0.130646 0.000000 0.000000
0.199493 0.000000 0.000000
0.270294 0.000000 0.000000
0.339935 0.000000 0.000000
0.410736 0.000000 0.000000
0.482086 0.000000 0.000000
0.554535 0.000000 0.000000
0.627625 0.000000 0.000000
0.701385 0.000000 0.000000
0.775238 0.000000 0.000000
0.850464 0.000000 0.000000
0.906097 0.000000 0.000000
0.952911 0.000000 0.000000
0.958099 0.000000 0.000000
0.961151 0.000000 0.000000
0.964111 0.000000 0.000000
0.966980 0.000000 0.000000
0.969818 0.000000 0.000000
0.972656 0.000000 0.000000
0.975403 0.000000 0.000000
0.977997 0.000000 0.000000
0.980591 0.000000 0.000000
0.983185 0.000000 0.000000
0.985931 0.000000 0.000000
0.988586 0.000000 0.000000
0.991150 0.000000 0.000000
0.993713 0.000000 0.000000
0.996307 0.000000 0.000000
0.998901 0.000000 0.000000
0.000000 0.007629 0.000000
0.000000 0.000000 0.000000
0.036224 0.000000 0.000000
0.100708 0.000000 0.000000
0.170929 0.000000 0.000000
0.241516 0.000000 0.000000
0.311798 0.000000 0.000000
0.383392 0.000000 0.000000
0.454895 0.000000 0.000000
0.529083 0.000000 0.000000
0.603058 0.000000 0.000000
0.678131 0.000000 0.000000
0.753113 0.000000 0.000000
0.829315 0.000000 0.000000
0.897552 0.000000 0.000000
0.947540 0.000000 0.000000
0.958099 0.000000 0.000000
0.961151 0.000000 0.000000
0.964111 0.000000 0.000000
0.966980 0.000000 0.000000
0.969818 0.000000 0.000000
0.972656 0.000000 0.000000
0.975403 0.000000 0.000000
0.977997 0.000000 0.000000
0.980591 0.000000 0.000000
0.983185 0.000000 0.000000
0.985931 0.000000 0.000000
0.988586 0.000000 0.000000
0.991150 0.000000 0.000000
0.993713 0.000000 0.000000
0.996307 0.000000 0.000000
0.998901 0.000000 0.000000
0.000000 0.025482 0.000000
0.000000 0.017639 0.000000
0.010742 0.009674 0.000000
0.076782 0.003906 0.000000
0.139587 0.000000 0.000000
0.211975 0.000000 0.000000
0.281555 0.000000 0.000000
0.353790 0.000000 0.000000
0.427734 0.000000 0.000000
0.502686 0.000000 0.000000
0.577820 0.000000 0.000000
0.653992 0.000000 0.000000
0.730225 0.000000 0.000000
0.808044 0.000000 0.000000
0.877594 0.000000 0.000000
0.942169 0.000000 0.000000
0.953247 0.000000 0.000000
0.961151 0.000000 0.000000
0.964111 0.000000 0.000000
0.966980 0.000000 0.000000
0.969788 0.000000 0.000000
0.972626 0.000000 0.000000
0.975403 0.000000 0.000000
0.977997 0.000000 0.000000
0.980591 0.000000 0.000000
0.983185 0.000000 0.000000
0.985931 0.000000 0.000000
0.988586 0.000000 0.000000
0.991150 0.000000 0.000000
0.993713 0.000000 0.000000
0.996307 0.000000 0.000000
0.998901 0.000000 0.000000
0.000000 0.067566 0.000000
0.000000 0.060181 0.000000
0.004364 0.052734 0.000000
0.046539 0.045258 0.000000
0.110199 0.040100 0.000000
0.182404 0.029205 0.000000
0.252838 0.028748 0.000000
0.325470 0.017670 0.000000
0.399323 0.016663 0.000000
0.474823 0.009186 0.000000
0.551086 0.007172 0.000000
0.629852 0.002411 0.000000
0.708221 0.001953 0.000000
0.786224 0.001740 0.000000
0.862701 0.001740 0.000000
0.928406 0.001740 0.000000
0.952759 0.001740 0.000000
0.961151 0.001740 0.000000
0.964081 0.001740 0.000000
0.966980 0.001740 0.000000
0.969788 0.001740 0.000000
0.972626 0.001740 0.000000
0.975372 0.001740 0.000000
0.977997 0.001740 0.000000
0.980591 0.001740 0.000000
0.983185 0.001740 0.000000
0.985931 0.001740 0.000000
0.988586 0.001740 0.000000
0.991150 0.001740 0.000000
0.993713 0.001740 0.000000
0.996307 0.001740 0.000000
0.998901 0.001740 0.000000
0.000000 0.108246 0.000000
0.000000 0.101501 0.000000
0.000000 0.093750 0.000000
0.039856 0.086639 0.000000
0.080658 0.079437 0.000000
0.154297 0.068787 0.000000
0.224426 0.058167 0.000000
0.297760 0.046936 0.000000
0.371826 0.036469 0.000000
0.447357 0.027313 0.000000
0.523499 0.019012 0.000000
0.601288 0.011322 0.000000
0.681671 0.007263 0.000000
0.763519 0.006348 0.000000
0.841156 0.006256 0.000000
0.915192 0.006256 0.000000
0.942963 0.006256 0.000000
0.961121 0.006256 0.000000
0.964081 0.006256 0.000000
0.966949 0.006256 0.000000
0.969757 0.006256 0.000000
0.972626 0.006256 0.000000
0.975372 0.006256 0.000000
0.977997 0.006256 0.000000
0.980591 0.006256 0.000000
0.983185 0.006256 0.000000
0.985931 0.006256 0.000000
0.988586 0.006256 0.000000
0.991150 0.006256 0.000000
0.993713 0.006256 0.000000
0.996307 0.006256 0.000000
0.998901 0.006256 0.000000
0.000000 0.153687 0.000000
0.000000 0.148224 0.000000
0.000000 0.141693 0.000000
0.012665 0.134766 0.000000
0.055206 0.127502 0.000000
0.121826 0.119629 0.000000
0.194275 0.108459 0.000000
0.268921 0.097595 0.000000
0.342163 0.086304 0.000000
0.418884 0.074707 0.000000
0.495514 0.064850 0.000000
0.574615 0.052582 0.000000
0.654022 0.041443 0.000000
0.735962 0.034485 0.000000
0.819061 0.023621 0.000000
0.897705 0.023376 0.000000
0.939819 0.016754 0.000000
0.961121 0.016113 0.000000
0.964081 0.013702 0.000000
0.966949 0.012726 0.000000
0.969757 0.010925 0.000000
0.972626 0.010712 0.000000
0.975372 0.010406 0.000000
0.977997 0.010406 0.000000
0.980591 0.010406 0.000000
0.983185 0.010406 0.000000
0.985931 0.010406 0.000000
0.988586 0.010406 0.000000
0.991150 0.010406 0.000000
0.993713 0.010406 0.000000
0.996307 0.010406 0.000000
0.998901 0.010406 0.000000
0.000000 0.198242 0.000000
0.000000 0.192841 0.000000
0.000000 0.187561 0.000000
0.012146 0.181549 0.000000
0.027863 0.174744 0.000000
0.094208 0.167389 0.000000
0.161713 0.159698 0.000000
0.237671 0.149017 0.000000
0.312683 0.138550 0.000000
0.389832 0.126160 0.000000
0.467590 0.113953 0.000000
0.546967 0.100433 0.000000
0.627045 0.086823 0.000000
0.708740 0.071259 0.000000
0.791321 0.057587 0.000000
0.873993 0.043091 0.000000
0.928314 0.033997 0.000000
0.961121 0.028412 0.000000
0.964081 0.023987 0.000000
0.966949 0.020966 0.000000
0.969757 0.016998 0.000000
0.972626 0.015442 0.000000
0.975372 0.014648 0.000000
0.977997 0.014404 0.000000
0.980591 0.014404 0.000000
0.983185 0.014404 0.000000
0.985931 0.014404 0.000000
0.988586 0.014404 0.000000
0.991150 0.014404 0.000000
0.993713 0.014404 0.000000
0.996307 0.014404 0.000000
0.998901 0.014404 0.000000
0.000000 0.246216 0.000000
0.000000 0.241180 0.000000
0.000000 0.235992 0.000000
0.001740 0.229767 0.000000
0.016968 0.223785 0.000000
0.059662 0.217682 0.000000
0.128998 0.210266 0.000000
0.204376 0.201416 0.000000
0.280365 0.191315 0.000000
0.358459 0.180573 0.000000
0.436951 0.168427 0.000000
0.516693 0.155731 0.000000
0.596954 0.142334 0.000000
0.679138 0.127045 0.000000
0.762177 0.110931 0.000000
0.844177 0.092834 0.000000
0.916016 0.075195 0.000000
0.960388 0.065216 0.000000
0.964050 0.060150 0.000000
0.966949 0.055847 0.000000
0.969757 0.051758 0.000000
0.972626 0.047699 0.000000
0.975372 0.045868 0.000000
0.977997 0.044281 0.000000
0.980591 0.042450 0.000000
0.983185 0.042084 0.000000
0.985931 0.039581 0.000000
0.988586 0.039581 0.000000
0.991150 0.037354 0.000000
0.993713 0.037354 0.000000
0.996307 0.035706 0.000000
0.998901 0.035706 0.000000
0.000000 0.293182 0.000000
0.000000 0.288727 0.000000
0.000000 0.284210 0.000000
0.001740 0.278381 0.000000
0.006470 0.271942 0.000000
0.046173 0.266327 0.000000
0.094391 0.260254 0.000000
0.171814 0.251831 0.000000
0.247650 0.242798 0.000000
0.326355 0.232239 0.000000
0.405640 0.221405 0.000000
0.486237 0.209229 0.000000
0.567017 0.196777 0.000000
0.649506 0.182892 0.000000
0.732697 0.168610 0.000000
0.815338 0.152557 0.000000
0.893066 0.134583 0.000000
0.958344 0.116699 0.000000
0.963348 0.110657 0.000000
0.966919 0.105560 0.000000
0.969757 0.100677 0.000000
0.972626 0.096252 0.000000
0.975372 0.091553 0.000000
0.977997 0.089172 0.000000
0.980591 0.084656 0.000000
0.983185 0.082642 0.000000
0.985931 0.078247 0.000000
0.988586 0.075867 0.000000
0.991150 0.072662 0.000000
0.993713 0.070282 0.000000
0.996307 0.068329 0.000000
0.998901 0.066193 0.000000
0.000000 0.342438 0.000000
0.000000 0.338776 0.000000
0.000000 0.333923 0.000000
0.001556 0.327271 0.000000
0.006256 0.321411 0.000000
0.018524 0.316406 0.000000
0.062317 0.310760 0.000000
0.135132 0.303741 0.000000
0.213226 0.294647 0.000000
0.292511 0.285400 0.000000
0.371826 0.275024 0.000000
0.453186 0.263550 0.000000
0.535889 0.251190 0.000000
0.619171 0.238739 0.000000
0.703094 0.224609 0.000000
0.785919 0.210632 0.000000
0.867981 0.194855 0.000000
0.940918 0.177795 0.000000
0.962311 0.164490 0.000000
0.966583 0.155701 0.000000
0.969727 0.149414 0.000000
0.972595 0.144623 0.000000
0.975372 0.140045 0.000000
0.977997 0.135681 0.000000
0.980591 0.131104 0.000000
0.983185 0.126740 0.000000
0.985931 0.122375 0.000000
0.988586 0.118164 0.000000
0.991150 0.114594 0.000000
0.993713 0.111267 0.000000
0.996307 0.108582 0.000000
0.998901 0.106171 0.000000
0.000000 0.391113 0.000000
0.000000 0.387512 0.000000
0.000000 0.383728 0.000000
0.001556 0.377197 0.000000
0.006104 0.370758 0.000000
0.018066 0.365662 0.000000
0.032806 0.360748 0.000000
0.099487 0.354034 0.000000
0.176605 0.346832 0.000000
0.257477 0.337952 0.000000
0.337494 0.328094 0.000000
0.419800 0.317108 0.000000
0.502533 0.305847 0.000000
0.587799 0.293030 0.000000
0.672211 0.280182 0.000000
0.756714 0.266174 0.000000
0.839294 0.251953 0.000000
0.917938 0.237152 0.000000
0.947845 0.226044 0.000000
0.966339 0.213440 0.000000
0.969391 0.199921 0.000000
0.972565 0.193451 0.000000
0.975372 0.188812 0.000000
0.977997 0.184601 0.000000
0.980591 0.180420 0.000000
0.983185 0.176178 0.000000
0.985931 0.171783 0.000000
0.988586 0.167267 0.000000
0.991150 0.163757 0.000000
0.993713 0.160400 0.000000
0.996307 0.157776 0.000000
0.998901 0.155396 0.000000
0.000000 0.441284 0.000000
0.000000 0.438141 0.000000
0.000000 0.434174 0.000000
0.001556 0.428192 0.000000
0.006104 0.421387 0.000000
0.010284 0.415955 0.000000
0.022339 0.410767 0.000000
0.060425 0.406219 0.000000
0.137604 0.399231 0.000000
0.219238 0.390991 0.000000
0.300720 0.381775 0.000000
0.384216 0.371887 0.000000
0.468323 0.360504 0.000000
0.553558 0.348969 0.000000
0.639954 0.336609 0.000000
0.724945 0.323273 0.000000
0.809601 0.309509 0.000000
0.890076 0.294800 0.000000
0.940918 0.283325 0.000000
0.965698 0.273254 0.000000
0.969177 0.260498 0.000000
0.972137 0.245270 0.000000
0.975281 0.237366 0.000000
0.977997 0.232758 0.000000
0.980591 0.228668 0.000000
0.983185 0.224579 0.000000
0.985931 0.220276 0.000000
0.988586 0.215973 0.000000
0.991150 0.212433 0.000000
0.993713 0.209045 0.000000
0.996307 0.206451 0.000000
0.998901 0.204132 0.000000
0.000000 0.491119 0.000000
0.000000 0.488068 0.000000
0.000000 0.484741 0.000000
0.001556 0.478638 0.000000
0.006104 0.472076 0.000000
0.010284 0.466705 0.000000
0.014282 0.461670 0.000000
0.046021 0.455963 0.000000
0.099487 0.451294 0.000000
0.178711 0.443878 0.000000
0.262299 0.435699 0.000000
0.347504 0.425537 0.000000
0.432678 0.415283 0.000000
0.519226 0.403870 0.000000
0.605957 0.391968 0.000000
0.692902 0.379700 0.000000
0.778900 0.366333 0.000000
0.861053 0.352814 0.000000
0.917847 0.341156 0.000000
0.964691 0.329681 0.000000
0.968567 0.321320 0.000000
0.971954 0.308838 0.000000
0.974854 0.292603 0.000000
0.977844 0.281799 0.000000
0.980591 0.277405 0.000000
0.983185 0.273407 0.000000
0.985931 0.269379 0.000000
0.988586 0.264923 0.000000
0.991150 0.261261 0.000000
0.993713 0.257874 0.000000
0.996307 0.255402 0.000000
0.998901 0.253174 0.000000
0.000000 0.541718 0.000000
0.000000 0.539581 0.000000
0.000000 0.536530 0.000000
0.001526 0.530304 0.000000
0.006073 0.524109 0.000000
0.010223 0.518219 0.000000
0.014221 0.512817 0.000000
0.025574 0.508484 0.000000
0.059357 0.503601 0.000000
0.132904 0.497833 0.000000
0.219818 0.490082 0.000000
0.307190 0.480896 0.000000
0.394104 0.471161 0.000000
0.482147 0.460754 0.000000
0.570221 0.448914 0.000000
0.659119 0.437012 0.000000
0.746613 0.424042 0.000000
0.830566 0.410950 0.000000
0.905151 0.398956 0.000000
0.954895 0.387726 0.000000
0.968445 0.379944 0.000000
0.972046 0.371033 0.000000
0.974762 0.357361 0.000000
0.977417 0.340454 0.000000
0.980316 0.326141 0.000000
0.983154 0.321442 0.000000
0.985931 0.317444 0.000000
0.988586 0.313446 0.000000
0.991150 0.309875 0.000000
0.993713 0.306305 0.000000
0.996307 0.303833 0.000000
0.998901 0.301666 0.000000
0.000000 0.592621 0.000000
0.000000 0.590179 0.000000
0.000000 0.588043 0.000000
0.001526 0.582367 0.000000
0.006073 0.575958 0.000000
0.010223 0.569916 0.000000
0.014221 0.564331 0.000000
0.025238 0.559601 0.000000
0.040924 0.555817 0.000000
0.082855 0.550842 0.000000
0.173737 0.543701 0.000000
0.264130 0.535583 0.000000
0.352814 0.526794 0.000000
0.443848 0.516479 0.000000
0.533295 0.505859 0.000000
0.623047 0.494385 0.000000
0.712830 0.481750 0.000000
0.799103 0.469147 0.000000
0.876343 0.457520 0.000000
0.943512 0.445557 0.000000
0.959167 0.438171 0.000000
0.972229 0.429840 0.000000
0.974884 0.419586 0.000000
0.977417 0.406525 0.000000
0.979980 0.388733 0.000000
0.982819 0.371185 0.000000
0.985931 0.366211 0.000000
0.988586 0.362061 0.000000
0.991150 0.358307 0.000000
0.993713 0.354767 0.000000
0.996307 0.352539 0.000000
0.998901 0.350525 0.000000
0.000000 0.644775 0.000000
0.000000 0.643036 0.000000
0.000000 0.641022 0.000000
0.001526 0.635193 0.000000
0.006073 0.629059 0.000000
0.010223 0.623383 0.000000
0.014221 0.617920 0.000000
0.018127 0.612701 0.000000
0.027283 0.608490 0.000000
0.057800 0.603943 0.000000
0.116608 0.599060 0.000000
0.214050 0.591705 0.000000
0.308319 0.583649 0.000000
0.400970 0.573914 0.000000
0.493866 0.563477 0.000000
0.586243 0.552521 0.000000
0.676910 0.540802 0.000000
0.765717 0.528259 0.000000
0.847687 0.516113 0.000000
0.916931 0.505096 0.000000
0.959717 0.496338 0.000000
0.972382 0.488739 0.000000
0.975067 0.480194 0.000000
0.977631 0.470001 0.000000
0.980072 0.456696 0.000000
0.982574 0.436554 0.000000
0.985382 0.415527 0.000000
0.988586 0.410248 0.000000
0.991150 0.406555 0.000000
0.993713 0.402863 0.000000
0.996307 0.400635 0.000000
0.998901 0.398834 0.000000
0.000000 0.696075 0.000000
0.000000 0.694672 0.000000
0.000000 0.693207 0.000000
0.001526 0.687866 0.000000
0.006073 0.681763 0.000000
0.010223 0.676147 0.000000
0.014221 0.670654 0.000000
0.018127 0.665375 0.000000
0.021942 0.660950 0.000000
0.041412 0.656586 0.000000
0.091644 0.651306 0.000000
0.153839 0.647034 0.000000
0.257172 0.639496 0.000000
0.355286 0.631165 0.000000
0.450623 0.621307 0.000000
0.545959 0.610931 0.000000
0.640320 0.599518 0.000000
0.731110 0.588043 0.000000
0.815765 0.576141 0.000000
0.892303 0.564667 0.000000
0.938324 0.555969 0.000000
0.972534 0.547363 0.000000
0.975250 0.539978 0.000000
0.977814 0.531433 0.000000
0.980286 0.521179 0.000000
0.982727 0.506836 0.000000
0.985168 0.485138 0.000000
0.988129 0.460968 0.000000
0.991150 0.455170 0.000000
0.993713 0.451569 0.000000
0.996307 0.449188 0.000000
0.998901 0.447357 0.000000
0.000000 0.747772 0.000000
0.000000 0.746429 0.000000
0.000000 0.744995 0.000000
0.001526 0.740234 0.000000
0.006073 0.734497 0.000000
0.010223 0.728851 0.000000
0.014221 0.723114 0.000000
0.018127 0.717926 0.000000
0.021942 0.713501 0.000000
0.032288 0.709351 0.000000
0.055450 0.705261 0.000000
0.111053 0.699615 0.000000
0.195038 0.695007 0.000000
0.302887 0.687500 0.000000
0.403809 0.679321 0.000000
0.502808 0.669098 0.000000
0.600220 0.658203 0.000000
0.694458 0.646942 0.000000
0.782593 0.635834 0.000000
0.860748 0.624725 0.000000
0.930420 0.614380 0.000000
0.965240 0.606262 0.000000
0.975464 0.599792 0.000000
0.978027 0.592468 0.000000
0.980530 0.583801 0.000000
0.983032 0.572418 0.000000
0.985413 0.557617 0.000000
0.988007 0.533997 0.000000
0.990692 0.508667 0.000000
0.993713 0.499939 0.000000
0.996307 0.497589 0.000000
0.998901 0.495636 0.000000
0.000000 0.798492 0.000000
0.000000 0.797180 0.000000
0.000000 0.795868 0.000000
0.001526 0.791290 0.000000
0.006073 0.786072 0.000000
0.010223 0.780396 0.000000
0.014221 0.774872 0.000000
0.018127 0.769806 0.000000
0.021942 0.765350 0.000000
0.028961 0.761230 0.000000
0.047760 0.757019 0.000000
0.075500 0.752533 0.000000
0.147614 0.746094 0.000000
0.237549 0.742310 0.000000
0.349182 0.735138 0.000000
0.454620 0.726440 0.000000
0.557281 0.716064 0.000000
0.654816 0.705658 0.000000
0.748077 0.694366 0.000000
0.830994 0.683502 0.000000
0.902832 0.673462 0.000000
0.958618 0.664368 0.000000
0.971222 0.658447 0.000000
0.978241 0.652039 0.000000
0.980804 0.644623 0.000000
0.983246 0.635437 0.000000
0.985840 0.623962 0.000000
0.988312 0.608826 0.000000
0.990631 0.584229 0.000000
0.993286 0.557465 0.000000
0.996185 0.545959 0.000000
0.998779 0.544037 0.000000
0.000000 0.847656 0.000000
0.000000 0.846527 0.000000
0.000000 0.845276 0.000000
0.001526 0.840912 0.000000
0.006073 0.836029 0.000000
0.010223 0.830658 0.000000
0.014221 0.825226 0.000000
0.018127 0.820068 0.000000
0.021942 0.815247 0.000000
0.026428 0.810974 0.000000
0.032471 0.807556 0.000000
0.059998 0.803253 0.000000
0.112152 0.798248 0.000000
0.181885 0.791809 0.000000
0.282867 0.788177 0.000000
0.399170 0.780487 0.000000
0.508240 0.771729 0.000000
0.612213 0.761505 0.000000
0.709778 0.751007 0.000000
0.797791 0.740204 0.000000
0.877380 0.730286 0.000000
0.934143 0.721802 0.000000
0.968658 0.715820 0.000000
0.978516 0.710297 0.000000
0.981018 0.704559 0.000000
0.983521 0.697174 0.000000
0.986206 0.687561 0.000000
0.988647 0.675995 0.000000
0.991028 0.659637 0.000000
0.993317 0.634705 0.000000
0.995972 0.620483 0.000000
0.998566 0.618256 0.000000
0.000000 0.893890 0.000000
0.000000 0.892914 0.000000
0.000000 0.891785 0.000000
0.001526 0.888306 0.000000
0.006073 0.883789 0.000000
0.010223 0.879150 0.000000
0.014221 0.873779 0.000000
0.018127 0.868835 0.000000
0.021942 0.863922 0.000000
0.026215 0.859711 0.000000
0.030792 0.856293 0.000000
0.041473 0.852631 0.000000
0.094727 0.847473 0.000000
0.147278 0.842102 0.000000
0.221222 0.835510 0.000000
0.330719 0.832092 0.000000
0.451782 0.824677 0.000000
0.563873 0.815460 0.000000
0.668121 0.805115 0.000000
0.762207 0.794861 0.000000
0.845276 0.784485 0.000000
0.917664 0.775696 0.000000
0.958527 0.769318 0.000000
0.978302 0.765015 0.000000
0.981232 0.760468 0.000000
0.983765 0.755280 0.000000
0.986511 0.748322 0.000000
0.988953 0.739746 0.000000
0.991394 0.727661 0.000000
0.993713 0.711273 0.000000
0.996185 0.702515 0.000000
0.998779 0.700348 0.000000
0.000000 0.932709 0.000000
0.000000 0.932404 0.000000
0.000000 0.931458 0.000000
0.001526 0.929962 0.000000
0.006073 0.926331 0.000000
0.010223 0.922943 0.000000
0.014221 0.918854 0.000000
0.018127 0.914734 0.000000
0.021942 0.911133 0.000000
0.026031 0.906982 0.000000
0.029877 0.903809 0.000000
0.038879 0.900482 0.000000
0.060608 0.896851 0.000000
0.114899 0.891754 0.000000
0.187378 0.885101 0.000000
0.259521 0.879517 0.000000
0.380951 0.875610 0.000000
0.507080 0.867523 0.000000
0.620117 0.858032 0.000000
0.723145 0.848114 0.000000
0.811554 0.837952 0.000000
0.887299 0.828796 0.000000
0.951721 0.820740 0.000000
0.976379 0.816040 0.000000
0.980927 0.812805 0.000000
0.983917 0.808472 0.000000
0.986664 0.803680 0.000000
0.989227 0.797791 0.000000
0.991699 0.789886 0.000000
0.994141 0.779388 0.000000
0.996643 0.773224 0.000000
0.999237 0.771240 0.000000
0.000000 0.966553 0.000000
0.000000 0.966339 0.000000
0.000000 0.966034 0.000000
0.001465 0.964874 0.000000
0.006012 0.963287 0.000000
0.010193 0.961121 0.000000
0.014191 0.958160 0.000000
0.018097 0.955322 0.000000
0.021912 0.952271 0.000000
0.026001 0.949585 0.000000
0.029694 0.946503 0.000000
0.036102 0.943848 0.000000
0.057953 0.940674 0.000000
0.083130 0.937744 0.000000
0.156616 0.931763 0.000000
0.227356 0.924927 0.000000
0.301392 0.919891 0.000000
0.433838 0.915558 0.000000
0.563660 0.908112 0.000000
0.678711 0.898438 0.000000
0.774994 0.889893 0.000000
0.858582 0.880463 0.000000
0.928223 0.872284 0.000000
0.972900 0.866028 0.000000
0.980286 0.863007 0.000000
0.984009 0.859650 0.000000
0.986816 0.855072 0.000000
0.989380 0.850861 0.000000
0.991913 0.845276 0.000000
0.994385 0.838440 0.000000
0.996948 0.834442 0.000000
0.999512 0.832489 0.000000
0.000000 0.972137 0.000000
0.000000 0.972137 0.000000
0.000000 0.971893 0.000000
0.001465 0.971863 0.000000
0.006012 0.970795 0.000000
0.010193 0.970306 0.000000
0.014191 0.968719 0.000000
0.018097 0.967346 0.000000
0.021912 0.966248 0.000000
0.026001 0.964325 0.000000
0.029694 0.963684 0.000000
0.034882 0.961334 0.000000
0.045593 0.961151 0.000000
0.071075 0.958221 0.000000
0.136597 0.958221 0.000000
0.207153 0.952271 0.000000
0.276672 0.951691 0.000000
0.349762 0.947845 0.000000
0.490540 0.950989 0.000000
0.620483 0.948029 0.000000
0.732452 0.940216 0.000000
0.822906 0.931732 0.000000
0.903748 0.922150 0.000000
0.953430 0.916107 0.000000
0.976990 0.912476 0.000000
0.984070 0.909485 0.000000
0.986877 0.905609 0.000000
0.989441 0.901154 0.000000
0.992004 0.896790 0.000000
0.994568 0.891479 0.000000
0.997131 0.888458 0.000000
0.999725 0.886383 0.000000
0.000000 0.977509 0.000000
0.000000 0.977509 0.000000
0.000000 0.977509 0.000000
0.001465 0.977509 0.000000
0.006012 0.977509 0.000000
0.010193 0.977509 0.000000
0.014191 0.977509 0.000000
0.018097 0.977509 0.000000
0.021912 0.977509 0.000000
0.026001 0.977509 0.000000
0.029694 0.977509 0.000000
0.034729 0.977509 0.000000
0.044739 0.977509 0.000000
0.058838 0.977509 0.000000
0.125183 0.977509 0.000000
0.188049 0.977509 0.000000
0.257446 0.977509 0.000000
0.325562 0.977509 0.000000
0.398163 0.977722 0.000000
0.551453 0.975922 0.000000
0.685608 0.970245 0.000000
0.791870 0.961761 0.000000
0.877197 0.955719 0.000000
0.943146 0.950256 0.000000
0.970215 0.947632 0.000000
0.984100 0.945587 0.000000
0.986908 0.943115 0.000000
0.989471 0.940277 0.000000
0.992065 0.937653 0.000000
0.994598 0.933807 0.000000
0.997192 0.931976 0.000000
0.999786 0.929840 0.000000
0.000000 0.980103 0.000000
0.000000 0.980103 0.000000
0.000000 0.980103 0.000000
0.001465 0.980103 0.000000
0.006012 0.980103 0.000000
0.010193 0.980103 0.000000
0.014191 0.980103 0.000000
0.018097 0.980103 0.000000
0.021912 0.980103 0.000000
0.026001 0.980103 0.000000
0.029694 0.980103 0.000000
0.033997 0.980103 0.000000
0.041107 0.980103 0.000000
0.054810 0.980103 0.000000
0.110291 0.980103 0.000000
0.173767 0.980103 0.000000
0.243011 0.980103 0.000000
0.311462 0.980103 0.000000
0.380981 0.980103 0.000000
0.454315 0.980377 0.000000
0.619873 0.977966 0.000000
0.757111 0.976318 0.000000
0.854034 0.976013 0.000000
0.924896 0.972626 0.000000
0.968262 0.972748 0.000000
0.984100 0.971344 0.000000
0.986908 0.971222 0.000000
0.989471 0.969574 0.000000
0.992065 0.969238 0.000000
0.994629 0.967346 0.000000
0.997223 0.966797 0.000000
0.999817 0.965607 0.000000
0.000000 0.982666 0.000000
0.000000 0.982666 0.000000
0.000000 0.982666 0.000000
0.001465 0.982666 0.000000
0.006012 0.982666 0.000000
0.010193 0.982666 0.000000
0.014191 0.982666 0.000000
0.018097 0.982666 0.000000
0.021912 0.982666 0.000000
0.026001 0.982666 0.000000
0.029694 0.982666 0.000000
0.033997 0.982666 0.000000
0.040405 0.982666 0.000000
0.051300 0.982666 0.000000
0.106567 0.982666 0.000000
0.159210 0.982666 0.000000
0.228943 0.982666 0.000000
0.297180 0.982666 0.000000
0.367157 0.982666 0.000000
0.436401 0.982666 0.000000
0.518799 0.983032 0.000000
0.687927 0.983795 0.000000
0.821930 0.984192 0.000000
0.909149 0.984314 0.000000
0.958405 0.984375 0.000000
0.983917 0.984375 0.000000
0.986908 0.984283 0.000000
0.989471 0.984192 0.000000
0.992065 0.984009 0.000000
0.994629 0.983765 0.000000
0.997223 0.983459 0.000000
0.999847 0.983032 0.000000
0.000000 0.985260 0.000000
0.000000 0.985260 0.000000
0.000000 0.985260 0.000000
0.001465 0.985260 0.000000
0.006012 0.985260 0.000000
0.010193 0.985260 0.000000
0.014191 0.985260 0.000000
0.018097 0.985260 0.000000
0.021912 0.985260 0.000000
0.026001 0.985260 0.000000
0.029694 0.985260 0.000000
0.033447 0.985260 0.000000
0.038391 0.985260 0.000000
0.047821 0.985260 0.000000
0.092957 0.985260 0.000000
0.145935 0.985260 0.000000
0.211945 0.985260 0.000000
