Postproduction/IWLTBAP - Humble/LUTs by IWLTBAP (CUBE)/UTILITY/BMDFilm BMCC to Rec.709/U-BMDFILM-BMCC-V1-LTR.cube
# Copyright: (C) Copyright 2010-2018 by IWLTBAP SAS
# Cannot be resold, shared or otherwise redistributed
# Website: https://luts.iwltbap.com
TITLE "BMDFilm BMCC Version 1 (Utility LOG to Rec.709)"
LUT_3D_SIZE 5
DOMAIN_MIN 0.000000 0.000000 0.000000
DOMAIN_MAX 0.903226 0.903226 0.903226
0.000000 0.000000 0.000000
0.410736 0.000000 0.000000
0.906097 0.000000 0.000000
0.972656 0.000000 0.000000
0.991150 0.000000 0.000000
0.000000 0.246216 0.000000
0.204376 0.201416 0.000000
0.762177 0.110931 0.000000
0.972626 0.047699 0.000000
0.991150 0.037354 0.000000
0.000000 0.592621 0.000000
0.025238 0.559601 0.000000
0.533295 0.505859 0.000000
0.972229 0.429840 0.000000
0.991150 0.358307 0.000000
0.000000 0.932709 0.000000
0.018127 0.914734 0.000000
0.187378 0.885101 0.000000
0.887299 0.828796 0.000000
0.991699 0.789886 0.000000
0.000000 0.988068 0.000000
0.018097 0.988068 0.000000
0.088348 0.988068 0.000000
0.541412 0.988068 0.000000
0.992065 0.989746 0.000000
0.000000 0.000000 0.457886
0.373138 0.000000 0.373138
0.887054 0.000000 0.242798
0.972626 0.000000 0.164642
0.991150 0.000000 0.120483
0.000000 0.224762 0.230377
0.178589 0.183594 0.186066
0.745453 0.092590 0.080292
0.972626 0.040497 0.040680
0.991150 0.031525 0.031738
0.000000 0.576752 0.030579
0.022583 0.544464 0.023804
0.517059 0.491882 0.018127
0.972198 0.414337 0.018097
0.991150 0.344513 0.018311
0.000000 0.924469 0.018127
0.018127 0.904907 0.018127
0.175262 0.874146 0.018127
0.878632 0.818451 0.018066
0.991699 0.779236 0.018066
0.000000 0.988068 0.018097
0.018097 0.988068 0.018097
0.080627 0.988068 0.018097
0.529755 0.988068 0.018097
0.992065 0.989746 0.018066
0.000000 0.000000 0.948273
0.308655 0.000000 0.928986
0.843353 0.000000 0.843719
0.971985 0.000000 0.744568
0.991150 0.000000 0.624420
0.000000 0.187164 0.814789
0.126831 0.147064 0.778961
0.704559 0.054108 0.706085
0.972015 0.032898 0.594238
0.991150 0.024292 0.485779
0.000000 0.548859 0.567261
0.019379 0.517639 0.534149
0.472931 0.475189 0.476440
0.972137 0.392212 0.352203
0.991150 0.324982 0.325195
0.000000 0.911926 0.222504
0.018127 0.889862 0.192200
0.158600 0.858582 0.158752
0.864197 0.802063 0.079956
0.991699 0.760681 0.069733
0.000000 0.988068 0.115143
0.018097 0.988068 0.095398
0.069122 0.988068 0.069122
0.505127 0.988068 0.047455
0.992065 0.989746 0.044006
0.000000 0.000000 0.972565
0.266144 0.000000 0.972565
0.769043 0.000000 0.971741
0.970490 0.000000 0.970306
0.989319 0.000000 0.969666
0.000000 0.148743 0.972565
0.109955 0.110504 0.972565
0.623993 0.045654 0.971802
0.970490 0.024536 0.970306
0.989349 0.019897 0.969666
0.000000 0.519409 0.970673
0.018188 0.486145 0.969910
0.364136 0.446808 0.967438
0.969421 0.347076 0.967255
0.989502 0.288422 0.948547
0.000000 0.883575 0.907349
0.018066 0.859375 0.886902
0.122559 0.828461 0.856873
0.803986 0.795563 0.783813
0.991791 0.740997 0.665527
0.000000 0.988068 0.619537
0.018097 0.988068 0.592499
0.055573 0.988068 0.540466
0.476593 0.988068 0.476593
0.992065 0.989746 0.326660
0.000000 0.000000 0.991058
0.242371 0.000000 0.991058
0.694611 0.000000 0.991058
0.969696 0.000000 0.988983
0.988983 0.000000 0.988800
0.000000 0.131073 0.991058
0.093323 0.093750 0.991058
0.557892 0.039856 0.991058
0.969666 0.021606 0.989014
0.988983 0.018799 0.988800
0.000000 0.458527 0.991058
0.018311 0.426025 0.991058
0.380920 0.382111 0.991058
0.953461 0.299835 0.989166
0.988983 0.272186 0.988800
0.000000 0.865967 0.989410
0.018066 0.841309 0.989410
0.111542 0.809113 0.989410
0.639648 0.778320 0.990479
0.990967 0.698242 0.990601
0.000000 0.988129 0.989319
0.018066 0.988129 0.989319
0.046417 0.988129 0.989319
0.432526 0.988129 0.989319
0.990509 0.990662 0.987762
