Postproduction/IWLTBAP - Humble/LUTs by IWLTBAP (CUBE)/UTILITY/BMDFilm BMCC to Rec.709/U-BMDFILM-BMCC-V2-LTR.cube
# Copyright: (C) Copyright 2010-2018 by IWLTBAP SAS
# Cannot be resold, shared or otherwise redistributed
# Website: https://luts.iwltbap.com
TITLE "BMDFilm BMCC Version 2 (Utility LOG to Rec.709)"
LUT_3D_SIZE 8
DOMAIN_MIN 0.000000 0.000000 0.000000
DOMAIN_MAX 0.903226 0.903226 0.903226
0.000000 0.000000 0.000000
0.185974 0.000000 0.000000
0.378632 0.000000 0.000000
0.597656 0.000000 0.000000
0.829590 0.000000 0.000000
0.929291 0.000000 0.000000
0.996918 0.000000 0.000000
1.000000 0.000000 0.000000
0.000000 0.164642 0.000000
0.123108 0.136200 0.000000
0.349579 0.066864 0.000000
0.580261 0.000000 0.000000
0.824463 0.000000 0.000000
0.927917 0.000000 0.000000
0.996765 0.000000 0.000000
1.000000 0.000000 0.000000
0.000000 0.347168 0.000000
0.000000 0.333344 0.000000
0.287323 0.306000 0.000000
0.546265 0.242310 0.000000
0.813812 0.036926 0.000000
0.925049 0.000000 0.000000
0.996460 0.000000 0.000000
1.000000 0.000000 0.000000
0.000000 0.553467 0.000000
0.000000 0.545319 0.000000
0.087433 0.529419 0.000000
0.470093 0.496277 0.000000
0.785919 0.421173 0.000000
0.919525 0.187347 0.000000
0.994385 0.000000 0.000000
1.000000 0.000000 0.000000
0.000000 0.797394 0.000000
0.000000 0.793976 0.000000
0.000000 0.786621 0.000000
0.247101 0.770782 0.000000
0.698608 0.734283 0.000000
0.907196 0.638794 0.000000
0.989929 0.363892 0.000000
1.000000 0.000000 0.000000
0.000000 0.912750 0.000000
0.000000 0.911987 0.000000
0.000000 0.910614 0.000000
0.000000 0.907715 0.000000
0.424530 0.901642 0.000000
0.874146 0.887573 0.000000
0.979980 0.847870 0.000000
1.000000 0.568970 0.000000
0.000000 0.984680 0.000000
0.000000 0.984375 0.000000
0.000000 0.983826 0.000000
0.000000 0.982727 0.000000
0.000000 0.980499 0.000000
0.641144 0.975830 0.000000
0.955902 0.965546 0.000000
1.000000 0.939087 0.000000
0.000000 1.000000 0.000000
0.000000 1.000000 0.000000
0.000000 1.000000 0.000000
0.000000 1.000000 0.000000
0.000000 1.000000 0.000000
0.000000 1.000000 0.000000
0.836700 1.000000 0.000000
1.000000 1.000000 0.000000
0.000000 0.000000 0.187836
0.170563 0.000000 0.177582
0.370697 0.000000 0.157288
0.592743 0.000000 0.108154
0.828217 0.000000 0.000000
0.928894 0.000000 0.000000
0.996857 0.000000 0.000000
1.000000 0.000000 0.000000
0.000000 0.134949 0.114685
0.101044 0.101105 0.099792
0.340942 0.021942 0.067932
0.575439 0.000000 0.002563
0.822968 0.000000 0.000000
0.927521 0.000000 0.000000
0.996735 0.000000 0.000000
1.000000 0.000000 0.000000
0.000000 0.332764 0.000000
0.000000 0.318542 0.000000
0.276855 0.289856 0.000000
0.541107 0.221832 0.000000
0.812103 0.001068 0.000000
0.924652 0.000000 0.000000
0.996368 0.000000 0.000000
1.000000 0.000000 0.000000
0.000000 0.544983 0.000000
0.000000 0.536682 0.000000
0.065643 0.520477 0.000000
0.463989 0.486664 0.000000
0.783325 0.409637 0.000000
0.919128 0.160278 0.000000
0.994232 0.000000 0.000000
1.000000 0.000000 0.000000
0.000000 0.793854 0.000000
0.000000 0.789948 0.000000
0.000000 0.782379 0.000000
0.234619 0.766113 0.000000
0.694702 0.728149 0.000000
0.906677 0.631561 0.000000
0.989807 0.349731 0.000000
1.000000 0.000000 0.000000
0.000000 0.911957 0.000000
0.000000 0.911224 0.000000
0.000000 0.909821 0.000000
0.000000 0.906891 0.000000
0.417572 0.900726 0.000000
0.873383 0.886536 0.000000
0.979797 0.846039 0.000000
1.000000 0.560211 0.000000
0.000000 0.984375 0.000000
0.000000 0.984070 0.000000
0.000000 0.983551 0.000000
0.000000 0.982452 0.000000
0.000000 0.980194 0.000000
0.636749 0.975494 0.000000
0.955627 0.965149 0.000000
1.000000 0.938507 0.000000
0.000000 1.000000 0.000000
0.000000 1.000000 0.000000
0.000000 1.000000 0.000000
0.000000 1.000000 0.000000
0.000000 1.000000 0.000000
0.000000 1.000000 0.000000
0.835175 1.000000 0.000000
1.000000 1.000000 0.000000
0.000000 0.000000 0.380798
0.137604 0.000000 0.375488
0.355774 0.000000 0.365814
0.583893 0.000000 0.345306
0.825562 0.000000 0.300354
0.928192 0.000000 0.179871
0.996796 0.000000 0.000000
1.000000 0.000000 0.000000
0.000000 0.061920 0.347778
0.052368 0.018738 0.341949
0.324646 0.000000 0.331268
0.566284 0.000000 0.308502
0.820129 0.000000 0.257324
0.926788 0.000000 0.102051
0.996643 0.000000 0.000000
1.000000 0.000000 0.000000
0.000000 0.304199 0.275238
0.000000 0.288605 0.268219
0.256622 0.256714 0.254578
0.531036 0.177551 0.224548
0.808807 0.000000 0.149597
0.923920 0.000000 0.000000
0.996063 0.000000 0.000000
1.000000 0.000000 0.000000
0.000000 0.528412 0.019409
0.000000 0.519775 0.002197
0.021027 0.503265 0.000000
0.452271 0.467804 0.000000
0.778442 0.386780 0.000000
0.918304 0.117950 0.000000
0.993958 0.000000 0.000000
1.000000 0.000000 0.000000
0.000000 0.786163 0.000000
0.000000 0.782043 0.000000
0.000000 0.773895 0.000000
0.209259 0.757172 0.000000
0.687317 0.716492 0.000000
0.905731 0.617554 0.000000
0.989471 0.320862 0.000000
1.000000 0.000000 0.000000
0.000000 0.910522 0.000000
0.000000 0.909760 0.000000
0.000000 0.908295 0.000000
0.000000 0.905334 0.000000
0.403839 0.899017 0.000000
0.871918 0.884460 0.000000
0.979431 0.842499 0.000000
1.000000 0.543823 0.000000
0.000000 0.983795 0.000000
0.000000 0.983521 0.000000
0.000000 0.982971 0.000000
0.000000 0.981842 0.000000
0.000000 0.979584 0.000000
0.628448 0.974854 0.000000
0.954895 0.964417 0.000000
1.000000 0.937469 0.000000
0.000000 1.000000 0.000000
0.000000 1.000000 0.000000
0.000000 1.000000 0.000000
0.000000 1.000000 0.000000
0.000000 1.000000 0.000000
0.000000 1.000000 0.000000
0.832764 1.000000 0.000000
1.000000 1.000000 0.000000
0.000000 0.000000 0.600555
0.048889 0.000000 0.597504
0.323486 0.000000 0.591431
0.565735 0.000000 0.579681
0.819977 0.000000 0.554962
0.926758 0.000000 0.501709
0.996643 0.000000 0.369324
1.000000 0.000000 0.000000
0.000000 0.000000 0.580902
0.000000 0.000000 0.577698
0.288940 0.000000 0.571655
0.547211 0.000000 0.559204
0.814148 0.000000 0.533661
0.925140 0.000000 0.477509
0.996490 0.000000 0.334808
1.000000 0.000000 0.000000
0.000000 0.237000 0.542114
0.000000 0.216705 0.538666
0.210144 0.173584 0.531891
0.510773 0.052826 0.518585
0.801544 0.000000 0.490448
0.922424 0.000000 0.428162
0.995483 0.000000 0.257599
1.000000 0.000000 0.000000
0.000000 0.493744 0.453522
0.000000 0.484467 0.449341
0.000000 0.466309 0.441376
0.427704 0.427856 0.424683
0.768188 0.336487 0.389282
0.916718 0.004822 0.305511
0.993347 0.000000 0.025879
1.000000 0.000000 0.000000
0.000000 0.769562 0.163422
0.000000 0.765076 0.154419
0.000000 0.756439 0.136383
0.158508 0.737305 0.093231
0.672058 0.692291 0.000000
0.903839 0.588654 0.000000
0.988831 0.249176 0.000000
1.000000 0.000000 0.000000
0.000000 0.907501 0.000000
0.000000 0.906708 0.000000
0.000000 0.905182 0.000000
0.000000 0.902100 0.000000
0.374969 0.895294 0.000000
0.868927 0.880219 0.000000
0.978729 0.834564 0.000000
1.000000 0.508789 0.000000
0.000000 0.982666 0.000000
0.000000 0.982361 0.000000
0.000000 0.981781 0.000000
0.000000 0.980652 0.000000
0.000000 0.978363 0.000000
0.611176 0.973572 0.000000
0.953888 0.962921 0.000000
1.000000 0.935364 0.000000
0.000000 1.000000 0.000000
0.000000 1.000000 0.000000
0.000000 1.000000 0.000000
0.000000 1.000000 0.000000
0.000000 1.000000 0.000000
0.000000 1.000000 0.000000
0.827789 1.000000 0.000000
1.000000 1.000000 0.000000
0.000000 0.000000 0.831329
0.000000 0.000000 0.830475
0.246307 0.000000 0.828766
0.526733 0.000000 0.825287
0.807556 0.000000 0.817841
0.923615 0.000000 0.799713
0.995941 0.000000 0.746735
1.000000 0.000000 0.584595
0.000000 0.000000 0.825623
0.000000 0.000000 0.824646
0.199615 0.000000 0.822815
0.506897 0.000000 0.819061
0.800354 0.000000 0.810944
0.922150 0.000000 0.790527
0.995422 0.000000 0.733276
1.000000 0.000000 0.564392
0.000000 0.017944 0.813629
0.000000 0.000000 0.812469
0.070831 0.000000 0.810333
0.466705 0.000000 0.805847
0.784698 0.000000 0.795807
0.919312 0.000000 0.770203
0.994324 0.000000 0.704254
1.000000 0.000000 0.523682
0.000000 0.414673 0.780792
0.000000 0.403198 0.779053
0.000000 0.381134 0.775787
0.373199 0.332153 0.768829
0.746338 0.197021 0.754791
0.913361 0.000000 0.721130
0.992126 0.000000 0.641052
1.000000 0.000000 0.429749
0.000000 0.730865 0.675720
0.000000 0.724915 0.673035
0.000000 0.713440 0.667969
0.021271 0.690338 0.657745
0.640656 0.640869 0.636505
0.899872 0.525665 0.591309
0.987518 0.122833 0.487061
1.000000 0.000000 0.126251
0.000000 0.901123 0.311401
0.000000 0.900269 0.304565
0.000000 0.898621 0.293976
0.000000 0.894989 0.274078
0.306549 0.887756 0.229584
0.862396 0.870941 0.107361
0.977234 0.816193 0.000000
1.000000 0.426605 0.000000
0.000000 0.980316 0.000000
0.000000 0.980011 0.000000
0.000000 0.979431 0.000000
0.000000 0.978271 0.000000
0.000000 0.975891 0.000000
0.575104 0.970917 0.000000
0.951843 0.959900 0.000000
1.000000 0.930939 0.000000
0.000000 1.000000 0.000000
0.000000 1.000000 0.000000
0.000000 1.000000 0.000000
0.000000 1.000000 0.000000
0.000000 1.000000 0.000000
0.000000 1.000000 0.000000
0.817383 1.000000 0.000000
1.000000 1.000000 0.000000
0.000000 0.000000 0.930267
0.000000 0.000000 0.930023
0.002106 0.000000 0.929565
0.437469 0.000000 0.928619
0.772308 0.000000 0.926758
0.917450 0.000000 0.922638
0.993622 0.000000 0.914154
1.000000 0.000000 0.893341
0.000000 0.000000 0.928711
0.000000 0.000000 0.928497
0.000000 0.000000 0.928009
0.412872 0.000000 0.927094
0.762207 0.000000 0.924927
0.915863 0.000000 0.920959
0.993011 0.000000 0.912262
1.000000 0.000000 0.890839
0.000000 0.000000 0.925781
0.000000 0.000000 0.925354
0.000000 0.000000 0.924774
0.361572 0.000000 0.923828
0.741455 0.000000 0.921844
0.912781 0.000000 0.917694
0.991913 0.000000 0.908569
1.000000 0.000000 0.885925
0.000000 0.155182 0.919281
0.000000 0.134705 0.919006
0.000000 0.094543 0.918488
0.226440 0.000000 0.917389
0.690918 0.000000 0.915253
0.906281 0.000000 0.910706
0.989624 0.000000 0.900696
1.000000 0.000000 0.875061
0.000000 0.630371 0.905029
0.000000 0.623077 0.904663
0.000000 0.609650 0.904022
0.000000 0.581543 0.902740
0.571716 0.520264 0.900085
0.891083 0.360687 0.894318
0.984650 0.000000 0.881683
1.000000 0.000000 0.846863
0.000000 0.886353 0.864410
0.000000 0.885284 0.863861
0.000000 0.883301 0.862732
0.000000 0.879150 0.860535
0.158936 0.870178 0.855896
0.847961 0.848053 0.845764
0.974213 0.762268 0.819427
1.000000 0.242676 0.716766
0.000000 0.975433 0.502686
0.000000 0.975098 0.498230
0.000000 0.974487 0.490173
0.000000 0.973236 0.473022
0.000000 0.970703 0.435303
0.492584 0.965363 0.381104
0.947601 0.953217 0.243469
1.000000 0.921082 0.000000
0.000000 1.000000 0.000000
0.000000 1.000000 0.000000
0.000000 1.000000 0.000000
0.000000 1.000000 0.000000
0.000000 1.000000 0.000000
0.000000 1.000000 0.000000
0.793365 1.000000 0.000000
1.000000 1.000000 0.000000
0.000000 0.000000 0.997101
0.000000 0.000000 0.997070
0.000000 0.000000 0.997040
0.129761 0.000000 0.996948
0.666809 0.000000 0.996765
0.903198 0.000000 0.996002
0.988678 0.000000 0.992889
1.000000 0.000000 0.986176
0.000000 0.000000 0.996948
0.000000 0.000000 0.996918
0.000000 0.000000 0.996857
0.093994 0.000000 0.996765
0.651459 0.000000 0.996613
0.901276 0.000000 0.995392
0.988037 0.000000 0.992218
1.000000 0.000000 0.985413
0.000000 0.000000 0.996643
0.000000 0.000000 0.996643
0.000000 0.000000 0.996582
0.000000 0.000000 0.996399
0.621765 0.000000 0.995697
0.897552 0.000000 0.994141
0.986877 0.000000 0.990936
1.000000 0.000000 0.983765
0.000000 0.000000 0.994751
0.000000 0.000000 0.994659
0.000000 0.000000 0.994446
0.000000 0.000000 0.994049
0.557068 0.000000 0.993256
0.889282 0.000000 0.991638
0.984192 0.000000 0.988312
1.000000 0.000000 0.980896
0.000000 0.328430 0.989685
0.000000 0.312408 0.989563
0.000000 0.279053 0.989349
0.000000 0.213043 0.988922
0.393066 0.081024 0.988068
0.870117 0.000000 0.986359
0.979095 0.000000 0.982544
1.000000 0.000000 0.974823
0.000000 0.843445 0.978241
0.000000 0.841583 0.978088
0.000000 0.837952 0.977875
0.000000 0.829865 0.977386
0.000000 0.810944 0.976379
0.804688 0.756622 0.974335
0.967804 0.556824 0.970184
1.000000 0.000000 0.960999
0.000000 0.964630 0.949097
0.000000 0.964294 0.948914
0.000000 0.963562 0.948547
0.000000 0.962128 0.947815
0.000000 0.959167 0.946350
0.299194 0.952667 0.943359
0.938416 0.938446 0.937042
1.000000 0.897217 0.922119
0.000000 1.000000 0.733215
0.000000 1.000000 0.731232
0.000000 1.000000 0.727448
0.000000 1.000000 0.719574
0.000000 1.000000 0.701935
0.000000 1.000000 0.655609
0.723358 1.000000 0.570190
0.999939 1.000000 0.397827
0.000000 0.000000 1.000000
0.000000 0.000000 1.000000
0.000000 0.000000 1.000000
0.000000 0.000000 1.000000
0.308441 0.000000 1.000000
0.861786 0.000000 1.000000
0.977417 0.000000 1.000000
1.000000 0.000000 1.000000
0.000000 0.000000 1.000000
0.000000 0.000000 1.000000
0.000000 0.000000 1.000000
0.000000 0.000000 1.000000
0.263855 0.000000 1.000000
0.858368 0.000000 1.000000
0.976685 0.000000 1.000000
1.000000 0.000000 1.000000
0.000000 0.000000 1.000000
0.000000 0.000000 1.000000
0.000000 0.000000 1.000000
0.000000 0.000000 1.000000
0.194763 0.000000 1.000000
0.851562 0.000000 1.000000
0.975311 0.000000 1.000000
1.000000 0.000000 1.000000
0.000000 0.000000 1.000000
0.000000 0.000000 1.000000
0.000000 0.000000 1.000000
0.000000 0.000000 1.000000
0.078217 0.000000 1.000000
0.835541 0.000000 1.000000
0.972443 0.000000 1.000000
1.000000 0.000000 1.000000
0.000000 0.000000 1.000000
0.000000 0.000000 1.000000
0.000000 0.000000 1.000000
0.000000 0.000000 1.000000
0.000000 0.000000 1.000000
0.787872 0.000000 1.000000
0.966492 0.000000 1.000000
1.000000 0.000000 1.000000
0.000000 0.526062 1.000000
0.000000 0.516968 1.000000
0.000000 0.499084 1.000000
0.000000 0.460785 1.000000
0.000000 0.361023 1.000000
0.597137 0.199524 1.000000
0.952698 0.000000 1.000000
1.000000 0.000000 1.000000
0.000000 0.936432 1.000000
0.000000 0.935852 1.000000
0.000000 0.934845 1.000000
0.000000 0.932739 1.000000
0.000000 0.928345 1.000000
0.000000 0.918549 1.000000
0.915253 0.894653 1.000000
1.000000 0.782288 1.000000
0.000000 1.000000 1.000000
0.000000 1.000000 1.000000
0.000000 1.000000 1.000000
0.000000 1.000000 1.000000
0.000000 1.000000 0.999969
0.000000 1.000000 0.999817
0.466766 1.000000 0.999603
0.999207 0.999207 0.999084
