Postproduction/IWLTBAP - Humble/LUTs by IWLTBAP (CUBE)/UTILITY/GoPro Protune to Video/U-GOPRO-PROTUNE-LTR.cube
# Copyright: (C) Copyright 2010-2018 by IWLTBAP SAS
# Cannot be resold, shared or otherwise redistributed
# Website: https://luts.iwltbap.com
TITLE "GoPro Protune (Utility LOG to Rec.709)"
LUT_3D_SIZE 32
0.000000 0.000000 0.000000
0.000000 0.000000 0.000000
0.003479 0.000000 0.000000
0.013611 0.000000 0.000000
0.025879 0.000000 0.000000
0.040680 0.000000 0.000000
0.058014 0.000000 0.000000
0.077881 0.000000 0.000000
0.100098 0.000000 0.000000
0.125244 0.000000 0.000000
0.154358 0.000000 0.000000
0.188416 0.000000 0.000000
0.228394 0.000000 0.000000
0.274597 0.000000 0.000000
0.325500 0.000000 0.000000
0.379547 0.000000 0.000000
0.435364 0.000000 0.000000
0.490662 0.000000 0.000000
0.544556 0.000000 0.000000
0.595612 0.000000 0.000000
0.642670 0.000000 0.000000
0.685425 0.000000 0.000000
0.724731 0.000000 0.000000
0.761353 0.000000 0.000000
0.795654 0.000000 0.000000
0.828552 0.000000 0.000000
0.859741 0.000000 0.000000
0.889557 0.000000 0.000000
0.918182 0.000000 0.000000
0.945953 0.000000 0.000000
0.973145 0.000000 0.000000
1.000000 0.000000 0.000000
0.000000 0.000000 0.000000
0.000000 0.000000 0.000000
0.003479 0.000000 0.000000
0.013611 0.000000 0.000000
0.025879 0.000000 0.000000
0.040680 0.000000 0.000000
0.058014 0.000000 0.000000
0.077881 0.000000 0.000000
0.100098 0.000000 0.000000
0.125244 0.000000 0.000000
0.154358 0.000000 0.000000
0.188416 0.000000 0.000000
0.228394 0.000000 0.000000
0.274597 0.000000 0.000000
0.325500 0.000000 0.000000
0.379547 0.000000 0.000000
0.435364 0.000000 0.000000
0.490662 0.000000 0.000000
0.544556 0.000000 0.000000
0.595612 0.000000 0.000000
0.642670 0.000000 0.000000
0.685425 0.000000 0.000000
0.724731 0.000000 0.000000
0.761353 0.000000 0.000000
0.795654 0.000000 0.000000
0.828552 0.000000 0.000000
0.859741 0.000000 0.000000
0.889557 0.000000 0.000000
0.918182 0.000000 0.000000
0.945953 0.000000 0.000000
0.973145 0.000000 0.000000
1.000000 0.000000 0.000000
0.000000 0.003479 0.000000
0.000000 0.003479 0.000000
0.003479 0.003479 0.000000
0.013611 0.003479 0.000000
0.025879 0.003479 0.000000
0.040680 0.003479 0.000000
0.058014 0.003479 0.000000
0.077881 0.003479 0.000000
0.100098 0.003479 0.000000
0.125244 0.003479 0.000000
0.154358 0.003479 0.000000
0.188416 0.003479 0.000000
0.228394 0.003479 0.000000
0.274597 0.003479 0.000000
0.325500 0.003479 0.000000
0.379547 0.003479 0.000000
0.435364 0.003479 0.000000
0.490662 0.003479 0.000000
0.544556 0.003479 0.000000
0.595612 0.003479 0.000000
0.642670 0.003479 0.000000
0.685425 0.003540 0.000000
0.724731 0.003479 0.000000
0.761353 0.003479 0.000000
0.795654 0.003540 0.000000
0.828552 0.003479 0.000000
0.859741 0.003479 0.000000
0.889557 0.003540 0.000000
0.918182 0.003571 0.000000
0.945953 0.003479 0.000000
0.973145 0.003479 0.000000
1.000000 0.003418 0.000000
0.000000 0.013611 0.000000
0.000000 0.013611 0.000000
0.003479 0.013611 0.000000
0.013611 0.013611 0.000000
0.025879 0.013611 0.000000
0.040680 0.013611 0.000000
0.058014 0.013611 0.000000
0.077881 0.013611 0.000000
0.100098 0.013611 0.000000
0.125244 0.013611 0.000000
0.154358 0.013611 0.000000
0.188416 0.013611 0.000000
0.228394 0.013611 0.000000
0.274597 0.013611 0.000000
0.325500 0.013611 0.000000
0.379547 0.013611 0.000000
0.435364 0.013611 0.000000
0.490662 0.013611 0.000000
0.544556 0.013611 0.000000
0.595612 0.013611 0.000000
0.642670 0.013611 0.000000
0.685425 0.013580 0.000000
0.724731 0.013580 0.000000
0.761353 0.013611 0.000000
0.795654 0.013611 0.000000
0.828552 0.013550 0.000000
0.859741 0.013580 0.000000
0.889557 0.013611 0.000000
0.918182 0.013641 0.000000
0.945953 0.013611 0.000000
0.973145 0.013641 0.000000
1.000000 0.013550 0.000000
0.000000 0.025879 0.000000
0.000000 0.025879 0.000000
0.003479 0.025879 0.000000
0.013611 0.025879 0.000000
0.025879 0.025879 0.000000
0.040680 0.025879 0.000000
0.058014 0.025879 0.000000
0.077881 0.025879 0.000000
0.100098 0.025879 0.000000
0.125244 0.025879 0.000000
0.154358 0.025879 0.000000
0.188416 0.025879 0.000000
0.228394 0.025879 0.000000
0.274597 0.025879 0.000000
0.325500 0.025879 0.000000
0.379547 0.025879 0.000000
0.435364 0.025879 0.000000
0.490662 0.025879 0.000000
0.544556 0.025848 0.000000
0.595612 0.025879 0.000000
0.642670 0.025879 0.000000
0.685425 0.025848 0.000000
0.724731 0.025909 0.000000
0.761353 0.025879 0.000000
0.795654 0.025879 0.000000
0.828552 0.025879 0.000000
0.859741 0.025879 0.000000
0.889557 0.025879 0.000000
0.918182 0.025879 0.000000
0.945953 0.025940 0.000000
0.973145 0.025879 0.000000
1.000000 0.025879 0.000000
0.000000 0.040680 0.000000
0.000000 0.040680 0.000000
0.003479 0.040680 0.000000
0.013611 0.040680 0.000000
0.025879 0.040680 0.000000
0.040680 0.040680 0.000000
0.058014 0.040680 0.000000
0.077881 0.040680 0.000000
0.100098 0.040680 0.000000
0.125244 0.040680 0.000000
0.154358 0.040680 0.000000
0.188416 0.040680 0.000000
0.228394 0.040680 0.000000
0.274597 0.040680 0.000000
0.325500 0.040680 0.000000
0.379547 0.040680 0.000000
0.435364 0.040680 0.000000
0.490662 0.040680 0.000000
0.544556 0.040680 0.000000
0.595612 0.040649 0.000000
0.642670 0.040680 0.000000
0.685425 0.040680 0.000000
0.724731 0.040680 0.000000
0.761353 0.040802 0.000000
0.795654 0.040802 0.000000
0.828552 0.040802 0.000000
0.859741 0.040649 0.000000
0.889557 0.040680 0.000000
0.918182 0.040802 0.000000
0.945953 0.040741 0.000000
0.973145 0.040802 0.000000
1.000000 0.040802 0.000000
0.000000 0.058014 0.000000
0.000000 0.058014 0.000000
0.003479 0.058014 0.000000
0.013611 0.058014 0.000000
0.025879 0.058014 0.000000
0.040680 0.058014 0.000000
0.058014 0.058014 0.000000
0.077881 0.058014 0.000000
0.100098 0.058014 0.000000
0.125244 0.058014 0.000000
0.154358 0.058014 0.000000
0.188416 0.058014 0.000000
0.228394 0.058014 0.000000
0.274597 0.058014 0.000000
0.325500 0.058014 0.000000
0.379547 0.058014 0.000000
0.435364 0.058014 0.000000
0.490662 0.058014 0.000000
0.544556 0.058014 0.000000
0.595612 0.058014 0.000000
0.642670 0.058075 0.000000
0.685425 0.057983 0.000000
0.724731 0.058014 0.000000
0.761353 0.057983 0.000000
0.795654 0.057983 0.000000
0.828552 0.058014 0.000000
0.859741 0.058105 0.000000
0.889557 0.058014 0.000000
0.918182 0.057983 0.000000
0.945953 0.058014 0.000000
0.973145 0.057983 0.000000
1.000000 0.058044 0.000000
0.000000 0.077881 0.000000
0.000000 0.077881 0.000000
0.003479 0.077881 0.000000
0.013611 0.077881 0.000000
0.025879 0.077881 0.000000
0.040680 0.077881 0.000000
0.058014 0.077881 0.000000
0.077881 0.077881 0.000000
0.100098 0.077881 0.000000
0.125244 0.077881 0.000000
0.154358 0.077881 0.000000
0.188416 0.077881 0.000000
0.228394 0.077881 0.000000
0.274597 0.077881 0.000000
0.325500 0.077881 0.000000
0.379547 0.077881 0.000000
0.435364 0.077881 0.000000
0.490662 0.077881 0.000000
0.544556 0.077881 0.000000
0.595612 0.077881 0.000000
0.642670 0.077881 0.000000
0.685425 0.077850 0.000000
0.724731 0.077850 0.000000
0.761353 0.077820 0.000000
0.795654 0.077850 0.000000
0.828552 0.077820 0.000000
0.859741 0.077850 0.000000
0.889557 0.077942 0.000000
0.918182 0.077850 0.000000
0.945953 0.077881 0.000000
0.973145 0.077820 0.000000
1.000000 0.077820 0.000000
0.000000 0.100098 0.000000
0.000000 0.100098 0.000000
0.003479 0.100098 0.000000
0.013611 0.100098 0.000000
0.025879 0.100098 0.000000
0.040680 0.100098 0.000000
0.058014 0.100098 0.000000
0.077881 0.100098 0.000000
0.100098 0.100098 0.000000
0.125244 0.100098 0.000000
0.154358 0.100098 0.000000
0.188416 0.100098 0.000000
0.228394 0.100098 0.000000
0.274597 0.100098 0.000000
0.325500 0.100098 0.000000
0.379547 0.100098 0.000000
0.435364 0.100128 0.000000
0.490662 0.100159 0.000000
0.544556 0.100098 0.000000
0.595612 0.100067 0.000000
0.642670 0.100098 0.000000
0.685425 0.100098 0.000000
0.724731 0.100159 0.000000
0.761353 0.100098 0.000000
0.795654 0.100067 0.000000
0.828552 0.100067 0.000000
0.859741 0.100098 0.000000
0.889557 0.100189 0.000000
0.918182 0.100067 0.000000
0.945953 0.100037 0.000000
0.973145 0.100098 0.000000
1.000000 0.100098 0.000000
0.000000 0.125244 0.000000
0.000000 0.125244 0.000000
0.003479 0.125244 0.000000
0.013611 0.125244 0.000000
0.025879 0.125244 0.000000
0.040680 0.125244 0.000000
0.058014 0.125244 0.000000
0.077881 0.125244 0.000000
0.100098 0.125244 0.000000
0.125244 0.125244 0.000000
0.154358 0.125244 0.000000
0.188416 0.125244 0.000000
0.228394 0.125244 0.000000
0.274597 0.125244 0.000000
0.325500 0.125244 0.000000
0.379547 0.125244 0.000000
0.435364 0.125183 0.000000
0.490662 0.125244 0.000000
0.544556 0.125183 0.000000
0.595612 0.125183 0.000000
0.642670 0.125183 0.000000
0.685425 0.125244 0.000000
0.724731 0.125244 0.000000
0.761353 0.125214 0.000000
0.795654 0.125183 0.000000
0.828552 0.125214 0.000000
0.859741 0.125214 0.000000
0.889557 0.125244 0.000000
0.918182 0.125214 0.000000
0.945953 0.125183 0.000000
0.973145 0.125183 0.000000
1.000000 0.125183 0.000000
0.000000 0.154358 0.000000
0.000000 0.154358 0.000000
0.003479 0.154358 0.000000
0.013611 0.154358 0.000000
0.025879 0.154358 0.000000
0.040680 0.154358 0.000000
0.058014 0.154358 0.000000
0.077881 0.154358 0.000000
0.100098 0.154358 0.000000
0.125244 0.154358 0.000000
0.154358 0.154358 0.000000
0.188416 0.154358 0.000000
0.228394 0.154358 0.000000
0.274597 0.154358 0.000000
0.325500 0.154358 0.000000
0.379547 0.154419 0.000000
0.435364 0.154327 0.000000
0.490662 0.154358 0.000000
0.544556 0.154358 0.000000
0.595612 0.154358 0.000000
0.642670 0.154358 0.000000
0.685425 0.154358 0.000000
0.724731 0.154419 0.000000
0.761353 0.154419 0.000000
0.795654 0.154419 0.000000
0.828552 0.154327 0.000000
0.859741 0.154419 0.000000
0.889557 0.154327 0.000000
0.918182 0.154388 0.000000
0.945953 0.154297 0.000000
0.973145 0.154358 0.000000
1.000000 0.154327 0.000000
0.000000 0.188416 0.000000
0.000000 0.188416 0.000000
0.003479 0.188416 0.000000
0.013611 0.188416 0.000000
0.025879 0.188416 0.000000
0.040680 0.188416 0.000000
0.058014 0.188416 0.000000
0.077881 0.188416 0.000000
0.100098 0.188416 0.000000
0.125244 0.188416 0.000000
0.154358 0.188416 0.000000
0.188416 0.188416 0.000000
0.228394 0.188416 0.000000
0.274597 0.188416 0.000000
0.325500 0.188416 0.000000
0.379547 0.188416 0.000000
0.435364 0.188416 0.000000
0.490662 0.188385 0.000000
0.544556 0.188416 0.000000
0.595612 0.188477 0.000000
0.642670 0.188416 0.000000
0.685425 0.188354 0.000000
0.724731 0.188416 0.000000
0.761353 0.188477 0.000000
0.795654 0.188477 0.000000
0.828552 0.188477 0.000000
0.859741 0.188477 0.000000
0.889557 0.188477 0.000000
0.918182 0.188477 0.000000
0.945953 0.188354 0.000000
0.973145 0.188354 0.000000
1.000000 0.188477 0.000000
0.000000 0.228394 0.000000
0.000000 0.228394 0.000000
0.003479 0.228394 0.000000
0.013611 0.228394 0.000000
0.025879 0.228394 0.000000
0.040680 0.228394 0.000000
0.058014 0.228394 0.000000
0.077881 0.228394 0.000000
0.100098 0.228394 0.000000
0.125244 0.228394 0.000000
0.154358 0.228394 0.000000
0.188416 0.228394 0.000000
0.228394 0.228394 0.000000
0.274597 0.228394 0.000000
0.325500 0.228394 0.000000
0.379547 0.228394 0.000000
0.435364 0.228394 0.000000
0.490662 0.228333 0.000000
0.544556 0.228394 0.000000
0.595612 0.228394 0.000000
0.642670 0.228394 0.000000
0.685425 0.228394 0.000000
0.724731 0.228424 0.000000
0.761353 0.228363 0.000000
0.795654 0.228394 0.000000
0.828552 0.228394 0.000000
0.859741 0.228363 0.000000
0.889557 0.228394 0.000000
0.918182 0.228394 0.000000
0.945953 0.228333 0.000000
0.973145 0.228333 0.000000
1.000000 0.228424 0.000000
0.000000 0.274597 0.000000
0.000000 0.274597 0.000000
0.003479 0.274597 0.000000
0.013611 0.274597 0.000000
0.025879 0.274597 0.000000
0.040680 0.274597 0.000000
0.058014 0.274597 0.000000
0.077881 0.274597 0.000000
0.100098 0.274597 0.000000
0.125244 0.274597 0.000000
0.154358 0.274597 0.000000
0.188416 0.274597 0.000000
0.228394 0.274597 0.000000
0.274597 0.274597 0.000000
0.325500 0.274597 0.000000
0.379547 0.274597 0.000000
0.435364 0.274597 0.000000
0.490662 0.274597 0.000000
0.544556 0.274597 0.000000
0.595612 0.274597 0.000000
0.642670 0.274597 0.000000
0.685425 0.274597 0.000000
0.724731 0.274628 0.000000
0.761353 0.274597 0.000000
0.795654 0.274628 0.000000
0.828552 0.274597 0.000000
0.859741 0.274597 0.000000
0.889557 0.274597 0.000000
0.918182 0.274567 0.000000
0.945953 0.274536 0.000000
0.973145 0.274597 0.000000
1.000000 0.274628 0.000000
0.000000 0.325500 0.000000
0.000000 0.325500 0.000000
0.003479 0.325500 0.000000
0.013611 0.325500 0.000000
0.025879 0.325500 0.000000
0.040680 0.325500 0.000000
0.058014 0.325500 0.000000
0.077881 0.325500 0.000000
0.100098 0.325500 0.000000
0.125244 0.325500 0.000000
0.154358 0.325500 0.000000
0.188416 0.325500 0.000000
0.228394 0.325500 0.000000
0.274597 0.325500 0.000000
0.325500 0.325500 0.000000
0.379547 0.325470 0.000000
0.435364 0.325500 0.000000
0.490662 0.325500 0.000000
0.544556 0.325500 0.000000
0.595612 0.325500 0.000000
0.642670 0.325470 0.000000
0.685425 0.325470 0.000000
0.724731 0.325562 0.000000
0.761353 0.325562 0.000000
0.795654 0.325470 0.000000
0.828552 0.325439 0.000000
0.859741 0.325439 0.000000
0.889557 0.325439 0.000000
0.918182 0.325500 0.000000
0.945953 0.325439 0.000000
0.973145 0.325470 0.000000
1.000000 0.325562 0.000000
0.000000 0.379547 0.000000
0.000000 0.379547 0.000000
0.003479 0.379547 0.000000
0.013611 0.379547 0.000000
0.025879 0.379547 0.000000
0.040680 0.379547 0.000000
0.058014 0.379547 0.000000
0.077881 0.379547 0.000000
0.100098 0.379547 0.000000
0.125244 0.379547 0.000000
0.154419 0.379547 0.000000
0.188416 0.379547 0.000000
0.228394 0.379547 0.000000
0.274597 0.379547 0.000000
0.325470 0.379547 0.000000
0.379517 0.379517 0.000000
0.435364 0.379517 0.000000
0.490662 0.379517 0.000000
0.544556 0.379517 0.000000
0.595612 0.379486 0.000000
0.642670 0.379486 0.000000
0.685425 0.379486 0.000000
0.724731 0.379517 0.000000
0.761353 0.379486 0.000000
0.795654 0.379578 0.000000
0.828552 0.379486 0.000000
0.859741 0.379517 0.000000
0.889557 0.379486 0.000000
0.918182 0.379486 0.000000
0.945953 0.379425 0.000000
0.973145 0.379517 0.000000
1.000000 0.379547 0.000000
0.000000 0.435364 0.000000
0.000000 0.435364 0.000000
0.003479 0.435364 0.000000
0.013611 0.435364 0.000000
0.025879 0.435364 0.000000
0.040680 0.435364 0.000000
0.058014 0.435364 0.000000
0.077881 0.435364 0.000000
0.100128 0.435364 0.000000
0.125183 0.435364 0.000000
0.154327 0.435364 0.000000
0.188416 0.435364 0.000000
0.228394 0.435364 0.000000
0.274597 0.435364 0.000000
0.325500 0.435364 0.000000
0.379517 0.435364 0.000000
0.435364 0.435364 0.000000
0.490662 0.435364 0.000000
0.544556 0.435364 0.000000
0.595612 0.435364 0.000000
0.642670 0.435333 0.000000
0.685425 0.435364 0.000000
0.724731 0.435364 0.000000
0.761353 0.435364 0.000000
0.795654 0.435333 0.000000
0.828552 0.435333 0.000000
0.859741 0.435364 0.000000
0.889557 0.435303 0.000000
0.918182 0.435333 0.000000
0.945953 0.435364 0.000000
0.973145 0.435364 0.000000
1.000000 0.435303 0.000000
0.000000 0.490662 0.000000
0.000000 0.490662 0.000000
0.003479 0.490662 0.000000
0.013611 0.490662 0.000000
0.025879 0.490662 0.000000
0.040680 0.490662 0.000000
0.058014 0.490662 0.000000
0.077881 0.490662 0.000000
0.100159 0.490662 0.000000
0.125244 0.490662 0.000000
0.154358 0.490662 0.000000
0.188385 0.490662 0.000000
0.228333 0.490662 0.000000
0.274597 0.490662 0.000000
0.325500 0.490662 0.000000
0.379517 0.490662 0.000000
0.435364 0.490662 0.000000
0.490662 0.490662 0.000000
0.544556 0.490662 0.000000
0.595612 0.490692 0.000000
0.642670 0.490692 0.000000
0.685425 0.490662 0.000000
0.724731 0.490662 0.000000
0.761353 0.490662 0.000000
0.795654 0.490662 0.000000
0.828552 0.490692 0.000000
0.859741 0.490692 0.000000
0.889557 0.490662 0.000000
0.918182 0.490601 0.000000
0.945953 0.490692 0.000000
0.973145 0.490662 0.000000
1.000000 0.490601 0.000000
0.000000 0.544556 0.000000
0.000000 0.544556 0.000000
0.003479 0.544556 0.000000
0.013611 0.544556 0.000000
0.025848 0.544556 0.000000
0.040680 0.544556 0.000000
0.058014 0.544556 0.000000
0.077881 0.544556 0.000000
0.100098 0.544556 0.000000
0.125183 0.544556 0.000000
0.154358 0.544556 0.000000
0.188416 0.544556 0.000000
0.228394 0.544556 0.000000
0.274597 0.544556 0.000000
0.325500 0.544556 0.000000
0.379517 0.544556 0.000000
0.435364 0.544556 0.000000
0.490662 0.544556 0.000000
0.544556 0.544556 0.000000
0.595612 0.544586 0.000000
0.642670 0.544586 0.000000
0.685425 0.544617 0.000000
0.724731 0.544617 0.000000
0.761353 0.544617 0.000000
0.795654 0.544617 0.000000
0.828552 0.544617 0.000000
0.859741 0.544617 0.000000
0.889557 0.544617 0.000000
0.918182 0.544617 0.000000
0.945953 0.544586 0.000000
0.973145 0.544556 0.000000
1.000000 0.544617 0.000000
0.000000 0.595612 0.000000
0.000000 0.595612 0.000000
0.003479 0.595612 0.000000
0.013611 0.595612 0.000000
0.025879 0.595612 0.000000
0.040649 0.595612 0.000000
0.058014 0.595612 0.000000
0.077881 0.595612 0.000000
0.100067 0.595612 0.000000
0.125183 0.595612 0.000000
0.154358 0.595612 0.000000
0.188477 0.595612 0.000000
0.228394 0.595612 0.000000
0.274597 0.595612 0.000000
0.325500 0.595612 0.000000
0.379486 0.595612 0.000000
0.435364 0.595612 0.000000
0.490692 0.595612 0.000000
0.544586 0.595612 0.000000
0.595612 0.595612 0.000000
0.642670 0.595612 0.000000
0.685425 0.595612 0.000000
0.724731 0.595642 0.000000
0.761353 0.595581 0.000000
0.795654 0.595581 0.000000
0.828552 0.595612 0.000000
0.859741 0.595612 0.000000
0.889557 0.595581 0.000000
0.918182 0.595673 0.000000
0.945953 0.595612 0.000000
0.973145 0.595612 0.000000
1.000000 0.595581 0.000000
0.000000 0.642670 0.000000
0.000000 0.642670 0.000000
0.003479 0.642670 0.000000
0.013611 0.642670 0.000000
0.025879 0.642670 0.000000
0.040680 0.642670 0.000000
0.058075 0.642670 0.000000
0.077881 0.642670 0.000000
0.100098 0.642670 0.000000
0.125183 0.642670 0.000000
0.154358 0.642670 0.000000
0.188416 0.642670 0.000000
0.228394 0.642670 0.000000
0.274597 0.642670 0.000000
0.325470 0.642670 0.000000
0.379486 0.642670 0.000000
0.435333 0.642670 0.000000
0.490692 0.642670 0.000000
0.544586 0.642670 0.000000
0.595612 0.642670 0.000000
0.642670 0.642670 0.000000
0.685425 0.642670 0.000000
0.724731 0.642670 0.000000
0.761353 0.642700 0.000000
0.795654 0.642609 0.000000
0.828552 0.642670 0.000000
0.859741 0.642670 0.000000
0.889557 0.642670 0.000000
0.918182 0.642670 0.000000
0.945953 0.642731 0.000000
0.973145 0.642731 0.000000
1.000000 0.642609 0.000000
0.000000 0.685425 0.000000
0.000000 0.685425 0.000000
0.003540 0.685425 0.000000
0.013580 0.685425 0.000000
0.025848 0.685425 0.000000
0.040680 0.685425 0.000000
0.057983 0.685425 0.000000
0.077850 0.685425 0.000000
0.100098 0.685425 0.000000
0.125244 0.685425 0.000000
0.154358 0.685425 0.000000
0.188354 0.685425 0.000000
0.228394 0.685425 0.000000
0.274597 0.685425 0.000000
0.325470 0.685425 0.000000
0.379486 0.685425 0.000000
0.435364 0.685425 0.000000
0.490662 0.685425 0.000000
0.544617 0.685425 0.000000
0.595612 0.685425 0.000000
0.642670 0.685425 0.000000
0.685425 0.685425 0.000000
0.724731 0.685425 0.000000
0.761353 0.685425 0.000000
0.795654 0.685425 0.000000
0.828552 0.685425 0.000000
0.859741 0.685455 0.000000
0.889557 0.685425 0.000000
0.918182 0.685455 0.000000
0.945953 0.685455 0.000000
0.973145 0.685455 0.000000
1.000000 0.685333 0.000000
0.000000 0.724731 0.000000
0.000000 0.724731 0.000000
0.003479 0.724731 0.000000
0.013580 0.724731 0.000000
0.025909 0.724731 0.000000
0.040680 0.724731 0.000000
0.058014 0.724731 0.000000
0.077850 0.724731 0.000000
0.100159 0.724731 0.000000
0.125244 0.724731 0.000000
0.154419 0.724731 0.000000
0.188416 0.724731 0.000000
0.228424 0.724731 0.000000
0.274628 0.724731 0.000000
0.325562 0.724731 0.000000
0.379517 0.724731 0.000000
0.435364 0.724731 0.000000
0.490662 0.724731 0.000000
0.544617 0.724731 0.000000
0.595642 0.724731 0.000000
0.642670 0.724731 0.000000
0.685425 0.724731 0.000000
0.724731 0.724731 0.000000
0.761353 0.724792 0.000000
0.795654 0.724792 0.000000
0.828552 0.724731 0.000000
0.859741 0.724731 0.000000
0.889557 0.724731 0.000000
0.918182 0.724670 0.000000
0.945953 0.724731 0.000000
0.973145 0.724731 0.000000
1.000000 0.724701 0.000000
0.000000 0.761353 0.000000
0.000000 0.761353 0.000000
0.003479 0.761353 0.000000
0.013611 0.761353 0.000000
0.025879 0.761353 0.000000
0.040802 0.761353 0.000000
0.057983 0.761353 0.000000
0.077820 0.761353 0.000000
0.100098 0.761353 0.000000
0.125214 0.761353 0.000000
0.154419 0.761353 0.000000
0.188477 0.761353 0.000000
0.228363 0.761353 0.000000
0.274597 0.761353 0.000000
0.325562 0.761353 0.000000
0.379486 0.761353 0.000000
0.435364 0.761353 0.000000
0.490662 0.761353 0.000000
0.544617 0.761353 0.000000
0.595581 0.761353 0.000000
0.642700 0.761353 0.000000
0.685425 0.761353 0.000000
0.724792 0.761353 0.000000
0.761353 0.761353 0.000000
0.795654 0.761414 0.000000
0.828552 0.761383 0.000000
0.859741 0.761261 0.000000
0.889557 0.761353 0.000000
0.918182 0.761383 0.000000
0.945953 0.761353 0.000000
0.973145 0.761414 0.000000
1.000000 0.761261 0.000000
0.000000 0.795654 0.000000
0.000000 0.795654 0.000000
0.003540 0.795654 0.000000
0.013611 0.795654 0.000000
0.025879 0.795654 0.000000
0.040802 0.795654 0.000000
0.057983 0.795654 0.000000
0.077850 0.795654 0.000000
0.100067 0.795654 0.000000
0.125183 0.795654 0.000000
0.154419 0.795654 0.000000
0.188477 0.795654 0.000000
0.228394 0.795654 0.000000
0.274628 0.795654 0.000000
0.325470 0.795654 0.000000
0.379578 0.795654 0.000000
0.435333 0.795654 0.000000
0.490662 0.795654 0.000000
0.544617 0.795654 0.000000
0.595581 0.795654 0.000000
0.642609 0.795654 0.000000
0.685425 0.795654 0.000000
0.724792 0.795654 0.000000
0.761414 0.795654 0.000000
0.795654 0.795654 0.000000
0.828552 0.795654 0.000000
0.859741 0.795593 0.000000
0.889557 0.795593 0.000000
0.918182 0.795746 0.000000
0.945953 0.795654 0.000000
0.973145 0.795654 0.000000
1.000000 0.795654 0.000000
0.000000 0.828552 0.000000
0.000000 0.828552 0.000000
0.003479 0.828552 0.000000
0.013550 0.828552 0.000000
0.025879 0.828552 0.000000
0.040802 0.828552 0.000000
0.058014 0.828552 0.000000
0.077820 0.828552 0.000000
0.100067 0.828552 0.000000
0.125214 0.828552 0.000000
0.154327 0.828552 0.000000
0.188477 0.828552 0.000000
0.228394 0.828552 0.000000
0.274597 0.828552 0.000000
0.325439 0.828552 0.000000
0.379486 0.828552 0.000000
0.435333 0.828552 0.000000
0.490692 0.828552 0.000000
0.544617 0.828552 0.000000
0.595612 0.828552 0.000000
0.642670 0.828552 0.000000
0.685425 0.828552 0.000000
0.724731 0.828552 0.000000
0.761383 0.828552 0.000000
0.795654 0.828552 0.000000
0.828552 0.828552 0.000000
0.859741 0.828644 0.000000
0.889557 0.828552 0.000000
0.918182 0.828522 0.000000
0.945953 0.828552 0.000000
0.973145 0.828491 0.000000
1.000000 0.828552 0.000000
0.000000 0.859741 0.000000
0.000000 0.859741 0.000000
0.003479 0.859741 0.000000
0.013580 0.859741 0.000000
0.025879 0.859741 0.000000
0.040649 0.859741 0.000000
0.058105 0.859741 0.000000
0.077850 0.859741 0.000000
0.100098 0.859741 0.000000
0.125214 0.859741 0.000000
0.154419 0.859741 0.000000
0.188477 0.859741 0.000000
0.228363 0.859741 0.000000
0.274597 0.859741 0.000000
0.325439 0.859741 0.000000
0.379517 0.859741 0.000000
0.435364 0.859741 0.000000
0.490692 0.859741 0.000000
0.544617 0.859741 0.000000
0.595612 0.859741 0.000000
0.642670 0.859741 0.000000
0.685455 0.859741 0.000000
0.724731 0.859741 0.000000
0.761261 0.859741 0.000000
0.795593 0.859741 0.000000
0.828644 0.859741 0.000000
0.859741 0.859741 0.000000
0.889557 0.859741 0.000000
0.918182 0.859802 0.000000
0.945953 0.859741 0.000000
0.973145 0.859741 0.000000
1.000000 0.859680 0.000000
0.000000 0.889557 0.000000
0.000000 0.889557 0.000000
0.003540 0.889557 0.000000
0.013611 0.889557 0.000000
0.025879 0.889557 0.000000
0.040680 0.889557 0.000000
0.058014 0.889557 0.000000
0.077942 0.889557 0.000000
0.100189 0.889557 0.000000
0.125244 0.889557 0.000000
0.154327 0.889557 0.000000
0.188477 0.889557 0.000000
0.228394 0.889557 0.000000
0.274597 0.889557 0.000000
0.325439 0.889557 0.000000
0.379486 0.889557 0.000000
0.435303 0.889557 0.000000
