Postproduction/IWLTBAP - Humble/LUTs by IWLTBAP (CUBE)/UTILITY/GoPro Protune to Video/U-GOPRO-PROTUNE-LTR.cube
# Copyright: (C) Copyright 2010-2018 by IWLTBAP SAS
# Cannot be resold, shared or otherwise redistributed
# Website: https://luts.iwltbap.com
TITLE "GoPro Protune (Utility LOG to Rec.709)"
LUT_3D_SIZE 8
DOMAIN_MIN 0.000000 0.000000 0.000000
DOMAIN_MAX 0.903226 0.903226 0.903226
0.000000 0.000000 0.000000
0.025879 0.000000 0.000000
0.100098 0.000000 0.000000
0.228394 0.000000 0.000000
0.435364 0.000000 0.000000
0.642670 0.000000 0.000000
0.795654 0.000000 0.000000
0.918182 0.000000 0.000000
0.000000 0.025879 0.000000
0.025879 0.025879 0.000000
0.100098 0.025879 0.000000
0.228394 0.025879 0.000000
0.435364 0.025879 0.000000
0.642670 0.025879 0.000000
0.795654 0.025879 0.000000
0.918182 0.025879 0.000000
0.000000 0.100098 0.000000
0.025879 0.100098 0.000000
0.100098 0.100098 0.000000
0.228394 0.100098 0.000000
0.435364 0.100128 0.000000
0.642670 0.100098 0.000000
0.795654 0.100067 0.000000
0.918182 0.100067 0.000000
0.000000 0.228394 0.000000
0.025879 0.228394 0.000000
0.100098 0.228394 0.000000
0.228394 0.228394 0.000000
0.435364 0.228394 0.000000
0.642670 0.228394 0.000000
0.795654 0.228394 0.000000
0.918182 0.228394 0.000000
0.000000 0.435364 0.000000
0.025879 0.435364 0.000000
0.100128 0.435364 0.000000
0.228394 0.435364 0.000000
0.435364 0.435364 0.000000
0.642670 0.435333 0.000000
0.795654 0.435333 0.000000
0.918182 0.435333 0.000000
0.000000 0.642670 0.000000
0.025879 0.642670 0.000000
0.100098 0.642670 0.000000
0.228394 0.642670 0.000000
0.435333 0.642670 0.000000
0.642670 0.642670 0.000000
0.795654 0.642609 0.000000
0.918182 0.642670 0.000000
0.000000 0.795654 0.000000
0.025879 0.795654 0.000000
0.100067 0.795654 0.000000
0.228394 0.795654 0.000000
0.435333 0.795654 0.000000
0.642609 0.795654 0.000000
0.795654 0.795654 0.000000
0.918182 0.795746 0.000000
0.000000 0.918182 0.000000
0.025879 0.918182 0.000000
0.100067 0.918182 0.000000
0.228394 0.918182 0.000000
0.435333 0.918182 0.000000
0.642670 0.918182 0.000000
0.795746 0.918182 0.000000
0.918182 0.918182 0.000000
0.000000 0.000000 0.025879
0.025879 0.000000 0.025879
0.100098 0.000000 0.025879
0.228394 0.000000 0.025879
0.435364 0.000000 0.025879
0.642670 0.000000 0.025879
0.795654 0.000000 0.025879
0.918182 0.000000 0.025879
0.000000 0.025879 0.025879
0.025848 0.025879 0.025879
0.104095 0.022491 0.022491
0.241486 0.015717 0.015717
0.453186 0.012909 0.012909
0.661255 0.012878 0.012878
0.814911 0.012878 0.012878
0.937439 0.012878 0.012878
0.000000 0.100098 0.025879
0.021454 0.105591 0.021454
0.105377 0.105377 0.021088
0.241974 0.096008 0.015228
0.453644 0.089264 0.012543
0.661743 0.087585 0.012543
0.815399 0.087036 0.012543
0.938232 0.086792 0.012543
0.000000 0.228394 0.025879
0.013214 0.245087 0.013214
0.095184 0.245117 0.013123
0.244446 0.244446 0.013000
0.453644 0.227386 0.012543
0.661743 0.222046 0.012543
0.815399 0.219971 0.012543
0.938232 0.219055 0.012543
0.000000 0.435364 0.025879
0.012909 0.453186 0.012909
0.089264 0.453644 0.012543
0.227386 0.453644 0.012543
0.453094 0.453094 0.012543
0.661743 0.441376 0.012543
0.815399 0.437073 0.012543
0.938232 0.434967 0.012543
0.000000 0.642670 0.025879
0.012878 0.661255 0.012878
0.087585 0.661743 0.012543
0.222046 0.661743 0.012543
0.441376 0.661743 0.012543
0.661469 0.661469 0.012543
0.815399 0.655060 0.012543
0.938232 0.651367 0.012543
0.000000 0.795654 0.025879
0.012878 0.814911 0.012878
0.087036 0.815399 0.012543
0.219971 0.815399 0.012543
0.437073 0.815399 0.012543
0.655060 0.815399 0.012543
0.815277 0.815277 0.012543
0.938232 0.810913 0.012543
0.000000 0.918182 0.025879
0.012878 0.937439 0.012878
0.086792 0.938232 0.012543
0.219055 0.938232 0.012543
0.434967 0.938232 0.012543
0.651367 0.938232 0.012543
0.810913 0.938232 0.012543
0.938171 0.938171 0.012543
0.000000 0.000000 0.100098
0.025879 0.000000 0.100098
0.100098 0.000000 0.100098
0.228394 0.000000 0.100098
0.435364 0.000000 0.100128
0.642670 0.000000 0.100098
0.795654 0.000000 0.100067
0.918182 0.000000 0.100067
0.000000 0.025879 0.100098
0.021454 0.021454 0.105591
0.105377 0.021088 0.105377
0.242218 0.015045 0.095947
0.453644 0.012543 0.089264
0.661743 0.012543 0.087585
0.815399 0.012543 0.087036
0.938232 0.012543 0.086792
0.000000 0.100098 0.100098
0.021057 0.105377 0.105377
0.099976 0.100067 0.100067
0.237366 0.092163 0.092163
0.460754 0.078705 0.078705
0.684692 0.066254 0.066254
0.848969 0.058228 0.058228
0.967133 0.062286 0.062286
0.000000 0.228394 0.100098
0.013123 0.245117 0.095184
0.089691 0.240173 0.089691
0.239441 0.239471 0.089111
0.462372 0.222046 0.077118
0.684723 0.208374 0.065948
0.848785 0.199524 0.058105
0.967133 0.200256 0.062103
0.000000 0.435364 0.100128
0.012543 0.453644 0.089264
0.072021 0.468750 0.072021
0.220367 0.468567 0.071777
0.467865 0.467865 0.071198
0.694519 0.448120 0.058258
0.857178 0.436096 0.051941
0.967377 0.430145 0.061920
0.000000 0.642670 0.100098
0.012543 0.661743 0.087585
0.055908 0.697968 0.055908
0.202087 0.697784 0.055725
0.448822 0.697784 0.055725
0.697266 0.697266 0.055420
0.864349 0.683716 0.046387
0.967407 0.662262 0.061890
0.000000 0.795654 0.100067
0.012543 0.815399 0.087036
0.046814 0.864197 0.046814
0.191040 0.864349 0.046387
0.436127 0.864349 0.046387
0.683716 0.864349 0.046387
0.864075 0.864075 0.046234
0.967407 0.832428 0.061890
0.000000 0.918182 0.100067
0.012543 0.938232 0.086792
0.062134 0.967377 0.062134
0.200073 0.967407 0.061890
0.430145 0.967407 0.061890
0.662262 0.967407 0.061890
0.832428 0.967407 0.061890
0.966644 0.966644 0.062408
0.000000 0.000000 0.228394
0.025879 0.000000 0.228394
0.100098 0.000000 0.228394
0.228394 0.000000 0.228394
0.435364 0.000000 0.228394
0.642670 0.000000 0.228394
0.795654 0.000000 0.228394
0.918182 0.000000 0.228394
0.000000 0.025879 0.228394
0.013214 0.013214 0.245087
0.095184 0.013123 0.245117
0.244446 0.013000 0.244446
0.453644 0.012543 0.227386
0.661743 0.012543 0.222046
0.815399 0.012543 0.219971
0.938232 0.012543 0.219055
0.000000 0.100098 0.228394
0.013123 0.095184 0.245117
0.089691 0.089691 0.240173
0.239441 0.089081 0.239471
0.462738 0.076813 0.221954
0.684814 0.065918 0.208313
0.848846 0.058075 0.199493
0.967133 0.062103 0.200256
0.000000 0.228394 0.228394
0.013000 0.244446 0.244446
0.089081 0.239471 0.239471
0.228210 0.228363 0.228363
0.451569 0.213989 0.213989
0.675110 0.200104 0.200104
0.839142 0.191101 0.191101
0.966736 0.187561 0.187561
0.000000 0.435364 0.228394
0.012543 0.453644 0.227386
0.071777 0.468567 0.220367
0.209503 0.456909 0.209503
0.455475 0.455475 0.208313
0.680328 0.436493 0.194763
0.842682 0.425781 0.187561
0.966858 0.420563 0.186829
0.000000 0.642670 0.228394
0.012543 0.661743 0.222046
0.055725 0.697784 0.202087
0.191101 0.685547 0.191101
0.436493 0.685028 0.190643
0.684540 0.684540 0.190216
0.852325 0.671600 0.179108
0.967316 0.657013 0.186432
0.000000 0.795654 0.228394
0.012543 0.815399 0.219971
0.046387 0.864349 0.191040
0.179382 0.853088 0.179382
0.423706 0.852539 0.178894
0.671692 0.852539 0.178894
0.852295 0.852295 0.178711
0.967438 0.830261 0.186340
0.000000 0.918182 0.228394
0.012543 0.938232 0.219055
0.061890 0.967407 0.200073
0.186951 0.967438 0.186951
0.420380 0.967438 0.186340
0.657013 0.967438 0.186340
0.830261 0.967438 0.186340
0.966614 0.966614 0.186951
0.000000 0.000000 0.435364
0.025879 0.000000 0.435364
0.100128 0.000000 0.435364
0.228394 0.000000 0.435364
0.435364 0.000000 0.435364
0.642670 0.000000 0.435333
0.795654 0.000000 0.435333
0.918182 0.000000 0.435333
0.000000 0.025879 0.435364
0.012909 0.012909 0.453186
0.089264 0.012543 0.453644
0.227386 0.012543 0.453644
0.453094 0.012543 0.453094
0.661743 0.012543 0.441376
0.815399 0.012543 0.437073
0.938232 0.012543 0.434967
0.000000 0.100128 0.435364
0.012543 0.089264 0.453644
0.072021 0.072021 0.468750
0.220367 0.071777 0.468567
0.467865 0.071198 0.467865
0.695251 0.057739 0.448303
0.857513 0.051697 0.436096
0.967377 0.061920 0.430145
0.000000 0.228394 0.435364
0.012543 0.227386 0.453644
0.071777 0.220367 0.468567
0.209503 0.209503 0.456909
0.455505 0.208282 0.455505
0.680450 0.194672 0.436493
0.843384 0.187012 0.425659
0.966858 0.186829 0.420563
0.000000 0.435364 0.435364
0.012543 0.453094 0.453094
0.071198 0.467865 0.467865
0.208282 0.455505 0.455505
0.435303 0.435455 0.435455
0.658752 0.420898 0.420898
0.822449 0.411255 0.411255
0.952728 0.404449 0.404449
0.000000 0.642670 0.435333
0.012543 0.661743 0.441376
0.055725 0.697784 0.448822
0.190643 0.685028 0.436493
0.416199 0.663757 0.416199
0.662598 0.662598 0.415070
0.827972 0.649353 0.404999
0.956940 0.640930 0.399567
0.000000 0.795654 0.435333
0.012543 0.815399 0.437073
0.046387 0.864349 0.436127
0.178894 0.852539 0.423706
0.403503 0.831116 0.403503
0.649811 0.830383 0.402832
0.830139 0.830139 0.402588
0.962250 0.820282 0.394714
0.000000 0.918182 0.435333
0.012543 0.938232 0.434967
0.061890 0.967407 0.430145
0.186340 0.967438 0.420380
0.395416 0.962860 0.395416
0.640625 0.962280 0.394684
0.820312 0.962280 0.394684
0.962128 0.962128 0.394653
0.000000 0.000000 0.642670
0.025879 0.000000 0.642670
0.100098 0.000000 0.642670
0.228394 0.000000 0.642670
0.435333 0.000000 0.642670
0.642670 0.000000 0.642670
0.795654 0.000000 0.642609
0.918182 0.000000 0.642670
0.000000 0.025879 0.642670
0.012878 0.012878 0.661255
0.087585 0.012543 0.661743
0.222046 0.012543 0.661743
0.441376 0.012543 0.661743
0.661469 0.012543 0.661469
0.815399 0.012543 0.655060
0.938232 0.012543 0.651367
0.000000 0.100098 0.642670
0.012543 0.087585 0.661743
0.055908 0.055908 0.697968
0.202087 0.055725 0.697784
0.448822 0.055725 0.697784
0.697266 0.055420 0.697266
0.864349 0.046387 0.683716
0.967407 0.061890 0.662262
0.000000 0.228394 0.642670
0.012543 0.222046 0.661743
0.055725 0.202087 0.697784
0.191101 0.191101 0.685547
0.436493 0.190643 0.685028
0.684540 0.190216 0.684540
0.852417 0.179016 0.671631
0.967316 0.186401 0.657013
0.000000 0.435333 0.642670
0.012543 0.441376 0.661743
0.055725 0.448822 0.697784
0.190643 0.436493 0.685028
0.416199 0.416199 0.663757
0.662598 0.415070 0.662598
0.828278 0.404816 0.649384
0.957031 0.399475 0.640930
0.000000 0.642670 0.642670
0.012543 0.661469 0.661469
0.055420 0.697266 0.697266
0.190216 0.684540 0.684540
0.415070 0.662598 0.662598
0.642731 0.642822 0.642822
0.806427 0.632874 0.632874
0.936279 0.625702 0.625702
0.000000 0.795654 0.642609
0.012543 0.815399 0.655060
0.046387 0.864349 0.683716
0.178894 0.852539 0.671692
0.402832 0.830383 0.649811
0.629883 0.809723 0.629883
0.808990 0.808990 0.629150
0.939941 0.799347 0.621765
0.000000 0.918182 0.642670
0.012543 0.938232 0.651367
0.061890 0.967407 0.662262
0.186340 0.967438 0.657013
0.394684 0.962280 0.640625
0.620422 0.942291 0.620422
0.799561 0.941833 0.619965
0.941742 0.941742 0.619873
0.000000 0.000000 0.795654
0.025879 0.000000 0.795654
0.100067 0.000000 0.795654
0.228394 0.000000 0.795654
0.435333 0.000000 0.795654
0.642609 0.000000 0.795654
0.795654 0.000000 0.795654
0.918182 0.000000 0.795746
0.000000 0.025879 0.795654
0.012878 0.012878 0.814911
0.087036 0.012543 0.815399
0.219971 0.012543 0.815399
0.437073 0.012543 0.815399
0.655060 0.012543 0.815399
0.815277 0.012543 0.815277
0.938232 0.012543 0.810913
0.000000 0.100067 0.795654
0.012543 0.087036 0.815399
0.046814 0.046814 0.864197
0.191040 0.046387 0.864349
0.436127 0.046387 0.864349
0.683716 0.046387 0.864349
0.864075 0.046234 0.864075
0.967407 0.061890 0.832428
0.000000 0.228394 0.795654
0.012543 0.219971 0.815399
0.046387 0.191040 0.864349
0.179382 0.179382 0.853088
0.423706 0.178894 0.852539
0.671692 0.178894 0.852539
0.852295 0.178711 0.852295
0.967438 0.186340 0.830261
0.000000 0.435333 0.795654
0.012543 0.437073 0.815399
0.046387 0.436127 0.864349
0.178894 0.423706 0.852539
0.403503 0.403503 0.831116
0.649811 0.402832 0.830383
0.830139 0.402588 0.830139
0.962280 0.394684 0.820312
0.000000 0.642609 0.795654
0.012543 0.655060 0.815399
0.046387 0.683716 0.864349
0.178894 0.671692 0.852539
0.402832 0.649811 0.830383
0.629883 0.629883 0.809723
0.808990 0.629150 0.808990
0.940277 0.621429 0.799377
0.000000 0.795654 0.795654
0.012543 0.815277 0.815277
0.046234 0.864075 0.864075
0.178711 0.852295 0.852295
0.402588 0.830139 0.830139
0.629150 0.808990 0.808990
0.795776 0.795807 0.795807
0.925873 0.788757 0.788757
0.000000 0.918182 0.795746
0.012543 0.938232 0.810913
0.061890 0.967407 0.832428
0.186340 0.967438 0.830261
0.394684 0.962280 0.820312
0.619965 0.941833 0.799561
0.786255 0.928253 0.786255
0.927887 0.927887 0.785919
0.000000 0.000000 0.918182
0.025879 0.000000 0.918182
0.100067 0.000000 0.918182
0.228394 0.000000 0.918182
0.435333 0.000000 0.918182
0.642670 0.000000 0.918182
0.795746 0.000000 0.918182
0.918182 0.000000 0.918182
0.000000 0.025879 0.918182
0.012878 0.012878 0.937439
0.086792 0.012543 0.938232
0.219055 0.012543 0.938232
0.434967 0.012543 0.938232
0.651367 0.012543 0.938232
0.810913 0.012543 0.938232
0.938171 0.012543 0.938171
0.000000 0.100067 0.918182
0.012543 0.086792 0.938232
0.062134 0.062134 0.967377
0.200073 0.061890 0.967407
0.430145 0.061890 0.967407
0.662262 0.061890 0.967407
0.832428 0.061890 0.967407
0.966644 0.062408 0.966644
0.000000 0.228394 0.918182
0.012543 0.219055 0.938232
0.061890 0.200073 0.967407
0.186951 0.186951 0.967438
0.420380 0.186340 0.967438
0.657013 0.186340 0.967438
0.830261 0.186340 0.967438
0.966614 0.186951 0.966614
0.000000 0.435333 0.918182
0.012543 0.434967 0.938232
0.061890 0.430145 0.967407
0.186340 0.420380 0.967438
0.395416 0.395416 0.962860
0.640625 0.394684 0.962280
0.820312 0.394684 0.962280
0.962128 0.394653 0.962128
0.000000 0.642670 0.918182
0.012543 0.651367 0.938232
0.061890 0.662262 0.967407
0.186340 0.657013 0.967438
0.394684 0.640625 0.962280
0.620422 0.620422 0.942291
0.799561 0.619965 0.941833
0.941742 0.619873 0.941742
0.000000 0.795746 0.918182
0.012543 0.810913 0.938232
0.061890 0.832428 0.967407
0.186340 0.830261 0.967438
0.394684 0.820312 0.962280
0.619965 0.799561 0.941833
0.786255 0.786255 0.928253
0.927887 0.785919 0.927887
0.000000 0.918182 0.918182
0.012543 0.938171 0.938171
0.062408 0.966644 0.966644
0.186951 0.966614 0.966614
0.394653 0.962128 0.962128
0.619873 0.941742 0.941742
0.785919 0.927887 0.927887
0.918243 0.918243 0.918243
