Postproduction/IWLTBAP - Humble/LUTs by IWLTBAP (CUBE)/UTILITY/GoPro Protune to Video/U-GOPRO-PROTUNE-LTR.cube
# Copyright: (C) Copyright 2010-2018 by IWLTBAP SAS
# Cannot be resold, shared or otherwise redistributed
# Website: https://luts.iwltbap.com
TITLE "GoPro Protune (Utility LOG to Rec.709)"
LUT_3D_SIZE 5
DOMAIN_MIN 0.000000 0.000000 0.000000
DOMAIN_MAX 0.903226 0.903226 0.903226
0.000000 0.000000 0.000000
0.077881 0.000000 0.000000
0.325500 0.000000 0.000000
0.685425 0.000000 0.000000
0.918182 0.000000 0.000000
0.000000 0.077881 0.000000
0.077881 0.077881 0.000000
0.325500 0.077881 0.000000
0.685425 0.077850 0.000000
0.918182 0.077850 0.000000
0.000000 0.325500 0.000000
0.077881 0.325500 0.000000
0.325500 0.325500 0.000000
0.685425 0.325470 0.000000
0.918182 0.325500 0.000000
0.000000 0.685425 0.000000
0.077850 0.685425 0.000000
0.325470 0.685425 0.000000
0.685425 0.685425 0.000000
0.918182 0.685455 0.000000
0.000000 0.918182 0.000000
0.077850 0.918182 0.000000
0.325500 0.918182 0.000000
0.685455 0.918182 0.000000
0.918182 0.918182 0.000000
0.000000 0.000000 0.077881
0.077881 0.000000 0.077881
0.325500 0.000000 0.077881
0.685425 0.000000 0.077850
0.918182 0.000000 0.077850
0.000000 0.077881 0.077881
0.077789 0.077850 0.077850
0.343597 0.062805 0.062805
0.731476 0.042114 0.042114
0.966217 0.041809 0.041809
0.000000 0.325500 0.077881
0.057922 0.349213 0.057922
0.348419 0.348419 0.057281
0.736176 0.317261 0.038422
0.966400 0.309570 0.041565
0.000000 0.685425 0.077850
0.036224 0.739380 0.036224
0.316559 0.740021 0.035553
0.739349 0.739349 0.035553
0.966400 0.710205 0.041565
0.000000 0.918182 0.077850
0.041809 0.966217 0.041809
0.309570 0.966400 0.041565
0.710205 0.966400 0.041565
0.965942 0.965942 0.041779
0.000000 0.000000 0.325500
0.077881 0.000000 0.325500
0.325500 0.000000 0.325500
0.685425 0.000000 0.325470
0.918182 0.000000 0.325500
0.000000 0.077881 0.325500
0.057922 0.057922 0.349213
0.348419 0.057281 0.348419
0.736328 0.038300 0.317200
0.966400 0.041565 0.309570
0.000000 0.325500 0.325500
0.057281 0.348419 0.348419
0.325348 0.325531 0.325531
0.713379 0.300629 0.300629
0.961243 0.287933 0.287933
0.000000 0.685425 0.325470
0.035553 0.740021 0.316559
0.292664 0.722382 0.292664
0.721313 0.721313 0.291687
0.966827 0.700134 0.282318
0.000000 0.918182 0.325500
0.041565 0.966400 0.309570
0.283112 0.967041 0.283112
0.700165 0.967010 0.282166
0.966522 0.966522 0.282501
0.000000 0.000000 0.685425
0.077850 0.000000 0.685425
0.325470 0.000000 0.685425
0.685425 0.000000 0.685425
0.918182 0.000000 0.685455
0.000000 0.077850 0.685425
0.036224 0.036224 0.739380
0.316559 0.035553 0.740021
0.739349 0.035553 0.739349
0.966400 0.041565 0.710205
0.000000 0.325470 0.685425
0.035553 0.316559 0.740021
0.292664 0.292664 0.722382
0.721313 0.291687 0.721313
0.966827 0.282318 0.700134
0.000000 0.685425 0.685425
0.035553 0.739349 0.739349
0.291687 0.721313 0.721313
0.685516 0.685577 0.685577
0.933228 0.671448 0.671448
0.000000 0.918182 0.685455
0.041565 0.966400 0.710205
0.282166 0.967010 0.700165
0.667053 0.938232 0.667053
0.937469 0.937469 0.666565
0.000000 0.000000 0.918182
0.077850 0.000000 0.918182
0.325500 0.000000 0.918182
0.685455 0.000000 0.918182
0.918182 0.000000 0.918182
0.000000 0.077850 0.918182
0.041809 0.041809 0.966217
0.309570 0.041565 0.966400
0.710205 0.041565 0.966400
0.965942 0.041779 0.965942
0.000000 0.325500 0.918182
0.041565 0.309570 0.966400
0.283112 0.283112 0.967041
0.700165 0.282166 0.967010
0.966522 0.282501 0.966522
0.000000 0.685455 0.918182
0.041565 0.710205 0.966400
0.282166 0.700165 0.967010
0.667053 0.667053 0.938232
0.937469 0.666565 0.937469
0.000000 0.918182 0.918182
0.041779 0.965942 0.965942
0.282501 0.966522 0.966522
0.666565 0.937469 0.937469
0.918243 0.918243 0.918243
