Postproduction/IWLTBAP - Humble/LUTs by IWLTBAP (3DL)/UTILITY/Divers/Green turned orange back to green.3dl
# Copyright: (C) Copyright 2016 by IWLTBAP
# Cannot be resold, shared or otherwise redistributed
# Website: https://luts.iwltbap.com
0 256 512 768 1023
0 0 0
0 0 1024
0 0 2048
0 0 3071
0 0 4095
0 1024 0
0 1024 1024
0 1024 2048
0 1024 3071
0 1024 4095
0 2048 0
0 2048 1024
0 2048 2048
0 2048 3071
0 2048 4095
0 3071 0
0 3071 1024
0 3071 2048
0 3071 3071
0 3071 4095
0 4095 0
0 4095 1024
0 4095 2048
0 4095 3071
0 4095 4095
1024 0 0
1024 0 1024
1024 0 2048
1024 0 3071
1024 0 4095
768 1406 0
1024 1024 1024
1024 1024 2048
1024 1024 3071
1024 1024 4095
768 2302 0
1024 2048 1024
1024 2048 2048
1024 2048 3071
1024 2048 4095
768 3199 0
1024 3071 1024
1024 3071 2048
1024 3071 3071
1024 3071 4095
768 4095 0
1024 4095 1024
1024 4095 2048
1024 4095 3071
1024 4095 4095
2048 0 0
2048 0 1024
2048 0 2048
2048 0 3071
2048 0 4095
1792 1406 0
2048 1024 1024
2048 1024 2048
2048 1024 3071
2048 1024 4095
1536 2557 0
1792 2302 1024
2048 2048 2048
2048 2048 3071
2048 2048 4095
1536 3326 0
1792 3199 1024
2048 3071 2048
2048 3071 3071
2048 3071 4095
1536 4095 0
1792 4095 1024
2048 4095 2048
2048 4095 3071
2048 4095 4095
3071 0 0
3071 0 1024
3071 0 2048
3071 0 3071
3071 0 4095
2943 1406 0
3071 1024 1024
3071 1024 2048
3071 1024 3071
3071 1024 4095
2815 2557 0
2943 2302 1024
3071 2048 2048
3071 2048 3071
3071 2048 4095
2687 3454 0
2815 3326 1024
2943 3199 2048
3071 3071 3071
3071 3071 4095
2687 4095 0
2815 4095 1024
2943 4095 2048
3071 4095 3071
3071 4095 4095
4095 0 0
4095 0 1024
4095 0 2048
4095 0 3071
4095 0 4095
4095 1406 0
4095 1024 1024
4095 1024 2048
4095 1024 3071
4095 1024 4095
4095 2557 0
4095 2302 1024
4095 2048 2048
4095 2048 3071
4095 2048 4095
4095 3454 0
4095 3326 1024
4095 3199 2048
4095 3071 3071
4095 3071 4095
4095 4095 0
4095 4095 1024
4095 4095 2048
4095 4095 3071
4095 4095 4095
