Postproduction/IWLTBAP - Humble/LUTs by IWLTBAP (3DL)/UTILITY/Divers/Green turned orange back to green.3dl
# Copyright: (C) Copyright 2016 by IWLTBAP
# Cannot be resold, shared or otherwise redistributed
# Website: https://luts.iwltbap.com
0 64 128 192 256 320 384 448 512 576 640 704 768 832 896 960 1023
0 0 0
0 0 256
0 0 512
0 0 768
0 0 1024
0 0 1280
0 0 1536
0 0 1792
0 0 2048
0 0 2303
0 0 2559
0 0 2815
0 0 3071
0 0 3327
0 0 3583
0 0 3839
0 0 4095
0 256 0
0 256 256
0 256 512
0 256 768
0 256 1024
0 256 1280
0 256 1536
0 256 1792
0 256 2048
0 256 2303
0 256 2559
0 256 2815
0 256 3071
0 256 3327
0 256 3583
0 256 3839
0 256 4095
0 512 0
0 512 256
0 512 512
0 512 768
0 512 1024
0 512 1280
0 512 1536
0 512 1792
0 512 2048
0 512 2303
0 512 2559
0 512 2815
0 512 3071
0 512 3327
0 512 3583
0 512 3839
0 512 4095
0 768 0
0 768 256
0 768 512
0 768 768
0 768 1024
0 768 1280
0 768 1536
0 768 1792
0 768 2048
0 768 2303
0 768 2559
0 768 2815
0 768 3071
0 768 3327
0 768 3583
0 768 3839
0 768 4095
0 1024 0
0 1024 256
0 1024 512
0 1024 768
0 1024 1024
0 1024 1280
0 1024 1536
0 1024 1792
0 1024 2048
0 1024 2303
0 1024 2559
0 1024 2815
0 1024 3071
0 1024 3327
0 1024 3583
0 1024 3839
0 1024 4095
0 1280 0
0 1280 256
0 1280 512
0 1280 768
0 1280 1024
0 1280 1280
0 1280 1536
0 1280 1792
0 1280 2048
0 1280 2303
0 1280 2559
0 1280 2815
0 1280 3071
0 1280 3327
0 1280 3583
0 1280 3839
0 1280 4095
0 1536 0
0 1536 256
0 1536 512
0 1536 768
0 1536 1024
0 1536 1280
0 1536 1536
0 1536 1792
0 1536 2048
0 1536 2303
0 1536 2559
0 1536 2815
0 1536 3071
0 1536 3327
0 1536 3583
0 1536 3839
0 1536 4095
0 1792 0
0 1792 256
0 1792 512
0 1792 768
0 1792 1024
0 1792 1280
0 1792 1536
0 1792 1792
0 1792 2048
0 1792 2303
0 1792 2559
0 1792 2815
0 1792 3071
0 1792 3327
0 1792 3583
0 1792 3839
0 1792 4095
0 2048 0
0 2048 256
0 2048 512
0 2048 768
0 2048 1024
0 2048 1280
0 2048 1536
0 2048 1792
0 2048 2048
0 2048 2303
0 2048 2559
0 2048 2815
0 2048 3071
0 2048 3327
0 2048 3583
0 2048 3839
0 2048 4095
0 2303 0
0 2303 256
0 2303 512
0 2303 768
0 2303 1024
0 2303 1280
0 2303 1536
0 2303 1792
0 2303 2048
0 2303 2303
0 2303 2559
0 2303 2815
0 2303 3071
0 2303 3327
0 2303 3583
0 2303 3839
0 2303 4095
0 2559 0
0 2559 256
0 2559 512
0 2559 768
0 2559 1024
0 2559 1280
0 2559 1536
0 2559 1792
0 2559 2048
0 2559 2303
0 2559 2559
0 2559 2815
0 2559 3071
0 2559 3327
0 2559 3583
0 2559 3839
0 2559 4095
0 2815 0
0 2815 256
0 2815 512
0 2815 768
0 2815 1024
0 2815 1280
0 2815 1536
0 2815 1792
0 2815 2048
0 2815 2303
0 2815 2559
0 2815 2815
0 2815 3071
0 2815 3327
0 2815 3583
0 2815 3839
0 2815 4095
0 3071 0
0 3071 256
0 3071 512
0 3071 768
0 3071 1024
0 3071 1280
0 3071 1536
0 3071 1792
0 3071 2048
0 3071 2303
0 3071 2559
0 3071 2815
0 3071 3071
0 3071 3327
0 3071 3583
0 3071 3839
0 3071 4095
0 3327 0
0 3327 256
0 3327 512
0 3327 768
0 3327 1024
0 3327 1280
0 3327 1536
0 3327 1792
0 3327 2048
0 3327 2303
0 3327 2559
0 3327 2815
0 3327 3071
0 3327 3327
0 3327 3583
0 3327 3839
0 3327 4095
0 3583 0
0 3583 256
0 3583 512
0 3583 768
0 3583 1024
0 3583 1280
0 3583 1536
0 3583 1792
0 3583 2048
0 3583 2303
0 3583 2559
0 3583 2815
0 3583 3071
0 3583 3327
0 3583 3583
0 3583 3839
0 3583 4095
0 3839 0
0 3839 256
0 3839 512
0 3839 768
0 3839 1024
0 3839 1280
0 3839 1536
0 3839 1792
0 3839 2048
0 3839 2303
0 3839 2559
0 3839 2815
0 3839 3071
0 3839 3327
0 3839 3583
0 3839 3839
0 3839 4095
0 4095 0
0 4095 256
0 4095 512
0 4095 768
0 4095 1024
0 4095 1280
0 4095 1536
0 4095 1792
0 4095 2048
0 4095 2303
0 4095 2559
0 4095 2815
0 4095 3071
0 4095 3327
0 4095 3583
0 4095 3839
0 4095 4095
256 0 0
256 0 256
256 0 512
256 0 768
256 0 1024
256 0 1280
256 0 1536
256 0 1792
256 0 2048
256 0 2303
256 0 2559
256 0 2815
256 0 3071
256 0 3327
256 0 3583
256 0 3839
256 0 4095
240 375 0
256 256 256
256 256 512
256 256 768
256 256 1024
256 256 1280
256 256 1536
256 256 1792
256 256 2048
256 256 2303
256 256 2559
256 256 2815
256 256 3071
256 256 3327
256 256 3583
256 256 3839
256 256 4095
240 623 0
256 512 256
256 512 512
256 512 768
256 512 1024
256 512 1280
256 512 1536
256 512 1792
256 512 2048
256 512 2303
256 512 2559
256 512 2815
256 512 3071
256 512 3327
256 512 3583
256 512 3839
256 512 4095
240 871 0
256 768 256
256 768 512
256 768 768
256 768 1024
256 768 1280
256 768 1536
256 768 1792
256 768 2048
256 768 2303
256 768 2559
256 768 2815
256 768 3071
256 768 3327
256 768 3583
256 768 3839
256 768 4095
240 1119 0
256 1024 256
256 1024 512
256 1024 768
256 1024 1024
256 1024 1280
256 1024 1536
256 1024 1792
256 1024 2048
256 1024 2303
256 1024 2559
256 1024 2815
256 1024 3071
256 1024 3327
256 1024 3583
256 1024 3839
256 1024 4095
240 1367 0
256 1280 256
256 1280 512
256 1280 768
256 1280 1024
256 1280 1280
256 1280 1536
256 1280 1792
256 1280 2048
256 1280 2303
256 1280 2559
256 1280 2815
256 1280 3071
256 1280 3327
256 1280 3583
256 1280 3839
256 1280 4095
240 1615 0
256 1536 256
256 1536 512
256 1536 768
256 1536 1024
256 1536 1280
256 1536 1536
256 1536 1792
256 1536 2048
256 1536 2303
256 1536 2559
256 1536 2815
256 1536 3071
256 1536 3327
256 1536 3583
256 1536 3839
256 1536 4095
240 1863 0
256 1792 256
256 1792 512
256 1792 768
256 1792 1024
256 1792 1280
256 1792 1536
256 1792 1792
256 1792 2048
256 1792 2303
256 1792 2559
256 1792 2815
256 1792 3071
256 1792 3327
256 1792 3583
256 1792 3839
256 1792 4095
240 2111 0
256 2048 256
256 2048 512
256 2048 768
256 2048 1024
256 2048 1280
256 2048 1536
256 2048 1792
256 2048 2048
256 2048 2303
256 2048 2559
256 2048 2815
256 2048 3071
256 2048 3327
256 2048 3583
256 2048 3839
256 2048 4095
240 2359 0
256 2303 256
256 2303 512
256 2303 768
256 2303 1024
256 2303 1280
256 2303 1536
256 2303 1792
256 2303 2048
256 2303 2303
256 2303 2559
256 2303 2815
256 2303 3071
256 2303 3327
256 2303 3583
256 2303 3839
256 2303 4095
240 2607 0
256 2559 256
256 2559 512
256 2559 768
256 2559 1024
256 2559 1280
256 2559 1536
256 2559 1792
256 2559 2048
256 2559 2303
256 2559 2559
256 2559 2815
256 2559 3071
256 2559 3327
256 2559 3583
256 2559 3839
256 2559 4095
240 2855 0
256 2815 256
256 2815 512
256 2815 768
256 2815 1024
256 2815 1280
256 2815 1536
256 2815 1792
256 2815 2048
256 2815 2303
256 2815 2559
256 2815 2815
256 2815 3071
256 2815 3327
256 2815 3583
256 2815 3839
256 2815 4095
240 3103 0
256 3071 256
256 3071 512
256 3071 768
256 3071 1024
256 3071 1280
256 3071 1536
256 3071 1792
256 3071 2048
256 3071 2303
256 3071 2559
256 3071 2815
256 3071 3071
256 3071 3327
256 3071 3583
256 3071 3839
256 3071 4095
240 3351 0
256 3327 256
256 3327 512
256 3327 768
256 3327 1024
256 3327 1280
256 3327 1536
256 3327 1792
256 3327 2048
256 3327 2303
256 3327 2559
256 3327 2815
256 3327 3071
256 3327 3327
256 3327 3583
256 3327 3839
256 3327 4095
240 3599 0
256 3583 256
256 3583 512
256 3583 768
256 3583 1024
256 3583 1280
256 3583 1536
256 3583 1792
256 3583 2048
256 3583 2303
256 3583 2559
256 3583 2815
256 3583 3071
256 3583 3327
256 3583 3583
256 3583 3839
256 3583 4095
240 3847 0
256 3839 256
256 3839 512
256 3839 768
256 3839 1024
256 3839 1280
256 3839 1536
256 3839 1792
256 3839 2048
256 3839 2303
256 3839 2559
256 3839 2815
256 3839 3071
256 3839 3327
256 3839 3583
256 3839 3839
256 3839 4095
240 4095 0
256 4095 256
256 4095 512
256 4095 768
256 4095 1024
256 4095 1280
256 4095 1536
256 4095 1792
256 4095 2048
256 4095 2303
256 4095 2559
256 4095 2815
256 4095 3071
256 4095 3327
256 4095 3583
256 4095 3839
256 4095 4095
512 0 0
512 0 256
512 0 512
512 0 768
512 0 1024
512 0 1280
512 0 1536
512 0 1792
512 0 2048
512 0 2303
512 0 2559
512 0 2815
512 0 3071
512 0 3327
512 0 3583
512 0 3839
512 0 4095
480 375 0
512 256 256
512 256 512
512 256 768
512 256 1024
512 256 1280
512 256 1536
512 256 1792
512 256 2048
512 256 2303
512 256 2559
512 256 2815
512 256 3071
512 256 3327
512 256 3583
512 256 3839
512 256 4095
448 735 0
480 623 256
512 512 512
512 512 768
512 512 1024
512 512 1280
512 512 1536
512 512 1792
512 512 2048
512 512 2303
512 512 2559
512 512 2815
512 512 3071
512 512 3327
512 512 3583
512 512 3839
512 512 4095
448 975 0
480 871 256
512 768 512
512 768 768
512 768 1024
512 768 1280
512 768 1536
512 768 1792
512 768 2048
512 768 2303
512 768 2559
512 768 2815
512 768 3071
512 768 3327
512 768 3583
512 768 3839
512 768 4095
448 1215 0
480 1119 256
512 1024 512
512 1024 768
512 1024 1024
512 1024 1280
512 1024 1536
512 1024 1792
512 1024 2048
512 1024 2303
512 1024 2559
512 1024 2815
512 1024 3071
512 1024 3327
512 1024 3583
512 1024 3839
512 1024 4095
448 1455 0
480 1367 256
512 1280 512
512 1280 768
512 1280 1024
512 1280 1280
512 1280 1536
512 1280 1792
512 1280 2048
512 1280 2303
512 1280 2559
512 1280 2815
512 1280 3071
512 1280 3327
512 1280 3583
512 1280 3839
512 1280 4095
448 1695 0
480 1615 256
512 1536 512
512 1536 768
512 1536 1024
512 1536 1280
512 1536 1536
512 1536 1792
512 1536 2048
512 1536 2303
512 1536 2559
512 1536 2815
512 1536 3071
512 1536 3327
512 1536 3583
512 1536 3839
512 1536 4095
448 1935 0
480 1863 256
512 1792 512
512 1792 768
512 1792 1024
512 1792 1280
512 1792 1536
512 1792 1792
512 1792 2048
512 1792 2303
512 1792 2559
512 1792 2815
512 1792 3071
512 1792 3327
512 1792 3583
512 1792 3839
512 1792 4095
448 2175 0
480 2111 256
512 2048 512
512 2048 768
512 2048 1024
512 2048 1280
512 2048 1536
512 2048 1792
512 2048 2048
512 2048 2303
512 2048 2559
512 2048 2815
512 2048 3071
512 2048 3327
512 2048 3583
512 2048 3839
512 2048 4095
448 2415 0
480 2359 256
512 2303 512
512 2303 768
512 2303 1024
512 2303 1280
512 2303 1536
512 2303 1792
512 2303 2048
512 2303 2303
512 2303 2559
512 2303 2815
512 2303 3071
512 2303 3327
512 2303 3583
512 2303 3839
512 2303 4095
448 2655 0
480 2607 256
512 2559 512
512 2559 768
512 2559 1024
512 2559 1280
512 2559 1536
512 2559 1792
512 2559 2048
512 2559 2303
512 2559 2559
512 2559 2815
512 2559 3071
512 2559 3327
512 2559 3583
512 2559 3839
512 2559 4095
448 2895 0
480 2855 256
512 2815 512
512 2815 768
512 2815 1024
512 2815 1280
512 2815 1536
512 2815 1792
512 2815 2048
512 2815 2303
512 2815 2559
512 2815 2815
512 2815 3071
512 2815 3327
512 2815 3583
512 2815 3839
512 2815 4095
448 3135 0
480 3103 256
512 3071 512
512 3071 768
512 3071 1024
512 3071 1280
512 3071 1536
512 3071 1792
512 3071 2048
512 3071 2303
512 3071 2559
512 3071 2815
512 3071 3071
512 3071 3327
512 3071 3583
512 3071 3839
512 3071 4095
448 3375 0
480 3351 256
512 3327 512
512 3327 768
512 3327 1024
512 3327 1280
512 3327 1536
512 3327 1792
512 3327 2048
512 3327 2303
512 3327 2559
512 3327 2815
512 3327 3071
512 3327 3327
512 3327 3583
512 3327 3839
512 3327 4095
448 3615 0
480 3599 256
512 3583 512
512 3583 768
512 3583 1024
512 3583 1280
512 3583 1536
512 3583 1792
512 3583 2048
512 3583 2303
512 3583 2559
512 3583 2815
512 3583 3071
512 3583 3327
512 3583 3583
512 3583 3839
512 3583 4095
448 3855 0
480 3847 256
512 3839 512
512 3839 768
512 3839 1024
512 3839 1280
512 3839 1536
512 3839 1792
512 3839 2048
512 3839 2303
512 3839 2559
512 3839 2815
512 3839 3071
512 3839 3327
512 3839 3583
512 3839 3839
512 3839 4095
448 4095 0
480 4095 256
512 4095 512
512 4095 768
512 4095 1024
512 4095 1280
512 4095 1536
512 4095 1792
512 4095 2048
512 4095 2303
512 4095 2559
512 4095 2815
512 4095 3071
512 4095 3327
512 4095 3583
512 4095 3839
512 4095 4095
768 0 0
768 0 256
768 0 512
768 0 768
768 0 1024
768 0 1280
768 0 1536
768 0 1792
768 0 2048
768 0 2303
768 0 2559
768 0 2815
768 0 3071
768 0 3327
768 0 3583
768 0 3839
768 0 4095
720 375 0
768 256 256
768 256 512
768 256 768
768 256 1024
768 256 1280
768 256 1536
768 256 1792
768 256 2048
768 256 2303
768 256 2559
768 256 2815
768 256 3071
768 256 3327
768 256 3583
768 256 3839
