Postproduction/IWLTBAP - Humble/LUTs by IWLTBAP (3DL)/UTILITY/Divers/Green turned orange back to green.3dl
# Copyright: (C) Copyright 2016 by IWLTBAP
# Cannot be resold, shared or otherwise redistributed
# Website: https://luts.iwltbap.com
0 128 256 384 512 640 768 896 1023
0 0 0
0 0 512
0 0 1024
0 0 1536
0 0 2048
0 0 2559
0 0 3071
0 0 3583
0 0 4095
0 512 0
0 512 512
0 512 1024
0 512 1536
0 512 2048
0 512 2559
0 512 3071
0 512 3583
0 512 4095
0 1024 0
0 1024 512
0 1024 1024
0 1024 1536
0 1024 2048
0 1024 2559
0 1024 3071
0 1024 3583
0 1024 4095
0 1536 0
0 1536 512
0 1536 1024
0 1536 1536
0 1536 2048
0 1536 2559
0 1536 3071
0 1536 3583
0 1536 4095
0 2048 0
0 2048 512
0 2048 1024
0 2048 1536
0 2048 2048
0 2048 2559
0 2048 3071
0 2048 3583
0 2048 4095
0 2559 0
0 2559 512
0 2559 1024
0 2559 1536
0 2559 2048
0 2559 2559
0 2559 3071
0 2559 3583
0 2559 4095
0 3071 0
0 3071 512
0 3071 1024
0 3071 1536
0 3071 2048
0 3071 2559
0 3071 3071
0 3071 3583
0 3071 4095
0 3583 0
0 3583 512
0 3583 1024
0 3583 1536
0 3583 2048
0 3583 2559
0 3583 3071
0 3583 3583
0 3583 4095
0 4095 0
0 4095 512
0 4095 1024
0 4095 1536
0 4095 2048
0 4095 2559
0 4095 3071
0 4095 3583
0 4095 4095
512 0 0
512 0 512
512 0 1024
512 0 1536
512 0 2048
512 0 2559
512 0 3071
512 0 3583
512 0 4095
448 735 0
512 512 512
512 512 1024
512 512 1536
512 512 2048
512 512 2559
512 512 3071
512 512 3583
512 512 4095
448 1215 0
512 1024 512
512 1024 1024
512 1024 1536
512 1024 2048
512 1024 2559
512 1024 3071
512 1024 3583
512 1024 4095
448 1695 0
512 1536 512
512 1536 1024
512 1536 1536
512 1536 2048
512 1536 2559
512 1536 3071
512 1536 3583
512 1536 4095
448 2175 0
512 2048 512
512 2048 1024
512 2048 1536
512 2048 2048
512 2048 2559
512 2048 3071
512 2048 3583
512 2048 4095
448 2655 0
512 2559 512
512 2559 1024
512 2559 1536
512 2559 2048
512 2559 2559
512 2559 3071
512 2559 3583
512 2559 4095
448 3135 0
512 3071 512
512 3071 1024
512 3071 1536
512 3071 2048
512 3071 2559
512 3071 3071
512 3071 3583
512 3071 4095
448 3615 0
512 3583 512
512 3583 1024
512 3583 1536
512 3583 2048
512 3583 2559
512 3583 3071
512 3583 3583
512 3583 4095
448 4095 0
512 4095 512
512 4095 1024
512 4095 1536
512 4095 2048
512 4095 2559
512 4095 3071
512 4095 3583
512 4095 4095
1024 0 0
1024 0 512
1024 0 1024
1024 0 1536
1024 0 2048
1024 0 2559
1024 0 3071
1024 0 3583
1024 0 4095
896 735 0
1024 512 512
1024 512 1024
1024 512 1536
1024 512 2048
1024 512 2559
1024 512 3071
1024 512 3583
1024 512 4095
768 1406 0
896 1215 512
1024 1024 1024
1024 1024 1536
1024 1024 2048
1024 1024 2559
1024 1024 3071
1024 1024 3583
1024 1024 4095
768 1854 0
896 1695 512
1024 1536 1024
1024 1536 1536
1024 1536 2048
1024 1536 2559
1024 1536 3071
1024 1536 3583
1024 1536 4095
768 2302 0
896 2175 512
1024 2048 1024
1024 2048 1536
1024 2048 2048
1024 2048 2559
1024 2048 3071
1024 2048 3583
1024 2048 4095
768 2751 0
896 2655 512
1024 2559 1024
1024 2559 1536
1024 2559 2048
1024 2559 2559
1024 2559 3071
1024 2559 3583
1024 2559 4095
768 3199 0
896 3135 512
1024 3071 1024
1024 3071 1536
1024 3071 2048
1024 3071 2559
1024 3071 3071
1024 3071 3583
1024 3071 4095
768 3647 0
896 3615 512
1024 3583 1024
1024 3583 1536
1024 3583 2048
1024 3583 2559
1024 3583 3071
1024 3583 3583
1024 3583 4095
768 4095 0
896 4095 512
1024 4095 1024
1024 4095 1536
1024 4095 2048
1024 4095 2559
1024 4095 3071
1024 4095 3583
1024 4095 4095
1536 0 0
1536 0 512
1536 0 1024
1536 0 1536
1536 0 2048
1536 0 2559
1536 0 3071
1536 0 3583
1536 0 4095
1376 735 0
1536 512 512
1536 512 1024
1536 512 1536
1536 512 2048
1536 512 2559
1536 512 3071
1536 512 3583
1536 512 4095
1216 1406 0
1376 1215 512
1536 1024 1024
1536 1024 1536
1536 1024 2048
1536 1024 2559
1536 1024 3071
1536 1024 3583
1536 1024 4095
1056 2014 0
1216 1854 512
1376 1695 1024
1536 1536 1536
1536 1536 2048
1536 1536 2559
1536 1536 3071
1536 1536 3583
1536 1536 4095
1056 2430 0
1216 2302 512
1376 2175 1024
1536 2048 1536
1536 2048 2048
1536 2048 2559
1536 2048 3071
1536 2048 3583
1536 2048 4095
1056 2846 0
1216 2751 512
1376 2655 1024
1536 2559 1536
1536 2559 2048
1536 2559 2559
1536 2559 3071
1536 2559 3583
1536 2559 4095
1056 3262 0
1216 3199 512
1376 3135 1024
1536 3071 1536
1536 3071 2048
1536 3071 2559
1536 3071 3071
1536 3071 3583
1536 3071 4095
1056 3679 0
1216 3647 512
1376 3615 1024
1536 3583 1536
1536 3583 2048
1536 3583 2559
1536 3583 3071
1536 3583 3583
1536 3583 4095
1056 4095 0
1216 4095 512
1376 4095 1024
1536 4095 1536
1536 4095 2048
1536 4095 2559
1536 4095 3071
1536 4095 3583
1536 4095 4095
2048 0 0
2048 0 512
2048 0 1024
2048 0 1536
2048 0 2048
2048 0 2559
2048 0 3071
2048 0 3583
2048 0 4095
1920 735 0
2048 512 512
2048 512 1024
2048 512 1536
2048 512 2048
2048 512 2559
2048 512 3071
2048 512 3583
2048 512 4095
1792 1406 0
1920 1215 512
2048 1024 1024
2048 1024 1536
2048 1024 2048
2048 1024 2559
2048 1024 3071
2048 1024 3583
2048 1024 4095
1664 2014 0
1792 1854 512
1920 1695 1024
2048 1536 1536
2048 1536 2048
2048 1536 2559
2048 1536 3071
2048 1536 3583
2048 1536 4095
1536 2557 0
1664 2430 512
1792 2302 1024
1920 2175 1536
2048 2048 2048
2048 2048 2559
2048 2048 3071
2048 2048 3583
2048 2048 4095
1536 2942 0
1664 2846 512
1792 2751 1024
1920 2655 1536
2048 2559 2048
2048 2559 2559
2048 2559 3071
2048 2559 3583
2048 2559 4095
1536 3326 0
1664 3262 512
1792 3199 1024
1920 3135 1536
2048 3071 2048
2048 3071 2559
2048 3071 3071
2048 3071 3583
2048 3071 4095
1536 3711 0
1664 3679 512
1792 3647 1024
1920 3615 1536
2048 3583 2048
2048 3583 2559
2048 3583 3071
2048 3583 3583
2048 3583 4095
1536 4095 0
1664 4095 512
1792 4095 1024
1920 4095 1536
2048 4095 2048
2048 4095 2559
2048 4095 3071
2048 4095 3583
2048 4095 4095
2559 0 0
2559 0 512
2559 0 1024
2559 0 1536
2559 0 2048
2559 0 2559
2559 0 3071
2559 0 3583
2559 0 4095
2463 735 0
2559 512 512
2559 512 1024
2559 512 1536
2559 512 2048
2559 512 2559
2559 512 3071
2559 512 3583
2559 512 4095
2368 1406 0
2463 1215 512
2559 1024 1024
2559 1024 1536
2559 1024 2048
2559 1024 2559
2559 1024 3071
2559 1024 3583
2559 1024 4095
2272 2014 0
2368 1854 512
2463 1695 1024
2559 1536 1536
2559 1536 2048
2559 1536 2559
2559 1536 3071
2559 1536 3583
2559 1536 4095
2176 2557 0
2272 2430 512
2368 2302 1024
2463 2175 1536
2559 2048 2048
2559 2048 2559
2559 2048 3071
2559 2048 3583
2559 2048 4095
2080 3037 0
2176 2942 512
2272 2846 1024
2368 2751 1536
2463 2655 2048
2559 2559 2559
2559 2559 3071
2559 2559 3583
2559 2559 4095
2080 3390 0
2176 3326 512
2272 3262 1024
2368 3199 1536
2463 3135 2048
2559 3071 2559
2559 3071 3071
2559 3071 3583
2559 3071 4095
2080 3742 0
2176 3711 512
2272 3679 1024
2368 3647 1536
2463 3615 2048
2559 3583 2559
2559 3583 3071
2559 3583 3583
2559 3583 4095
2080 4095 0
2176 4095 512
2272 4095 1024
2368 4095 1536
2463 4095 2048
2559 4095 2559
2559 4095 3071
2559 4095 3583
2559 4095 4095
3071 0 0
3071 0 512
3071 0 1024
3071 0 1536
3071 0 2048
3071 0 2559
3071 0 3071
3071 0 3583
3071 0 4095
3007 735 0
3071 512 512
3071 512 1024
3071 512 1536
3071 512 2048
3071 512 2559
3071 512 3071
3071 512 3583
3071 512 4095
2943 1406 0
3007 1215 512
3071 1024 1024
3071 1024 1536
3071 1024 2048
3071 1024 2559
3071 1024 3071
3071 1024 3583
3071 1024 4095
2879 2014 0
2943 1854 512
3007 1695 1024
3071 1536 1536
3071 1536 2048
3071 1536 2559
3071 1536 3071
3071 1536 3583
3071 1536 4095
2815 2557 0
2879 2430 512
2943 2302 1024
3007 2175 1536
3071 2048 2048
3071 2048 2559
3071 2048 3071
3071 2048 3583
3071 2048 4095
2751 3037 0
2815 2942 512
2879 2846 1024
2943 2751 1536
3007 2655 2048
3071 2559 2559
3071 2559 3071
3071 2559 3583
3071 2559 4095
2687 3454 0
2751 3390 512
2815 3326 1024
2879 3262 1536
2943 3199 2048
3007 3135 2559
3071 3071 3071
3071 3071 3583
3071 3071 4095
2687 3774 0
2751 3742 512
2815 3711 1024
2879 3679 1536
2943 3647 2048
3007 3615 2559
3071 3583 3071
3071 3583 3583
3071 3583 4095
2687 4095 0
2751 4095 512
2815 4095 1024
2879 4095 1536
2943 4095 2048
3007 4095 2559
3071 4095 3071
3071 4095 3583
3071 4095 4095
3583 0 0
3583 0 512
3583 0 1024
3583 0 1536
3583 0 2048
3583 0 2559
3583 0 3071
3583 0 3583
3583 0 4095
3551 735 0
3583 512 512
3583 512 1024
3583 512 1536
3583 512 2048
3583 512 2559
3583 512 3071
3583 512 3583
3583 512 4095
3519 1406 0
3551 1215 512
3583 1024 1024
3583 1024 1536
3583 1024 2048
3583 1024 2559
3583 1024 3071
3583 1024 3583
3583 1024 4095
3487 2014 0
3519 1854 512
3551 1695 1024
3583 1536 1536
3583 1536 2048
3583 1536 2559
3583 1536 3071
3583 1536 3583
3583 1536 4095
3455 2557 0
3487 2430 512
3519 2302 1024
3551 2175 1536
3583 2048 2048
3583 2048 2559
3583 2048 3071
3583 2048 3583
3583 2048 4095
3423 3037 0
3455 2942 512
3487 2846 1024
3519 2751 1536
3551 2655 2048
3583 2559 2559
3583 2559 3071
3583 2559 3583
3583 2559 4095
3391 3454 0
3423 3390 512
3455 3326 1024
3487 3262 1536
3519 3199 2048
3551 3135 2559
3583 3071 3071
3583 3071 3583
3583 3071 4095
3359 3806 0
3391 3774 512
3423 3742 1024
3455 3711 1536
3487 3679 2048
3519 3647 2559
3551 3615 3071
3583 3583 3583
3583 3583 4095
3359 4095 0
3391 4095 512
3423 4095 1024
3455 4095 1536
3487 4095 2048
3519 4095 2559
3551 4095 3071
3583 4095 3583
3583 4095 4095
4095 0 0
4095 0 512
4095 0 1024
4095 0 1536
4095 0 2048
4095 0 2559
4095 0 3071
4095 0 3583
4095 0 4095
4095 735 0
4095 512 512
4095 512 1024
4095 512 1536
4095 512 2048
4095 512 2559
4095 512 3071
4095 512 3583
4095 512 4095
4095 1406 0
4095 1215 512
4095 1024 1024
4095 1024 1536
4095 1024 2048
4095 1024 2559
4095 1024 3071
4095 1024 3583
4095 1024 4095
4095 2014 0
4095 1854 512
4095 1695 1024
4095 1536 1536
4095 1536 2048
4095 1536 2559
4095 1536 3071
4095 1536 3583
4095 1536 4095
4095 2557 0
4095 2430 512
4095 2302 1024
4095 2175 1536
4095 2048 2048
4095 2048 2559
4095 2048 3071
4095 2048 3583
4095 2048 4095
4095 3037 0
4095 2942 512
4095 2846 1024
4095 2751 1536
4095 2655 2048
4095 2559 2559
4095 2559 3071
4095 2559 3583
4095 2559 4095
4095 3454 0
4095 3390 512
4095 3326 1024
4095 3262 1536
4095 3199 2048
4095 3135 2559
4095 3071 3071
4095 3071 3583
4095 3071 4095
4095 3806 0
4095 3774 512
4095 3742 1024
4095 3711 1536
4095 3679 2048
4095 3647 2559
4095 3615 3071
4095 3583 3583
4095 3583 4095
4095 4095 0
4095 4095 512
4095 4095 1024
4095 4095 1536
4095 4095 2048
4095 4095 2559
4095 4095 3071
4095 4095 3583
4095 4095 4095
