Postproduction/IWLTBAP - Humble/LUTs by IWLTBAP (CUBE)/UTILITY/Panasonic Cine-D to Rec.709/U-PANASONIC-CINE-D-V1-LTR.cube
# Copyright: (C) Copyright 2010-2018 by IWLTBAP SAS
# Cannot be resold, shared or otherwise redistributed
# Website: https://luts.iwltbap.com
TITLE "Panasonic Cine-D Version 1 (Utility LOG to Rec.709)"
LUT_3D_SIZE 8
DOMAIN_MIN 0.000000 0.000000 0.000000
DOMAIN_MAX 0.903226 0.903226 0.903226
0.000397 0.000397 0.000397
0.196625 0.000397 0.000397
0.453918 0.000488 0.000488
0.689392 0.000488 0.000488
0.893188 0.000488 0.000488
0.994385 0.000397 0.000397
0.994385 0.000397 0.000397
0.994385 0.000397 0.000397
0.000305 0.147858 0.000488
0.123535 0.116882 0.000488
0.379456 0.102112 0.000305
0.593140 0.091888 0.000305
0.786072 0.083038 0.000305
0.964966 0.075165 0.000244
0.990784 0.068665 0.000275
0.990906 0.062653 0.000275
0.000244 0.366760 0.000580
0.063171 0.327881 0.000488
0.318268 0.307922 0.000183
0.528748 0.294495 0.000183
0.719421 0.283600 0.000183
0.896698 0.273895 0.000183
0.989624 0.264893 0.000092
0.989624 0.257385 0.000092
0.000183 0.544098 0.000488
0.008636 0.503326 0.000519
0.268646 0.481445 0.000183
0.478729 0.466248 0.000183
0.668579 0.453796 0.000092
0.845337 0.443146 0.000092
0.989319 0.432648 0.000092
0.990204 0.423737 0.000092
0.000183 0.703888 0.000244
0.001678 0.662262 0.000275
0.222168 0.639191 0.000153
0.433594 0.623260 0.000092
0.623596 0.609833 0.000092
0.799774 0.598389 0.000092
0.966431 0.587219 0.000092
0.991547 0.577271 0.000000
0.000183 0.851776 0.000183
0.000183 0.809814 0.000275
0.175476 0.786194 0.000092
0.391083 0.769745 0.000092
0.581451 0.756012 0.000092
0.757812 0.743805 0.000092
0.924713 0.732544 0.000031
0.993195 0.721527 0.000000
0.000092 0.973846 0.000092
0.000092 0.948730 0.000092
0.132111 0.924255 0.000092
0.349121 0.908081 0.000092
0.540894 0.894257 0.000092
0.717804 0.881958 0.000031
0.885193 0.870575 0.000000
0.995056 0.859070 0.000000
0.000092 0.976196 0.000092
0.000092 0.976196 0.000092
0.090668 0.976013 0.000000
0.306519 0.978058 0.000000
0.499725 0.979980 0.000000
0.676971 0.981171 0.000000
0.844849 0.981445 0.000000
0.993774 0.980560 0.000000
0.000397 0.000397 0.213165
0.183746 0.000397 0.178528
0.444672 0.000488 0.172333
0.680817 0.000397 0.189026
0.880798 0.000397 0.191742
0.992859 0.000305 0.191315
0.992859 0.000305 0.189758
0.992859 0.000305 0.187866
0.000305 0.136932 0.139038
0.109314 0.103546 0.105469
0.366058 0.087372 0.088867
0.579620 0.076233 0.077942
0.772156 0.066254 0.068512
0.950989 0.057922 0.060150
0.991058 0.051117 0.052917
0.991272 0.044678 0.046478
0.000183 0.352600 0.087463
0.046234 0.312988 0.042236
0.303070 0.292755 0.014954
0.513702 0.278809 0.005219
0.704407 0.267639 0.002930
0.881622 0.257629 0.002319
0.989685 0.248199 0.001740
0.989685 0.240356 0.001251
0.000183 0.529114 0.036987
0.003082 0.487915 0.003265
0.251923 0.465637 0.001495
0.462555 0.450317 0.000549
0.652649 0.437653 0.000122
0.829285 0.426697 0.000092
0.985870 0.416168 0.000092
0.990112 0.407074 0.000092
0.000183 0.688324 0.003540
0.000488 0.646667 0.000305
0.204681 0.623260 0.000183
0.416595 0.606995 0.000092
0.607117 0.593445 0.000092
0.783234 0.581726 0.000092
0.950287 0.570923 0.000092
0.991364 0.560638 0.000031
0.000183 0.836395 0.001007
0.000183 0.793976 0.000305
0.156677 0.770050 0.000122
0.373688 0.753693 0.000092
0.564392 0.739624 0.000092
0.740997 0.727417 0.000092
0.908051 0.716125 0.000092
0.992950 0.704895 0.000000
0.000092 0.970337 0.000092
0.000092 0.932892 0.000092
0.113861 0.908295 0.000092
0.331360 0.891907 0.000092
0.523590 0.877777 0.000092
0.700684 0.865417 0.000092
0.868256 0.853912 0.000000
0.994843 0.842377 0.000000
0.000092 0.976196 0.000092
0.000092 0.976196 0.000092
0.071411 0.975891 0.000000
0.287689 0.977844 0.000000
0.481689 0.979767 0.000000
0.659760 0.980072 0.000000
0.827698 0.979919 0.000000
0.988861 0.974670 0.000000
0.000397 0.000397 0.475220
0.178223 0.000488 0.444031
0.445404 0.000427 0.443878
0.676117 0.000397 0.454193
0.873657 0.000305 0.454254
0.990387 0.000183 0.452301
0.990417 0.000214 0.450226
0.990448 0.000214 0.447723
0.000305 0.132202 0.405762
0.101959 0.097107 0.373413
0.358002 0.079834 0.357819
0.571259 0.067657 0.347473
0.763641 0.056549 0.339539
0.941528 0.047333 0.332489
0.989532 0.040039 0.325806
0.989685 0.033142 0.319885
0.000183 0.344971 0.354919
0.035889 0.305176 0.314880
0.292328 0.284943 0.294281
0.505035 0.271057 0.279968
0.696167 0.259613 0.268250
0.873444 0.249786 0.258575
0.990540 0.240509 0.249664
0.990509 0.232269 0.241516
0.000183 0.520874 0.310181
0.002533 0.479340 0.266357
0.237701 0.457550 0.242981
0.453339 0.442383 0.225861
0.644806 0.429779 0.212036
0.821594 0.418671 0.199768
0.984833 0.408447 0.188507
0.992401 0.399109 0.178253
0.000122 0.680176 0.268280
0.000183 0.637604 0.221649
0.189545 0.614868 0.195801
0.406647 0.599060 0.176361
0.598816 0.585724 0.159698
0.775604 0.573761 0.144318
0.942993 0.562927 0.128937
0.994446 0.552521 0.116608
0.000092 0.827820 0.227661
0.000092 0.784973 0.178925
0.144806 0.761444 0.150665
0.362335 0.745209 0.128387
0.555634 0.731445 0.107574
0.733002 0.719116 0.090912
0.900269 0.707733 0.077271
0.996033 0.696472 0.064941
0.000031 0.966736 0.186493
0.000092 0.923920 0.136322
0.101776 0.899170 0.105927
0.319153 0.883026 0.079498
0.514130 0.869141 0.059143
0.692017 0.856415 0.042786
0.859314 0.844574 0.027191
0.995911 0.832520 0.011719
0.000000 0.977417 0.145569
0.000000 0.977081 0.092285
0.058441 0.976562 0.058502
0.274933 0.978790 0.031982
0.470886 0.979584 0.009613
0.649323 0.979492 0.005524
0.817139 0.975372 0.003845
0.978241 0.964294 0.002380
0.000397 0.000488 0.698761
0.176117 0.000519 0.670044
0.450531 0.000397 0.676514
0.672760 0.000366 0.677917
0.868256 0.000305 0.675751
0.987244 0.000092 0.671539
0.987274 0.000092 0.669006
0.987335 0.000092 0.666321
0.000305 0.129364 0.629791
0.096924 0.092712 0.597473
0.350922 0.074341 0.581573
0.564850 0.061554 0.571228
0.756866 0.050262 0.562805
0.934052 0.039886 0.555237
0.987640 0.031219 0.548370
0.987762 0.024078 0.542480
0.000183 0.339722 0.577179
0.027954 0.299286 0.538269
0.281006 0.279388 0.518768
0.497253 0.265472 0.504944
0.688751 0.253906 0.493927
0.865723 0.243866 0.484528
0.989807 0.234650 0.476166
0.989716 0.226349 0.468231
0.000092 0.514923 0.532990
0.002106 0.473053 0.490997
0.228149 0.451447 0.469086
0.444214 0.436401 0.453430
0.636688 0.423645 0.440430
0.813904 0.412964 0.429474
0.980042 0.402985 0.419434
0.992432 0.393738 0.410187
0.000092 0.673615 0.492218
0.000092 0.631073 0.447876
0.180756 0.608643 0.424194
0.395813 0.593201 0.407074
0.589935 0.579681 0.392426
0.767609 0.568054 0.379852
0.935150 0.557465 0.368744
0.994965 0.547272 0.357849
0.000092 0.821228 0.453278
0.000092 0.778290 0.407410
0.135864 0.755005 0.382233
0.347778 0.739258 0.363403
0.546295 0.725800 0.347656
0.724823 0.713654 0.333832
0.892670 0.702698 0.321106
0.997131 0.691986 0.309082
0.000000 0.960144 0.414825
0.000092 0.917236 0.368256
0.092102 0.892761 0.341553
0.301331 0.877289 0.321930
0.503967 0.863831 0.304962
0.683960 0.851624 0.289825
0.852264 0.840302 0.275848
0.997894 0.829620 0.262268
0.000000 0.978546 0.376801
0.000000 0.978455 0.328888
0.048157 0.978210 0.300629
0.259949 0.982025 0.280365
0.460571 0.983368 0.262054
0.643036 0.982971 0.245514
0.812256 0.972717 0.230164
0.973663 0.962158 0.215393
0.000397 0.000580 0.902527
0.176971 0.000702 0.876801
0.450562 0.000397 0.882751
0.669373 0.000275 0.879913
0.862396 0.000183 0.875183
0.983429 0.000000 0.868469
0.983429 0.000000 0.865417
0.983429 0.000000 0.862335
0.000214 0.127319 0.832672
0.092865 0.089203 0.800201
0.343567 0.070251 0.784058
0.559052 0.056793 0.773193
0.750732 0.044250 0.764435
0.927063 0.033081 0.756134
0.984802 0.024078 0.748199
0.985077 0.015961 0.742310
0.000183 0.335510 0.778595
0.021332 0.294769 0.740479
0.274170 0.274780 0.721344
0.489777 0.260651 0.707855
0.682007 0.249084 0.696869
0.858978 0.239288 0.687469
0.989502 0.229492 0.678925
0.989349 0.220917 0.671112
0.000092 0.509766 0.734406
0.001648 0.467682 0.693359
0.221375 0.446442 0.672455
0.434570 0.431580 0.657654
0.628876 0.418823 0.644867
0.806519 0.408051 0.634216
0.974426 0.397888 0.624329
0.992157 0.388489 0.615112
0.000092 0.668213 0.694214
0.000092 0.625519 0.651154
0.173462 0.603119 0.628632
0.382599 0.587921 0.612396
0.581116 0.574463 0.598206
0.759644 0.562897 0.586304
0.927673 0.552185 0.575317
0.994507 0.541992 0.565155
0.000092 0.815399 0.656006
0.000092 0.772400 0.611725
0.127930 0.749237 0.587555
0.334229 0.733704 0.570068
0.536621 0.720581 0.555267
0.716339 0.708405 0.541931
0.884735 0.697479 0.530029
0.996704 0.686890 0.518768
0.000000 0.954132 0.618286
0.000092 0.911102 0.573273
0.083862 0.886627 0.547882
0.292145 0.871857 0.530090
0.492981 0.858704 0.514526
0.675018 0.846680 0.500275
0.844147 0.835510 0.487427
0.996857 0.825012 0.475464
0.000000 0.979401 0.581238
0.000000 0.979218 0.535126
0.039154 0.979126 0.508026
0.251770 0.982941 0.490234
0.444519 0.984833 0.473969
0.633270 0.978973 0.459137
0.803772 0.967987 0.445862
0.965576 0.957428 0.433380
0.000397 0.000702 0.994598
0.182739 0.000793 0.992310
0.447845 0.000397 0.989807
0.663940 0.000092 0.986786
0.855408 0.000000 0.984009
0.983429 0.000000 0.984192
0.983429 0.000000 0.984192
0.983429 0.000000 0.984192
0.000183 0.125916 0.987305
0.089142 0.087158 0.978302
0.336823 0.067810 0.970551
0.552643 0.053497 0.960358
0.743835 0.039368 0.950470
0.920349 0.027100 0.941956
0.984528 0.017517 0.934814
0.984253 0.009277 0.928558
0.000092 0.332214 0.965851
0.015137 0.291077 0.928223
0.268433 0.271210 0.909149
0.481567 0.257141 0.895599
0.675110 0.245483 0.884521
0.852875 0.235107 0.875244
0.989197 0.225189 0.866913
0.989075 0.216309 0.858978
0.000092 0.505524 0.921570
0.001312 0.463287 0.881348
0.215210 0.442169 0.860565
0.421448 0.427368 0.845825
0.621918 0.414948 0.833588
0.800201 0.403656 0.822876
0.968384 0.393555 0.813446
0.991821 0.383759 0.804260
0.000092 0.663239 0.881378
0.000092 0.620483 0.839203
0.166962 0.598328 0.817230
0.370392 0.583313 0.801483
0.573029 0.570038 0.787872
0.752716 0.558319 0.776245
0.920898 0.547638 0.765503
0.993927 0.537506 0.755524
0.000092 0.810059 0.843292
0.000092 0.767120 0.800018
0.120941 0.743896 0.776581
0.326599 0.728973 0.759979
0.526825 0.715668 0.745636
0.708435 0.703705 0.732819
0.877411 0.692688 0.721344
0.996002 0.682281 0.710724
0.000000 0.948608 0.806061
0.000000 0.905426 0.762115
0.076447 0.881104 0.737671
0.285095 0.866791 0.720825
0.481049 0.853790 0.705902
0.666168 0.841736 0.692322
0.836334 0.830719 0.680267
0.995300 0.820282 0.668945
0.000000 0.979584 0.769714
0.000000 0.979584 0.724396
0.030701 0.979675 0.698517
0.244781 0.983765 0.682220
0.430328 0.984924 0.667084
0.623718 0.974274 0.652954
0.795471 0.963257 0.640167
0.957855 0.952820 0.628479
0.000397 0.000702 0.994598
0.191193 0.000793 0.992249
0.447906 0.000397 0.989807
0.662506 0.000092 0.986786
0.852997 0.000000 0.984009
0.983429 0.000000 0.984192
0.983429 0.000000 0.984192
0.983429 0.000000 0.984192
0.000183 0.123810 0.987366
0.086334 0.084290 0.987549
0.333344 0.064423 0.987457
0.548096 0.049866 0.986755
0.738739 0.035736 0.985443
0.916199 0.021729 0.985748
0.984344 0.011200 0.985352
0.984070 0.007019 0.984985
0.000092 0.328644 0.986267
0.009460 0.287323 0.985992
0.263062 0.268127 0.987427
0.472748 0.254059 0.988281
0.669220 0.241882 0.989319
0.847687 0.230988 0.990021
0.988922 0.221161 0.990234
0.988770 0.212463 0.990082
0.000092 0.501251 0.986267
0.001007 0.458710 0.986267
0.209167 0.438538 0.988220
0.412537 0.424011 0.990356
0.614441 0.411194 0.990204
0.793884 0.399994 0.988495
0.962524 0.389771 0.986725
0.991272 0.379913 0.981659
0.000000 0.658356 0.986969
0.000000 0.615570 0.986725
0.160797 0.594025 0.984650
0.364471 0.579315 0.979218
0.564331 0.566376 0.967773
0.745819 0.554535 0.956238
0.914917 0.543854 0.945770
0.993500 0.533417 0.935791
0.000000 0.804596 0.987549
0.000000 0.761688 0.976776
0.114502 0.739105 0.955139
0.320618 0.724823 0.939697
0.515350 0.711548 0.925598
0.700867 0.699402 0.913208
0.870636 0.688477 0.902008
0.995361 0.677917 0.891418
0.000000 0.942657 0.980743
0.000000 0.899750 0.940430
0.069641 0.875763 0.916290
0.279083 0.862244 0.900543
0.464508 0.849274 0.885956
0.658173 0.837158 0.872803
0.828979 0.826141 0.861023
0.990051 0.815643 0.850037
0.000000 0.979584 0.947449
0.000000 0.979584 0.903198
0.023010 0.979797 0.877411
0.238525 0.984192 0.861969
0.422821 0.981079 0.847473
0.614502 0.969330 0.833923
0.787842 0.958344 0.821686
0.950714 0.947968 0.810394
0.000397 0.000702 0.994598
0.194427 0.000793 0.992249
0.447784 0.000397 0.989807
0.661163 0.000092 0.986786
0.851044 0.000000 0.984009
0.983429 0.000000 0.984192
0.983429 0.000000 0.984192
0.983429 0.000000 0.984192
0.000183 0.122101 0.987396
0.083649 0.081482 0.987610
0.330719 0.060822 0.987579
0.544922 0.045593 0.986786
0.735229 0.030792 0.985321
0.912354 0.016571 0.985535
0.984161 0.008270 0.985138
0.983887 0.004944 0.984741
0.000092 0.325043 0.986267
0.007782 0.283539 0.986053
0.259125 0.263947 0.987396
0.468170 0.249512 0.988220
0.664795 0.237213 0.989227
0.843353 0.226318 0.989960
0.987946 0.216217 0.990143
0.988678 0.207245 0.989990
0.000092 0.497040 0.986267
0.000732 0.454437 0.986267
0.204651 0.433807 0.988159
0.407562 0.419373 0.990234
0.609406 0.406250 0.991272
0.789001 0.395081 0.992035
0.957367 0.384460 0.992432
0.991211 0.374756 0.992310
0.000000 0.653778 0.986938
0.000000 0.610931 0.986694
0.155365 0.589020 0.988983
0.359436 0.574463 0.991516
0.557953 0.561493 0.992676
0.740204 0.549744 0.993500
0.909241 0.539093 0.994049
0.993042 0.528687 0.994019
0.000000 0.799835 0.987518
0.000000 0.756561 0.987366
0.108887 0.734009 0.989624
0.315277 0.719940 0.992554
0.504578 0.706940 0.993805
0.694336 0.695038 0.994720
0.864441 0.684113 0.995331
0.994965 0.673798 0.995544
0.000000 0.937531 0.987457
0.000000 0.894379 0.987579
0.063263 0.870697 0.989349
0.273285 0.857544 0.993103
0.456757 0.844757 0.994690
0.650177 0.832947 0.995605
0.822205 0.821869 0.996307
0.984314 0.811371 0.996582
0.000000 0.979218 0.987183
0.000000 0.979218 0.987183
0.015167 0.979340 0.987915
0.232483 0.984406 0.992706
0.417023 0.976410 0.994690
0.604431 0.964752 0.994446
0.780029 0.953766 0.994171
0.943726 0.943390 0.984070
