Postproduction/IWLTBAP - Humble/LUTs by IWLTBAP (CUBE)/UTILITY/Panasonic Cine-D to Rec.709/U-PANASONIC-CINE-D-V2-LTR.cube
# Copyright: (C) Copyright 2010-2018 by IWLTBAP SAS
# Cannot be resold, shared or otherwise redistributed
# Website: https://luts.iwltbap.com
TITLE "Panasonic Cine-D Version 2 (Utility LOG to Rec.709)"
LUT_3D_SIZE 8
DOMAIN_MIN 0.000000 0.000000 0.000000
DOMAIN_MAX 0.903226 0.903226 0.903226
0.000397 0.000397 0.000397
0.108459 0.000397 0.000397
0.323730 0.000488 0.000488
0.511810 0.000488 0.000488
0.674042 0.000549 0.000671
0.815399 0.000671 0.001007
0.946014 0.000610 0.001007
0.994385 0.000519 0.000641
0.000305 0.114044 0.000458
0.113800 0.107391 0.000488
0.307312 0.111511 0.000305
0.469513 0.116791 0.000275
0.616455 0.123108 0.000305
0.752136 0.129578 0.000549
0.880371 0.135193 0.000519
0.984283 0.140503 0.000427
0.000305 0.311127 0.000580
0.121155 0.293457 0.000519
0.301147 0.290802 0.000275
0.456665 0.291504 0.000214
0.599518 0.293304 0.000244
0.733551 0.296112 0.000580
0.860596 0.299835 0.000793
0.975739 0.303436 0.000641
0.000305 0.458588 0.000671
0.128998 0.445465 0.000427
0.301453 0.442047 0.000610
0.453217 0.441010 0.000519
0.593384 0.441620 0.000275
0.725281 0.443054 0.000519
0.850891 0.445221 0.001129
0.968903 0.447296 0.001343
0.001038 0.593964 0.001160
0.138489 0.583984 0.000488
0.305115 0.580200 0.000854
0.453552 0.578522 0.001099
0.591583 0.578308 0.000885
0.721649 0.578735 0.001068
0.845703 0.580048 0.001923
0.964355 0.581177 0.002136
0.002075 0.721405 0.002075
0.147858 0.713379 0.001251
0.310760 0.709473 0.001404
0.456329 0.707581 0.001923
0.592224 0.706696 0.002045
0.720276 0.706635 0.002686
0.843201 0.707214 0.003723
0.961243 0.707642 0.004120
0.004578 0.842590 0.004364
0.157196 0.835510 0.002686
0.316376 0.832001 0.004272
0.459839 0.829865 0.004425
0.593811 0.828644 0.003601
0.720581 0.828125 0.003448
0.842499 0.828369 0.007812
0.960083 0.828461 0.009552
0.013489 0.955872 0.012817
0.165802 0.951538 0.005493
0.321075 0.947937 0.004517
0.462708 0.946411 0.010620
0.595428 0.945282 0.009369
0.720795 0.944733 0.006012
0.841766 0.944489 0.009338
0.959106 0.944763 0.016235
0.000397 0.000397 0.105255
0.106934 0.000397 0.103058
0.322937 0.000488 0.115204
0.510040 0.000458 0.144562
0.667145 0.000458 0.162262
0.807251 0.000488 0.174347
0.937042 0.000427 0.183228
0.992859 0.000366 0.191345
0.000305 0.112610 0.114105
0.108459 0.102875 0.104492
0.301117 0.105743 0.107849
0.462921 0.110870 0.113007
0.609772 0.117157 0.119904
0.745880 0.124237 0.127930
0.874542 0.130157 0.135010
0.983093 0.135925 0.141937
0.000214 0.304291 0.127167
0.114136 0.287598 0.112030
0.295532 0.285675 0.112793
0.451904 0.287262 0.115265
0.595551 0.289734 0.119537
0.729858 0.293091 0.125580
0.857086 0.296814 0.131653
0.975159 0.300995 0.137054
0.000214 0.453033 0.132538
0.123566 0.441406 0.123108
0.297180 0.438446 0.122650
0.449951 0.438019 0.124115
0.590820 0.438965 0.126587
0.722961 0.440735 0.130981
0.848663 0.443176 0.135895
0.968689 0.445770 0.140381
0.000763 0.589752 0.141998
0.133270 0.580780 0.135162
0.300751 0.577454 0.133789
0.450836 0.576569 0.134399
0.589752 0.576630 0.135559
0.720032 0.577332 0.138794
0.844421 0.578796 0.142365
0.963959 0.580597 0.145660
0.001831 0.718170 0.153778
0.143219 0.710754 0.147888
0.305542 0.707458 0.145874
0.453674 0.706116 0.145630
0.590668 0.705658 0.145813
0.719269 0.705933 0.147858
0.842499 0.706635 0.149902
0.961029 0.707703 0.153107
0.003418 0.839630 0.165497
0.152710 0.833313 0.160187
0.309692 0.830505 0.157715
0.457214 0.828888 0.157013
0.592468 0.828186 0.156738
0.719849 0.827942 0.157562
0.841980 0.828278 0.160217
0.959717 0.829163 0.162689
0.010315 0.955078 0.176422
0.161926 0.950226 0.171814
0.312408 0.947510 0.168854
0.460022 0.946106 0.167786
0.594147 0.945282 0.167297
0.720428 0.945007 0.167542
0.841553 0.945343 0.169800
0.958679 0.946075 0.171967
0.000397 0.000397 0.321594
0.108215 0.000397 0.310608
0.328705 0.000488 0.324921
0.511017 0.000427 0.344757
0.664490 0.000458 0.353699
0.803589 0.000427 0.360718
0.932556 0.000336 0.366333
0.990967 0.000488 0.369415
0.000336 0.114532 0.312500
0.108215 0.103271 0.297729
0.298828 0.105164 0.297699
0.460266 0.110107 0.300781
0.606537 0.116699 0.304230
0.742462 0.123291 0.308838
0.870941 0.129120 0.314484
0.980835 0.135071 0.320129
0.000244 0.302551 0.311279
0.112518 0.286163 0.295349
0.291870 0.284668 0.294006
0.449158 0.286194 0.295654
0.592834 0.288635 0.298248
0.727081 0.292023 0.302185
0.854095 0.296082 0.306946
0.972931 0.300293 0.311981
0.000275 0.450409 0.309021
0.121521 0.439575 0.299469
0.292358 0.437103 0.297791
0.446899 0.436859 0.298553
0.588013 0.437958 0.300476
0.720337 0.439758 0.303375
0.845978 0.442383 0.307312
0.965881 0.445190 0.311768
0.000519 0.587280 0.312897
0.131073 0.578918 0.306000
0.294495 0.576202 0.304108
0.447510 0.575409 0.304352
0.586853 0.575623 0.305817
0.717407 0.576508 0.307892
0.841827 0.578125 0.311066
0.961456 0.579895 0.314728
0.001587 0.715881 0.319946
0.140839 0.709045 0.314209
0.298462 0.706207 0.312073
0.449890 0.705109 0.311859
0.587433 0.704712 0.312653
0.716614 0.705048 0.314240
0.839783 0.706024 0.316620
0.958496 0.707306 0.319580
0.002899 0.837494 0.327576
0.150208 0.831757 0.322784
0.302551 0.829437 0.320496
0.452637 0.827850 0.319916
0.589081 0.827271 0.320496
0.716888 0.827179 0.321716
0.839081 0.827850 0.323578
0.956940 0.828918 0.325897
0.007355 0.953583 0.335175
0.159515 0.948517 0.331329
0.306030 0.946594 0.329193
0.454346 0.945160 0.328247
0.590393 0.944641 0.328644
0.717133 0.944672 0.329529
0.838562 0.945160 0.330872
0.955780 0.945953 0.332977
0.000397 0.000397 0.494202
0.112946 0.000458 0.484131
0.335175 0.000488 0.499420
0.511688 0.000427 0.512177
0.662994 0.000427 0.517975
0.800903 0.000336 0.522125
0.929199 0.000305 0.525604
0.988739 0.000519 0.525513
0.000305 0.117554 0.478973
0.109253 0.104767 0.462433
0.296661 0.106201 0.460663
0.458344 0.111084 0.461975
0.604370 0.116943 0.464539
0.740051 0.123352 0.467651
0.868195 0.129395 0.471680
0.978455 0.135254 0.475922
0.000275 0.301575 0.471222
0.112427 0.285797 0.455139
0.287903 0.284546 0.452820
0.446869 0.285858 0.453400
0.590576 0.288361 0.455475
0.724701 0.291656 0.458130
0.851562 0.295837 0.461670
0.970886 0.300201 0.465759
0.000336 0.448669 0.464996
0.120636 0.438690 0.455475
0.287659 0.436279 0.453186
0.443939 0.436249 0.453156
0.585510 0.437317 0.454498
0.717743 0.439453 0.456665
0.843445 0.441833 0.459686
0.963470 0.444885 0.462982
0.000458 0.585663 0.465851
0.129822 0.577942 0.458862
0.289948 0.575317 0.456573
0.443939 0.574646 0.456268
0.583984 0.574738 0.457092
0.714722 0.575775 0.458954
0.839172 0.577576 0.461212
0.958771 0.579346 0.463837
0.001343 0.714111 0.469818
0.139252 0.707794 0.464172
0.293579 0.705322 0.461884
0.445435 0.704224 0.461182
0.584290 0.703888 0.461548
0.713684 0.704498 0.462982
0.837097 0.705383 0.464508
0.955872 0.706818 0.466827
0.002777 0.835632 0.474762
0.148560 0.830505 0.470337
0.298065 0.828156 0.468018
0.447357 0.827057 0.467194
0.585541 0.826447 0.467316
0.713806 0.826752 0.468353
0.836365 0.827301 0.469666
0.954224 0.828400 0.471588
0.005310 0.951660 0.480103
0.157623 0.947052 0.476685
0.303131 0.945312 0.474609
0.447723 0.944214 0.473663
0.586487 0.944031 0.473450
0.713959 0.944153 0.474335
0.835632 0.944611 0.475403
0.953003 0.945282 0.477020
0.000397 0.000488 0.651245
0.121094 0.000488 0.643921
0.340759 0.000519 0.657562
0.512146 0.000427 0.664215
0.661926 0.000366 0.667786
0.798828 0.000305 0.670380
0.925629 0.000275 0.671356
0.986084 0.000519 0.668213
0.000305 0.120636 0.630615
0.110626 0.106476 0.613281
0.295288 0.107452 0.610352
0.456848 0.112244 0.610291
0.602356 0.118134 0.611633
0.737946 0.124084 0.614136
0.865723 0.130280 0.616882
0.976685 0.136322 0.619781
0.000336 0.301208 0.617950
0.112854 0.286163 0.602386
0.285522 0.284973 0.599365
0.444580 0.286133 0.599182
0.588562 0.288757 0.600403
0.722626 0.291962 0.602600
0.849274 0.296265 0.605194
0.968170 0.300354 0.608307
0.000397 0.447784 0.609192
0.120483 0.438293 0.600098
0.285065 0.436157 0.597321
0.440613 0.436096 0.596680
0.582947 0.437317 0.597351
0.715393 0.439270 0.599091
0.841156 0.441864 0.601501
0.961273 0.444733 0.604004
0.000580 0.584564 0.608002
0.129120 0.577118 0.601196
0.287354 0.574860 0.598602
0.439575 0.574219 0.597870
0.581024 0.574402 0.598114
0.712128 0.575500 0.599426
0.836731 0.577148 0.601349
0.956268 0.579132 0.603333
0.001587 0.712738 0.609985
0.138336 0.706787 0.604492
0.291351 0.704590 0.601959
0.439697 0.703522 0.600952
0.580963 0.703430 0.600830
0.710785 0.703827 0.601562
0.834412 0.704987 0.603088
0.953217 0.706329 0.604645
0.002563 0.834198 0.613037
0.147430 0.829346 0.608704
0.295990 0.827148 0.606293
0.440094 0.826355 0.605194
0.581970 0.825775 0.604797
0.710815 0.826111 0.605316
0.833649 0.826935 0.606628
0.951630 0.827881 0.607880
0.004425 0.950165 0.616364
0.156342 0.945892 0.613129
0.301361 0.944397 0.611023
0.440094 0.943604 0.609863
0.582611 0.943359 0.609314
0.710846 0.943420 0.609741
0.832855 0.944061 0.610840
0.950378 0.944916 0.612061
0.000488 0.000519 0.797424
0.132019 0.000580 0.794373
0.344727 0.000549 0.803223
0.512482 0.000397 0.805756
0.660736 0.000305 0.807159
0.796539 0.000244 0.808228
0.920807 0.000305 0.806458
0.982758 0.000519 0.801178
0.000214 0.123962 0.771545
0.112213 0.108856 0.753815
0.294342 0.109619 0.749939
0.455231 0.114166 0.749054
0.600830 0.119751 0.749481
0.736176 0.125397 0.751129
0.863495 0.131592 0.753204
0.975800 0.137817 0.755280
0.000366 0.301117 0.755707
0.113373 0.286926 0.740326
0.284607 0.285614 0.736908
0.442139 0.286865 0.736176
0.586823 0.289429 0.736725
0.720795 0.292938 0.738159
0.847473 0.296814 0.740326
0.965973 0.300598 0.742676
0.000488 0.447479 0.745331
0.120514 0.438354 0.735992
0.283875 0.436340 0.732971
0.437103 0.436340 0.731903
0.580780 0.437561 0.731964
0.713501 0.439606 0.733124
0.839355 0.442139 0.735107
0.959045 0.444824 0.736969
0.000610 0.583801 0.742096
0.128815 0.576721 0.735229
0.286102 0.574646 0.732544
0.434296 0.574005 0.731262
0.578461 0.574371 0.731140
0.709930 0.575500 0.731934
0.834686 0.577087 0.733368
0.954437 0.578857 0.735260
0.001587 0.711731 0.742310
0.137756 0.706055 0.736786
0.290039 0.704071 0.734161
0.433899 0.703033 0.732727
0.578003 0.703033 0.732422
0.708313 0.703613 0.732819
0.832184 0.704865 0.733948
0.950928 0.705872 0.735474
0.003113 0.833069 0.743744
0.146545 0.828308 0.739471
0.294678 0.826630 0.737091
0.435730 0.825775 0.735596
0.578705 0.825378 0.735138
0.708191 0.825684 0.735382
0.831238 0.826324 0.736420
0.949249 0.827332 0.737549
0.003998 0.948792 0.745605
0.155426 0.944885 0.742523
0.300201 0.943756 0.740387
0.437012 0.942993 0.739014
0.578888 0.942688 0.738434
0.707947 0.942871 0.738525
0.830292 0.943390 0.739380
0.947968 0.944275 0.740540
0.000397 0.000580 0.936676
0.142242 0.000671 0.935303
0.346100 0.000610 0.938873
0.511810 0.000366 0.938843
0.658844 0.000214 0.937744
0.793030 0.000122 0.936432
0.915039 0.000305 0.932892
0.981567 0.000549 0.928619
0.000214 0.126862 0.905151
0.113953 0.111542 0.886902
0.294098 0.112183 0.882263
0.452789 0.116455 0.880402
0.599365 0.121796 0.880280
0.734222 0.127594 0.880981
0.861694 0.133484 0.882568
0.974731 0.139679 0.884766
0.000336 0.301483 0.886322
0.114044 0.288177 0.871216
0.284119 0.286835 0.867584
0.437805 0.288239 0.866241
0.584869 0.290710 0.866272
0.719116 0.294067 0.867310
0.846100 0.297546 0.869232
0.964661 0.301392 0.871429
0.000580 0.447327 0.874847
0.120758 0.438660 0.865417
0.283234 0.436829 0.862274
0.431885 0.437134 0.860718
0.578857 0.438324 0.860748
0.711975 0.440216 0.861572
0.837799 0.442688 0.863037
0.957733 0.445404 0.864899
0.000854 0.583344 0.870239
0.128845 0.576721 0.863312
0.285126 0.574890 0.860443
0.430023 0.574249 0.859131
0.576080 0.574677 0.858795
0.708099 0.575806 0.859314
0.832977 0.577484 0.860382
0.952606 0.579163 0.861969
0.001495 0.710999 0.868958
0.137268 0.705627 0.863586
0.288910 0.703888 0.860809
0.430603 0.703186 0.859528
0.575012 0.703033 0.858734
0.706177 0.703613 0.859070
0.830139 0.704742 0.859833
0.949188 0.706116 0.860962
0.004272 0.831879 0.869232
0.145935 0.827576 0.864807
0.293976 0.826233 0.862579
0.431549 0.825531 0.861115
0.575287 0.825134 0.860291
0.705780 0.825439 0.860443
0.828857 0.826202 0.861023
0.947113 0.827087 0.862061
0.004456 0.946869 0.869904
0.154816 0.944122 0.866760
0.299408 0.943207 0.864777
0.432800 0.942596 0.863373
0.574768 0.942200 0.862518
0.705353 0.942352 0.862579
0.827972 0.942749 0.863190
0.945831 0.943787 0.864166
0.000397 0.000702 0.994598
0.151093 0.000763 0.992615
0.347321 0.000732 0.990601
0.510773 0.000305 0.988953
0.656433 0.000092 0.986877
0.789001 0.000031 0.984375
0.911499 0.000366 0.984100
0.981384 0.000549 0.984039
0.000183 0.129822 0.986237
0.115723 0.114624 0.984131
0.293335 0.115509 0.983093
0.449097 0.120087 0.981720
0.597076 0.124969 0.981964
0.732635 0.130371 0.983826
0.860596 0.135864 0.983795
0.973724 0.141571 0.984314
0.000244 0.302032 0.982178
0.114868 0.289673 0.980042
0.283203 0.288849 0.979675
0.433655 0.290070 0.978333
0.582581 0.292389 0.978638
0.717468 0.295288 0.980957
0.844727 0.298859 0.981903
0.963745 0.302490 0.982056
0.000610 0.447449 0.979584
0.121002 0.439301 0.977417
0.282288 0.437897 0.978088
0.428253 0.438416 0.977051
0.576263 0.439453 0.976562
0.710205 0.441223 0.979370
0.836182 0.443542 0.980865
0.956604 0.446167 0.979706
0.001007 0.582825 0.978516
0.128571 0.576813 0.976257
0.284637 0.575256 0.978363
0.426300 0.574982 0.976929
0.573059 0.575317 0.975525
0.705963 0.576477 0.978333
0.831207 0.578064 0.979675
0.951050 0.579834 0.978271
0.001770 0.709991 0.978851
0.137085 0.705383 0.976379
0.288513 0.704102 0.979340
0.425903 0.703552 0.978149
0.571198 0.703400 0.975586
0.703735 0.704010 0.977386
0.828064 0.705017 0.980133
0.947327 0.706360 0.978210
0.004608 0.830505 0.979797
0.145630 0.827362 0.977234
0.293396 0.826202 0.979675
0.428314 0.825470 0.979767
0.570984 0.825134 0.976440
0.703033 0.825409 0.977631
0.826630 0.826202 0.981293
0.944977 0.827118 0.979309
0.007019 0.945740 0.981293
0.154449 0.943573 0.978210
0.298706 0.942871 0.979675
0.431458 0.942200 0.983521
0.570526 0.941986 0.977905
0.702545 0.941986 0.977783
0.825684 0.942627 0.982330
0.943756 0.943390 0.981689
