Postproduction/IWLTBAP - Humble/LUTs by IWLTBAP (CUBE)/UTILITY/Panasonic Cine-D to Rec.709/U-PANASONIC-CINE-D-V2-LTR.cube
# Copyright: (C) Copyright 2010-2018 by IWLTBAP SAS
# Cannot be resold, shared or otherwise redistributed
# Website: https://luts.iwltbap.com
TITLE "Panasonic Cine-D Version 2 (Utility LOG to Rec.709)"
LUT_3D_SIZE 5
DOMAIN_MIN 0.000000 0.000000 0.000000
DOMAIN_MAX 0.903226 0.903226 0.903226
0.000397 0.000397 0.000397
0.275208 0.000427 0.000427
0.596893 0.000488 0.000488
0.849121 0.000702 0.001068
0.994385 0.000519 0.000641
0.000305 0.268616 0.000580
0.259796 0.250031 0.000275
0.531891 0.252441 0.000244
0.769073 0.257812 0.000336
0.976379 0.265045 0.000916
0.000732 0.526489 0.001068
0.263306 0.512939 0.000458
0.523560 0.511017 0.000641
0.754608 0.512543 0.001099
0.965332 0.515289 0.001556
0.002045 0.752136 0.001984
0.273773 0.741547 0.002045
0.525848 0.738007 0.002014
0.751343 0.737579 0.003632
0.960968 0.738312 0.003540
0.013489 0.955872 0.012817
0.283569 0.948883 0.004059
0.530151 0.945770 0.011078
0.751373 0.944580 0.005646
0.959106 0.944763 0.016235
0.000397 0.000397 0.274445
0.275421 0.000458 0.270966
0.590454 0.000427 0.304718
0.837555 0.000427 0.318970
0.991455 0.000458 0.327576
0.000183 0.260956 0.267975
0.250641 0.243225 0.250916
0.524963 0.246857 0.254852
0.762848 0.253662 0.262299
0.973907 0.261688 0.271820
0.000793 0.520325 0.269592
0.253479 0.508667 0.260040
0.518951 0.507812 0.261230
0.750854 0.509979 0.265839
0.962738 0.513672 0.272827
0.002228 0.747345 0.282074
0.261322 0.738495 0.275238
0.521362 0.736237 0.274628
0.748413 0.736572 0.277435
0.958527 0.738220 0.282104
0.007996 0.954071 0.297211
0.271057 0.947266 0.291321
0.524994 0.945007 0.290161
0.748779 0.944885 0.291656
0.956482 0.946045 0.295074
0.000397 0.000458 0.574249
0.288025 0.000580 0.576385
0.589264 0.000427 0.592346
0.832611 0.000305 0.598572
0.987518 0.000519 0.598206
0.000214 0.260651 0.548370
0.245880 0.243500 0.528778
0.521240 0.246826 0.529633
0.758667 0.253510 0.533722
0.972015 0.261810 0.539917
0.000671 0.517853 0.537811
0.248199 0.507111 0.527557
0.513977 0.506622 0.526917
0.746277 0.509125 0.529785
0.959442 0.512909 0.534241
0.002167 0.744446 0.541687
0.256836 0.736481 0.534485
0.514984 0.734985 0.533264
0.743378 0.735504 0.534698
0.953949 0.737518 0.537750
0.004791 0.950836 0.549225
0.267273 0.945129 0.544159
0.516876 0.943726 0.542480
0.743378 0.944031 0.543152
0.951691 0.945221 0.545410
0.000488 0.000580 0.832764
0.298340 0.000610 0.836700
0.588348 0.000305 0.840454
0.828094 0.000183 0.841339
0.982208 0.000519 0.833588
0.000275 0.261688 0.792847
0.245300 0.245087 0.772980
0.517914 0.248413 0.771454
0.755402 0.255188 0.773590
0.969666 0.262360 0.777557
0.000458 0.516724 0.775940
0.246582 0.507111 0.765594
0.508698 0.506775 0.763519
0.742767 0.509125 0.764893
0.956451 0.512878 0.768005
0.002136 0.742584 0.774628
0.254669 0.735565 0.767334
0.507965 0.734070 0.764923
0.738983 0.734772 0.765442
0.949921 0.736664 0.767609
0.003967 0.948334 0.777100
0.265442 0.943695 0.772369
0.507538 0.942688 0.769989
0.738434 0.942902 0.769989
0.947449 0.944183 0.771790
0.000397 0.000702 0.994598
0.303284 0.000824 0.991058
0.585541 0.000244 0.988007
0.820160 0.000122 0.984161
0.981384 0.000549 0.984039
0.000305 0.263184 0.983643
0.244995 0.248413 0.980072
0.512726 0.251709 0.979462
0.752655 0.257416 0.981445
0.966461 0.264374 0.983612
0.000244 0.516357 0.980072
0.245544 0.508087 0.975769
0.502258 0.508057 0.977997
0.739716 0.510345 0.976746
0.953857 0.514130 0.981201
0.002014 0.740875 0.977783
0.253479 0.735474 0.979645
0.497437 0.734344 0.975830
0.734924 0.735046 0.979065
0.946625 0.737000 0.977142
0.007019 0.945740 0.981293
0.264160 0.942932 0.978699
0.498627 0.942108 0.980194
0.733887 0.942139 0.978699
0.943756 0.943390 0.981689
