Postproduction/IWLTBAP - Humble/LUTs by IWLTBAP (CUBE)/UTILITY/Panasonic Cine-D to Rec.709/U-PANASONIC-CINE-D-V2-LTR.cube
# Copyright: (C) Copyright 2010-2018 by IWLTBAP SAS
# Cannot be resold, shared or otherwise redistributed
# Website: https://luts.iwltbap.com
TITLE "Panasonic Cine-D Version 2 (Utility LOG to Rec.709)"
LUT_3D_SIZE 32
0.000397 0.000397 0.000397
0.000549 0.000397 0.000397
0.004333 0.000397 0.000397
0.031616 0.000397 0.000397
0.108459 0.000397 0.000397
0.169189 0.000397 0.000397
0.223999 0.000397 0.000397
0.275208 0.000427 0.000427
0.323730 0.000488 0.000488
0.371735 0.000488 0.000488
0.419891 0.000488 0.000488
0.467194 0.000488 0.000488
0.511810 0.000488 0.000488
0.555115 0.000488 0.000488
0.596893 0.000488 0.000488
0.636475 0.000519 0.000549
0.674042 0.000549 0.000671
0.710510 0.000610 0.000793
0.746155 0.000641 0.000885
0.781097 0.000671 0.000977
0.815399 0.000671 0.001007
0.849121 0.000702 0.001068
0.882111 0.000702 0.001068
0.914673 0.000671 0.001068
0.946014 0.000610 0.001007
0.971680 0.000580 0.000946
0.986511 0.000580 0.000854
0.993591 0.000580 0.000763
0.994385 0.000519 0.000641
0.994385 0.000519 0.000519
0.994324 0.000732 0.002991
0.994232 0.001068 0.005646
0.000397 0.000427 0.000397
0.000458 0.000427 0.000397
0.004883 0.000458 0.000397
0.047211 0.000580 0.000397
0.114838 0.000763 0.000397
0.174561 0.000916 0.000397
0.229553 0.001068 0.000397
0.281860 0.001221 0.000427
0.331451 0.001373 0.000488
0.379120 0.001465 0.000488
0.425323 0.001556 0.000488
0.469360 0.001617 0.000488
0.510834 0.001648 0.000519
0.550659 0.001678 0.000580
0.589600 0.001709 0.000641
0.627289 0.001709 0.000671
0.663757 0.001709 0.000671
0.698578 0.002411 0.000641
0.732300 0.003662 0.000641
0.765717 0.004578 0.000641
0.798309 0.005310 0.000610
0.830444 0.005798 0.000610
0.862061 0.006042 0.000580
0.893188 0.006195 0.000580
0.923340 0.006287 0.000549
0.951935 0.006439 0.000519
0.973816 0.006653 0.000671
0.986847 0.006744 0.001740
0.992920 0.006836 0.002258
0.993469 0.006805 0.002625
0.993469 0.006714 0.002258
0.993500 0.006531 0.001434
0.000397 0.004425 0.000397
0.000946 0.004852 0.000397
0.005096 0.004608 0.000397
0.056915 0.004547 0.000397
0.117615 0.005737 0.000397
0.178772 0.008514 0.000397
0.233337 0.011047 0.000397
0.283112 0.013184 0.000458
0.329285 0.015228 0.000458
0.372742 0.017059 0.000488
0.414001 0.018646 0.000488
0.454224 0.019775 0.000488
0.493164 0.020599 0.000488
0.530640 0.021423 0.000488
0.567261 0.022003 0.000458
0.603333 0.022278 0.000458
0.638184 0.022461 0.000427
0.672028 0.022369 0.000427
0.705780 0.022308 0.000427
0.739746 0.023560 0.000397
0.773315 0.025818 0.000427
0.806152 0.028381 0.000397
0.838562 0.030884 0.000397
0.870575 0.033691 0.000519
0.901947 0.036621 0.000763
0.932465 0.039337 0.000946
0.961578 0.042297 0.001038
0.979889 0.045013 0.001099
0.988800 0.047607 0.001129
0.991394 0.050079 0.001129
0.991394 0.052399 0.001129
0.991272 0.054810 0.001099
0.000336 0.049500 0.000397
0.001282 0.053101 0.000397
0.011169 0.054474 0.000397
0.056702 0.051147 0.000397
0.113312 0.050262 0.000397
0.169495 0.050323 0.000397
0.220795 0.051300 0.000397
0.267914 0.053253 0.000427
0.312958 0.055145 0.000427
0.356262 0.056976 0.000397
0.397766 0.059143 0.000366
0.437958 0.061371 0.000336
0.477081 0.063385 0.000336
0.515228 0.065674 0.000336
0.552460 0.067993 0.000336
0.588959 0.070160 0.000336
0.624634 0.072571 0.000336
0.659363 0.074829 0.000336
0.693512 0.076965 0.000336
0.727264 0.079193 0.000336
0.760620 0.081146 0.000397
0.793365 0.083069 0.000488
0.825684 0.084778 0.000580
0.857666 0.086700 0.000641
0.889282 0.088135 0.000702
0.920288 0.089844 0.000732
0.949524 0.091583 0.000763
0.974823 0.093231 0.000732
0.985931 0.095245 0.000732
0.990051 0.097015 0.000732
0.990356 0.098907 0.000702
0.990295 0.100800 0.000641
0.000305 0.114044 0.000458
0.001282 0.114777 0.000458
0.017853 0.112213 0.000488
0.054047 0.108154 0.000488
0.113800 0.107391 0.000488
0.167389 0.108063 0.000458
0.216919 0.109253 0.000397
0.263489 0.110504 0.000305
0.307312 0.111511 0.000305
0.349762 0.112732 0.000305
0.390869 0.114319 0.000305
0.430756 0.115601 0.000275
0.469513 0.116791 0.000275
0.507507 0.118225 0.000275
0.544647 0.119720 0.000305
0.580841 0.121490 0.000305
0.616455 0.123108 0.000305
0.651215 0.124695 0.000366
0.685272 0.126282 0.000458
0.718933 0.127991 0.000519
0.752136 0.129578 0.000549
0.784821 0.131165 0.000549
0.816986 0.132507 0.000549
0.848816 0.134033 0.000549
0.880371 0.135193 0.000519
0.911438 0.136383 0.000519
0.941620 0.137787 0.000458
0.968353 0.139130 0.000427
0.984283 0.140503 0.000427
0.988831 0.142273 0.000427
0.989899 0.143768 0.000427
0.989929 0.145203 0.000549
0.000366 0.173096 0.000580
0.001038 0.171112 0.000519
0.017639 0.165405 0.000519
0.056152 0.161194 0.000488
0.116089 0.159943 0.000488
0.167206 0.159790 0.000427
0.215576 0.159637 0.000397
0.261444 0.160187 0.000336
0.304657 0.161133 0.000275
0.346252 0.162140 0.000275
0.386932 0.162750 0.000275
0.426483 0.163818 0.000244
0.464813 0.164856 0.000244
0.502350 0.165955 0.000275
0.539154 0.167084 0.000305
0.575256 0.168030 0.000366
0.610565 0.169250 0.000427
0.645233 0.170380 0.000427
0.679260 0.171661 0.000458
0.712860 0.172913 0.000427
0.745972 0.174194 0.000397
0.778564 0.175659 0.000366
0.810699 0.176910 0.000305
0.842407 0.178253 0.000244
0.873718 0.179535 0.000214
0.904816 0.180603 0.000214
0.935425 0.181641 0.000244
0.962036 0.182648 0.000275
0.981903 0.183777 0.000427
0.988403 0.185181 0.000702
0.989685 0.186707 0.000977
0.989746 0.188110 0.001160
0.000336 0.223328 0.000610
0.001434 0.219513 0.000519
0.012970 0.212616 0.000488
0.060638 0.209198 0.000488
0.117310 0.207367 0.000458
0.168457 0.206512 0.000427
0.215363 0.206512 0.000336
0.260345 0.206573 0.000275
0.303314 0.206848 0.000244
0.344513 0.207611 0.000214
0.384521 0.208130 0.000214
0.423553 0.208710 0.000275
0.461609 0.209198 0.000305
0.498718 0.209961 0.000336
0.535156 0.210724 0.000336
0.570953 0.211700 0.000336
0.606201 0.212433 0.000305
0.640594 0.213379 0.000305
0.674469 0.214417 0.000275
0.708038 0.215240 0.000275
0.740906 0.216431 0.000244
0.773346 0.217529 0.000244
0.805450 0.218628 0.000244
0.837158 0.219635 0.000275
0.868347 0.220795 0.000275
0.899292 0.222015 0.000427
0.929932 0.223267 0.000580
0.958710 0.224243 0.000702
0.978668 0.225281 0.000793
0.988525 0.226471 0.000885
0.989563 0.227814 0.000977
0.989655 0.229218 0.001038
0.000305 0.268616 0.000580
0.002167 0.263092 0.000549
0.011078 0.256104 0.000519
0.066254 0.253387 0.000488
0.118958 0.251892 0.000488
0.169159 0.250824 0.000427
0.215759 0.250488 0.000305
0.259796 0.250031 0.000275
0.302032 0.250031 0.000305
0.342987 0.250000 0.000305
0.382446 0.250519 0.000305
0.421112 0.250793 0.000305
0.458832 0.251282 0.000275
0.495758 0.251892 0.000275
0.531891 0.252441 0.000244
0.567505 0.253082 0.000214
0.602448 0.253784 0.000183
0.636749 0.254303 0.000183
0.670441 0.255127 0.000214
0.703827 0.256012 0.000244
0.736725 0.256897 0.000275
0.769073 0.257812 0.000336
0.801056 0.258972 0.000458
0.832825 0.259979 0.000610
0.864044 0.261047 0.000702
0.894897 0.262177 0.000793
0.925476 0.263214 0.000854
0.955750 0.264130 0.000885
0.976379 0.265045 0.000916
0.987213 0.266052 0.000916
0.989594 0.267120 0.000916
0.989655 0.268463 0.000885
0.000305 0.311127 0.000580
0.002228 0.304047 0.000610
0.022125 0.298248 0.000580
0.069519 0.295258 0.000519
0.121155 0.293457 0.000519
0.169983 0.292328 0.000458
0.216064 0.291779 0.000366
0.259552 0.291290 0.000336
0.301147 0.290802 0.000275
0.341522 0.290894 0.000275
0.381042 0.290833 0.000244
0.419281 0.291168 0.000214
0.456665 0.291504 0.000214
0.493317 0.291962 0.000183
0.529236 0.292450 0.000183
0.564636 0.292877 0.000214
0.599518 0.293304 0.000244
0.633728 0.293915 0.000275
0.667328 0.294464 0.000336
0.700623 0.295319 0.000458
0.733551 0.296112 0.000580
0.765930 0.296906 0.000671
0.797760 0.297852 0.000732
0.829376 0.298889 0.000793
0.860596 0.299835 0.000793
0.891388 0.300873 0.000793
0.921875 0.301727 0.000763
0.951599 0.302612 0.000702
0.975739 0.303436 0.000641
0.986176 0.304504 0.000580
0.989624 0.305450 0.000610
0.989716 0.306488 0.000671
0.000366 0.351105 0.000671
0.002350 0.343109 0.000732
0.028870 0.338287 0.000702
0.071533 0.335388 0.000610
0.123383 0.333374 0.000519
0.171112 0.332153 0.000397
0.216278 0.331482 0.000305
0.259705 0.330627 0.000244
0.300781 0.330292 0.000214
0.340729 0.330048 0.000183
0.379791 0.330078 0.000183
0.418091 0.329987 0.000183
0.455200 0.330200 0.000244
0.491608 0.330536 0.000275
0.527405 0.330963 0.000305
0.562653 0.331268 0.000336
0.597351 0.331818 0.000458
0.631500 0.332428 0.000549
0.665070 0.333130 0.000641
0.698181 0.333710 0.000671
0.730865 0.334381 0.000702
0.763153 0.335022 0.000702
0.794952 0.335724 0.000702
0.826477 0.336517 0.000641
0.857544 0.337463 0.000580
0.888336 0.338287 0.000488
0.918732 0.339050 0.000427
0.948212 0.339813 0.000488
0.974945 0.340637 0.000458
0.986328 0.341339 0.000458
0.989624 0.342316 0.000763
0.989899 0.343262 0.001129
0.000519 0.388092 0.000885
0.003326 0.380249 0.000793
0.029633 0.376526 0.000671
0.074036 0.373932 0.000549
0.125275 0.372009 0.000397
0.172607 0.370697 0.000244
0.216949 0.369720 0.000183
0.259705 0.368958 0.000183
0.300903 0.368347 0.000214
0.340363 0.368164 0.000244
0.379089 0.367859 0.000305
0.417114 0.367798 0.000305
0.454163 0.367889 0.000366
0.490356 0.368134 0.000488
0.526062 0.368469 0.000549
0.561249 0.368835 0.000610
0.595734 0.369324 0.000641
0.629700 0.369781 0.000641
0.663208 0.370300 0.000610
0.696136 0.370819 0.000580
0.728607 0.371460 0.000488
0.760712 0.372101 0.000427
0.792450 0.372650 0.000366
0.823883 0.373383 0.000397
0.854858 0.374146 0.000427
0.885559 0.374908 0.000458
0.916016 0.375549 0.000549
0.946014 0.376190 0.000824
0.970947 0.376953 0.001007
0.986389 0.377594 0.001190
0.989471 0.378418 0.001343
0.990082 0.379456 0.001434
0.000458 0.423889 0.000854
0.006195 0.417084 0.000671
0.026672 0.413361 0.000549
0.076843 0.410980 0.000427
0.126953 0.409180 0.000305
0.174042 0.407837 0.000244
0.217957 0.406921 0.000275
0.260162 0.406128 0.000305
0.300873 0.405518 0.000336
0.340424 0.405182 0.000427
0.378876 0.405029 0.000519
0.416656 0.404907 0.000549
0.453552 0.405060 0.000580
0.489594 0.405121 0.000610
0.525055 0.405334 0.000580
0.560089 0.405609 0.000549
0.594513 0.405884 0.000519
0.628204 0.406281 0.000427
0.661530 0.406616 0.000366
0.694397 0.407074 0.000275
0.726746 0.407593 0.000305
0.758759 0.408142 0.000305
0.790375 0.408722 0.000336
0.821777 0.409332 0.000488
0.852692 0.410034 0.000732
0.883301 0.410706 0.000977
0.913727 0.411316 0.001129
0.943878 0.411835 0.001251
0.968964 0.412476 0.001343
0.985504 0.413116 0.001404
0.989868 0.413940 0.001465
0.990295 0.414764 0.001495
0.000305 0.458588 0.000671
0.005920 0.453033 0.000580
0.028046 0.449432 0.000519
0.080292 0.447144 0.000458
0.128998 0.445465 0.000427
0.175232 0.444122 0.000397
0.219360 0.443207 0.000488
0.261139 0.442566 0.000549
0.301453 0.442047 0.000610
0.340729 0.441620 0.000610
0.379120 0.441315 0.000610
0.416565 0.441162 0.000580
0.453217 0.441010 0.000519
0.489105 0.441223 0.000458
0.524384 0.441284 0.000366
0.559143 0.441467 0.000305
0.593384 0.441620 0.000275
0.627075 0.441895 0.000336
0.660248 0.442291 0.000397
0.692963 0.442657 0.000427
0.725281 0.443054 0.000519
0.757172 0.443542 0.000732
0.788666 0.444153 0.000885
0.820007 0.444733 0.001007
0.850891 0.445221 0.001129
0.881378 0.445801 0.001221
0.911591 0.446350 0.001282
0.941620 0.446808 0.001343
0.968903 0.447296 0.001343
0.984161 0.447906 0.001312
0.990173 0.448608 0.001282
0.990509 0.449402 0.001282
0.000366 0.492523 0.000732
0.004486 0.488190 0.000732
0.035278 0.485016 0.000732
0.083466 0.482635 0.000702
0.131317 0.481079 0.000671
0.176910 0.479889 0.000671
0.220612 0.478851 0.000671
0.262329 0.478149 0.000641
0.302155 0.477692 0.000580
0.341125 0.477203 0.000488
0.379303 0.476807 0.000427
0.416656 0.476349 0.000366
0.452972 0.476410 0.000305
0.488708 0.476410 0.000336
0.523956 0.476318 0.000366
0.558502 0.476562 0.000366
0.592529 0.476715 0.000427
0.626099 0.476929 0.000549
0.659271 0.477173 0.000763
0.691833 0.477570 0.000916
0.723999 0.477997 0.001038
0.755798 0.478424 0.001099
0.787140 0.478973 0.001160
0.818359 0.479401 0.001190
0.849213 0.479858 0.001221
0.879578 0.480377 0.001190
0.909698 0.480804 0.001129
0.939575 0.481201 0.001068
0.967926 0.481567 0.001251
0.983765 0.482086 0.001495
0.989929 0.482635 0.001617
0.990784 0.483307 0.001740
0.000732 0.526489 0.001068
0.005096 0.522705 0.001099
0.041077 0.519867 0.000977
0.086151 0.517517 0.000854
0.133728 0.515930 0.000732
0.178986 0.514740 0.000641
0.221893 0.513763 0.000549
0.263306 0.512939 0.000458
0.302979 0.512451 0.000397
0.341614 0.511871 0.000305
0.379517 0.511444 0.000305
0.416718 0.511108 0.000366
0.452942 0.510864 0.000397
0.488434 0.511047 0.000458
0.523560 0.511017 0.000641
0.558136 0.510925 0.000793
0.591980 0.511139 0.000916
0.625427 0.511261 0.001007
0.658478 0.511566 0.001068
0.690979 0.511780 0.001099
0.722961 0.512115 0.001129
0.754608 0.512543 0.001099
0.785950 0.512970 0.001038
0.817017 0.513336 0.000977
0.847656 0.513763 0.000885
0.877991 0.514252 0.001068
0.908112 0.514740 0.001099
0.938019 0.515015 0.001190
0.965332 0.515289 0.001556
0.984955 0.515778 0.002014
0.989990 0.516266 0.002380
0.991180 0.516876 0.002533
0.001007 0.560516 0.001282
0.009674 0.556793 0.001160
0.042572 0.554077 0.000946
0.089050 0.551910 0.000732
0.136047 0.550201 0.000549
0.181061 0.548920 0.000427
0.223511 0.547913 0.000336
0.264435 0.547119 0.000397
0.304016 0.546448 0.000458
0.342438 0.546021 0.000519
0.380066 0.545563 0.000549
0.417023 0.545166 0.000732
0.453125 0.545074 0.000824
0.488495 0.545044 0.000946
0.523407 0.545013 0.001007
0.557892 0.544922 0.001068
0.591736 0.544983 0.001068
0.624908 0.545197 0.001068
0.657867 0.545288 0.001007
0.690338 0.545410 0.000946
0.722168 0.545654 0.000854
0.753632 0.546051 0.000885
0.784973 0.546356 0.001129
0.815979 0.546722 0.001221
0.846527 0.547028 0.001221
0.876801 0.547455 0.001373
0.906921 0.547852 0.001587
0.936768 0.548218 0.001770
0.964264 0.548462 0.001984
0.985138 0.548950 0.002136
0.990784 0.549347 0.002289
0.991486 0.549957 0.002380
0.001038 0.593964 0.001160
0.014191 0.590546 0.000885
0.043427 0.587555 0.000610
0.092407 0.585602 0.000427
0.138489 0.583984 0.000488
0.182831 0.582764 0.000549
0.225372 0.581604 0.000580
0.265839 0.580841 0.000702
0.305115 0.580200 0.000854
0.343536 0.579620 0.000946
0.381042 0.579102 0.001038
0.417633 0.578918 0.001068
0.453552 0.578522 0.001099
0.488831 0.578461 0.001068
0.523529 0.578369 0.001038
0.557800 0.578308 0.000977
0.591583 0.578308 0.000885
0.624725 0.578369 0.000763
0.657410 0.578552 0.000916
0.689758 0.578674 0.001038
0.721649 0.578735 0.001068
0.752991 0.579071 0.001160
0.784241 0.579376 0.001404
0.815186 0.579712 0.001740
0.845703 0.580048 0.001923
0.875946 0.580383 0.002014
0.905945 0.580597 0.002075
0.935638 0.580994 0.002106
0.964355 0.581177 0.002136
0.983276 0.581482 0.002197
0.991333 0.581879 0.002258
0.991760 0.582367 0.002258
0.000793 0.626495 0.000732
0.013000 0.623413 0.000854
0.046356 0.620575 0.000793
0.095703 0.618652 0.000702
0.140930 0.617157 0.000885
0.184723 0.616058 0.001038
0.227173 0.614990 0.001129
0.267487 0.614014 0.001160
0.306488 0.613342 0.001160
0.344635 0.612762 0.001160
0.382080 0.612183 0.001160
0.418488 0.611755 0.001068
0.454071 0.611633 0.000977
0.489227 0.611420 0.000854
0.523895 0.611176 0.000702
0.557953 0.611084 0.000885
0.591522 0.611145 0.001007
0.624695 0.611115 0.001099
0.657257 0.611237 0.001160
0.689423 0.611359 0.001404
0.721191 0.611450 0.001587
0.752563 0.611664 0.001709
0.783691 0.611816 0.001892
0.814484 0.612122 0.002014
0.844940 0.612488 0.002106
0.875153 0.612762 0.002167
0.904999 0.612976 0.002167
0.934631 0.613251 0.002167
0.963806 0.613495 0.002167
0.982269 0.613556 0.002075
0.991058 0.613922 0.002899
0.992188 0.614441 0.003540
0.001404 0.658600 0.001343
0.009491 0.655518 0.001343
0.051025 0.653046 0.001343
0.098602 0.651031 0.001343
0.143463 0.649628 0.001343
0.186951 0.648499 0.001373
0.228821 0.647552 0.001312
0.269104 0.646606 0.001251
0.308014 0.645844 0.001160
0.345886 0.645172 0.001038
0.382965 0.644745 0.000916
0.419312 0.644257 0.000885
0.454773 0.644012 0.001068
0.489746 0.643768 0.001160
0.524323 0.643677 0.001160
0.558289 0.643494 0.001129
0.591705 0.643402 0.001404
0.624573 0.643585 0.001556
0.657227 0.643494 0.001740
0.689209 0.643677 0.001892
0.720886 0.643524 0.001984
0.752167 0.643738 0.002014
0.783203 0.643951 0.002045
0.813873 0.644073 0.002075
0.844238 0.644257 0.002045
0.874420 0.644501 0.002014
0.904144 0.644836 0.002258
0.933777 0.644989 0.003052
0.962067 0.645264 0.003540
0.984406 0.645264 0.003815
0.991150 0.645660 0.004364
0.992706 0.646118 0.004761
0.001984 0.690216 0.002014
0.012573 0.687164 0.001740
0.056091 0.684814 0.001648
0.101379 0.683044 0.001587
0.145813 0.681763 0.001495
0.189026 0.680634 0.001373
0.230621 0.679626 0.001190
0.270599 0.678711 0.001007
0.309479 0.677887 0.001007
0.347168 0.677216 0.001190
0.383942 0.676727 0.001251
0.420166 0.676239 0.001251
0.455566 0.675964 0.001404
0.490356 0.675720 0.001678
0.524780 0.675507 0.001801
0.558685 0.675415 0.001831
0.591949 0.675293 0.001892
0.624695 0.675262 0.001953
0.657074 0.675415 0.001984
0.689056 0.675323 0.002014
0.720490 0.675415 0.002014
0.751678 0.675476 0.001984
0.782684 0.675598 0.001892
0.813324 0.675720 0.002441
0.843628 0.675964 0.003113
0.873718 0.676117 0.003479
0.903534 0.676300 0.003784
0.933044 0.676453 0.004303
0.961212 0.676575 0.004639
0.984955 0.676636 0.004730
0.991821 0.676910 0.004547
0.993134 0.677277 0.004272
0.002075 0.721405 0.002075
0.020172 0.718567 0.001862
0.059052 0.716217 0.001678
0.104279 0.714539 0.001495
0.147858 0.713379 0.001251
0.190643 0.712250 0.001221
0.232483 0.711243 0.001465
0.272095 0.710388 0.001434
0.310760 0.709473 0.001404
0.348419 0.708954 0.001648
0.385071 0.708374 0.001831
0.420990 0.707977 0.001862
0.456329 0.707581 0.001923
0.491058 0.707153 0.002014
0.525269 0.707001 0.002045
0.559052 0.706726 0.002045
0.592224 0.706696 0.002045
0.624817 0.706573 0.001984
0.657104 0.706451 0.001923
0.688904 0.706543 0.001831
0.720276 0.706635 0.002686
0.751373 0.706757 0.003235
0.782349 0.706940 0.003479
0.812988 0.707214 0.003540
0.843201 0.707214 0.003723
0.873169 0.707397 0.003906
0.902985 0.707550 0.003998
0.932343 0.707611 0.004120
0.961243 0.707642 0.004120
0.982635 0.707642 0.004028
0.992584 0.707886 0.003906
0.993439 0.708130 0.003754
0.002045 0.752136 0.001984
0.024872 0.749481 0.001709
0.061615 0.747253 0.001984
0.107269 0.745667 0.002319
0.149933 0.744507 0.002228
0.192383 0.743439 0.002075
0.234192 0.742371 0.002167
0.273773 0.741547 0.002045
0.312073 0.740814 0.002014
0.349548 0.740204 0.002075
0.386230 0.739502 0.002136
0.421875 0.739105 0.002136
0.457031 0.738770 0.002136
0.491699 0.738403 0.002075
0.525848 0.738007 0.002014
0.559387 0.737885 0.001923
0.592438 0.737610 0.002136
0.625000 0.737610 0.002808
0.657196 0.737549 0.003296
0.688965 0.737427 0.003448
0.720306 0.737518 0.003296
0.751343 0.737579 0.003632
0.782196 0.737823 0.003845
0.812775 0.737885 0.003906
0.842957 0.738068 0.003815
0.872772 0.738159 0.003693
0.902466 0.738251 0.003571
0.931793 0.738312 0.003510
0.960968 0.738312 0.003540
0.981445 0.738312 0.003540
0.992615 0.738464 0.003540
0.993896 0.738708 0.004028
0.003876 0.782745 0.003876
0.024567 0.780121 0.003876
0.064514 0.778168 0.003510
0.109833 0.776611 0.003143
0.152283 0.775299 0.002716
0.194550 0.774139 0.002594
0.235779 0.773071 0.002472
0.275391 0.772278 0.002350
0.313568 0.771576 0.002289
0.350739 0.770935 0.002258
0.387268 0.770264 0.002228
0.422852 0.769836 0.002136
0.457855 0.769501 0.002014
0.492371 0.769135 0.002380
0.526459 0.768860 0.003082
0.559937 0.768585 0.003571
0.592804 0.768433 0.003723
0.625336 0.768188 0.003845
0.657471 0.768188 0.003967
0.689087 0.768280 0.003906
0.720367 0.768188 0.003815
0.751343 0.768219 0.003693
0.782104 0.768280 0.003662
0.812500 0.768372 0.003601
0.842651 0.768280 0.003571
0.872498 0.768433 0.003540
0.902100 0.768463 0.003479
0.931427 0.768494 0.003387
0.960052 0.768555 0.004456
0.983521 0.768585 0.005951
0.992706 0.768768 0.007141
0.994598 0.768951 0.008270
0.005707 0.812866 0.005524
0.021942 0.810272 0.004120
0.068115 0.808411 0.003479
0.112457 0.806824 0.003021
0.154846 0.805573 0.002716
0.196686 0.804413 0.002563
0.237488 0.803497 0.002502
0.276855 0.802734 0.002411
0.315002 0.801941 0.002258
0.352051 0.801178 0.002197
0.388336 0.800690 0.002686
0.423950 0.800201 0.003601
0.458893 0.799835 0.004059
0.493195 0.799500 0.004089
0.527100 0.799225 0.004059
0.560577 0.798828 0.003876
0.593292 0.798737 0.003815
0.625641 0.798584 0.003845
0.657776 0.798401 0.003845
0.689331 0.798370 0.003754
0.720428 0.798492 0.003632
0.751312 0.798370 0.003540
0.782043 0.798340 0.003479
0.812378 0.798492 0.003448
0.842407 0.798462 0.003387
0.872223 0.798553 0.005005
0.901917 0.798767 0.006378
0.931244 0.798737 0.007416
0.960022 0.798676 0.008423
0.986237 0.798676 0.009430
0.993195 0.798737 0.010040
0.995239 0.798828 0.010376
0.004578 0.842590 0.004364
0.025452 0.840179 0.003448
0.072144 0.838104 0.002960
0.115234 0.836761 0.002838
0.157196 0.835510 0.002686
0.198547 0.834351 0.002533
0.239410 0.833405 0.002563
0.278412 0.832581 0.003326
0.316376 0.832001 0.004272
0.353424 0.831268 0.004761
0.389557 0.830719 0.004791
0.424957 0.830261 0.004700
0.459839 0.829865 0.004425
0.494080 0.829468 0.004211
0.527771 0.829285 0.003967
0.561066 0.828949 0.003754
0.593811 0.828644 0.003601
0.626038 0.828461 0.003540
0.658020 0.828247 0.003510
0.689606 0.828186 0.003510
0.720581 0.828125 0.003448
0.751343 0.828033 0.003998
0.782074 0.828125 0.005493
0.812500 0.828247 0.006836
0.842499 0.828369 0.007812
0.872223 0.828400 0.008484
0.901855 0.828491 0.009277
0.931213 0.828430 0.009705
0.960083 0.828461 0.009552
0.983459 0.828552 0.008911
0.994812 0.828461 0.008026
0.995544 0.828552 0.007416
0.003784 0.872009 0.003632
0.032593 0.869690 0.003235
0.075104 0.867706 0.002930
0.118103 0.866302 0.002869
0.159332 0.864990 0.004242
0.200348 0.863983 0.005341
0.241028 0.863129 0.005829
0.280060 0.862183 0.006042
0.317841 0.861481 0.005981
0.354736 0.860870 0.005585
0.390747 0.860352 0.005005
0.425964 0.859802 0.004425
0.460693 0.859344 0.004059
0.494965 0.858887 0.003845
0.528534 0.858643 0.003723
0.561646 0.858521 0.003601
0.594330 0.858276 0.003571
0.626465 0.858002 0.003479
0.658234 0.857941 0.004364
0.689728 0.857849 0.005890
0.720795 0.857788 0.007233
0.751587 0.857727 0.008148
0.782257 0.857697 0.008850
0.812592 0.857788 0.009338
0.842499 0.857849 0.009338
0.872101 0.857880 0.008911
0.901642 0.857910 0.008331
0.930878 0.857880 0.007812
0.959717 0.857971 0.007294
0.981506 0.857819 0.006683
0.994720 0.857788 0.006104
0.995819 0.857880 0.005737
0.003998 0.900848 0.003784
0.037506 0.898560 0.005798
0.077942 0.896881 0.007019
0.120758 0.895569 0.007538
0.161438 0.894287 0.007874
0.202179 0.893341 0.007629
0.242462 0.892517 0.006836
0.281555 0.891571 0.005798
0.319092 0.890991 0.004974
0.355774 0.890228 0.004486
0.391754 0.889526 0.004211
0.426849 0.888977 0.003967
0.461395 0.888641 0.003815
0.495544 0.888275 0.003693
0.529144 0.888031 0.003693
0.562134 0.887817 0.004791
0.594727 0.887604 0.006470
0.626831 0.887512 0.007751
0.658630 0.887329 0.008606
0.689941 0.887329 0.009277
0.721008 0.887146 0.009674
0.751740 0.887207 0.009521
0.782318 0.887115 0.009094
0.812469 0.887085 0.008392
0.842316 0.887054 0.007568
0.871857 0.887115 0.006744
0.901337 0.887146 0.006256
0.930511 0.887115 0.005951
0.959351 0.887085 0.005737
0.983215 0.886810 0.005585
0.994751 0.886871 0.007996
0.996399 0.887207 0.010162
0.010284 0.929504 0.010315
0.038025 0.927277 0.010651
0.080933 0.925629 0.010193
0.123138 0.924286 0.009033
0.163666 0.923187 0.007355
0.203827 0.922302 0.005737
0.243683 0.921448 0.004913
0.282623 0.920502 0.004486
0.320251 0.919891 0.004211
0.356567 0.919250 0.003998
0.392365 0.918579 0.003845
0.427460 0.918091 0.004181
0.461975 0.917786 0.005585
0.496063 0.917511 0.007294
0.529724 0.917114 0.008606
0.562683 0.916870 0.009399
