Postproduction/IWLTBAP - Humble/LUTs by IWLTBAP (CUBE)/UTILITY/Panasonic Cine-D to Rec.709/U-PANASONIC-CINE-D-V1-LTR.cube
# Copyright: (C) Copyright 2010-2018 by IWLTBAP SAS
# Cannot be resold, shared or otherwise redistributed
# Website: https://luts.iwltbap.com
TITLE "Panasonic Cine-D Version 1 (Utility LOG to Rec.709)"
LUT_3D_SIZE 5
DOMAIN_MIN 0.000000 0.000000 0.000000
DOMAIN_MAX 0.903226 0.903226 0.903226
0.000397 0.000397 0.000397
0.393860 0.000488 0.000488
0.794556 0.000488 0.000488
0.994385 0.000397 0.000397
0.994385 0.000397 0.000397
0.000305 0.317841 0.000580
0.274628 0.264801 0.000183
0.640350 0.242462 0.000183
0.954102 0.225952 0.000183
0.989624 0.212250 0.000092
0.000183 0.625946 0.000305
0.186829 0.566376 0.000183
0.552368 0.539459 0.000092
0.864288 0.519501 0.000092
0.990845 0.501953 0.000092
0.000092 0.887360 0.000092
0.106049 0.826111 0.000092
0.477966 0.797882 0.000092
0.790253 0.776184 0.000092
0.993622 0.756531 0.000000
0.000092 0.976196 0.000092
0.029327 0.975830 0.000000
0.405182 0.978912 0.000000
0.719788 0.981415 0.000000
0.993774 0.980560 0.000000
0.000397 0.000397 0.414764
0.381134 0.000488 0.378326
0.778778 0.000397 0.394226
0.991119 0.000305 0.392151
0.991150 0.000305 0.388367
0.000183 0.298248 0.306396
0.251099 0.243652 0.251221
0.619476 0.220612 0.227539
0.932892 0.203278 0.210632
0.990112 0.188538 0.196472
0.000183 0.604156 0.227478
0.157990 0.543976 0.161102
0.529755 0.517090 0.127777
0.842438 0.496552 0.100525
0.993042 0.478668 0.080322
0.000092 0.864960 0.154205
0.078125 0.802917 0.079376
0.453064 0.774567 0.036407
0.765869 0.751984 0.008026
0.993866 0.731873 0.003937
0.000000 0.976929 0.078888
0.005341 0.976196 0.004944
0.378174 0.978790 0.001160
0.693817 0.979218 0.000000
0.980164 0.966278 0.000000
0.000488 0.000549 0.802643
0.388672 0.000427 0.780823
0.770813 0.000305 0.779633
0.984833 0.000031 0.771057
0.984955 0.000031 0.766113
0.000183 0.289856 0.692108
0.235992 0.234314 0.640045
0.606506 0.210632 0.617676
0.919617 0.193146 0.601501
0.988617 0.177734 0.587860
0.000092 0.593170 0.615082
0.143585 0.533234 0.554901
0.514191 0.506714 0.527069
0.828766 0.486633 0.506287
0.993591 0.468994 0.488647
0.000092 0.853607 0.547150
0.061676 0.791504 0.481812
0.433624 0.764862 0.450897
0.752991 0.743256 0.426361
0.997559 0.724487 0.405334
0.000000 0.978973 0.481140
0.003448 0.978729 0.412231
0.350098 0.983368 0.379395
0.681427 0.978546 0.352020
0.969604 0.959930 0.328583
0.000397 0.000702 0.994598
0.387268 0.000580 0.990356
0.760956 0.000000 0.984711
0.983429 0.000000 0.984192
0.983429 0.000000 0.984192
0.000092 0.284241 0.986267
0.226288 0.228516 0.970612
0.593964 0.204620 0.949432
0.909271 0.185699 0.933685
0.988098 0.169525 0.920074
0.000092 0.585052 0.946075
0.132172 0.524902 0.888031
0.498108 0.499207 0.861755
0.817047 0.478607 0.841949
0.992950 0.460724 0.824982
0.000000 0.844116 0.879089
0.048431 0.781738 0.816650
0.409302 0.756195 0.788422
0.739014 0.734711 0.765442
0.996277 0.716156 0.746063
0.000000 0.979584 0.814911
0.002167 0.979584 0.749390
0.337372 0.985138 0.720215
0.665619 0.970123 0.695892
0.955933 0.951508 0.674927
0.000397 0.000702 0.994598
0.388214 0.000580 0.990326
0.757751 0.000000 0.984772
0.983429 0.000000 0.984192
0.983429 0.000000 0.984192
0.000092 0.278534 0.986267
0.219299 0.221741 0.987152
0.585968 0.197388 0.988068
0.901489 0.177948 0.989319
0.987915 0.161407 0.989227
0.000000 0.577118 0.986633
0.122742 0.516937 0.987854
0.483490 0.491608 0.991577
0.806976 0.471100 0.992981
0.992340 0.453033 0.993256
0.000000 0.834839 0.987579
0.036896 0.772339 0.988129
0.397949 0.748383 0.993561
0.726776 0.727448 0.995117
0.994659 0.708771 0.995728
0.000000 0.979218 0.987183
0.001068 0.979279 0.987244
0.326935 0.982208 0.993805
0.650421 0.962067 0.994415
0.943726 0.943390 0.984070
