Postproduction/IWLTBAP - Humble/LUTs by IWLTBAP (CUBE)/UTILITY/Panasonic Cine-D to Rec.709/U-PANASONIC-CINE-D-V1-LTR.cube
# Copyright: (C) Copyright 2010-2018 by IWLTBAP SAS
# Cannot be resold, shared or otherwise redistributed
# Website: https://luts.iwltbap.com
TITLE "Panasonic Cine-D Version 1 (Utility LOG to Rec.709)"
LUT_3D_SIZE 32
0.000397 0.000397 0.000397
0.000488 0.000397 0.000397
0.006714 0.000397 0.000397
0.116760 0.000397 0.000397
0.196625 0.000397 0.000397
0.266479 0.000397 0.000397
0.331573 0.000488 0.000488
0.393860 0.000488 0.000488
0.453918 0.000488 0.000488
0.512512 0.000488 0.000488
0.571259 0.000488 0.000488
0.631378 0.000488 0.000488
0.689392 0.000488 0.000488
0.742981 0.000488 0.000488
0.794556 0.000488 0.000488
0.844452 0.000488 0.000488
0.893188 0.000488 0.000488
0.940491 0.000397 0.000488
0.980377 0.000397 0.000397
0.994385 0.000397 0.000397
0.994385 0.000397 0.000397
0.994385 0.000397 0.000397
0.994385 0.000397 0.000397
0.994385 0.000397 0.000397
0.994385 0.000397 0.000397
0.994385 0.000397 0.000397
0.994385 0.000397 0.000397
0.994385 0.000397 0.000397
0.994385 0.000397 0.000397
0.994385 0.000397 0.000397
0.994385 0.000397 0.000397
0.994385 0.000397 0.000397
0.000397 0.000397 0.000397
0.000397 0.000397 0.000397
0.002930 0.000397 0.000397
0.101013 0.000397 0.000397
0.182739 0.000397 0.000397
0.254578 0.000397 0.000397
0.321991 0.000488 0.000488
0.388123 0.000488 0.000488
0.454773 0.000488 0.000488
0.515839 0.000488 0.000488
0.573364 0.000488 0.000488
0.628326 0.000488 0.000488
0.681091 0.000488 0.000488
0.732178 0.000488 0.000488
0.782227 0.000488 0.000488
0.830902 0.000488 0.000488
0.878723 0.000488 0.000488
0.925262 0.000427 0.000488
0.971130 0.000397 0.000397
0.992645 0.000397 0.000397
0.994385 0.000397 0.000397
0.994385 0.000397 0.000397
0.994385 0.000397 0.000397
0.994385 0.000397 0.000397
0.994385 0.000397 0.000397
0.994385 0.000397 0.000397
0.994385 0.000397 0.000397
0.994385 0.000397 0.000397
0.994385 0.000397 0.000397
0.994385 0.000397 0.000397
0.994385 0.000397 0.000397
0.994385 0.000397 0.000397
0.000397 0.002167 0.000397
0.000397 0.002228 0.000397
0.002045 0.001923 0.000397
0.082031 0.001801 0.000397
0.168091 0.001709 0.000397
0.247314 0.001648 0.000397
0.316223 0.001648 0.000488
0.379974 0.001587 0.000488
0.440247 0.001526 0.000488
0.497437 0.001495 0.000488
0.552826 0.001434 0.000488
0.606781 0.001373 0.000488
0.658356 0.001343 0.000488
0.708649 0.001282 0.000488
0.758087 0.001251 0.000488
0.806244 0.001190 0.000488
0.853424 0.001160 0.000488
0.899689 0.001129 0.000488
0.945160 0.000977 0.000458
0.981659 0.000946 0.000397
0.994324 0.000916 0.000397
0.994324 0.000885 0.000397
0.994324 0.000854 0.000397
0.994324 0.000793 0.000397
0.994324 0.000763 0.000397
0.994354 0.000732 0.000397
0.994354 0.000702 0.000397
0.994354 0.000671 0.000397
0.994354 0.000641 0.000397
0.994354 0.000610 0.000397
0.994354 0.000580 0.000397
0.994385 0.000549 0.000397
0.000305 0.064850 0.000397
0.000305 0.066040 0.000397
0.001495 0.065216 0.000397
0.058044 0.053894 0.000397
0.142120 0.048920 0.000397
0.214478 0.045380 0.000397
0.280609 0.042480 0.000458
0.342590 0.039825 0.000397
0.401428 0.037323 0.000366
0.457916 0.035187 0.000366
0.512482 0.032837 0.000366
0.565552 0.030426 0.000366
0.617157 0.028381 0.000397
0.666992 0.026520 0.000397
0.716034 0.024750 0.000397
0.764099 0.022736 0.000397
0.811127 0.020996 0.000397
0.857269 0.019073 0.000397
0.902527 0.017151 0.000427
0.947021 0.015411 0.000366
0.982422 0.013672 0.000336
0.992767 0.011871 0.000336
0.992889 0.010040 0.000336
0.992950 0.009247 0.000336
0.993042 0.008698 0.000336
0.993103 0.008148 0.000336
0.993195 0.007629 0.000336
0.993286 0.007111 0.000336
0.993378 0.006561 0.000366
0.993439 0.006042 0.000366
0.993500 0.005615 0.000366
0.993561 0.005127 0.000366
0.000305 0.147858 0.000488
0.000305 0.144043 0.000488
0.001038 0.136780 0.000488
0.040161 0.123352 0.000488
0.123535 0.116882 0.000488
0.195038 0.112213 0.000397
0.260162 0.108490 0.000305
0.321167 0.104919 0.000305
0.379456 0.102112 0.000305
0.435303 0.099426 0.000305
0.489410 0.096863 0.000305
0.541901 0.094330 0.000305
0.593140 0.091888 0.000305
0.642944 0.089661 0.000305
0.691528 0.087341 0.000305
0.739166 0.085236 0.000305
0.786072 0.083038 0.000305
0.831909 0.080963 0.000305
0.876862 0.079041 0.000305
0.921234 0.076874 0.000305
0.964966 0.075165 0.000244
0.987976 0.073425 0.000244
0.990723 0.071716 0.000275
0.990753 0.070221 0.000275
0.990784 0.068665 0.000275
0.990814 0.067108 0.000275
0.990875 0.065552 0.000275
0.990906 0.064240 0.000275
0.990906 0.062653 0.000275
0.990936 0.061249 0.000305
0.990967 0.060028 0.000305
0.991028 0.058868 0.000305
0.000305 0.210571 0.000488
0.000305 0.205566 0.000488
0.000671 0.197052 0.000488
0.022980 0.183136 0.000488
0.107483 0.176056 0.000488
0.178528 0.170654 0.000458
0.243286 0.166107 0.000366
0.303986 0.162415 0.000305
0.361786 0.158875 0.000275
0.417419 0.155914 0.000214
0.471008 0.153046 0.000244
0.523468 0.150421 0.000244
0.574280 0.147858 0.000244
0.623871 0.145264 0.000244
0.672058 0.142792 0.000275
0.719421 0.140533 0.000275
0.766113 0.138306 0.000244
0.812042 0.136139 0.000183
0.856750 0.133850 0.000183
0.901031 0.131042 0.000183
0.944427 0.128418 0.000183
0.980408 0.126251 0.000183
0.990021 0.124420 0.000183
0.990021 0.122711 0.000183
0.990021 0.121063 0.000183
0.990051 0.119354 0.000183
0.990051 0.117767 0.000183
0.990051 0.116241 0.000183
0.990082 0.114716 0.000183
0.990082 0.113190 0.000183
0.990082 0.111908 0.000183
0.990082 0.110474 0.000183
0.000305 0.266327 0.000580
0.000305 0.260345 0.000580
0.000305 0.251587 0.000549
0.008118 0.237122 0.000488
0.092438 0.229645 0.000488
0.163666 0.223999 0.000397
0.228577 0.219269 0.000244
0.288910 0.215057 0.000214
0.346466 0.211365 0.000183
0.401825 0.208008 0.000183
0.455292 0.205048 0.000183
0.507263 0.202057 0.000183
0.557892 0.199402 0.000183
0.607361 0.196716 0.000183
0.655731 0.194183 0.000183
0.702942 0.191803 0.000183
0.749451 0.189484 0.000183
0.795013 0.187256 0.000183
0.839813 0.184814 0.000183
0.883881 0.182556 0.000183
0.927338 0.180328 0.000183
0.970032 0.177795 0.000153
0.988739 0.175598 0.000153
0.989746 0.173676 0.000153
0.989777 0.171722 0.000183
0.989777 0.170044 0.000183
0.989777 0.168213 0.000183
0.989807 0.166534 0.000183
0.989807 0.164856 0.000183
0.989807 0.163147 0.000183
0.989838 0.161713 0.000183
0.989838 0.160156 0.000183
0.000305 0.317841 0.000580
0.000305 0.311462 0.000580
0.000305 0.302277 0.000580
0.002991 0.287750 0.000580
0.077515 0.279846 0.000488
0.149261 0.273926 0.000427
0.214325 0.269043 0.000244
0.274628 0.264801 0.000183
0.332153 0.260742 0.000183
0.387115 0.257324 0.000183
0.440674 0.254089 0.000183
0.492493 0.250885 0.000183
0.542786 0.247925 0.000183
0.592133 0.245117 0.000183
0.640350 0.242462 0.000183
0.687469 0.239899 0.000183
0.733856 0.237305 0.000183
0.779358 0.234955 0.000183
0.824158 0.232666 0.000183
0.868011 0.230438 0.000183
0.911316 0.228149 0.000183
0.954102 0.225952 0.000183
0.984161 0.223450 0.000122
0.989624 0.221375 0.000092
0.989624 0.219452 0.000092
0.989624 0.217621 0.000092
0.989624 0.215851 0.000092
0.989624 0.214050 0.000092
0.989624 0.212250 0.000092
0.989624 0.210449 0.000092
0.989624 0.208893 0.000092
0.989624 0.207245 0.000092
0.000244 0.366760 0.000580
0.000275 0.360229 0.000580
0.000305 0.350586 0.000580
0.002472 0.335999 0.000580
0.063171 0.327881 0.000488
0.135284 0.321564 0.000366
0.200592 0.316528 0.000214
0.260895 0.311920 0.000183
0.318268 0.307922 0.000183
0.373352 0.304321 0.000183
0.426697 0.300690 0.000183
0.478485 0.297485 0.000183
0.528748 0.294495 0.000183
0.577972 0.291626 0.000183
0.626129 0.288788 0.000183
0.673096 0.286133 0.000183
0.719421 0.283600 0.000183
0.764862 0.281097 0.000183
0.809540 0.278748 0.000183
0.853241 0.276398 0.000183
0.896698 0.273895 0.000183
0.939240 0.271484 0.000153
0.978149 0.269073 0.000092
0.989624 0.266907 0.000092
0.989624 0.264893 0.000092
0.989624 0.262817 0.000092
0.989624 0.260956 0.000092
0.989624 0.259186 0.000092
0.989624 0.257385 0.000092
0.989624 0.255585 0.000092
0.989624 0.253967 0.000092
0.989624 0.252289 0.000092
0.000183 0.413483 0.000580
0.000183 0.406677 0.000580
0.000183 0.396973 0.000580
0.001862 0.382263 0.000580
0.049866 0.373749 0.000488
0.121918 0.367493 0.000397
0.187561 0.362091 0.000183
0.248016 0.357483 0.000183
0.305511 0.353363 0.000183
0.360291 0.349487 0.000183
0.413635 0.345886 0.000183
0.465393 0.342499 0.000183
0.515594 0.339417 0.000183
0.564667 0.336212 0.000183
0.612762 0.333313 0.000183
0.659912 0.330688 0.000183
0.705994 0.328003 0.000183
0.751434 0.325287 0.000183
0.795868 0.322845 0.000183
0.839783 0.320496 0.000183
0.882935 0.317993 0.000122
0.925629 0.315704 0.000122
0.967590 0.313019 0.000092
0.988007 0.310638 0.000092
0.989716 0.308533 0.000092
0.989685 0.306488 0.000092
0.989685 0.304474 0.000092
0.989655 0.302582 0.000092
0.989655 0.300659 0.000092
0.989655 0.298859 0.000092
0.989624 0.297180 0.000092
0.989624 0.295410 0.000092
0.000183 0.458344 0.000580
0.000183 0.451538 0.000580
0.000183 0.441711 0.000580
0.001343 0.426849 0.000580
0.036041 0.418152 0.000488
0.108704 0.411591 0.000366
0.174683 0.406219 0.000183
0.235291 0.401550 0.000183
0.292755 0.397125 0.000183
0.347748 0.393158 0.000183
0.401001 0.389465 0.000183
0.452667 0.385895 0.000183
0.502808 0.382660 0.000183
0.551727 0.379547 0.000183
0.599854 0.376587 0.000183
0.646973 0.373596 0.000183
0.693115 0.371063 0.000183
0.738373 0.368439 0.000153
0.782806 0.365845 0.000153
0.826752 0.363281 0.000153
0.869843 0.360779 0.000092
0.912445 0.358398 0.000092
0.954407 0.355804 0.000092
0.984833 0.353302 0.000092
0.989807 0.350922 0.000092
0.989807 0.348816 0.000092
0.989807 0.346680 0.000092
0.989807 0.344666 0.000092
0.989807 0.342743 0.000092
0.989807 0.340912 0.000092
0.989807 0.339203 0.000092
0.989807 0.337219 0.000092
0.000183 0.501953 0.000519
0.000183 0.494843 0.000549
0.000183 0.484894 0.000580
0.000824 0.470032 0.000580
0.022095 0.461365 0.000488
0.095642 0.454712 0.000275
0.161926 0.449066 0.000183
0.222961 0.444305 0.000183
0.280579 0.439911 0.000183
0.335541 0.435730 0.000183
0.388733 0.431946 0.000183
0.440369 0.428406 0.000183
0.490448 0.424927 0.000183
0.539459 0.421661 0.000183
0.587494 0.418701 0.000183
0.634521 0.415649 0.000183
0.680511 0.412750 0.000122
0.725647 0.410034 0.000122
0.770294 0.407501 0.000092
0.814209 0.404999 0.000092
0.857391 0.402679 0.000092
0.899841 0.399963 0.000092
0.941833 0.397430 0.000092
0.980255 0.394684 0.000092
0.990021 0.392303 0.000092
0.989990 0.390137 0.000092
0.989990 0.387787 0.000092
0.989990 0.385742 0.000092
0.989990 0.383667 0.000092
0.989960 0.381836 0.000092
0.989960 0.380066 0.000092
0.989960 0.378174 0.000092
0.000183 0.544098 0.000488
0.000183 0.537048 0.000488
0.000183 0.527039 0.000488
0.000336 0.512115 0.000488
0.008636 0.503326 0.000519
0.083130 0.496368 0.000275
0.149261 0.490845 0.000183
0.211029 0.485870 0.000183
0.268646 0.481445 0.000183
0.323700 0.477264 0.000183
0.376923 0.473328 0.000183
0.428558 0.469666 0.000183
0.478729 0.466248 0.000183
0.527496 0.462982 0.000153
0.575592 0.459717 0.000092
0.622528 0.456665 0.000092
0.668579 0.453796 0.000092
0.713562 0.451050 0.000092
0.758118 0.448212 0.000092
0.802094 0.445587 0.000092
0.845337 0.443146 0.000092
0.887695 0.440674 0.000092
0.929718 0.438019 0.000092
0.971283 0.435211 0.000092
0.989319 0.432648 0.000092
0.990265 0.430389 0.000092
0.990234 0.428131 0.000092
0.990234 0.425964 0.000092
0.990204 0.423737 0.000092
0.990204 0.421722 0.000092
0.990204 0.419922 0.000092
0.990173 0.417969 0.000092
0.000183 0.585571 0.000427
0.000183 0.578278 0.000458
0.000183 0.568085 0.000488
0.000183 0.553040 0.000488
0.004364 0.544159 0.000458
0.070587 0.537231 0.000275
0.136322 0.531433 0.000183
0.199005 0.526489 0.000183
0.256714 0.521973 0.000183
0.311829 0.517761 0.000183
0.365265 0.513977 0.000183
0.416931 0.509979 0.000183
0.467041 0.506592 0.000092
0.515869 0.503235 0.000092
0.563751 0.500061 0.000092
0.610840 0.496765 0.000092
0.656891 0.493774 0.000092
0.701904 0.490967 0.000092
0.746338 0.488251 0.000092
0.790070 0.485443 0.000092
0.833435 0.483032 0.000092
0.875854 0.480499 0.000092
0.917847 0.477844 0.000092
0.959259 0.475098 0.000092
0.986908 0.472260 0.000092
0.990479 0.469940 0.000092
0.990479 0.467621 0.000092
0.990448 0.465424 0.000092
0.990448 0.463348 0.000092
0.990448 0.461182 0.000092
0.990448 0.459259 0.000092
0.990417 0.457245 0.000092
0.000183 0.625946 0.000305
0.000183 0.618591 0.000336
0.000183 0.608490 0.000366
0.000183 0.593353 0.000397
0.002930 0.584503 0.000427
0.058289 0.577332 0.000214
0.124023 0.571442 0.000183
0.186829 0.566376 0.000183
0.244995 0.561798 0.000183
0.300140 0.557343 0.000183
0.353607 0.553467 0.000153
0.405365 0.549835 0.000092
0.455627 0.546082 0.000092
0.504486 0.542725 0.000092
0.552368 0.539459 0.000092
0.599365 0.536346 0.000092
0.645447 0.533203 0.000092
0.690582 0.530243 0.000092
0.734833 0.527435 0.000092
0.778656 0.524719 0.000092
0.821991 0.522095 0.000092
0.864288 0.519501 0.000092
0.906372 0.516907 0.000092
0.947632 0.514069 0.000092
0.984680 0.511200 0.000092
0.990906 0.508636 0.000092
0.990906 0.506287 0.000092
0.990875 0.503998 0.000092
0.990845 0.501953 0.000092
0.990814 0.499786 0.000092
0.990784 0.497681 0.000092
0.990753 0.495605 0.000092
0.000183 0.665344 0.000275
0.000183 0.658051 0.000305
0.000183 0.647797 0.000305
0.000183 0.632751 0.000305
0.002319 0.623840 0.000305
0.046021 0.616547 0.000244
0.112427 0.610596 0.000183
0.175018 0.605469 0.000183
0.233521 0.600861 0.000183
0.289062 0.596497 0.000122
0.342346 0.592407 0.000092
0.394165 0.588654 0.000092
0.444458 0.585083 0.000092
0.493317 0.581543 0.000092
0.541260 0.578186 0.000092
0.588287 0.575043 0.000092
0.634308 0.571991 0.000092
0.679443 0.568787 0.000092
0.723755 0.565979 0.000092
0.767426 0.563202 0.000092
0.810730 0.560608 0.000092
0.853119 0.557861 0.000092
0.895081 0.555084 0.000092
0.936493 0.552368 0.000092
0.977203 0.549500 0.000061
0.991211 0.546967 0.000061
0.991180 0.544495 0.000092
0.991150 0.542236 0.000092
0.991119 0.539978 0.000092
0.991089 0.537750 0.000092
0.991089 0.535706 0.000092
0.991058 0.533478 0.000092
0.000183 0.703888 0.000244
0.000183 0.696472 0.000214
0.000183 0.686157 0.000183
0.000183 0.671173 0.000244
0.001678 0.662262 0.000275
0.033691 0.655060 0.000183
0.100800 0.648865 0.000183
0.163086 0.643921 0.000183
0.222168 0.639191 0.000153
0.277924 0.634766 0.000092
0.331421 0.630768 0.000092
0.383362 0.626953 0.000092
0.433594 0.623260 0.000092
0.482513 0.619690 0.000092
0.530518 0.616302 0.000092
0.577423 0.613007 0.000092
0.623596 0.609833 0.000092
0.668579 0.606720 0.000092
0.712921 0.603851 0.000092
0.756775 0.600983 0.000092
0.799774 0.598389 0.000092
0.842285 0.595673 0.000092
0.884216 0.592865 0.000092
0.925629 0.589996 0.000092
0.966431 0.587219 0.000092
0.989532 0.584412 0.000000
0.991577 0.581909 0.000000
0.991547 0.579620 0.000000
0.991547 0.577271 0.000000
0.991516 0.575012 0.000000
0.991516 0.572906 0.000000
0.991486 0.570679 0.000000
0.000183 0.741821 0.000305
0.000183 0.734283 0.000305
0.000183 0.724030 0.000305
0.000183 0.708923 0.000275
0.001068 0.699890 0.000214
0.021057 0.692627 0.000183
0.089386 0.686523 0.000183
0.151184 0.681427 0.000183
0.210785 0.676666 0.000122
0.266968 0.672333 0.000092
0.320618 0.668365 0.000092
0.372681 0.664307 0.000092
0.423004 0.660736 0.000092
0.471863 0.657196 0.000092
0.519897 0.653656 0.000092
0.566864 0.650391 0.000092
0.612915 0.647156 0.000092
0.658051 0.644043 0.000092
0.702515 0.641052 0.000092
0.746094 0.638306 0.000092
0.789215 0.635529 0.000092
0.831665 0.632721 0.000092
0.873566 0.629852 0.000092
0.915009 0.627075 0.000092
0.955750 0.624207 0.000092
0.987793 0.621399 0.000000
0.991913 0.618866 0.000000
0.991852 0.616364 0.000000
0.991821 0.613983 0.000000
0.991791 0.611633 0.000000
0.991760 0.609528 0.000000
0.991730 0.607361 0.000000
0.000183 0.779022 0.000305
0.000183 0.771393 0.000305
0.000183 0.761292 0.000305
0.000183 0.746246 0.000305
0.000458 0.737152 0.000305
0.008636 0.729919 0.000244
0.077972 0.723694 0.000183
0.139404 0.718506 0.000153
0.199310 0.713623 0.000092
0.255920 0.709229 0.000092
0.309753 0.705170 0.000092
0.361969 0.701324 0.000092
0.412323 0.697571 0.000092
0.461334 0.693970 0.000092
0.509277 0.690491 0.000092
0.556183 0.687103 0.000092
0.602417 0.683838 0.000092
0.647614 0.680847 0.000092
0.691925 0.677826 0.000092
0.735565 0.674866 0.000092
0.778656 0.672058 0.000092
0.821106 0.669250 0.000092
0.862946 0.666412 0.000092
0.904510 0.663574 0.000092
0.945343 0.660767 0.000061
0.984161 0.657898 0.000000
0.992340 0.655273 0.000000
0.992310 0.652649 0.000000
0.992279 0.650238 0.000000
0.992249 0.647888 0.000000
0.992218 0.645813 0.000000
0.992188 0.643585 0.000000
0.000183 0.815704 0.000244
0.000183 0.808167 0.000275
0.000183 0.797821 0.000305
0.000183 0.782776 0.000305
0.000183 0.773804 0.000305
0.004944 0.766479 0.000275
0.066528 0.760132 0.000183
0.127991 0.754974 0.000153
0.187347 0.750183 0.000092
0.244873 0.745850 0.000092
0.298859 0.741760 0.000092
0.351257 0.737823 0.000092
0.401733 0.733948 0.000092
0.450806 0.730377 0.000092
0.498749 0.726837 0.000092
0.545776 0.723419 0.000092
0.591827 0.720093 0.000092
0.637146 0.717041 0.000092
0.681580 0.714081 0.000092
0.725006 0.711090 0.000092
0.768097 0.708099 0.000092
0.810608 0.705383 0.000092
0.852417 0.702545 0.000092
0.894104 0.699738 0.000092
0.934967 0.696869 0.000061
0.975342 0.693939 0.000000
0.992249 0.691132 0.000000
0.992767 0.688538 0.000000
0.992737 0.686035 0.000000
0.992706 0.683746 0.000000
0.992676 0.681580 0.000000
0.992645 0.679291 0.000000
0.000183 0.851776 0.000183
0.000183 0.844208 0.000183
0.000183 0.833984 0.000183
0.000183 0.818817 0.000244
0.000183 0.809814 0.000275
0.003448 0.802521 0.000275
0.054840 0.796082 0.000183
0.116913 0.790833 0.000122
0.175476 0.786194 0.000092
0.233582 0.781647 0.000092
0.287994 0.777740 0.000092
0.340576 0.773773 0.000092
0.391083 0.769745 0.000092
0.440186 0.766113 0.000092
0.488281 0.762665 0.000092
0.535461 0.759247 0.000092
0.581451 0.756012 0.000092
0.626740 0.752777 0.000092
0.671173 0.749725 0.000092
0.714844 0.746765 0.000092
0.757812 0.743805 0.000092
0.800262 0.740936 0.000092
0.842194 0.738312 0.000092
0.883759 0.735352 0.000092
0.924713 0.732544 0.000031
0.965118 0.729645 0.000000
0.990997 0.726624 0.000000
0.993225 0.723938 0.000000
0.993195 0.721527 0.000000
0.993164 0.719177 0.000000
0.993134 0.716888 0.000000
0.993103 0.714600 0.000000
0.000092 0.887360 0.000092
0.000122 0.879700 0.000122
0.000153 0.869446 0.000153
0.000183 0.854248 0.000183
0.000183 0.845276 0.000183
0.002716 0.837952 0.000183
0.043182 0.831512 0.000153
0.106049 0.826111 0.000092
0.163879 0.821472 0.000092
0.222534 0.817078 0.000092
0.277374 0.812988 0.000092
0.329956 0.808899 0.000092
0.380676 0.805084 0.000092
0.429718 0.801361 0.000092
0.477966 0.797882 0.000092
0.525085 0.794525 0.000092
0.571381 0.791229 0.000092
0.616577 0.788116 0.000092
0.660950 0.784943 0.000092
0.704620 0.781769 0.000092
0.747681 0.778931 0.000092
0.790253 0.776184 0.000092
0.832245 0.773315 0.000092
0.873749 0.770416 0.000092
0.914703 0.767670 0.000031
0.955017 0.764740 0.000000
0.989807 0.761780 0.000000
0.993683 0.759064 0.000000
0.993622 0.756531 0.000000
0.993591 0.754089 0.000000
0.993561 0.751770 0.000000
0.993530 0.749420 0.000000
0.000092 0.922333 0.000092
0.000092 0.914825 0.000092
0.000092 0.904480 0.000092
0.000092 0.889282 0.000092
0.000122 0.880188 0.000122
0.001953 0.872772 0.000153
0.031433 0.866333 0.000092
0.095276 0.860992 0.000092
0.153137 0.856384 0.000092
0.211212 0.851959 0.000092
0.266418 0.847717 0.000092
0.319336 0.843781 0.000092
0.370056 0.839844 0.000092
0.419312 0.836304 0.000092
0.467773 0.832794 0.000092
0.514923 0.829346 0.000092
0.561157 0.826019 0.000092
0.606415 0.822815 0.000092
0.650879 0.819702 0.000092
0.694611 0.816589 0.000092
0.737732 0.813690 0.000092
0.780151 0.810852 0.000092
0.822357 0.808105 0.000092
0.863678 0.805084 0.000031
0.904694 0.802246 0.000000
0.945129 0.799438 0.000000
0.984863 0.796417 0.000000
0.994171 0.793610 0.000000
0.994141 0.791016 0.000000
0.994080 0.788513 0.000000
0.994049 0.786224 0.000000
0.994019 0.783844 0.000000
0.000092 0.956970 0.000092
0.000092 0.949402 0.000092
0.000092 0.938934 0.000092
0.000092 0.923767 0.000092
0.000092 0.914703 0.000092
0.001160 0.907318 0.000092
0.019348 0.900726 0.000092
0.084595 0.895355 0.000092
0.142731 0.890717 0.000092
0.199829 0.886169 0.000092
0.255554 0.882019 0.000092
0.308594 0.878052 0.000092
0.359650 0.874115 0.000092
0.408997 0.870575 0.000092
0.457581 0.867096 0.000092
0.504761 0.863586 0.000092
0.551056 0.860260 0.000092
0.596405 0.857117 0.000092
0.640961 0.853973 0.000092
0.684662 0.850952 0.000092
0.727753 0.847992 0.000092
0.770203 0.845123 0.000061
0.812195 0.842133 0.000092
0.853821 0.839355 0.000000
0.894958 0.836578 0.000000
0.935242 0.833801 0.000000
0.975616 0.830627 0.000000
0.993866 0.827728 0.000000
0.994629 0.825134 0.000000
0.994598 0.822693 0.000000
0.994568 0.820312 0.000000
0.994537 0.817841 0.000000
0.000092 0.973846 0.000092
0.000092 0.972229 0.000092
0.000092 0.969269 0.000092
0.000092 0.957764 0.000092
0.000092 0.948730 0.000092
0.000458 0.941376 0.000092
0.008331 0.934784 0.000092
0.073700 0.929138 0.000092
0.132111 0.924255 0.000092
0.188385 0.919983 0.000092
0.244110 0.915771 0.000092
0.297791 0.911835 0.000092
0.349121 0.908081 0.000092
0.398560 0.904510 0.000092
0.447021 0.900909 0.000092
0.494568 0.897583 0.000092
0.540894 0.894257 0.000092
0.586456 0.891174 0.000092
0.631012 0.887848 0.000092
0.674652 0.884857 0.000061
0.717804 0.881958 0.000031
0.760284 0.878967 0.000061
0.802460 0.876099 0.000000
0.844116 0.873199 0.000000
0.885193 0.870575 0.000000
0.925720 0.867767 0.000000
0.965912 0.864655 0.000000
0.993011 0.861725 0.000000
0.995056 0.859070 0.000000
0.995026 0.856537 0.000000
0.994995 0.854034 0.000000
0.994965 0.851562 0.000000
0.000092 0.976196 0.000092
0.000092 0.976196 0.000092
0.000092 0.976196 0.000092
0.000092 0.974304 0.000092
0.000092 0.972534 0.000092
0.000092 0.971069 0.000092
0.005096 0.968475 0.000061
0.062622 0.962433 0.000031
0.121704 0.957489 0.000061
0.176971 0.953186 0.000092
0.232239 0.949066 0.000000
0.286530 0.945251 0.000000
0.337952 0.941528 0.000031
0.387634 0.937836 0.000031
0.436127 0.934296 0.000061
0.483704 0.931061 0.000061
0.530457 0.927826 0.000000
0.576050 0.924683 0.000000
0.620575 0.921539 0.000000
0.664276 0.918457 0.000000
0.707550 0.915466 0.000000
0.750336 0.912598 0.000000
0.792358 0.909760 0.000000
0.834076 0.906830 0.000000
0.875092 0.904053 0.000000
0.915649 0.901276 0.000000
0.956055 0.898376 0.000000
0.992188 0.895447 0.000000
0.995483 0.892731 0.000000
0.995453 0.890137 0.000000
0.995422 0.887543 0.000000
0.995392 0.885254 0.000000
0.000092 0.976196 0.000092
0.000092 0.976196 0.000092
0.000092 0.976196 0.000092
0.000092 0.976196 0.000092
0.000092 0.976196 0.000092
0.000092 0.976196 0.000092
0.003845 0.976105 0.000061
0.051758 0.974884 0.000000
0.111359 0.974335 0.000000
0.166626 0.974060 0.000000
0.220673 0.973846 0.000000
0.274872 0.973755 0.000000
0.327057 0.973114 0.000000
0.376740 0.970581 0.000000
0.425537 0.967102 0.000000
0.473114 0.964020 0.000000
0.519867 0.960815 0.000000
0.565399 0.957458 0.000000
0.610138 0.954376 0.000000
0.654022 0.951477 0.000000
0.697266 0.948578 0.000000
0.739960 0.945587 0.000000
0.782104 0.942841 0.000000
0.823792 0.939941 0.000000
0.864960 0.937317 0.000000
0.905792 0.934540 0.000000
0.946106 0.931702 0.000000
0.985901 0.928650 0.000000
0.995514 0.925781 0.000000
0.995544 0.923218 0.000000
0.995544 0.920776 0.000000
0.995544 0.918335 0.000000
0.000092 0.976196 0.000092
0.000092 0.976196 0.000092
0.000092 0.976196 0.000092
0.000092 0.976196 0.000092
0.000092 0.976196 0.000092
0.000092 0.976196 0.000092
0.002991 0.976166 0.000061
0.040710 0.975830 0.000000
0.101166 0.976074 0.000000
0.156647 0.976562 0.000000
0.210297 0.976990 0.000000
0.264252 0.977570 0.000000
0.316742 0.978180 0.000000
0.366669 0.978394 0.000000
0.415375 0.978333 0.000000
0.462982 0.978424 0.000000
