Postproduction/IWLTBAP - Humble/LUTs by IWLTBAP (3DL)/UTILITY/Sony S-Log2 to Rec.709/U-SONY-S-LOG2-V2-LTR.3dl
# Copyright: (C) Copyright 2010-2018 by IWLTBAP SAS
# Cannot be resold, shared or otherwise redistributed
# Website: https://luts.iwltbap.com
0 128 256 384 512 640 768 896 1023
34 34 34
30 24 151
24 5 567
9 0 1094
0 0 1801
0 0 2752
0 0 3647
0 0 4095
0 0 4095
11 190 26
7 139 109
1 72 539
0 25 1077
0 0 1790
0 0 2746
0 0 3646
0 0 4095
0 0 4095
0 636 11
0 604 66
0 541 484
0 384 1046
0 54 1771
0 0 2735
0 0 3642
0 0 4095
0 0 4095
0 1193 0
0 1174 30
0 1138 347
0 1057 974
0 856 1728
0 239 2709
0 0 3634
0 0 4095
0 0 4095
0 1941 0
0 1929 0
0 1908 62
0 1859 799
0 1748 1630
0 1475 2653
0 588 3616
0 0 4095
0 0 4095
0 2922 0
0 2916 0
0 2904 0
0 2879 276
0 2824 1393
0 2681 2527
0 2320 3575
0 1058 4095
0 0 4095
0 3767 0
0 3765 0
0 3762 0
0 3754 0
0 3737 642
0 3697 2204
0 3597 3476
0 3297 4095
0 1771 4095
0 4095 0
0 4095 0
0 4095 0
0 4095 0
0 4095 0
0 4095 1180
0 4095 3188
0 4095 4081
0 3993 4095
0 4095 0
0 4095 0
0 4095 0
0 4095 0
0 4095 0
0 4095 0
0 4095 1946
0 4095 3936
0 4095 4095
236 27 32
217 16 142
182 1 561
109 0 1090
46 0 1799
0 0 2751
0 0 3647
0 0 4095
0 0 4095
120 152 24
101 100 99
81 59 532
56 18 1073
23 0 1788
0 0 2745
0 0 3645
0 0 4095
0 0 4095
38 612 9
34 579 64
28 515 477
14 351 1042
0 44 1768
0 0 2733
0 0 3641
0 0 4095
0 0 4095
0 1179 0
0 1159 28
0 1123 338
0 1041 970
0 837 1725
0 216 2708
0 0 3633
0 0 4095
0 0 4095
0 1933 0
0 1921 0
0 1899 59
0 1849 794
0 1738 1628
0 1464 2652
0 570 3616
0 0 4095
0 0 4095
0 2917 0
0 2911 0
0 2900 0
0 2874 269
0 2818 1390
0 2675 2525
0 2313 3575
0 1045 4095
0 0 4095
0 3766 0
0 3764 0
0 3761 0
0 3753 0
0 3735 637
0 3695 2202
0 3594 3475
0 3294 4095
0 1758 4095
0 4095 0
0 4095 0
0 4095 0
0 4095 0
0 4095 0
0 4095 1176
0 4095 3187
0 4095 4081
0 3992 4095
0 4095 0
0 4095 0
0 4095 0
0 4095 0
0 4095 0
0 4095 0
0 4095 1943
0 4095 3936
0 4095 4095
710 13 29
699 2 125
679 0 549
635 0 1083
528 0 1794
239 0 2749
0 0 3646
0 0 4095
0 0 4095
642 88 20
630 66 87
609 44 520
560 5 1066
442 0 1783
146 0 2742
0 0 3644
0 0 4095
0 0 4095
501 566 5
487 531 59
461 463 463
402 287 1034
259 28 1764
42 0 2731
0 0 3640
0 0 4095
0 0 4095
121 1152 0
111 1132 25
92 1096 322
59 1011 962
21 801 1721
0 177 2705
0 0 3633
0 0 4095
0 0 4095
0 1916 0
0 1904 0
0 1882 54
0 1832 785
0 1719 1623
0 1442 2649
0 536 3615
0 0 4095
0 0 4095
0 2909 0
0 2902 0
0 2891 0
0 2866 256
0 2809 1385
0 2664 2522
0 2299 3574
0 1022 4095
0 0 4095
0 3763 0
0 3762 0
0 3758 0
0 3750 0
0 3732 627
0 3692 2199
0 3591 3474
0 3288 4095
0 1733 4095
0 4095 0
0 4095 0
0 4095 0
0 4095 0
0 4095 0
0 4095 1169
0 4095 3186
0 4095 4081
0 3991 4095
0 4095 0
0 4095 0
0 4095 0
0 4095 0
0 4095 0
0 4095 0
0 4095 1939
0 4095 3935
0 4095 4095
1301 0 21
1294 0 89
1283 0 523
1257 0 1068
1198 0 1784
1061 0 2743
685 0 3644
0 0 4095
0 0 4095
1260 43 13
1254 32 71
1242 14 492
1215 0 1051
1155 0 1774
1013 0 2737
614 0 3642
0 0 4095
0 0 4095
1184 456 0
1177 416 50
1164 335 434
1136 154 1018
1071 8 1754
918 0 2725
471 0 3639
0 0 4095
0 0 4095
998 1093 0
990 1072 17
975 1033 287
942 944 945
866 717 1711
674 108 2700
176 0 3631
0 0 4095
0 0 4095
428 1880 0
416 1868 0
394 1845 44
347 1794 765
238 1679 1612
77 1393 2643
0 456 3613
0 0 4095
0 0 4095
0 2890 0
0 2884 0
0 2872 0
0 2847 228
0 2786 1372
0 2640 2515
0 2270 3572
0 971 4095
0 0 4095
0 3758 0
0 3756 0
0 3752 0
0 3744 0
0 3726 606
0 3685 2191
0 3583 3472
0 3276 4095
0 1679 4095
0 4095 0
0 4095 0
0 4095 0
0 4095 0
0 4095 0
0 4095 1153
0 4095 3182
0 4095 4080
0 3988 4095
0 4095 0
0 4095 0
0 4095 0
0 4095 0
0 4095 0
0 4095 0
0 4095 1929
0 4095 3934
0 4095 4095
2094 0 5
2091 0 59
2083 0 462
2067 0 1034
2032 0 1764
1953 0 2730
1768 0 3640
1272 0 4095
0 0 4095
2069 0 0
2066 0 49
2058 0 429
2042 0 1016
2006 0 1753
1926 0 2724
1738 0 3638
1229 0 4095
0 0 4095
2023 169 0
2019 128 34
2011 73 365
1995 21 983
1958 0 1733
1876 0 2713
1682 0 3635
1147 0 4095
0 0 4095
1918 952 0
1914 928 4
1905 884 210
1888 781 907
1849 501 1689
1761 16 2687
1553 0 3627
948 0 4095
0 0 4095
1665 1799 0
1660 1786 0
1651 1762 27
1630 1709 719
1585 1587 1589
1481 1282 2630
1225 277 3609
426 0 4095
0 0 4095
876 2849 0
867 2843 0
849 2831 0
808 2803 176
723 2737 1345
565 2588 2501
217 2203 3567
0 850 4095
0 0 4095
0 3745 0
0 3743 0
0 3739 0
0 3731 0
0 3712 563
0 3670 2174
0 3565 3466
0 3248 4095
0 1587 4095
0 4095 0
0 4095 0
0 4095 0
0 4095 0
0 4095 0
0 4095 1118
0 4095 3174
0 4095 4079
0 3981 4095
0 4095 0
0 4095 0
0 4095 0
0 4095 0
0 4095 0
0 4095 0
0 4095 1908
0 4095 3932
0 4095 4095
3091 0 0
3089 0 22
3086 0 309
3079 0 956
3062 0 1717
3024 0 2703
2935 0 3632
2713 0 4095
2062 0 4095
3081 0 0
3079 0 14
3075 0 269
3067 0 937
3049 0 1706
3010 0 2697
2921 0 3630
2696 0 4095
2036 0 4095
3058 0 0
3056 0 3
3052 0 199
3044 0 901
3026 0 1686
2986 0 2685
2895 0 3626
2663 0 4095
1988 0 4095
3006 550 0
3004 515 0
3000 447 76
2992 303 819
2973 65 1640
2932 0 2659
2838 0 3618
2590 0 4095
1878 0 4095
2888 1608 0
2885 1593 0
2881 1566 4
2873 1506 610
2852 1366 1537
2805 992 2602
2693 73 3600
2420 0 4095
1610 0 4095
2570 2749 0
2567 2741 0
2562 2727 0
2549 2696 92
2522 2627 1284
2462 2467 2469
2322 2051 3558
1975 529 4095
766 0 4095
1503 3716 0
1497 3714 0
1487 3709 0
1463 3701 0
1409 3681 471
1282 3635 2137
1005 3524 3455
377 3183 4095
0 1387 4095
0 4095 0
0 4095 0
0 4095 0
0 4095 0
0 4095 0
0 4095 1039
0 4095 3157
0 4095 4077
0 3966 4095
0 4095 0
0 4095 0
0 4095 0
0 4095 0
0 4095 0
0 4095 0
0 4095 1861
0 4095 3928
0 4095 4095
3878 0 0
3877 0 0
3876 0 46
3874 0 763
3869 0 1611
3858 0 2643
3834 0 3613
3777 0 4095
3620 0 4095
3874 0 0
3873 0 0
3872 0 35
3870 0 741
3865 0 1600
3855 0 2636
3831 0 3611
3773 0 4095
3614 0 4095
3867 0 0
3867 0 0
3866 0 20
3864 0 697
3859 0 1578
3848 0 2624
3823 0 3607
3764 0 4095
3604 0 4095
3853 0 0
3853 0 0
3852 0 2
3850 0 593
3845 0 1529
3833 0 2598
3808 0 3598
3747 0 4095
3580 0 4095
3821 1073 0
3820 1051 0
3819 1009 0
3816 916 324
3811 681 1418
3799 212 2539
3772 0 3579
3706 0 4095
3524 0 4095
3742 2500 0
3741 2491 0
3740 2475 0
3737 2439 7
3730 2357 1139
3716 2166 2399
3683 1660 3536
3603 180 4095
3382 0 4095
3510 3645 0
3509 3643 0
3506 3638 0
3502 3628 0
3492 3606 257
3470 3555 2053
3420 3425 3429
3295 3026 4095
2938 862 4095
2354 4095 0
2350 4095 0
2344 4095 0
2330 4095 0
2299 4095 0
2229 4095 884
2066 4095 3119
1637 4093 4071
510 3932 4095
0 4095 0
0 4095 0
0 4095 0
0 4095 0
0 4095 0
0 4095 0
0 4095 1753
0 4095 3918
0 4095 4095
4095 0 0
4095 0 0
4095 0 0
4095 0 195
4095 0 1354
4095 0 2505
4095 0 3569
4095 0 4095
4095 0 4095
4095 0 0
4095 0 0
4095 0 0
4095 0 169
4095 0 1340
4095 0 2498
4095 0 3566
4095 0 4095
4095 0 4095
4095 0 0
4095 0 0
4095 0 0
4095 0 124
4095 0 1314
4095 0 2484
4095 0 3562
4095 0 4095
4095 0 4095
4095 0 0
4095 0 0
4095 0 0
4095 0 50
4095 0 1255
4095 0 2455
4095 0 3553
4095 0 4095
4095 0 4095
4095 0 0
4095 0 0
4095 0 0
4095 0 2
4095 0 1118
4095 0 2388
4095 0 3532
4095 0 4095
4095 0 4095
4095 1782 0
4095 1769 0
4095 1744 0
4095 1688 0
4095 1557 739
4095 1233 2237
4095 376 3485
4095 0 4095
4095 0 4095
4095 3454 0
4095 3451 0
4095 3444 0
4095 3431 0
4095 3400 22
4095 3328 1856
4095 3147 3368
4095 2557 4095
4095 257 4095
4089 4095 0
4089 4095 0
4088 4095 0
4088 4095 0
4087 4095 0
4084 4095 516
4077 4095 3031
4052 4056 4059
3990 3838 4095
3335 4095 0
3334 4095 0
3331 4095 0
3325 4095 0
3313 4095 0
3284 4095 0
3219 4095 1471
3059 4095 3895
2528 4095 4095
4095 0 0
4095 0 0
4095 0 0
4095 0 0
4095 0 507
4095 0 2157
4095 0 3459
4095 0 4095
4095 0 4095
4095 0 0
4095 0 0
4095 0 0
4095 0 0
4095 0 483
4095 0 2148
4095 0 3457
4095 0 4095
4095 0 4095
4095 0 0
4095 0 0
4095 0 0
4095 0 0
4095 0 436
4095 0 2131
4095 0 3451
4095 0 4095
4095 0 4095
4095 0 0
4095 0 0
4095 0 0
4095 0 0
4095 0 340
4095 0 2096
4095 0 3440
4095 0 4095
4095 0 4095
4095 0 0
4095 0 0
4095 0 0
4095 0 0
4095 0 177
4095 0 2016
4095 0 3415
4095 0 4095
4095 0 4095
4095 0 0
4095 0 0
4095 0 0
4095 0 0
4095 0 2
4095 0 1830
4095 0 3358
4095 0 4095
4095 0 4095
4095 2726 0
4095 2717 0
4095 2703 0
4095 2671 0
4095 2600 0
4095 2436 1319
4095 2013 3220
4095 530 4085
4095 0 4095
4095 4070 0
4095 4069 0
4095 4068 0
4095 4065 0
4095 4058 0
4095 4044 86
4095 4008 2811
4095 3911 4030
4095 3499 4095
4095 4095 0
4095 4095 0
4095 4095 0
4095 4095 0
4095 4095 0
4095 4095 0
4095 4095 868
4095 4095 3839
4095 4095 4095
