Postproduction/IWLTBAP - Humble/LUTs by IWLTBAP (3DL)/UTILITY/Sony S-Log2 to Rec.709/U-SONY-S-LOG2-V2-LTR.3dl
# Copyright: (C) Copyright 2010-2018 by IWLTBAP SAS
# Cannot be resold, shared or otherwise redistributed
# Website: https://luts.iwltbap.com
0 64 128 192 256 320 384 448 512 576 640 704 768 832 896 960 1023
34 34 34
32 29 61
30 24 151
28 16 346
24 5 567
18 0 813
9 0 1094
0 0 1420
0 0 1801
0 0 2246
0 0 2752
0 0 3235
0 0 3647
0 0 3963
0 0 4095
0 0 4095
0 0 4095
23 66 30
21 59 56
19 54 131
16 46 327
12 35 553
6 19 802
0 2 1085
0 0 1413
0 0 1796
0 0 2241
0 0 2749
0 0 3233
0 0 3647
0 0 3963
0 0 4095
0 0 4095
0 0 4095
11 190 26
9 165 52
7 139 109
5 100 307
1 72 539
0 49 791
0 25 1077
0 1 1407
0 0 1790
0 0 2237
0 0 2746
0 0 3231
0 0 3646
0 0 3962
0 0 4095
0 0 4095
0 0 4095
0 403 20
0 381 46
0 359 85
0 324 277
0 271 517
0 190 775
0 90 1064
0 34 1397
0 1 1782
0 0 2231
0 0 2741
0 0 3228
0 0 3644
0 0 3961
0 0 4095
0 0 4095
0 0 4095
0 636 11
0 620 37
0 604 66
0 579 231
0 541 484
0 482 750
0 384 1046
0 223 1382
0 54 1771
0 0 2222
0 0 2735
0 0 3224
0 0 3642
0 0 3960
0 0 4095
0 0 4095
0 0 4095
0 895 1
0 883 23
0 871 50
0 852 164
0 824 431
0 782 713
0 715 1017
0 606 1360
0 412 1754
0 125 2208
0 0 2725
0 0 3218
0 0 3638
0 0 3959
0 0 4095
0 0 4095
0 0 4095
0 1193 0
0 1183 4
0 1174 30
0 1159 85
0 1138 347
0 1105 655
0 1057 974
0 980 1327
0 856 1728
0 636 2188
0 239 2709
0 0 3209
0 0 3634
0 0 3957
0 0 4095
0 0 4095
0 0 4095
0 1538 0
0 1531 0
0 1523 5
0 1512 40
0 1495 211
0 1470 560
0 1433 907
0 1375 1277
0 1286 1689
0 1142 2158
0 890 2687
0 402 3196
0 0 3627
0 0 3953
0 0 4095
0 0 4095
0 0 4095
0 1941 0
0 1936 0
0 1929 0
0 1921 6
0 1908 62
0 1888 395
0 1859 799
0 1815 1199
0 1748 1630
0 1643 2113
0 1475 2653
0 1184 3176
0 588 3616
0 0 3948
0 0 4095
0 0 4095
0 0 4095
0 2411 0
0 2407 0
0 2402 0
0 2395 0
0 2385 7
0 2369 143
0 2346 612
0 2312 1074
0 2261 1539
0 2183 2044
0 2061 2603
0 1865 3146
0 1526 3600
0 803 3940
0 0 4095
0 0 4095
0 0 4095
0 2922 0
0 2919 0
0 2916 0
0 2911 0
0 2904 0
0 2894 9
0 2879 276
0 2857 860
0 2824 1393
0 2767 1937
0 2681 2527
0 2545 3101
0 2320 3575
0 1926 3928
0 1058 4095
0 0 4095
0 0 4095
0 3385 0
0 3384 0
0 3382 0
0 3379 0
0 3375 0
0 3369 0
0 3360 11
0 3346 443
0 3326 1146
0 3295 1767
0 3247 2402
0 3172 3028
0 3047 3537
0 2824 3910
0 2389 4095
0 1375 4095
0 0 4095
0 3767 0
0 3766 0
0 3765 0
0 3764 0
0 3762 0
0 3759 0
0 3754 0
0 3747 18
0 3737 642
0 3721 1478
0 3697 2204
0 3658 2909
0 3597 3476
0 3491 3882
0 3297 4095
0 2888 4095
0 1771 4095
0 4039 0
0 4039 0
0 4038 0
0 4038 0
0 4037 0
0 4035 0
0 4033 0
0 4031 0
0 4027 34
0 4020 885
0 4011 1868
0 3996 2701
0 3970 3372
0 3926 3836
0 3848 4095
0 3698 4095
0 3358 4095
0 4095 0
0 4095 0
0 4095 0
0 4095 0
0 4095 0
0 4095 0
0 4095 0
0 4095 0
0 4095 0
0 4095 75
0 4095 1180
0 4095 2324
0 4095 3188
0 4095 3757
0 4095 4081
0 4087 4095
0 3993 4095
0 4095 0
0 4095 0
0 4095 0
0 4095 0
0 4095 0
0 4095 0
0 4095 0
0 4095 0
0 4095 0
0 4095 0
0 4095 116
0 4095 1529
0 4095 2824
0 4095 3609
0 4095 4032
0 4095 4095
0 4095 4095
0 4095 0
0 4095 0
0 4095 0
0 4095 0
0 4095 0
0 4095 0
0 4095 0
0 4095 0
0 4095 0
0 4095 0
0 4095 0
0 4095 146
0 4095 1946
0 4095 3297
0 4095 3936
0 4095 4095
0 4095 4095
76 30 33
72 25 60
68 20 147
63 13 341
59 2 564
52 0 810
43 0 1092
30 0 1419
11 0 1800
0 0 2245
0 0 2752
0 0 3234
0 0 3647
0 0 3963
0 0 4095
0 0 4095
0 0 4095
57 61 29
55 55 55
53 50 126
51 43 322
47 31 550
41 15 800
32 0 1084
19 0 1412
3 0 1795
0 0 2240
0 0 2749
0 0 3232
0 0 3646
0 0 3963
0 0 4095
0 0 4095
0 0 4095
45 171 25
44 146 51
42 120 104
39 88 302
35 65 536
29 45 789
20 21 1075
8 0 1405
0 0 1789
0 0 2236
0 0 2746
0 0 3231
0 0 3645
0 0 3962
0 0 4095
0 0 4095
0 0 4095
29 387 19
27 365 45
25 342 83
22 306 273
18 252 514
12 172 772
4 79 1062
0 30 1396
0 0 1781
0 0 2230
0 0 2741
0 0 3228
0 0 3644
0 0 3961
0 0 4095
0 0 4095
0 0 4095
4 624 10
3 608 36
3 591 65
2 566 227
1 528 480
0 467 748
0 368 1044
0 206 1381
0 49 1770
0 0 2221
0 0 2734
0 0 3224
0 0 3641
0 0 3960
0 0 4095
0 0 4095
0 0 4095
0 886 0
0 874 22
0 862 49
0 843 160
0 815 428
0 772 710
0 704 1015
0 594 1359
0 397 1752
0 115 2207
0 0 2724
0 0 3218
0 0 3638
0 0 3959
0 0 4095
0 0 4095
0 0 4095
0 1186 0
0 1176 4
0 1167 29
0 1152 82
0 1131 343
0 1098 652
0 1049 972
0 971 1325
0 846 1727
0 624 2187
0 228 2709
0 0 3209
0 0 3634
0 0 3956
0 0 4095
0 0 4095
0 0 4095
0 1533 0
0 1526 0
0 1518 5
0 1507 39
0 1490 206
0 1464 557
0 1427 905
0 1369 1275
0 1279 1688
0 1135 2157
0 881 2686
0 391 3196
0 0 3626
0 0 3953
0 0 4095
0 0 4095
0 0 4095
0 1937 0
0 1931 0
0 1925 0
0 1916 5
0 1903 61
0 1883 391
0 1854 797
0 1810 1197
0 1743 1629
0 1638 2112
0 1470 2653
0 1177 3176
0 579 3616
0 0 3948
0 0 4095
0 0 4095
0 0 4095
0 2408 0
0 2403 0
0 2398 0
0 2392 0
0 2381 7
0 2366 140
0 2343 609
0 2309 1072
0 2257 1538
0 2179 2043
0 2057 2602
0 1861 3146
0 1520 3600
0 795 3940
0 0 4095
0 0 4095
0 0 4095
0 2920 0
0 2916 0
0 2913 0
0 2909 0
0 2902 0
0 2892 8
0 2877 273
0 2855 858
0 2821 1392
0 2765 1936
0 2678 2526
0 2542 3101
0 2317 3575
0 1922 3928
0 1052 4095
0 0 4095
0 0 4095
0 3384 0
0 3382 0
0 3380 0
0 3378 0
0 3374 0
0 3367 0
0 3358 11
0 3345 441
0 3324 1143
0 3293 1766
0 3246 2401
0 3170 3027
0 3045 3537
0 2822 3910
0 2386 4095
0 1368 4095
0 0 4095
0 3767 0
0 3766 0
0 3765 0
0 3763 0
0 3761 0
0 3758 0
0 3754 0
0 3746 17
0 3736 640
0 3720 1477
0 3696 2203
0 3657 2909
0 3595 3475
0 3490 3882
0 3295 4095
0 2886 4095
0 1764 4095
0 4039 0
0 4038 0
0 4038 0
0 4038 0
0 4037 0
0 4035 0
0 4033 0
0 4030 0
0 4026 33
0 4020 883
0 4010 1867
0 3995 2700
0 3970 3371
0 3925 3836
0 3848 4095
0 3697 4095
0 3356 4095
0 4095 0
0 4095 0
0 4095 0
0 4095 0
0 4095 0
0 4095 0
0 4095 0
0 4095 0
0 4095 0
0 4095 74
0 4095 1178
0 4095 2323
0 4095 3188
0 4095 3757
0 4095 4081
0 4086 4095
0 3992 4095
0 4095 0
0 4095 0
0 4095 0
0 4095 0
0 4095 0
0 4095 0
0 4095 0
0 4095 0
0 4095 0
0 4095 0
0 4095 115
0 4095 1527
0 4095 2823
0 4095 3609
0 4095 4032
0 4095 4095
0 4095 4095
0 4095 0
0 4095 0
0 4095 0
0 4095 0
0 4095 0
0 4095 0
0 4095 0
0 4095 0
0 4095 0
0 4095 0
0 4095 0
0 4095 146
0 4095 1944
0 4095 3296
0 4095 3936
0 4095 4095
0 4095 4095
236 27 32
227 22 59
217 16 142
203 9 337
182 1 561
153 0 808
109 0 1090
72 0 1417
46 0 1799
18 0 2244
0 0 2751
0 0 3234
0 0 3647
0 0 3963
0 0 4095
0 0 4095
0 0 4095
177 57 28
169 51 54
159 46 121
146 39 317
126 28 547
96 11 797
74 0 1082
55 0 1411
35 0 1793
8 0 2240
0 0 2748
0 0 3232
0 0 3646
0 0 3962
0 0 4095
0 0 4095
0 0 4095
120 152 24
111 127 50
101 100 99
91 79 298
81 59 532
68 41 786
56 18 1073
42 0 1404
23 0 1788
2 0 2235
0 0 2745
0 0 3230
0 0 3645
0 0 3962
0 0 4095
0 0 4095
0 0 4095
67 370 18
65 347 44
62 324 81
58 289 268
53 233 510
47 154 770
38 69 1061
25 27 1394
7 0 1780
0 0 2229
0 0 2740
0 0 3227
0 0 3643
0 0 3961
0 0 4095
0 0 4095
0 0 4095
38 612 9
36 596 35
34 579 64
32 554 222
28 515 477
22 452 745
14 351 1042
4 189 1379
0 44 1768
0 0 2220
0 0 2733
0 0 3223
0 0 3641
0 0 3960
0 0 4095
0 0 4095
0 0 4095
5 877 0
5 865 21
4 852 48
3 833 156
2 805 424
1 762 708
0 693 1013
0 581 1357
0 381 1751
0 106 2206
0 0 2723
0 0 3217
0 0 3638
0 0 3959
0 0 4095
0 0 4095
0 0 4095
0 1179 0
0 1169 3
0 1159 28
0 1145 79
0 1123 338
0 1091 649
0 1041 970
0 963 1324
0 837 1725
0 611 2186
0 216 2708
0 0 3209
0 0 3633
0 0 3956
0 0 4095
0 0 4095
0 0 4095
0 1527 0
0 1520 0
0 1512 4
0 1501 38
0 1484 202
0 1459 554
0 1421 903
0 1363 1273
0 1273 1686
0 1127 2156
0 871 2686
0 379 3195
0 0 3626
0 0 3953
0 0 4095
0 0 4095
0 0 4095
0 1933 0
0 1927 0
0 1921 0
0 1912 5
0 1899 59
0 1879 387
0 1849 794
0 1805 1195
0 1738 1628
0 1633 2111
0 1464 2652
0 1169 3176
0 570 3616
0 0 3947
0 0 4095
0 0 4095
0 0 4095
0 2404 0
0 2400 0
0 2395 0
0 2388 0
0 2378 6
0 2362 137
0 2339 606
0 2305 1070
0 2253 1536
0 2175 2042
0 2053 2602
0 1856 3145
0 1514 3600
0 788 3940
0 0 4095
0 0 4095
0 0 4095
0 2917 0
0 2914 0
0 2911 0
0 2906 0
0 2900 0
0 2889 8
0 2874 269
0 2852 855
0 2818 1390
0 2762 1935
0 2675 2525
0 2539 3100
0 2313 3575
0 1917 3928
0 1045 4095
0 0 4095
0 0 4095
0 3383 0
0 3381 0
0 3379 0
0 3376 0
0 3372 0
0 3366 0
0 3357 11
0 3343 438
0 3323 1142
0 3292 1765
0 3244 2401
0 3168 3027
0 3042 3537
0 2820 3910
0 2382 4095
0 1361 4095
0 0 4095
0 3766 0
0 3765 0
0 3764 0
0 3763 0
0 3761 0
0 3758 0
0 3753 0
0 3746 16
0 3735 637
0 3719 1475
0 3695 2202
0 3656 2908
0 3594 3475
0 3489 3882
0 3294 4095
0 2884 4095
0 1758 4095
0 4039 0
0 4038 0
0 4038 0
0 4037 0
0 4036 0
0 4035 0
0 4033 0
0 4030 0
0 4026 32
0 4020 880
0 4010 1865
0 3995 2700
0 3969 3371
0 3925 3836
0 3847 4095
0 3697 4095
0 3355 4095
0 4095 0
0 4095 0
0 4095 0
0 4095 0
0 4095 0
0 4095 0
0 4095 0
0 4095 0
0 4095 0
0 4095 73
0 4095 1176
0 4095 2322
0 4095 3187
0 4095 3756
0 4095 4081
0 4086 4095
0 3992 4095
0 4095 0
0 4095 0
0 4095 0
0 4095 0
0 4095 0
0 4095 0
0 4095 0
0 4095 0
0 4095 0
0 4095 0
0 4095 114
0 4095 1526
0 4095 2823
0 4095 3609
0 4095 4032
0 4095 4095
0 4095 4095
0 4095 0
0 4095 0
0 4095 0
0 4095 0
0 4095 0
0 4095 0
0 4095 0
0 4095 0
0 4095 0
0 4095 0
0 4095 0
0 4095 145
0 4095 1943
0 4095 3296
0 4095 3936
0 4095 4095
0 4095 4095
464 21 31
457 16 57
449 11 135
439 3 331
423 0 556
398 0 804
360 0 1087
300 0 1415
207 0 1797
92 0 2242
29 0 2750
0 0 3233
0 0 3647
0 0 3963
0 0 4095
0 0 4095
0 0 4095
419 51 27
411 46 53
404 41 114
392 33 311
375 22 542
348 6 794
307 0 1079
244 0 1408
154 0 1792
64 0 2238
18 0 2747
0 0 3231
0 0 3646
0 0 3962
0 0 4095
0 0 4095
