Postproduction/IWLTBAP - Humble/LUTs by IWLTBAP (3DL)/UTILITY/Sony S-Log2 to Rec.709/U-SONY-S-LOG2-V5-LTR.3dl
# Copyright: (C) Copyright 2010-2018 by IWLTBAP SAS
# Cannot be resold, shared or otherwise redistributed
# Website: https://luts.iwltbap.com
0 64 128 192 256 320 384 448 512 576 640 704 768 832 896 960 1023
0 0 0
0 0 163
0 0 660
0 0 1114
0 0 1549
0 0 2008
0 0 2509
0 0 3029
0 0 3478
0 0 3829
0 0 4059
0 0 4095
0 0 4095
0 0 4095
0 0 4095
0 0 4095
0 0 4095
0 219 0
0 148 114
0 89 592
0 8 1075
0 0 1522
0 0 1988
0 0 2494
0 0 3019
0 0 3472
0 0 3827
0 0 4058
0 0 4095
0 0 4095
0 0 4095
0 0 4095
0 0 4095
0 0 4095
0 768 0
0 696 67
0 616 518
0 483 1033
0 267 1495
0 49 1968
0 0 2480
0 0 3010
0 0 3467
0 0 3824
0 0 4058
0 0 4095
0 0 4095
0 0 4095
0 0 4095
0 0 4095
0 0 4095
0 1228 0
0 1185 6
0 1140 400
0 1069 970
0 953 1452
0 745 1938
0 368 2457
0 19 2996
0 0 3459
0 0 3820
0 0 4056
0 0 4095
0 0 4095
0 0 4095
0 0 4095
0 0 4095
0 0 4095
0 1679 0
0 1648 0
0 1618 217
0 1571 864
0 1499 1388
0 1383 1893
0 1187 2424
0 795 2975
0 167 3448
0 0 3814
0 0 4054
0 0 4095
0 0 4095
0 0 4095
0 0 4095
0 0 4095
0 0 4095
0 2157 0
0 2135 0
0 2113 53
0 2079 678
0 2028 1285
0 1950 1823
0 1827 2374
0 1621 2944
0 1231 3430
0 410 3806
0 0 4052
0 0 4095
0 0 4095
0 0 4095
0 0 4095
0 0 4095
0 0 4095
0 2679 0
0 2664 0
0 2647 0
0 2623 351
0 2585 1111
0 2529 1714
0 2443 2298
0 2307 2894
0 2084 3402
0 1671 3792
0 770 4047
0 0 4095
0 0 4095
0 0 4095
0 0 4095
0 0 4095
0 0 4095
0 3186 0
0 3178 0
0 3168 0
0 3153 34
0 3130 776
0 3096 1534
0 3044 2177
0 2963 2813
0 2826 3361
0 2589 3772
0 2142 4041
0 1111 4095
0 0 4095
0 0 4095
0 0 4095
0 0 4095
0 0 4095
0 3607 0
0 3602 0
0 3597 0
0 3589 0
0 3577 197
0 3559 1199
0 3533 1981
0 3490 2686
0 3421 3294
0 3306 3740
0 3092 4031
0 2646 4095
0 1469 4095
0 0 4095
0 0 4095
0 0 4095
0 0 4095
0 3924 0
0 3921 0
0 3918 0
0 3915 0
0 3909 0
0 3901 516
0 3888 1630
0 3868 2473
0 3837 3182
0 3787 3688
0 3698 4013
0 3527 4095
0 3133 4095
0 1862 4095
0 0 4095
0 0 4095
0 0 4095
0 4095 0
0 4095 0
0 4095 0
0 4095 0
0 4095 0
0 4094 0
0 4090 862
0 4084 2089
0 4075 2981
0 4060 3599
0 4035 3978
0 3985 4095
0 3863 4095
0 3554 4095
0 2282 4095
0 0 4095
0 0 4095
0 4095 0
0 4095 0
0 4095 0
0 4095 0
0 4095 0
0 4095 0
0 4095 0
0 4095 1201
0 4095 2587
0 4095 3434
0 4095 3915
0 4095 4095
0 4095 4095
0 4066 4095
0 3882 4095
0 2753 4095
0 0 4095
0 4095 0
0 4095 0
0 4095 0
0 4095 0
0 4095 0
0 4095 0
0 4095 0
0 4095 0
0 4095 1607
0 4095 3080
0 4095 3794
0 4095 4091
0 4095 4095
0 4095 4095
0 4095 4095
0 4073 4095
0 3212 4095
0 4095 0
0 4095 0
0 4095 0
0 4095 0
0 4095 0
0 4095 0
0 4095 0
0 4095 0
0 4095 116
0 4095 2077
0 4095 3512
0 4095 4032
0 4095 4095
0 4095 4095
0 4095 4095
0 4095 4095
0 4095 4095
0 4095 0
0 4095 0
0 4095 0
0 4095 0
0 4095 0
0 4095 0
0 4095 0
0 4095 0
0 4095 0
0 4095 200
0 4095 2556
0 4095 3850
0 4095 4095
0 4095 4095
0 4095 4095
0 4095 4095
0 4095 4095
0 4095 0
0 4095 0
0 4095 0
0 4095 0
0 4095 0
0 4095 0
0 4095 0
0 4095 0
0 4095 0
0 4095 0
0 4095 254
0 4095 3027
0 4095 4058
0 4095 4095
0 4095 4095
0 4095 4095
0 4095 4095
0 4095 0
0 4095 0
0 4095 0
0 4095 0
0 4095 0
0 4095 0
0 4095 0
0 4095 0
0 4095 0
0 4095 0
0 4095 0
0 4095 276
0 4095 3472
0 4095 4095
0 4095 4095
0 4095 4095
0 4095 4095
317 0 0
277 0 152
236 0 645
185 0 1105
139 0 1542
71 0 2003
1 0 2506
0 0 3027
0 0 3477
0 0 3829
0 0 4059
0 0 4095
0 0 4095
0 0 4095
0 0 4095
0 0 4095
0 0 4095
127 163 0
105 104 103
84 47 576
54 0 1066
9 0 1516
0 0 1984
0 0 2491
0 0 3017
0 0 3472
0 0 3826
0 0 4058
0 0 4095
0 0 4095
0 0 4095
0 0 4095
0 0 4095
0 0 4095
8 715 0
5 638 56
2 552 500
0 413 1024
0 200 1488
0 25 1964
0 0 2476
0 0 3008
0 0 3466
0 0 3823
0 0 4057
0 0 4095
0 0 4095
0 0 4095
0 0 4095
0 0 4095
0 0 4095
0 1196 0
0 1152 3
0 1105 382
0 1032 959
0 910 1446
0 691 1934
0 308 2454
0 0 2994
0 0 3458
0 0 3819
0 0 4056
0 0 4095
0 0 4095
0 0 4095
0 0 4095
0 0 4095
0 0 4095
0 1657 0
0 1626 0
0 1595 202
0 1547 852
0 1473 1381
0 1355 1888
0 1153 2421
0 748 2973
0 143 3446
0 0 3814
0 0 4054
0 0 4095
0 0 4095
0 0 4095
0 0 4095
0 0 4095
0 0 4095
0 2140 0
0 2119 0
0 2096 42
0 2062 664
0 2011 1277
0 1932 1818
0 1807 2371
0 1598 2942
0 1198 3428
0 363 3805
0 0 4051
0 0 4095
0 0 4095
0 0 4095
0 0 4095
0 0 4095
0 0 4095
0 2668 0
0 2652 0
0 2635 0
0 2610 336
0 2573 1102
0 2516 1709
0 2429 2294
0 2292 2891
0 2066 3401
0 1646 3792
0 734 4047
0 0 4095
0 0 4095
0 0 4095
0 0 4095
0 0 4095
0 0 4095
0 3180 0
0 3171 0
0 3160 0
0 3145 29
0 3123 763
0 3088 1527
0 3036 2173
0 2955 2811
0 2816 3359
0 2576 3771
0 2125 4041
0 1086 4095
0 0 4095
0 0 4095
0 0 4095
0 0 4095
0 0 4095
0 3603 0
0 3598 0
0 3593 0
0 3585 0
0 3573 185
0 3555 1190
0 3528 1977
0 3485 2683
0 3416 3292
0 3300 3739
0 3085 4031
0 2633 4095
0 1450 4095
0 0 4095
0 0 4095
0 0 4095
0 0 4095
0 3922 0
0 3919 0
0 3917 0
0 3913 0
0 3907 0
0 3899 504
0 3886 1624
0 3866 2469
0 3835 3180
0 3784 3687
0 3695 4013
0 3522 4095
0 3126 4095
0 1847 4095
0 0 4095
0 0 4095
0 0 4095
0 4095 0
0 4095 0
0 4095 0
0 4095 0
0 4095 0
0 4093 0
0 4089 854
0 4083 2085
0 4074 2979
0 4059 3598
0 4034 3978
0 3983 4095
0 3861 4095
0 3550 4095
0 2269 4095
0 0 4095
0 0 4095
0 4095 0
0 4095 0
0 4095 0
0 4095 0
0 4095 0
0 4095 0
0 4095 0
0 4095 1195
0 4095 2583
0 4095 3433
0 4095 3915
0 4095 4095
0 4095 4095
0 4065 4095
0 3880 4095
0 2739 4095
0 0 4095
0 4095 0
0 4095 0
0 4095 0
0 4095 0
0 4095 0
0 4095 0
0 4095 0
0 4095 0
0 4095 1600
0 4095 3078
0 4095 3793
0 4095 4091
0 4095 4095
0 4095 4095
0 4095 4095
0 4072 4095
0 3203 4095
0 4095 0
0 4095 0
0 4095 0
0 4095 0
0 4095 0
0 4095 0
0 4095 0
0 4095 0
0 4095 111
0 4095 2072
0 4095 3511
0 4095 4032
0 4095 4095
0 4095 4095
0 4095 4095
0 4095 4095
0 4095 4095
0 4095 0
0 4095 0
0 4095 0
0 4095 0
0 4095 0
0 4095 0
0 4095 0
0 4095 0
0 4095 0
0 4095 197
0 4095 2553
0 4095 3850
0 4095 4095
0 4095 4095
0 4095 4095
0 4095 4095
0 4095 4095
0 4095 0
0 4095 0
0 4095 0
0 4095 0
0 4095 0
0 4095 0
0 4095 0
0 4095 0
0 4095 0
0 4095 0
0 4095 251
0 4095 3025
0 4095 4058
0 4095 4095
0 4095 4095
0 4095 4095
0 4095 4095
0 4095 0
0 4095 0
0 4095 0
0 4095 0
0 4095 0
0 4095 0
0 4095 0
0 4095 0
0 4095 0
0 4095 0
0 4095 0
0 4095 274
0 4095 3470
0 4095 4095
0 4095 4095
0 4095 4095
0 4095 4095
879 0 0
858 0 141
835 0 630
799 0 1096
744 0 1536
655 0 1999
508 0 2502
269 0 3024
45 0 3476
0 0 3828
0 0 4059
0 0 4095
0 0 4095
0 0 4095
0 0 4095
0 0 4095
0 0 4095
731 119 0
704 61 92
676 6 559
634 0 1057
567 0 1510
462 0 1979
291 0 2488
107 0 3015
0 0 3470
0 0 3826
0 0 4058
0 0 4095
0 0 4095
0 0 4095
0 0 4095
0 0 4095
0 0 4095
550 657 0
519 574 46
485 484 483
435 337 1015
355 149 1482
236 12 1959
119 0 2473
11 0 3006
0 0 3465
0 0 3823
0 0 4057
0 0 4095
0 0 4095
0 0 4095
0 0 4095
0 0 4095
0 0 4095
227 1163 0
202 1117 1
178 1069 363
143 992 949
92 864 1439
30 634 1929
4 246 2451
0 0 2992
0 0 3457
0 0 3819
0 0 4056
0 0 4095
0 0 4095
0 0 4095
0 0 4095
0 0 4095
0 0 4095
13 1633 0
9 1603 0
3 1571 189
0 1522 841
0 1447 1374
0 1326 1883
0 1117 2417
0 698 2971
0 116 3445
0 0 3813
0 0 4054
0 0 4095
0 0 4095
0 0 4095
0 0 4095
0 0 4095
0 0 4095
0 2124 0
0 2102 0
0 2079 30
0 2045 650
0 1993 1269
0 1913 1813
0 1786 2367
0 1574 2939
0 1164 3427
0 329 3804
0 0 4051
0 0 4095
0 0 4095
0 0 4095
0 0 4095
0 0 4095
0 0 4095
0 2656 0
0 2639 0
0 2623 0
0 2597 320
0 2560 1093
0 2503 1703
0 2415 2290
0 2277 2889
0 2049 3400
0 1622 3791
0 696 4047
0 0 4095
0 0 4095
0 0 4095
0 0 4095
0 0 4095
0 0 4095
0 3173 0
0 3163 0
0 3153 0
0 3137 24
0 3115 750
0 3080 1521
0 3027 2169
0 2945 2808
0 2805 3358
0 2563 3771
0 2107 4040
0 1061 4095
0 0 4095
0 0 4095
0 0 4095
0 0 4095
0 0 4095
0 3599 0
0 3594 0
0 3589 0
0 3581 0
0 3569 174
0 3551 1182
0 3524 1972
0 3480 2680
0 3411 3291
0 3294 3739
0 3077 4030
0 2622 4095
0 1431 4095
0 0 4095
0 0 4095
0 0 4095
0 0 4095
0 3920 0
0 3917 0
0 3915 0
0 3911 0
0 3905 0
0 3897 492
0 3884 1618
0 3864 2466
0 3832 3178
0 3781 3686
0 3692 4013
0 3518 4095
0 3118 4095
0 1832 4095
0 0 4095
0 0 4095
0 0 4095
0 4095 0
0 4095 0
0 4095 0
0 4095 0
0 4095 0
0 4093 0
0 4089 846
0 4083 2080
0 4073 2977
0 4058 3597
0 4033 3977
0 3982 4095
0 3858 4095
0 3546 4095
0 2256 4095
0 0 4095
0 0 4095
0 4095 0
0 4095 0
0 4095 0
0 4095 0
0 4095 0
0 4095 0
0 4095 0
0 4095 1189
0 4095 2580
0 4095 3431
0 4095 3914
0 4095 4095
0 4095 4095
0 4064 4095
0 3877 4095
0 2724 4095
0 0 4095
0 4095 0
0 4095 0
0 4095 0
0 4095 0
0 4095 0
0 4095 0
0 4095 0
0 4095 0
0 4095 1592
0 4095 3076
0 4095 3792
0 4095 4091
0 4095 4095
0 4095 4095
0 4095 4095
0 4071 4095
0 3194 4095
0 4095 0
0 4095 0
0 4095 0
0 4095 0
0 4095 0
0 4095 0
0 4095 0
0 4095 0
0 4095 106
0 4095 2068
0 4095 3509
0 4095 4031
0 4095 4095
0 4095 4095
0 4095 4095
0 4095 4095
0 4095 4095
0 4095 0
0 4095 0
0 4095 0
0 4095 0
0 4095 0
0 4095 0
0 4095 0
0 4095 0
0 4095 0
0 4095 194
0 4095 2550
0 4095 3849
0 4095 4095
0 4095 4095
0 4095 4095
0 4095 4095
0 4095 4095
0 4095 0
0 4095 0
0 4095 0
0 4095 0
0 4095 0
0 4095 0
0 4095 0
0 4095 0
0 4095 0
0 4095 0
0 4095 249
0 4095 3023
0 4095 4058
0 4095 4095
0 4095 4095
0 4095 4095
0 4095 4095
0 4095 0
0 4095 0
0 4095 0
0 4095 0
0 4095 0
0 4095 0
0 4095 0
0 4095 0
0 4095 0
0 4095 0
0 4095 0
0 4095 272
0 4095 3469
0 4095 4095
0 4095 4095
0 4095 4095
0 4095 4095
1349 0 0
1336 0 125
1322 0 607
1300 0 1083
1268 0 1528
1219 0 1992
1141 0 2498
1013 0 3022
785 0 3474
373 0 3827
0 0 4059
0 0 4095
0 0 4095
0 0 4095
0 0 4095
0 0 4095
0 0 4095
1260 56 0
1245 6 77
1230 0 534
1206 0 1042
1171 0 1500
1117 0 1973
1031 0 2483
885 0 3012
624 0 3468
212 0 3825
0 0 4058
0 0 4095
0 0 4095
0 0 4095
0 0 4095
0 0 4095
