Postproduction/IWLTBAP - Humble/LUTs by IWLTBAP (3DL)/UTILITY/Sony S-Log2 to Rec.709/U-SONY-S-LOG2-V4-LTR.3dl
# Copyright: (C) Copyright 2010-2018 by IWLTBAP SAS
# Cannot be resold, shared or otherwise redistributed
# Website: https://luts.iwltbap.com
0 128 256 384 512 640 768 896 1023
0 0 0
0 0 331
0 0 1041
0 0 1805
0 26 2762
0 397 3594
0 974 4095
0 1858 4095
0 2956 4095
0 418 0
0 433 350
0 479 1075
0 594 1845
0 764 2797
0 1062 3624
0 1551 4095
0 2311 4095
0 3275 4095
0 1479 77
0 1480 606
0 1493 1318
0 1554 2063
0 1644 2988
0 1831 3804
0 2180 4095
0 2816 4095
0 3738 4095
0 2453 193
0 2444 703
0 2436 1442
0 2466 2181
0 2525 3102
0 2672 3908
0 2957 4095
0 3477 4095
0 4095 4095
0 3694 382
0 3686 849
0 3672 1660
0 3695 2464
0 3742 3407
0 3835 4065
0 4003 4095
0 4095 4095
0 4095 4095
0 4095 986
0 4095 1402
0 4095 2214
0 4095 3221
0 4095 4012
0 4095 4095
0 4095 4095
0 4095 4095
0 4095 4095
0 4095 1734
0 4095 2119
0 4095 2834
0 4095 4037
0 4095 4095
0 4095 4095
0 4095 4095
0 4095 4095
0 4095 4095
0 4095 2515
0 4095 2878
0 4095 3544
0 4095 4095
0 4095 4095
0 4095 4095
0 4095 4095
0 4095 4095
0 4095 4095
0 4095 0
0 4095 236
0 4095 976
0 4095 2472
0 4095 4095
0 4095 4095
0 4095 4095
0 4095 4095
0 4095 4095
603 0 0
561 0 317
501 0 1038
387 0 1815
90 0 2795
0 292 3640
0 884 4095
0 1793 4095
0 2958 4095
326 293 0
283 310 359
218 356 1091
89 479 1866
1 654 2817
0 959 3639
0 1458 4095
0 2241 4095
0 3275 4095
7 1370 11
4 1369 531
0 1381 1253
0 1434 1995
0 1518 2918
0 1704 3732
0 2060 4095
0 2711 4095
0 3727 4095
0 2355 90
0 2346 611
0 2338 1363
0 2369 2110
0 2431 3036
0 2582 3857
0 2873 4095
0 3400 4095
0 4095 4095
0 3624 298
0 3616 768
0 3601 1587
0 3622 2397
0 3668 3343
0 3781 4046
0 3959 4095
0 4091 4095
0 4095 4095
0 4095 900
0 4095 1319
0 4095 2133
0 4095 3154
0 4095 3990
0 4095 4095
0 4095 4095
0 4095 4095
0 4095 4095
0 4095 1664
0 4095 2051
0 4095 2767
0 4095 4017
0 4095 4095
0 4095 4095
0 4095 4095
0 4095 4095
0 4095 4095
0 4095 2474
0 4095 2837
0 4095 3503
0 4095 4095
0 4095 4095
0 4095 4095
0 4095 4095
0 4095 4095
0 4095 4095
0 4095 0
0 4095 269
0 4095 1005
0 4095 2499
0 4095 4095
0 4095 4095
0 4095 4095
0 4095 4095
0 4095 4095
1612 0 0
1600 0 459
1594 0 1186
1595 0 1954
1506 0 2887
1098 66 3676
15 686 4095
0 1646 4095
0 2932 4095
1559 180 0
1540 188 496
1518 216 1218
1490 311 1964
1341 441 2866
777 712 3639
0 1246 4095
0 2067 4095
0 3243 4095
1279 1168 0
1243 1159 391
1187 1152 1121
1098 1180 1846
831 1240 2749
187 1446 3583
0 1840 4095
0 2521 4095
0 3661 4095
416 2151 0
368 2144 418
284 2137 1200
161 2174 1965
31 2245 2907
0 2409 3745
0 2715 4095
0 3257 4095
0 4088 4095
0 3480 116
0 3471 601
0 3453 1434
0 3471 2259
0 3516 3210
0 3638 3991
0 3857 4095
0 4079 4095
0 4095 4095
0 4095 753
0 4095 1178
0 4095 1998
0 4095 3047
0 4095 3941
0 4095 4095
0 4095 4095
0 4095 4095
0 4095 4095
0 4095 1553
0 4095 1943
0 4095 2665
0 4095 3986
0 4095 4095
0 4095 4095
0 4095 4095
0 4095 4095
0 4095 4095
0 4095 2392
0 4095 2755
0 4095 3421
0 4095 4095
0 4095 4095
0 4095 4095
0 4095 4095
0 4095 4095
0 4095 4095
0 4095 0
0 4095 328
0 4095 1059
0 4095 2550
0 4095 4095
0 4095 4095
0 4095 4095
0 4095 4095
0 4095 4095
2699 0 45
2697 0 602
2706 0 1356
2743 0 2138
2747 0 3095
2676 0 3900
2232 255 4095
181 1161 4095
0 2738 4095
2731 4 141
2722 4 673
2715 6 1420
2730 35 2183
2696 136 3105
2543 358 3847
1915 693 4095
17 1539 4095
0 2987 4095
2462 889 8
2436 879 433
2393 866 1182
2344 887 1900
2242 938 2775
2042 1081 3504
1428 1363 4092
0 2094 4095
0 3332 4095
2140 1954 0
2115 1943 278
2073 1927 1092
2034 1947 1864
1934 1983 2780
1692 2079 3556
764 2317 4095
0 2929 4095
0 3940 4095
1125 3124 0
1083 3114 183
1007 3094 1063
908 3110 1928
707 3158 2898
284 3291 3761
0 3566 4095
0 3970 4095
0 4095 4095
0 4095 453
0 4095 889
0 4095 1714
0 4095 2803
0 4095 3791
0 4095 4095
0 4095 4095
0 4095 4095
0 4095 4095
0 4095 1315
0 4095 1706
0 4095 2425
0 4095 3872
0 4095 4095
0 4095 4095
0 4095 4095
0 4095 4095
0 4095 4095
0 4095 2188
0 4095 2552
0 4095 3219
0 4095 4092
0 4095 4095
0 4095 4095
0 4095 4095
0 4095 4095
0 4095 4095
0 4095 30
0 4095 459
0 4095 1180
0 4095 2663
0 4095 4095
0 4095 4095
0 4095 4095
0 4095 4095
0 4095 4095
3723 0 166
3723 0 681
3730 0 1484
3791 0 2300
3868 0 3292
3934 0 4052
3923 0 4095
3348 191 4095
388 1701 4095
3811 0 272
3815 0 776
3825 0 1589
3875 0 2406
3909 0 3372
3930 0 4059
3805 42 4095
3112 582 4095
286 2035 4095
3826 210 291
3814 206 770
3790 196 1562
3776 216 2325
3732 251 3200
3648 392 3885
3426 710 4095
2712 1322 4095
135 2529 4095
3352 1614 0
3337 1605 186
3307 1586 1052
3299 1605 1876
3278 1644 2807
3243 1745 3589
3092 1933 4095
2418 2271 4095
0 3257 4095
3181 2965 0
3164 2955 43
3128 2932 941
3104 2936 1872
3061 2955 2835
2970 3016 3642
2698 3131 4095
1478 3388 4095
0 4085 4095
2175 4030 0
2139 4020 44
2067 3997 814
1947 3972 2000
1762 3962 3021
1465 3979 3862
707 4048 4095
0 4095 4095
0 4095 4095
0 4095 357
0 4095 750
0 4095 1492
0 4095 3053
0 4095 4039
0 4095 4095
0 4095 4095
0 4095 4095
0 4095 4095
0 4095 1688
0 4095 2058
0 4095 2731
0 4095 3989
0 4095 4095
0 4095 4095
0 4095 4095
0 4095 4095
0 4095 4095
0 4095 353
0 4095 756
0 4095 1459
0 4095 2928
0 4095 4095
0 4095 4095
0 4095 4095
0 4095 4095
0 4095 4095
4095 0 155
4095 0 639
4095 0 1511
4095 0 2436
4095 0 3448
4095 0 4095
4095 0 4095
4095 0 4095
4061 112 4095
4095 0 212
4095 0 691
4095 0 1562
4095 0 2502
4095 0 3522
4095 0 4095
4095 0 4095
4095 0 4095
4017 416 4095
4095 0 359
4095 0 828
4095 0 1702
4095 0 2674
4095 0 3707
4095 0 4095
4095 0 4095
4095 99 4095
3899 1116 4095
4095 446 211
4095 440 612
4095 426 1459
4095 441 2405
4095 490 3348
4095 610 3990
4084 914 4095
4041 1455 4095
3753 2293 4095
4080 2675 0
4077 2665 8
4071 2642 847
4068 2635 1953
4067 2654 2958
4065 2712 3790
4040 2814 4095
3925 2957 4095
3315 3196 4095
4009 3879 0
3995 3864 0
3967 3830 332
3915 3771 1712
3877 3742 2778
3832 3740 3647
3755 3768 4095
3528 3825 4095
2192 4007 4095
3077 4095 0
3051 4095 0
3002 4095 4
2887 4095 1287
2748 4095 2747
2491 4095 3778
2116 4095 4095
956 4095 4095
0 4095 4095
0 4095 128
0 4095 293
0 4095 856
0 4095 2363
0 4095 4082
0 4095 4095
0 4095 4095
0 4095 4095
0 4095 4095
0 4095 1126
0 4095 1500
0 4095 2174
0 4095 3574
0 4095 4095
0 4095 4095
0 4095 4095
0 4095 4095
0 4095 4095
4095 0 0
4095 0 173
4095 0 1024
4095 0 2343
4095 0 3467
4095 0 4095
4095 0 4095
4095 0 4095
4095 0 4095
4095 0 0
4095 0 211
4095 0 1061
4095 0 2392
4095 0 3521
4095 0 4095
4095 0 4095
4095 0 4095
4095 0 4095
4095 0 0
4095 0 284
4095 0 1134
4095 0 2486
4095 0 3625
4095 0 4095
4095 0 4095
4095 0 4095
4095 0 4095
4095 0 79
4095 0 497
4095 0 1324
4095 0 2727
4095 0 3860
4095 0 4095
4095 0 4095
4095 0 4095
4095 118 4095
4095 802 80
4095 797 289
4095 788 960
4095 780 2416
4095 829 3533
4095 936 4059
4095 1134 4095
4095 1615 4095
4095 2320 4095
4095 3590 0
4095 3573 0
4095 3539 1
4095 3464 1399
4095 3429 2677
4095 3425 3639
4095 3462 4095
4095 3532 4095
4095 3662 4095
4095 4095 0
4095 4095 0
4095 4095 0
4095 4095 645
4095 4095 2523
4095 4095 3648
4095 4095 4095
4094 4095 4095
4071 4095 4095
3840 4095 0
3834 4095 0
3823 4095 0
3785 4095 0
3648 4095 1950
3541 4095 3633
3339 4095 4095
2910 4095 4095
1065 4095 4095
0 4095 0
0 4095 42
0 4095 184
0 4095 1040
0 4095 3631
0 4095 4095
0 4095 4095
0 4095 4095
0 4095 4095
4095 0 0
4095 0 0
4095 0 0
4095 0 1289
4095 0 3018
4095 0 4072
4095 0 4095
4095 0 4095
4095 0 4095
4095 0 0
4095 0 0
4095 0 0
4095 0 1322
4095 0 3064
4095 0 4082
4095 0 4095
4095 0 4095
4095 0 4095
4095 0 0
4095 0 0
4095 0 8
4095 0 1384
4095 0 3151
4095 0 4092
4095 0 4095
4095 0 4095
4095 0 4095
4095 0 0
4095 0 0
4095 0 32
4095 0 1520
4095 0 3344
4095 0 4095
4095 0 4095
4095 0 4095
4095 0 4095
4095 0 0
4095 0 0
4095 0 186
4095 0 1842
4095 0 3765
4095 0 4095
4095 0 4095
4095 0 4095
4095 0 4095
4095 1148 0
4095 1140 22
4095 1126 206
4095 1088 1495
4095 1075 3544
4095 1163 4054
4095 1355 4095
4095 1631 4095
4095 2149 4095
4095 4086 0
4095 4084 0
4095 4081 0
4095 4074 0
4095 4048 2127
4095 4040 3569
4095 4046 4095
4095 4061 4095
4095 4079 4095
4095 4095 0
4095 4095 0
4095 4095 0
4095 4095 0
4095 4095 1092
4095 4095 3492
4095 4095 4095
4095 4095 4095
4095 4095 4095
4092 4095 0
4090 4095 0
4085 4095 0
4076 4095 0
4056 4095 0
4014 4095 2834
3978 4095 4095
3883 4095 4095
3663 4095 4095
4095 0 0
4095 0 0
4095 0 0
4095 0 0
4095 0 964
4095 0 3079
4095 0 4063
4095 0 4095
4095 0 4095
4095 0 0
4095 0 0
4095 0 0
4095 0 0
4095 0 995
4095 0 3125
4095 0 4071
4095 0 4095
4095 0 4095
4095 0 0
4095 0 0
4095 0 0
4095 0 0
4095 0 1053
4095 0 3210
4095 0 4087
4095 0 4095
4095 0 4095
4095 0 0
4095 0 0
4095 0 0
4095 0 0
4095 0 1178
4095 0 3396
4095 0 4095
4095 0 4095
4095 0 4095
4095 0 0
4095 0 0
4095 0 0
4095 0 0
4095 0 1487
4095 0 3786
4095 0 4095
4095 0 4095
4095 0 4095
4095 0 0
4095 0 0
4095 0 0
4095 0 0
4095 0 2156
4095 0 4080
4095 0 4095
4095 0 4095
4095 0 4095
4095 1288 0
4095 1286 0
4095 1279 0
4095 1260 0
4095 1185 2133
4095 1160 3951
4095 1281 4095
4095 1524 4095
4095 2040 4095
4095 4095 0
4095 4095 0
4095 4095 0
4095 4095 0
4095 4095 0
4095 4095 3048
4095 4095 4095
4095 4095 4095
4095 4095 4095
4095 4095 0
4095 4095 0
4095 4095 0
4095 4095 0
4095 4095 0
4095 4095 1750
4095 4095 4085
4095 4095 4095
4095 4095 4095
