Postproduction/IWLTBAP - Humble/LUTs by IWLTBAP (3DL)/UTILITY/Sony S-Log2 to Rec.709/U-SONY-S-LOG2-V1-LTR.3dl
# Copyright: (C) Copyright 2010-2018 by IWLTBAP SAS
# Cannot be resold, shared or otherwise redistributed
# Website: https://luts.iwltbap.com
0 128 256 384 512 640 768 896 1023
3 3 3
4 2 112
2 2 534
3 3 1273
3 3 2152
4 4 2860
5 5 3487
6 6 3921
7 7 4089
3 115 3
4 112 108
4 80 515
5 80 1224
6 81 2082
7 82 2799
8 82 3428
10 84 3885
11 85 4078
7 525 7
7 524 82
8 485 458
9 261 1179
10 171 2027
12 172 2750
13 173 3376
15 174 3851
17 175 4068
12 1221 12
13 1217 86
14 1206 242
15 1137 1058
17 889 1940
18 417 2704
20 273 3328
22 270 3814
25 272 4061
19 2035 19
21 2030 92
22 2021 177
24 1989 749
25 1896 1762
27 1730 2622
30 1427 3274
32 1000 3768
35 712 4055
29 2829 30
31 2822 101
33 2814 184
35 2792 427
37 2734 1515
39 2636 2437
42 2488 3215
45 2346 3714
48 2272 4019
43 3501 43
44 3496 113
46 3490 194
48 3477 284
51 3449 1270
52 3404 2234
53 3333 3138
54 3264 3655
55 3230 3958
56 3934 56
56 3933 124
56 3933 202
56 3932 290
56 3929 937
56 3920 2092
57 3870 3049
57 3813 3603
58 3782 3901
61 4062 61
60 4061 128
59 4061 207
59 4060 294
59 4060 819
58 4060 2027
58 4060 3002
58 4060 3577
58 4059 3870
124 4 16
124 4 114
108 3 524
80 4 1248
80 4 2116
82 5 2829
82 6 3457
82 8 3902
84 9 4083
111 116 10
111 114 112
101 81 510
83 81 1204
84 82 2052
86 83 2771
85 84 3398
85 85 3867
86 86 4072
83 524 8
83 523 84
84 486 460
85 266 1166
86 171 2003
87 172 2727
88 173 3351
89 174 3834
91 176 4063
87 1212 14
87 1209 87
88 1199 251
89 1133 1055
91 893 1923
92 427 2685
94 274 3306
96 271 3798
98 272 4057
94 2021 22
94 2016 94
96 2009 178
97 1978 764
99 1888 1755
101 1728 2606
103 1432 3257
105 1005 3755
108 710 4051
103 2813 33
104 2806 104
106 2799 186
107 2778 447
109 2721 1522
112 2627 2429
114 2482 3204
116 2343 3706
118 2267 4015
115 3489 47
116 3484 116
117 3480 196
118 3469 286
119 3443 1272
119 3399 2229
120 3328 3132
121 3257 3651
122 3221 3956
123 3933 55
123 3932 123
123 3931 202
123 3930 289
123 3925 909
123 3913 2074
123 3863 3034
124 3805 3596
124 3772 3898
127 4060 59
126 4059 126
126 4058 205
125 4058 292
125 4058 778
125 4057 1993
125 4057 2973
125 4057 3565
124 4056 3864
656 3 133
651 4 211
646 5 534
641 5 1228
622 6 2084
596 7 2803
559 9 3430
551 10 3887
561 12 4078
639 83 132
634 85 208
628 83 524
637 82 1193
625 83 2026
607 84 2751
581 86 3376
573 87 3852
583 89 4068
455 512 42
456 512 120
454 483 489
461 268 1165
461 172 1987
452 173 2711
440 175 3332
430 176 3821
432 177 4059
174 1208 17
175 1207 90
177 1198 287
179 1134 1069
182 902 1919
185 447 2675
185 277 3292
183 272 3787
186 273 4053
179 2015 26
180 2011 98
181 2004 183
182 1975 816
183 1888 1763
185 1733 2601
187 1448 3248
189 1035 3747
191 737 4048
187 2804 38
188 2799 108
189 2792 189
191 2772 490
192 2718 1546
193 2627 2437
195 2486 3207
196 2346 3708
197 2269 4016
197 3485 50
197 3483 118
197 3479 197
197 3468 287
198 3441 1286
198 3396 2234
199 3324 3133
199 3253 3651
200 3214 3957
202 3932 55
201 3931 122
201 3930 201
201 3929 289
201 3922 903
201 3907 2068
201 3855 3025
201 3797 3592
202 3762 3897
205 4058 57
204 4057 125
203 4057 203
203 4056 291
202 4055 760
202 4055 1969
202 4054 2952
202 4054 3555
201 4053 3861
1590 5 326
1574 6 399
1553 7 614
1549 8 1236
1555 9 2061
1542 10 2791
1533 11 3414
1534 13 3877
1543 15 4073
1540 83 318
1524 84 389
1489 84 596
1501 85 1207
1529 86 2013
1522 87 2744
1515 88 3363
1519 90 3844
1532 92 4064
1469 435 285
1463 448 359
1446 461 579
1452 238 1190
1473 175 1982
1467 175 2710
1462 177 3324
1467 178 3814
1482 180 4056
1066 1180 31
1066 1180 107
1064 1172 443
1056 1120 1121
1070 883 1935
1077 456 2680
1074 277 3289
1077 274 3783
1094 275 4051
298 2009 31
299 2006 102
302 2000 200
305 1970 916
308 1887 1800
311 1737 2617
312 1459 3253
309 1070 3749
304 765 4049
279 2799 44
279 2796 113
280 2791 192
281 2773 578
281 2720 1592
282 2629 2466
283 2486 3221
284 2345 3717
285 2265 4023
285 3485 51
285 3482 119
285 3478 197
285 3466 292
285 3438 1325
286 3391 2257
286 3318 3145
287 3245 3658
287 3204 3963
289 3931 54
289 3930 122
288 3929 201
288 3926 288
288 3918 946
288 3899 2079
288 3846 3028
288 3786 3594
288 3750 3901
291 4057 55
290 4056 123
290 4055 202
289 4054 289
289 4053 770
288 4052 1962
288 4052 2941
287 4051 3550
287 4050 3862
2643 8 547
2622 9 616
2591 9 763
2568 11 1292
2582 12 2070
2611 13 2803
2610 15 3415
2611 17 3881
2617 19 4070
2586 85 534
2566 86 603
2515 87 733
2496 88 1264
2528 89 2028
2571 90 2761
2571 92 3369
2576 94 3849
2586 96 4060
2524 296 511
2516 312 582
2496 379 737
2463 209 1254
2490 177 2004
2527 178 2733
2528 180 3335
2535 182 3821
2548 184 4054
2384 1051 397
2376 1059 475
2355 1103 699
2322 1094 1196
2341 806 1969
2379 433 2709
2381 279 3305
2391 277 3793
2406 279 4049
1812 1958 37
1811 1957 116
1811 1952 364
1811 1922 1066
1806 1852 1852
1828 1701 2647
1857 1422 3281
1902 1049 3770
1931 751 4050
613 2793 48
611 2791 116
609 2786 197
606 2765 767
602 2710 1674
601 2618 2518
604 2473 3248
611 2328 3736
625 2245 4036
381 3480 52
381 3476 119
381 3471 198
381 3457 343
381 3428 1401
381 3380 2303
382 3306 3170
382 3231 3673
382 3185 3977
384 3930 54
384 3928 122
383 3926 200
383 3922 288
383 3912 1102
382 3887 2115
382 3830 3045
382 3769 3604
382 3732 3914
385 4055 54
384 4054 122
384 4053 200
383 4052 288
382 4051 801
381 4050 1980
381 4049 2943
380 4048 3554
379 4044 3870
3458 11 756
3431 12 824
3380 13 931
3354 14 1405
3336 16 2090
3382 17 2838
3431 19 3434
3437 21 3896
3440 23 4067
3396 88 739
3379 89 810
3314 90 908
3297 91 1386
3286 93 2055
3336 94 2801
3387 96 3393
3396 98 3867
3401 100 4058
3340 207 719
3332 217 790
3309 342 929
3269 198 1336
3256 181 2043
3299 182 2777
3348 184 3364
3357 186 3842
3366 188 4052
3263 967 661
3251 1003 733
3233 1078 899
3210 1067 1302
3188 765 2020
3221 410 2756
3265 279 3340
3276 280 3820
3288 282 4050
3073 1849 354
3071 1849 466
3071 1844 772
3062 1845 1227
3033 1836 1900
3047 1639 2692
3080 1326 3326
3088 887 3802
3096 705 4051
2544 2730 50
2540 2727 119
2537 2721 285
2534 2697 1016
2529 2642 1753
2518 2558 2556
2536 2406 3286
2554 2258 3763
2567 2172 4049
1211 3467 52
1198 3462 120
1184 3455 199
1168 3440 493
1155 3409 1504
1140 3360 2363
1133 3284 3204
1136 3203 3697
1140 3150 3999
501 3925 53
498 3923 121
496 3920 200
494 3914 294
490 3901 1253
488 3867 2177
488 3808 3077
487 3746 3624
487 3706 3934
486 4053 52
485 4052 120
484 4051 199
483 4050 286
482 4048 955
481 4047 2025
480 4046 2961
479 4044 3566
478 4029 3885
3827 15 971
3826 16 1057
3825 17 1154
3824 19 1560
3823 21 2188
3823 22 2875
3822 24 3476
3822 27 3919
3822 29 4065
3821 92 953
3819 93 1044
3819 94 1141
3818 96 1536
3817 97 2164
3817 99 2844
3817 101 3439
3817 104 3897
3818 106 4057
3816 181 927
3815 186 1016
3814 273 1169
3811 186 1470
3810 185 2169
3811 187 2823
3814 189 3412
3815 191 3876
3816 193 4052
3812 938 873
3810 982 948
3808 1071 1117
3806 1056 1478
3806 685 2116
3807 399 2815
3813 282 3398
3816 283 3865
3817 284 4052
3800 1727 761
3800 1737 851
3799 1779 1031
3791 1860 1395
3783 1860 1985
3779 1613 2758
3795 1252 3378
3801 760 3844
3801 572 4052
3681 2633 256
3678 2627 382
3678 2614 734
3678 2583 1241
3670 2564 1869
3643 2528 2597
3652 2342 3332
3668 2173 3801
3670 2081 4052
3252 3434 53
3244 3429 121
3236 3421 213
3227 3404 827
3213 3367 1620
3200 3302 2394
3182 3211 3208
3189 3108 3731
3191 3048 4029
2500 3917 52
2475 3913 121
2451 3908 199
2425 3900 336
2388 3878 1402
2350 3838 2205
2311 3777 3071
2290 3713 3653
2279 3672 3963
1728 4051 50
1670 4050 118
1617 4048 197
1565 4047 284
1514 4046 1182
1478 4044 2068
1438 4043 2968
1403 4032 3587
1358 4002 3910
3946 20 1149
3945 21 1237
3943 23 1324
3942 24 1678
3941 26 2304
3941 28 2907
3940 30 3502
3940 33 3935
3940 36 4063
3939 97 1139
3937 98 1232
3936 100 1324
3936 101 1654
3935 103 2293
3935 105 2885
3935 107 3472
3935 110 3923
3935 113 4056
3934 186 1116
3932 191 1208
3932 261 1366
3931 189 1607
3931 191 2296
3931 193 2882
3931 195 3451
3932 196 3911
3933 198 4053
3931 906 1039
3930 952 1136
3930 1080 1313
3930 1077 1643
3931 554 2186
3931 315 2891
3932 286 3441
3933 286 3905
3934 287 4054
3933 1665 955
3932 1713 1033
3932 1816 1184
3932 1873 1551
3932 1884 2092
3933 1570 2820
3933 1267 3412
3933 718 3880
3934 490 4053
3934 2555 694
3934 2544 803
3933 2528 1022
3933 2524 1395
3933 2570 1971
3933 2543 2645
3933 2334 3364
3933 2130 3832
3933 2009 4052
3928 3386 57
3926 3378 149
3925 3367 409
3924 3341 1110
3924 3290 1728
3923 3233 2469
3919 3181 3228
3919 3054 3759
3920 2980 4045
3734 3894 51
3727 3889 120
3720 3882 198
3712 3869 552
3703 3843 1516
3694 3802 2232
3681 3740 3064
3669 3678 3675
3664 3626 3990
3473 4049 48
3454 4047 116
3435 4046 195
3414 4044 282
3379 4043 1312
3341 4041 2057
3300 4039 2916
3267 4009 3571
3246 3970 3933
4070 26 1229
4068 27 1311
4066 29 1405
4065 31 1755
4065 33 2375
4064 35 2940
4063 38 3520
4063 40 3936
4063 43 4063
4062 103 1223
4060 105 1320
4059 106 1416
4058 108 1729
4057 110 2378
4057 112 2930
4057 115 3496
4057 117 3927
4057 120 4057
4056 192 1208
4055 200 1301
4054 314 1464
4053 198 1699
4053 197 2378
4053 198 2938
4054 199 3482
4055 200 3921
4056 201 4056
4054 950 1130
4053 974 1234
4053 1113 1407
4053 1087 1734
4053 588 2233
4054 331 2942
4054 287 3466
4055 288 3916
4055 289 4055
4055 1674 1034
4054 1743 1110
4054 1844 1261
4054 1889 1636
4053 1901 2154
4053 1556 2848
4053 1245 3435
4053 792 3894
4054 500 4054
4055 2516 831
4054 2503 932
4053 2492 1127
4053 2519 1466
4052 2581 2024
4052 2552 2677
4052 2315 3382
4051 2151 3842
4051 1981 4051
4054 3355 138
4053 3344 283
4052 3329 653
4051 3296 1219
4050 3240 1787
4049 3210 2506
4048 3174 3234
4047 3043 3765
4047 2946 4045
4051 3868 50
4049 3861 118
4048 3853 197
4047 3839 739
4045 3811 1570
4044 3766 2259
4043 3698 3074
4042 3660 3674
4040 3583 4002
4003 4046 45
3997 4044 113
3991 4042 192
3984 4041 365
3976 4039 1364
3967 4037 2064
3959 4031 2899
3950 3985 3560
3942 3944 3943
