Postproduction/IWLTBAP - Humble/LUTs by IWLTBAP (3DL)/UTILITY/Sony S-Log2 to Rec.709/U-SONY-S-LOG2-V3-LTR.3dl
# Copyright: (C) Copyright 2010-2018 by IWLTBAP SAS
# Cannot be resold, shared or otherwise redistributed
# Website: https://luts.iwltbap.com
0 128 256 384 512 640 768 896 1023
5 5 5
6 4 99
3 3 561
4 4 1269
5 5 2059
6 6 2808
8 8 3514
9 9 3975
11 11 4089
5 103 5
6 99 93
7 53 545
8 54 1225
9 54 1997
11 56 2733
13 57 3442
16 58 3938
18 60 4079
11 574 11
12 574 57
13 529 495
15 240 1191
17 118 1950
19 119 2674
21 120 3379
24 122 3898
27 123 4070
19 1273 19
21 1269 62
22 1259 215
24 1191 1114
27 937 1895
29 387 2616
32 197 3321
35 193 3855
38 194 4064
31 2057 31
32 2051 71
34 2043 127
37 2013 816
40 1928 1801
43 1768 2543
46 1466 3256
50 1020 3799
53 682 4058
46 2800 46
48 2794 83
50 2786 136
53 2765 400
56 2717 1657
60 2630 2457
64 2495 3184
68 2358 3734
72 2286 4024
65 3531 65
67 3525 100
70 3517 150
73 3501 212
76 3468 1417
78 3414 2346
79 3328 3108
81 3244 3663
82 3203 3968
84 3988 84
83 3987 115
83 3987 162
83 3986 220
83 3983 998
84 3975 2238
84 3920 3045
85 3854 3600
86 3815 3905
90 4065 90
89 4064 122
88 4064 168
88 4063 225
87 4063 848
87 4063 2187
87 4062 3011
87 4062 3568
87 4062 3868
115 6 25
116 6 102
93 5 552
54 6 1245
54 7 2027
56 9 2769
56 10 3477
57 12 3959
58 15 4084
98 104 16
97 101 99
84 55 540
58 55 1207
60 56 1970
62 57 2699
61 59 3407
61 61 3917
63 63 4074
57 574 14
58 574 59
59 530 498
60 247 1179
62 119 1928
63 120 2645
65 121 3349
67 123 3878
70 125 4066
63 1264 23
64 1262 64
65 1252 227
67 1188 1111
69 942 1880
71 400 2593
74 198 3295
76 193 3836
79 195 4060
73 2043 35
74 2039 74
76 2032 129
78 2003 835
80 1921 1795
83 1766 2527
86 1472 3235
89 1024 3783
93 680 4054
86 2784 51
88 2778 88
90 2771 139
92 2752 427
95 2705 1663
98 2621 2449
102 2490 3171
105 2355 3725
107 2281 4021
103 3516 71
105 3511 105
106 3505 153
107 3492 214
108 3461 1420
109 3408 2342
110 3321 3102
111 3236 3658
113 3192 3967
115 3987 82
114 3986 114
114 3985 160
114 3984 218
114 3980 963
114 3969 2222
115 3912 3030
115 3843 3591
116 3804 3901
120 4063 87
119 4062 119
118 4061 165
118 4061 222
117 4060 795
117 4060 2155
117 4060 2986
116 4059 3554
116 4059 3861
703 6 190
698 6 234
695 7 571
696 9 1234
687 10 2003
668 12 2738
628 14 3445
620 16 3940
632 19 4079
689 58 188
684 60 231
680 58 564
696 57 1203
693 58 1953
683 60 2674
658 62 3379
649 64 3899
663 66 4070
491 562 64
492 562 110
490 528 536
498 250 1184
501 120 1918
492 122 2626
478 123 3326
463 125 3863
467 127 4062
123 1261 28
124 1260 68
126 1251 276
130 1190 1126
134 952 1878
137 425 2581
138 202 3278
136 195 3822
139 197 4056
130 2037 41
130 2034 79
132 2028 135
133 2000 900
135 1921 1803
137 1772 2524
140 1489 3225
143 1059 3773
146 710 4052
141 2776 58
142 2772 94
143 2766 143
145 2747 483
147 2702 1687
149 2623 2456
151 2494 3174
153 2359 3727
154 2283 4022
154 3511 75
154 3509 107
154 3505 154
154 3491 216
155 3459 1437
156 3404 2347
157 3317 3103
158 3230 3658
159 3184 3967
161 3986 81
160 3985 113
160 3984 160
160 3983 218
160 3977 954
160 3963 2217
160 3903 3023
160 3833 3586
161 3792 3900
165 4061 85
164 4060 117
163 4059 163
162 4059 220
162 4058 773
161 4058 2134
161 4057 2967
160 4057 3541
160 4057 3856
1598 9 446
1583 10 482
1563 11 685
1565 12 1264
1580 14 2004
1579 16 2724
1580 18 3425
1585 21 3929
1597 23 4075
1553 57 436
1538 58 470
1504 59 666
1521 60 1237
1557 62 1959
1561 63 2666
1566 65 3364
1575 68 3890
1590 70 4066
1497 471 392
1492 487 430
1476 504 655
1478 210 1225
1505 124 1932
1511 125 2624
1518 126 3317
1527 129 3855
1544 131 4059
1125 1240 48
1126 1241 92
1124 1234 481
1116 1183 1184
1126 940 1901
1131 438 2587
1135 202 3275
1142 197 3817
1162 200 4054
229 2032 48
231 2030 84
235 2024 159
239 1998 1020
244 1922 1840
247 1777 2540
248 1501 3230
245 1098 3777
238 740 4052
204 2773 66
205 2769 100
206 2765 148
207 2748 596
208 2705 1733
209 2626 2483
210 2495 3192
211 2359 3738
213 2281 4028
213 3512 76
212 3508 108
213 3503 155
213 3488 222
213 3454 1486
214 3398 2367
214 3310 3115
215 3221 3666
216 3172 3973
218 3985 81
218 3984 113
217 3983 159
217 3981 217
217 3973 1009
217 3955 2228
217 3892 3025
217 3820 3589
217 3777 3906
221 4060 83
220 4059 115
219 4058 161
218 4057 218
218 4056 786
217 4056 2128
216 4055 2958
216 4054 3536
215 4054 3858
2598 13 732
2573 14 763
2536 16 880
2514 17 1350
2533 19 2043
2572 21 2738
2575 24 3427
2579 27 3933
2586 30 4071
2531 61 715
2510 62 746
2456 63 848
2438 64 1323
2477 66 2005
2530 68 2687
2536 70 3371
2543 73 3896
2554 76 4063
2471 287 686
2463 308 720
2442 397 857
2408 170 1318
2438 127 1983
2484 129 2652
2492 131 3329
2502 133 3863
2517 136 4057
2347 1141 538
2341 1150 582
2324 1196 812
2297 1190 1289
2305 875 1960
2340 408 2623
2350 205 3294
2362 201 3830
2378 204 4053
1872 2009 56
1871 2009 104
1872 2005 377
1874 1980 1206
1872 1916 1916
1891 1771 2588
1907 1494 3264
1924 1096 3802
1943 740 4054
582 2769 72
580 2767 104
576 2763 154
573 2745 840
568 2699 1813
566 2618 2531
571 2485 3225
580 2345 3760
598 2263 4041
282 3505 77
281 3501 109
281 3494 156
281 3477 290
281 3442 1579
282 3384 2409
282 3294 3140
282 3203 3684
283 3151 3986
286 3984 80
285 3983 112
284 3981 159
284 3976 216
283 3967 1207
283 3941 2262
283 3874 3041
282 3800 3601
282 3755 3920
287 4058 80
286 4057 113
284 4056 159
283 4055 216
283 4054 825
282 4053 2145
281 4053 2961
280 4052 3540
279 4048 3867
3534 18 998
3501 20 1025
3439 21 1088
3407 23 1496
3386 25 2094
3441 28 2781
3500 30 3450
3508 33 3951
3512 36 4069
3459 65 977
3437 67 1009
3359 68 1065
3338 70 1477
3325 72 2061
3385 74 2736
3448 76 3400
3459 79 3918
3465 83 4061
3390 168 951
3381 181 984
3353 348 1091
3304 155 1430
3288 132 2050
3341 134 2706
3401 136 3364
3412 139 3888
3422 142 4055
3297 1083 878
3282 1124 913
3261 1207 1066
3233 1194 1428
3207 836 2040
3246 378 2682
3300 204 3336
3313 206 3862
3327 208 4053
3067 1944 482
3063 1943 569
3064 1940 904
3054 1946 1406
3018 1942 2002
3035 1752 2658
3074 1438 3319
3084 925 3841
3095 700 4055
2586 2748 75
2582 2745 108
2579 2739 273
2577 2719 1156
2574 2672 1923
2564 2599 2597
2573 2460 3271
2578 2317 3793
2585 2233 4053
1275 3490 78
1259 3484 110
1243 3476 157
1224 3457 486
1211 3420 1703
1196 3360 2471
1188 3268 3178
1190 3175 3713
1195 3119 4006
381 3979 79
376 3977 112
373 3974 158
371 3969 225
366 3957 1397
363 3917 2318
363 3847 3070
362 3772 3625
361 3724 3944
361 4056 78
359 4055 111
358 4054 157
356 4053 214
355 4052 1021
354 4051 2188
353 4050 2978
352 4048 3554
350 4034 3886
3924 24 1250
3923 26 1277
3922 28 1314
3920 30 1651
3920 32 2193
3919 35 2826
3919 38 3500
3919 42 3974
3919 45 4067
3917 71 1233
3915 72 1266
3914 74 1303
3914 76 1630
3913 78 2172
3913 81 2787
3913 84 3456
3913 87 3953
3914 91 4060
3911 133 1208
3910 140 1240
3909 257 1335
3906 139 1568
3904 138 2179
3905 140 2762
3909 143 3423
3910 146 3928
3911 149 4055
3906 1056 1146
3903 1106 1181
3902 1210 1316
3900 1189 1611
3899 735 2140
3900 363 2752
3908 209 3406
3911 210 3914
3913 212 4055
3893 1837 1005
3892 1848 1062
3890 1893 1231
3881 1978 1593
3871 1984 2101
3867 1743 2733
3886 1369 3382
3893 771 3890
3894 530 4056
3748 2683 353
3745 2677 460
3744 2666 856
3745 2640 1438
3736 2628 2057
3702 2602 2662
3713 2428 3326
3733 2261 3839
3735 2170 4055
3264 3450 79
3256 3443 111
3248 3435 176
3241 3415 916
3233 3377 1852
3225 3315 2556
3209 3232 3230
3212 3133 3754
3210 3074 4034
2586 3972 78
2564 3968 111
2542 3964 157
2519 3956 280
2494 3931 1583
2468 3883 2396
2440 3809 3115
2422 3733 3660
2411 3682 3973
1831 4055 75
1763 4053 108
1701 4052 154
1640 4051 211
1584 4049 1307
1547 4048 2255
1506 4047 3011
1467 4037 3580
1413 4009 3916
3999 32 1424
3998 33 1454
3996 35 1482
3995 38 1766
3995 41 2303
3994 44 2865
3994 47 3532
3994 51 3989
3994 54 4066
3992 78 1416
3991 80 1450
3990 82 1484
3989 84 1745
3989 87 2295
3988 89 2838
3988 93 3496
3988 96 3978
3989 100 4059
3987 139 1396
3986 146 1429
3986 241 1528
3985 143 1702
3985 146 2299
3985 148 2834
3985 151 3471
3986 154 3966
3987 156 4056
3985 1017 1341
3984 1073 1385
3984 1224 1511
3984 1213 1773
3985 564 2203
3985 252 2845
3986 214 3458
3987 214 3961
3988 215 4057
3987 1778 1249
3986 1828 1291
3986 1933 1422
3986 1994 1746
3986 2010 2204
3987 1701 2792
3987 1387 3424
3987 718 3932
3988 424 4056
3988 2611 919
3988 2600 1001
3987 2586 1220
3987 2587 1628
3987 2640 2159
3987 2621 2711
3987 2423 3365
3986 2222 3876
3986 2101 4055
3982 3397 85
3981 3388 150
3980 3377 437
3979 3354 1273
3978 3308 1983
3978 3261 2631
3974 3219 3263
3974 3095 3788
3975 3022 4049
3758 3949 77
3750 3943 110
3741 3935 156
3731 3919 563
3721 3889 1724
3710 3840 2463
3699 3765 3155
3685 3693 3690
3682 3638 3998
3464 4052 72
3446 4051 105
3427 4049 151
3406 4048 209
3384 4046 1471
3361 4045 2312
3336 4043 3037
3309 4015 3603
3287 3980 3944
4071 40 1504
4070 42 1527
4068 45 1562
4068 47 1842
4067 50 2370
4066 54 2904
4066 57 3554
4065 61 3990
4066 65 4066
4064 87 1500
4063 89 1537
4062 91 1574
4061 93 1819
4060 96 2375
4060 99 2893
4060 103 3524
4060 106 3981
4060 111 4060
4059 147 1488
4058 158 1522
4057 312 1626
4056 155 1793
4056 154 2376
4057 156 2903
4057 157 3508
4058 158 3976
4059 160 4059
4057 1071 1437
4056 1099 1484
4056 1264 1608
4056 1226 1863
4057 609 2249
4057 274 2907
4057 216 3488
4058 217 3971
4058 218 4058
4058 1790 1348
4057 1860 1387
4057 1964 1515
4057 2012 1829
4057 2029 2265
4057 1689 2820
4057 1363 3451
4057 812 3950
4057 437 4057
4058 2575 1094
4057 2563 1164
4057 2554 1352
4056 2585 1713
4056 2653 2212
4055 2633 2742
4055 2406 3386
4055 2245 3888
4054 2075 4054
4057 3365 196
4056 3353 329
4055 3339 752
4054 3309 1411
4053 3260 2049
4052 3241 2664
4052 3215 3271
4051 3087 3795
4050 2991 4049
4054 3918 75
4053 3910 107
4052 3901 154
4050 3884 804
4049 3851 1791
4048 3796 2494
4047 3719 3171
4046 3681 3697
4044 3603 4009
4010 4050 68
4004 4048 101
3999 4046 147
3992 4045 319
3985 4043 1535
3977 4041 2327
3969 4036 3035
3961 3993 3606
3954 3955 3955
