Postproduction/IWLTBAP - Humble/LUTs by IWLTBAP (3DL)/UTILITY/Sony S-Log2 to Rec.709/U-SONY-S-LOG2-V4-LTR.3dl
# Copyright: (C) Copyright 2010-2018 by IWLTBAP SAS
# Cannot be resold, shared or otherwise redistributed
# Website: https://luts.iwltbap.com
0 64 128 192 256 320 384 448 512 576 640 704 768 832 896 960 1023
0 0 0
0 0 32
0 0 331
0 0 682
0 0 1041
0 0 1387
0 0 1805
0 0 2245
0 26 2762
0 185 3215
0 397 3594
0 655 3984
0 974 4095
0 1374 4095
0 1858 4095
0 2417 4095
0 2956 4095
0 15 0
0 16 34
0 20 334
0 38 688
0 74 1051
0 136 1403
0 208 1826
0 298 2268
0 404 2780
0 547 3225
0 736 3602
0 973 3995
0 1270 4095
0 1641 4095
0 2093 4095
0 2607 4095
0 3117 4095
0 418 0
0 425 47
0 433 350
0 448 706
0 479 1075
0 532 1426
0 594 1845
0 670 2286
0 764 2797
0 891 3243
0 1062 3624
0 1279 4017
0 1551 4095
0 1891 4095
0 2311 4095
0 2790 4095
0 3275 4095
0 918 0
0 924 116
0 928 413
0 938 768
0 961 1138
0 1005 1486
0 1055 1903
0 1118 2343
0 1195 2854
0 1302 3306
0 1448 3702
0 1632 4052
0 1871 4095
0 2175 4095
0 2558 4095
0 3014 4095
0 3479 4095
0 1479 77
0 1480 323
0 1480 606
0 1482 952
0 1493 1318
0 1521 1656
0 1554 2063
0 1595 2491
0 1644 2988
0 1719 3426
0 1831 3804
0 1979 4076
0 2180 4095
0 2451 4095
0 2816 4095
0 3278 4095
0 3738 4095
0 1977 177
0 1973 420
0 1967 692
0 1960 1032
0 1958 1400
0 1970 1727
0 1986 2122
0 2012 2541
0 2049 3031
0 2112 3466
0 2210 3838
0 2344 4082
0 2527 4095
0 2772 4095
0 3102 4095
0 3549 4095
0 4031 4095
0 2453 193
0 2450 432
0 2444 703
0 2437 1051
0 2436 1442
0 2449 1780
0 2466 2181
0 2491 2608
0 2525 3102
0 2583 3544
0 2672 3908
0 2793 4093
0 2957 4095
0 3178 4095
0 3477 4095
0 3880 4095
0 4095 4095
0 3025 260
0 3022 491
0 3017 751
0 3010 1110
0 3006 1525
0 3018 1882
0 3034 2288
0 3057 2721
0 3089 3216
0 3142 3665
0 3225 4000
0 3337 4095
0 3487 4095
0 3689 4095
0 3921 4095
0 4089 4095
0 4095 4095
0 3694 382
0 3691 604
0 3686 849
0 3678 1213
0 3672 1660
0 3680 2050
0 3695 2464
0 3715 2909
0 3742 3407
0 3779 3853
0 3835 4065
0 3910 4095
0 4003 4095
0 4060 4095
0 4095 4095
0 4095 4095
0 4095 4095
0 4082 671
0 4081 881
0 4080 1109
0 4077 1454
0 4075 1934
0 4076 2382
0 4079 2806
0 4083 3263
0 4088 3745
0 4094 4046
0 4095 4095
0 4095 4095
0 4095 4095
0 4095 4095
0 4095 4095
0 4095 4095
0 4095 4095
0 4095 986
0 4095 1185
0 4095 1402
0 4095 1719
0 4095 2214
0 4095 2766
0 4095 3221
0 4095 3695
0 4095 4012
0 4095 4095
0 4095 4095
0 4095 4095
0 4095 4095
0 4095 4095
0 4095 4095
0 4095 4095
0 4095 4095
0 4095 1337
0 4095 1529
0 4095 1738
0 4095 2038
0 4095 2499
0 4095 3163
0 4095 3715
0 4095 4027
0 4095 4095
0 4095 4095
0 4095 4095
0 4095 4095
0 4095 4095
0 4095 4095
0 4095 4095
0 4095 4095
0 4095 4095
0 4095 1734
0 4095 1919
0 4095 2119
0 4095 2406
0 4095 2834
0 4095 3500
0 4095 4037
0 4095 4095
0 4095 4095
0 4095 4095
0 4095 4095
0 4095 4095
0 4095 4095
0 4095 4095
0 4095 4095
0 4095 4095
0 4095 4095
0 4095 2166
0 4095 2344
0 4095 2537
0 4095 2814
0 4095 3223
0 4095 3797
0 4095 4095
0 4095 4095
0 4095 4095
0 4095 4095
0 4095 4095
0 4095 4095
0 4095 4095
0 4095 4095
0 4095 4095
0 4095 4095
0 4095 4095
0 4095 2515
0 4095 2689
0 4095 2878
0 4095 3147
0 4095 3544
0 4095 4019
0 4095 4095
0 4095 4095
0 4095 4095
0 4095 4095
0 4095 4095
0 4095 4095
0 4095 4095
0 4095 4095
0 4095 4095
0 4095 4095
0 4095 4095
0 4095 1810
0 4095 1989
0 4095 2184
0 4095 2459
0 4095 2863
0 4095 3453
0 4095 4008
0 4095 4095
0 4095 4095
0 4095 4095
0 4095 4095
0 4095 4095
0 4095 4095
0 4095 4095
0 4095 4095
0 4095 4095
0 4095 4095
0 4095 0
0 4095 8
0 4095 236
0 4095 545
0 4095 976
0 4095 1590
0 4095 2472
0 4095 3633
0 4095 4095
0 4095 4095
0 4095 4095
0 4095 4095
0 4095 4095
0 4095 4095
0 4095 4095
0 4095 4095
0 4095 4095
75 0 0
47 0 24
22 0 325
18 0 680
15 0 1043
10 0 1393
2 0 1814
0 0 2259
0 9 2781
0 134 3236
0 348 3618
0 609 4002
0 932 4095
0 1336 4095
0 1828 4095
0 2400 4095
0 2959 4095
7 8 0
5 9 42
2 10 343
1 12 700
0 21 1070
0 82 1425
0 155 1847
0 244 2288
0 353 2799
0 498 3243
0 689 3620
0 927 4006
0 1227 4095
0 1604 4095
0 2063 4095
0 2590 4095
0 3118 4095
0 365 0
0 373 60
0 381 361
0 395 717
0 426 1088
0 480 1438
0 543 1858
0 620 2298
0 714 2807
0 842 3253
0 1014 3632
0 1233 4020
0 1508 4095
0 1851 4095
0 2279 4095
0 2771 4095
0 3277 4095
0 871 0
0 876 109
0 880 406
0 889 762
0 912 1134
0 956 1482
0 1006 1899
0 1068 2337
0 1145 2846
0 1253 3296
0 1398 3685
0 1583 4049
0 1822 4095
0 2129 4095
0 2520 4095
0 2992 4095
0 3478 4095
0 1431 45
0 1431 289
0 1430 573
0 1432 920
0 1442 1290
0 1469 1628
0 1500 2034
0 1538 2460
0 1585 2955
0 1660 3394
0 1771 3771
0 1920 4068
0 2123 4095
0 2397 4095
0 2766 4095
0 3244 4095
0 3735 4095
0 1919 124
0 1915 370
0 1908 644
0 1901 987
0 1900 1359
0 1913 1688
0 1930 2085
0 1957 2506
0 1994 2997
0 2058 3434
0 2159 3808
0 2295 4075
0 2480 4095
0 2728 4095
0 3060 4095
0 3507 4095
0 4023 4095
0 2407 145
0 2403 387
0 2397 659
0 2391 1010
0 2389 1404
0 2403 1745
0 2420 2147
0 2445 2576
0 2480 3070
0 2539 3514
0 2629 3885
0 2752 4090
0 2917 4095
0 3140 4095
0 3441 4095
0 3846 4095
0 4095 4095
0 2986 218
0 2982 452
0 2978 712
0 2970 1074
0 2967 1492
0 2979 1851
0 2995 2258
0 3019 2693
0 3051 3190
0 3105 3639
0 3189 3981
0 3301 4095
0 3452 4095
0 3655 4095
0 3898 4095
0 4081 4095
0 4095 4095
0 3661 342
0 3658 566
0 3653 810
0 3645 1176
0 3639 1626
0 3646 2018
0 3661 2433
0 3680 2878
0 3707 3377
0 3752 3827
0 3810 4056
0 3885 4095
0 3983 4095
0 4052 4095
0 4093 4095
0 4095 4095
0 4095 4095
0 4073 628
0 4073 838
0 4072 1068
0 4070 1413
0 4067 1894
0 4067 2345
0 4070 2770
0 4074 3228
0 4079 3715
0 4088 4035
0 4095 4095
0 4095 4095
0 4095 4095
0 4095 4095
0 4095 4095
0 4095 4095
0 4095 4095
0 4095 944
0 4095 1145
0 4095 1363
0 4095 1679
0 4095 2175
0 4095 2731
0 4095 3188
0 4095 3667
0 4095 4001
0 4095 4095
0 4095 4095
0 4095 4095
0 4095 4095
0 4095 4095
0 4095 4095
0 4095 4095
0 4095 4095
0 4095 1301
0 4095 1494
0 4095 1703
0 4095 2003
0 4095 2465
0 4095 3132
0 4095 3690
0 4095 4018
0 4095 4095
0 4095 4095
0 4095 4095
0 4095 4095
0 4095 4095
0 4095 4095
0 4095 4095
0 4095 4095
0 4095 4095
0 4095 1700
0 4095 1885
0 4095 2086
0 4095 2373
0 4095 2801
0 4095 3468
0 4095 4027
0 4095 4095
0 4095 4095
0 4095 4095
0 4095 4095
0 4095 4095
0 4095 4095
0 4095 4095
0 4095 4095
0 4095 4095
0 4095 4095
0 4095 2135
0 4095 2314
0 4095 2508
0 4095 2784
0 4095 3193
0 4095 3774
0 4095 4093
0 4095 4095
0 4095 4095
0 4095 4095
0 4095 4095
0 4095 4095
0 4095 4095
0 4095 4095
0 4095 4095
0 4095 4095
0 4095 4095
0 4095 2495
0 4095 2670
0 4095 2859
0 4095 3127
0 4095 3525
0 4095 4013
0 4095 4095
0 4095 4095
0 4095 4095
0 4095 4095
0 4095 4095
0 4095 4095
0 4095 4095
0 4095 4095
0 4095 4095
0 4095 4095
0 4095 4095
0 4095 1829
0 4095 2008
0 4095 2202
0 4095 2478
0 4095 2882
0 4095 3471
0 4095 4012
0 4095 4095
0 4095 4095
0 4095 4095
0 4095 4095
0 4095 4095
0 4095 4095
0 4095 4095
0 4095 4095
0 4095 4095
0 4095 4095
0 4095 0
0 4095 18
0 4095 252
0 4095 559
0 4095 990
0 4095 1604
0 4095 2485
0 4095 3643
0 4095 4095
0 4095 4095
0 4095 4095
0 4095 4095
0 4095 4095
0 4095 4095
0 4095 4095
0 4095 4095
0 4095 4095
603 0 0
583 0 13
561 0 317
533 0 673
501 0 1038
462 0 1390
387 0 1815
267 0 2268
90 0 2795
6 79 3253
0 292 3640
0 556 4021
0 884 4095
0 1292 4095
0 1793 4095
0 2378 4095
0 2958 4095
481 1 0
461 2 40
440 3 344
411 5 703
380 8 1077
339 20 1432
264 84 1858
135 177 2304
20 289 2818
0 439 3263
0 633 3638
0 875 4018
0 1178 4095
0 1560 4095
0 2025 4095
0 2569 4095
0 3116 4095
326 293 0
307 301 57
283 310 359
253 324 718
218 356 1091
170 413 1444
89 479 1866
19 558 2307
1 654 2817
0 784 3261
0 959 3639
0 1179 4023
0 1458 4095
0 1805 4095
0 2241 4095
0 2748 4095
0 3275 4095
116 809 0
94 814 94
68 819 393
47 829 752
34 852 1126
17 896 1475
3 946 1891
0 1009 2329
0 1086 2837
0 1194 3283
0 1340 3667
0 1526 4044
0 1762 4095
0 2072 4095
0 2472 4095
0 2963 4095
0 3474 4095
7 1370 11
6 1371 243
4 1369 531
2 1370 880
0 1381 1253
0 1406 1592
0 1434 1995
0 1470 2421
0 1518 2918
0 1593 3356
0 1704 3732
0 1855 4060
0 2060 4095
0 2339 4095
0 2711 4095
0 3202 4095
0 3727 4095
0 1854 60
0 1850 313
0 1843 590
0 1837 936
0 1836 1313
0 1850 1645
0 1868 2044
0 1895 2467
0 1934 2960
0 2000 3399
0 2102 3776
0 2242 4068
0 2429 4095
0 2680 4095
0 3014 4095
0 3461 4095
0 4012 4095
0 2355 90
0 2351 337
0 2346 611
0 2340 966
0 2338 1363
0 2351 1706
0 2369 2110
0 2395 2540
0 2431 3036
0 2490 3482
0 2582 3857
0 2706 4084
0 2873 4095
0 3098 4095
0 3400 4095
0 3807 4095
0 4095 4095
0 2943 173
0 2939 408
0 2934 669
0 2927 1033
0 2924 1455
0 2936 1817
0 2953 2226
0 2977 2663
0 3009 3160
0 3063 3611
0 3148 3961
0 3261 4095
0 3414 4095
0 3619 4095
0 3871 4095
0 4071 4095
0 4095 4095
0 3624 298
0 3621 523
0 3616 768
0 3608 1134
0 3601 1587
0 3608 1982
0 3622 2397
0 3641 2844
0 3668 3343
0 3714 3798
0 3781 4046
0 3857 4095
0 3959 4095
0 4044 4095
0 4091 4095
0 4095 4095
0 4095 4095
0 4065 581
0 4064 791
0 4063 1021
0 4060 1366
0 4058 1850
0 4058 2305
0 4061 2731
0 4064 3191
0 4070 3682
0 4078 4023
0 4092 4095
0 4095 4095
0 4095 4095
0 4095 4095
0 4095 4095
0 4095 4095
0 4095 4095
0 4095 900
0 4095 1101
0 4095 1319
0 4095 1637
0 4095 2133
0 4095 2694
0 4095 3154
0 4095 3637
0 4095 3990
0 4095 4095
0 4095 4095
0 4095 4095
0 4095 4095
0 4095 4095
0 4095 4095
0 4095 4095
0 4095 4095
0 4095 1264
0 4095 1457
0 4095 1666
0 4095 1967
0 4095 2430
0 4095 3100
0 4095 3665
0 4095 4010
0 4095 4095
0 4095 4095
0 4095 4095
0 4095 4095
0 4095 4095
0 4095 4095
0 4095 4095
0 4095 4095
0 4095 4095
0 4095 1664
0 4095 1849
0 4095 2051
0 4095 2338
0 4095 2767
0 4095 3435
0 4095 4017
0 4095 4095
0 4095 4095
0 4095 4095
0 4095 4095
0 4095 4095
0 4095 4095
0 4095 4095
0 4095 4095
0 4095 4095
0 4095 4095
0 4095 2102
0 4095 2281
0 4095 2475
0 4095 2751
0 4095 3160
0 4095 3749
0 4095 4091
0 4095 4095
0 4095 4095
0 4095 4095
0 4095 4095
0 4095 4095
0 4095 4095
0 4095 4095
0 4095 4095
0 4095 4095
0 4095 4095
0 4095 2474
0 4095 2648
0 4095 2837
0 4095 3106
0 4095 3503
0 4095 4000
0 4095 4095
0 4095 4095
0 4095 4095
0 4095 4095
0 4095 4095
0 4095 4095
0 4095 4095
0 4095 4095
0 4095 4095
0 4095 4095
0 4095 4095
0 4095 1850
0 4095 2029
0 4095 2223
0 4095 2498
0 4095 2902
0 4095 3490
0 4095 4017
0 4095 4095
0 4095 4095
0 4095 4095
0 4095 4095
0 4095 4095
0 4095 4095
0 4095 4095
0 4095 4095
0 4095 4095
0 4095 4095
0 4095 0
0 4095 38
0 4095 269
0 4095 575
0 4095 1005
0 4095 1619
0 4095 2499
0 4095 3653
0 4095 4095
0 4095 4095
0 4095 4095
0 4095 4095
0 4095 4095
0 4095 4095
0 4095 4095
0 4095 4095
0 4095 4095
1117 0 0
1108 0 65
1096 0 362
1083 0 714
1073 0 1080
1067 0 1428
1038 0 1848
964 0 2289
810 0 2803
531 20 3262
150 203 3659
0 476 4043
0 809 4095
0 1224 4095
0 1738 4095
0 2341 4095
0 2951 4095
1074 0 0
1065 0 89
1052 0 386
1038 1 742
1024 4 1111
1007 8 1460
961 16 1877
868 75 2316
687 182 2827
389 338 3279
72 544 3659
0 793 4034
0 1102 4095
0 1492 4095
0 1967 4095
0 2531 4095
