Postproduction/IWLTBAP - Humble/LUTs by IWLTBAP (3DL)/UTILITY/Sony S-Log2 to Rec.709/U-SONY-S-LOG2-V1-LTR.3dl
# Copyright: (C) Copyright 2010-2018 by IWLTBAP SAS
# Cannot be resold, shared or otherwise redistributed
# Website: https://luts.iwltbap.com
0 256 512 768 1023
3 3 3
2 2 534
3 3 2152
5 5 3487
7 7 4089
7 525 7
8 485 458
10 171 2027
13 173 3376
17 175 4068
19 2035 19
22 2021 177
25 1896 1762
30 1427 3274
35 712 4055
43 3501 43
46 3490 194
51 3449 1270
53 3333 3138
55 3230 3958
61 4062 61
59 4061 207
59 4060 819
58 4060 3002
58 4059 3870
656 3 133
646 5 534
622 6 2084
559 9 3430
561 12 4078
455 512 42
454 483 489
461 172 1987
440 175 3332
432 177 4059
179 2015 26
181 2004 183
183 1888 1763
187 1448 3248
191 737 4048
197 3485 50
197 3479 197
198 3441 1286
199 3324 3133
200 3214 3957
205 4058 57
203 4057 203
202 4055 760
202 4054 2952
201 4053 3861
2643 8 547
2591 9 763
2582 12 2070
2610 15 3415
2617 19 4070
2524 296 511
2496 379 737
2490 177 2004
2528 180 3335
2548 184 4054
1812 1958 37
1811 1952 364
1806 1852 1852
1857 1422 3281
1931 751 4050
381 3480 52
381 3471 198
381 3428 1401
382 3306 3170
382 3185 3977
385 4055 54
384 4053 200
382 4051 801
381 4049 2943
379 4044 3870
3827 15 971
3825 17 1154
3823 21 2188
3822 24 3476
3822 29 4065
3816 181 927
3814 273 1169
3810 185 2169
3814 189 3412
3816 193 4052
3800 1727 761
3799 1779 1031
3783 1860 1985
3795 1252 3378
3801 572 4052
3252 3434 53
3236 3421 213
3213 3367 1620
3182 3211 3208
3191 3048 4029
1728 4051 50
1617 4048 197
1514 4046 1182
1438 4043 2968
1358 4002 3910
4070 26 1229
4066 29 1405
4065 33 2375
4063 38 3520
4063 43 4063
4056 192 1208
4054 314 1464
4053 197 2378
4054 199 3482
4056 201 4056
4055 1674 1034
4054 1844 1261
4053 1901 2154
4053 1245 3435
4054 500 4054
4054 3355 138
4052 3329 653
4050 3240 1787
4048 3174 3234
4047 2946 4045
4003 4046 45
3991 4042 192
3976 4039 1364
3959 4031 2899
3942 3944 3943
