Postproduction/IWLTBAP - Humble/LUTs by IWLTBAP (3DL)/UTILITY/Sony S-Log2 to Rec.709/U-SONY-S-LOG2-V5-LTR.3dl
# Copyright: (C) Copyright 2010-2018 by IWLTBAP SAS
# Cannot be resold, shared or otherwise redistributed
# Website: https://luts.iwltbap.com
0 256 512 768 1023
0 0 0
0 0 1549
0 0 3478
0 0 4095
0 0 4095
0 1679 0
0 1499 1388
0 167 3448
0 0 4095
0 0 4095
0 3607 0
0 3577 197
0 3421 3294
0 1469 4095
0 0 4095
0 4095 0
0 4095 0
0 4095 1607
0 4095 4095
0 3212 4095
0 4095 0
0 4095 0
0 4095 0
0 4095 3472
0 4095 4095
1818 0 0
1761 0 1514
1473 0 3471
0 0 4095
0 0 4095
1420 1547 0
1343 1346 1348
893 26 3441
0 0 4095
0 0 4095
0 3585 0
0 3554 149
0 3391 3285
0 1359 4095
0 0 4095
0 4095 0
0 4095 0
0 4095 1563
0 4095 4095
0 3159 4095
0 4095 0
0 4095 0
0 4095 0
0 4095 3464
0 4095 4095
3728 0 0
3719 0 1345
3680 0 3440
3438 0 4095
0 0 4095
3672 629 0
3663 257 1149
3619 0 3408
3344 0 4095
0 0 4095
3327 3474 0
3311 3437 8
3232 3241 3245
2710 713 4095
0 0 4095
0 4095 0
0 4095 0
0 4095 1431
0 4095 4095
0 2901 4095
0 4095 0
0 4095 0
0 4095 0
0 4095 3432
0 4095 4095
4095 0 0
4095 0 109
4095 0 3271
4095 0 4095
4095 0 4095
4095 0 0
4095 0 0
4095 0 3231
4095 0 4095
4095 0 4095
4095 2456 0
4095 2341 0
4095 1690 3018
4095 0 4095
4095 0 4095
4095 4095 0
4095 4095 0
4095 4095 665
4095 4095 4095
4078 1501 4095
0 4095 0
0 4095 0
0 4095 0
0 4095 3258
0 4095 4095
4095 0 0
4095 0 0
4095 0 1310
4095 0 4095
4095 0 4095
4095 0 0
4095 0 0
4095 0 1147
4095 0 4095
4095 0 4095
4095 0 0
4095 0 0
4095 0 503
4095 0 4095
4095 0 4095
4095 4009 0
4095 4001 0
4095 3956 0
4095 3537 4095
4095 0 4095
4095 4095 0
4095 4095 0
4095 4095 0
4095 4095 1565
4095 4095 4095
