Postproduction/IWLTBAP - Humble/LUTs by IWLTBAP (3DL)/UTILITY/Sony S-Log2 to Rec.709/U-SONY-S-LOG2-V5-LTR.3dl
# Copyright: (C) Copyright 2010-2018 by IWLTBAP SAS
# Cannot be resold, shared or otherwise redistributed
# Website: https://luts.iwltbap.com
0 128 256 384 512 640 768 896 1023
0 0 0
0 0 660
0 0 1549
0 0 2509
0 0 3478
0 0 4059
0 0 4095
0 0 4095
0 0 4095
0 768 0
0 616 518
0 267 1495
0 0 2480
0 0 3467
0 0 4058
0 0 4095
0 0 4095
0 0 4095
0 1679 0
0 1618 217
0 1499 1388
0 1187 2424
0 167 3448
0 0 4054
0 0 4095
0 0 4095
0 0 4095
0 2679 0
0 2647 0
0 2585 1111
0 2443 2298
0 2084 3402
0 770 4047
0 0 4095
0 0 4095
0 0 4095
0 3607 0
0 3597 0
0 3577 197
0 3533 1981
0 3421 3294
0 3092 4031
0 1469 4095
0 0 4095
0 0 4095
0 4095 0
0 4095 0
0 4095 0
0 4090 862
0 4075 2981
0 4035 3978
0 3863 4095
0 2282 4095
0 0 4095
0 4095 0
0 4095 0
0 4095 0
0 4095 0
0 4095 1607
0 4095 3794
0 4095 4095
0 4095 4095
0 3212 4095
0 4095 0
0 4095 0
0 4095 0
0 4095 0
0 4095 0
0 4095 2556
0 4095 4095
0 4095 4095
0 4095 4095
0 4095 0
0 4095 0
0 4095 0
0 4095 0
0 4095 0
0 4095 0
0 4095 3472
0 4095 4095
0 4095 4095
879 0 0
835 0 630
744 0 1536
508 0 2502
45 0 3476
0 0 4059
0 0 4095
0 0 4095
0 0 4095
550 657 0
485 484 483
355 149 1482
119 0 2473
0 0 3465
0 0 4057
0 0 4095
0 0 4095
0 0 4095
13 1633 0
3 1571 189
0 1447 1374
0 1117 2417
0 116 3445
0 0 4054
0 0 4095
0 0 4095
0 0 4095
0 2656 0
0 2623 0
0 2560 1093
0 2415 2290
0 2049 3400
0 696 4047
0 0 4095
0 0 4095
0 0 4095
0 3599 0
0 3589 0
0 3569 174
0 3524 1972
0 3411 3291
0 3077 4030
0 1431 4095
0 0 4095
0 0 4095
0 4095 0
0 4095 0
0 4095 0
0 4089 846
0 4073 2977
0 4033 3977
0 3858 4095
0 2256 4095
0 0 4095
0 4095 0
0 4095 0
0 4095 0
0 4095 0
0 4095 1592
0 4095 3792
0 4095 4095
0 4095 4095
0 3194 4095
0 4095 0
0 4095 0
0 4095 0
0 4095 0
0 4095 0
0 4095 2550
0 4095 4095
0 4095 4095
0 4095 4095
0 4095 0
0 4095 0
0 4095 0
0 4095 0
0 4095 0
0 4095 0
0 4095 3469
0 4095 4095
0 4095 4095
1818 0 0
1798 0 571
1761 0 1514
1677 0 2490
1473 0 3471
826 0 4058
0 0 4095
0 0 4095
0 0 4095
1690 411 0
1669 211 417
1628 14 1458
1535 0 2460
1304 0 3461
551 0 4057
0 0 4095
0 0 4095
0 0 4095
1420 1547 0
1393 1480 143
1343 1346 1348
1223 973 2405
893 26 3441
94 0 4053
0 0 4095
0 0 4095
0 0 4095
469 2610 0
419 2576 0
320 2511 1059
164 2363 2276
14 1983 3395
0 539 4046
0 0 4095
0 0 4095
0 0 4095
0 3585 0
0 3574 0
0 3554 149
0 3507 1955
0 3391 3285
0 3045 4030
0 1359 4095
0 0 4095
0 0 4095
0 4095 0
0 4095 0
0 4093 0
0 4086 817
0 4071 2968
0 4030 3976
0 3850 4095
0 2211 4095
0 0 4095
0 4095 0
0 4095 0
0 4095 0
0 4095 0
0 4095 1563
0 4095 3790
0 4095 4095
0 4095 4095
0 3159 4095
0 4095 0
0 4095 0
0 4095 0
0 4095 0
0 4095 0
0 4095 2537
0 4095 4095
0 4095 4095
0 4095 4095
0 4095 0
0 4095 0
0 4095 0
0 4095 0
0 4095 0
0 4095 0
0 4095 3464
0 4095 4095
0 4095 4095
2853 0 0
2843 0 431
2824 0 1463
2782 0 2463
2686 0 3462
2451 0 4057
1762 0 4095
0 0 4095
0 0 4095
2788 19 0
2777 0 263
2758 0 1405
2714 0 2433
2614 0 3451
2365 0 4055
1619 0 4095
0 0 4095
0 0 4095
2663 1333 0
2651 1252 58
2629 1084 1289
2581 588 2376
2469 0 3431
2196 0 4052
1312 0 4095
0 0 4095
0 0 4095
2340 2506 0
2325 2470 0
2299 2402 979
2240 2243 2246
2102 1829 3384
1746 331 4045
545 0 4095
0 0 4095
0 0 4095
1177 3552 0
1142 3541 0
1095 3519 97
1003 3469 1918
755 3347 3273
247 2976 4028
0 1189 4095
0 0 4095
0 0 4095
0 4093 0
0 4091 0
0 4088 0
0 4081 749
0 4065 2950
0 4023 3973
0 3831 4095
0 2109 4095
0 0 4095
0 4095 0
0 4095 0
0 4095 0
0 4095 0
0 4095 1516
0 4095 3785
0 4095 4095
0 4095 4095
0 3062 4095
0 4095 0
0 4095 0
0 4095 0
0 4095 0
0 4095 0
0 4095 2510
0 4095 4095
0 4095 4095
0 4095 4095
0 4095 0
0 4095 0
0 4095 0
0 4095 0
0 4095 0
0 4095 0
0 4095 3454
0 4095 4095
0 4095 4095
3728 0 0
3725 0 142
3719 0 1345
3707 0 2403
3680 0 3440
3615 0 4053
3438 0 4095
2778 0 4095
0 0 4095
3709 0 0
3706 0 46
3700 0 1280
3688 0 2372
3659 0 3429
3591 0 4052
3406 0 4095
2710 0 4095
0 0 4095
3672 629 0
3669 505 0
3663 257 1149
3650 3 2313
3619 0 3408
3546 0 4048
3344 0 4095
2574 0 4095
0 0 4095
3584 2256 0
3580 2215 0
3573 2135 779
3557 1946 2178
3521 1402 3360
3432 21 4041
3189 0 4095
2221 0 4095
0 0 4095
3327 3474 0
3322 3461 0
3311 3437 8
3288 3380 1833
3232 3241 3245
3097 2807 4024
2710 713 4095
1084 0 4095
0 0 4095
2079 4082 0
2061 4080 0
2027 4077 0
1948 4069 575
1735 4052 2911
1410 4004 3966
577 3787 4095
0 1870 4095
0 0 4095
0 4095 0
0 4095 0
0 4095 0
0 4095 0
0 4095 1431
0 4095 3773
0 4095 4095
0 4095 4095
0 2901 4095
0 4095 0
0 4095 0
0 4095 0
0 4095 0
0 4095 0
0 4095 2447
0 4095 4095
0 4095 4095
0 4095 4095
0 4095 0
0 4095 0
0 4095 0
0 4095 0
0 4095 0
0 4095 0
0 4095 3432
0 4095 4095
0 4095 4095
4095 0 0
4095 0 0
4095 0 1027
4095 0 2264
4095 0 3391
4095 0 4046
4095 0 4095
4039 0 4095
3663 0 4095
4095 0 0
4095 0 0
4095 0 935
4095 0 2231
4095 0 3379
4095 0 4044
4094 0 4095
4034 0 4095
3641 0 4095
4095 0 0
4095 0 0
4095 0 746
4095 0 2166
4095 0 3356
4095 0 4041
4091 0 4095
4023 0 4095
3599 0 4095
4095 1497 0
4095 1425 0
4095 1276 283
4095 918 2018
4095 219 3305
4095 0 4033
4075 0 4095
3998 0 4095
3496 0 4095
4089 3263 0
4088 3246 0
4087 3212 0
4085 3134 1625
4079 2937 3181
4066 2316 4013
4034 224 4095
3916 0 4095
3183 0 4095
3990 4055 0
3989 4053 0
3987 4049 0
3981 4040 290
3970 4018 2814
3941 3947 3950
3862 3674 4095
3599 1180 4095
1639 0 4095
3003 4095 0
2994 4095 0
2979 4095 0
2945 4095 0
2865 4095 1237
2665 4095 3747
2143 4095 4095
830 4095 4095
0 2557 4095
0 4095 0
0 4095 0
0 4095 0
0 4095 0
0 4095 0
0 4095 2294
0 4095 4095
0 4095 4095
0 4095 4095
0 4095 0
0 4095 0
0 4095 0
0 4095 0
0 4095 0
0 4095 0
0 4095 3382
0 4095 4095
0 4095 4095
4095 0 0
4095 0 0
4095 0 109
4095 0 1915
4095 0 3271
4095 0 4027
4095 0 4095
4095 0 4095
4095 0 4095
4095 0 0
4095 0 0
4095 0 33
4095 0 1872
4095 0 3257
4095 0 4026
4095 0 4095
4095 0 4095
4095 0 4095
4095 0 0
4095 0 0
4095 0 0
4095 0 1791
4095 0 3231
4095 0 4021
4095 0 4095
4095 0 4095
4095 0 4095
4095 0 0
4095 0 0
4095 0 0
4095 0 1594
4095 0 3169
4095 0 4011
4095 0 4095
4095 0 4095
4095 0 4095
4095 2456 0
4095 2416 0
4095 2341 0
4095 2169 994
4095 1690 3018
4095 571 3984
4095 0 4095
4095 0 4095
4095 0 4095
4095 3962 0
4095 3958 0
4095 3949 0
4095 3931 0
4095 3886 2577
4095 3764 3914
4095 3271 4095
4095 422 4095
4095 0 4095
4095 4095 0
4095 4095 0
4095 4095 0
4095 4095 0
4095 4095 665
4095 4095 3682
4095 4095 4095
4095 4091 4095
4078 1501 4095
3733 4095 0
3730 4095 0
3725 4095 0
3713 4095 0
3688 4095 0
3628 4095 1978
3469 4095 4095
2903 4095 4095
827 4095 4095
0 4095 0
0 4095 0
0 4095 0
0 4095 0
0 4095 0
0 4095 0
0 4095 3258
0 4095 4095
0 4095 4095
4095 0 0
4095 0 0
4095 0 0
4095 0 608
4095 0 2921
4095 0 3966
4095 0 4095
4095 0 4095
4095 0 4095
4095 0 0
4095 0 0
4095 0 0
4095 0 509
4095 0 2902
4095 0 3963
4095 0 4095
4095 0 4095
4095 0 4095
4095 0 0
4095 0 0
4095 0 0
4095 0 390
4095 0 2860
4095 0 3956
4095 0 4095
4095 0 4095
4095 0 4095
4095 0 0
4095 0 0
4095 0 0
4095 0 201
4095 0 2767
4095 0 3941
4095 0 4095
4095 0 4095
4095 0 4095
4095 0 0
4095 0 0
4095 0 0
4095 0 0
4095 0 2541
4095 0 3907
4095 0 4095
4095 0 4095
4095 0 4095
4095 3404 0
4095 3389 0
4095 3360 0
4095 3294 0
4095 3125 1842
4095 2635 3816
4095 825 4095
4095 0 4095
4095 0 4095
4095 4095 0
4095 4095 0
4095 4095 0
4095 4095 0
4095 4095 55
4095 4095 3504
4095 4095 4095
4095 3935 4095
4095 499 4095
4095 4095 0
4095 4095 0
4095 4095 0
4095 4095 0
4095 4095 0
4095 4095 1184
4095 4095 4093
4095 4095 4095
4095 4095 4095
4095 4095 0
4095 4095 0
4095 4095 0
4095 4095 0
4095 4095 0
4095 4095 0
4095 4095 2804
4088 4095 4095
3506 4095 4095
4095 0 0
4095 0 0
4095 0 0
4095 0 0
4095 0 1310
4095 0 3758
4095 0 4095
4095 0 4095
4095 0 4095
4095 0 0
4095 0 0
4095 0 0
4095 0 0
4095 0 1254
4095 0 3752
4095 0 4095
4095 0 4095
4095 0 4095
4095 0 0
4095 0 0
4095 0 0
4095 0 0
4095 0 1147
4095 0 3740
4095 0 4095
4095 0 4095
4095 0 4095
4095 0 0
4095 0 0
4095 0 0
4095 0 0
4095 0 874
4095 0 3712
4095 0 4095
4095 0 4095
4095 0 4095
4095 0 0
4095 0 0
4095 0 0
4095 0 0
4095 0 503
4095 0 3648
4095 0 4095
4095 0 4095
4095 0 4095
4095 0 0
4095 0 0
4095 0 0
4095 0 0
4095 0 0
4095 0 3479
4095 0 4095
4095 0 4095
4095 0 4095
4095 4009 0
4095 4006 0
4095 4001 0
4095 3987 0
4095 3956 0
4095 3871 2813
4095 3537 4095
4095 835 4095
4095 0 4095
4095 4095 0
4095 4095 0
4095 4095 0
4095 4095 0
4095 4095 0
4095 4095 195
4095 4095 4054
4095 4095 4095
4095 4095 4095
4095 4095 0
4095 4095 0
4095 4095 0
4095 4095 0
4095 4095 0
4095 4095 0
4095 4095 1565
4095 4095 4095
4095 4095 4095
