Postproduction/IWLTBAP - Humble/LUTs by IWLTBAP (3DL)/UTILITY/Sony S-Log2 to Rec.709/U-SONY-S-LOG2-V3-LTR.3dl
# Copyright: (C) Copyright 2010-2018 by IWLTBAP SAS
# Cannot be resold, shared or otherwise redistributed
# Website: https://luts.iwltbap.com
0 256 512 768 1023
5 5 5
3 3 561
5 5 2059
8 8 3514
11 11 4089
11 574 11
13 529 495
17 118 1950
21 120 3379
27 123 4070
31 2057 31
34 2043 127
40 1928 1801
46 1466 3256
53 682 4058
65 3531 65
70 3517 150
76 3468 1417
79 3328 3108
82 3203 3968
90 4065 90
88 4064 168
87 4063 848
87 4062 3011
87 4062 3868
703 6 190
695 7 571
687 10 2003
628 14 3445
632 19 4079
491 562 64
490 528 536
501 120 1918
478 123 3326
467 127 4062
130 2037 41
132 2028 135
135 1921 1803
140 1489 3225
146 710 4052
154 3511 75
154 3505 154
155 3459 1437
157 3317 3103
159 3184 3967
165 4061 85
163 4059 163
162 4058 773
161 4057 2967
160 4057 3856
2598 13 732
2536 16 880
2533 19 2043
2575 24 3427
2586 30 4071
2471 287 686
2442 397 857
2438 127 1983
2492 131 3329
2517 136 4057
1872 2009 56
1872 2005 377
1872 1916 1916
1907 1494 3264
1943 740 4054
282 3505 77
281 3494 156
281 3442 1579
282 3294 3140
283 3151 3986
287 4058 80
284 4056 159
283 4054 825
281 4053 2961
279 4048 3867
3924 24 1250
3922 28 1314
3920 32 2193
3919 38 3500
3919 45 4067
3911 133 1208
3909 257 1335
3904 138 2179
3909 143 3423
3911 149 4055
3893 1837 1005
3890 1893 1231
3871 1984 2101
3886 1369 3382
3894 530 4056
3264 3450 79
3248 3435 176
3233 3377 1852
3209 3232 3230
3210 3074 4034
1831 4055 75
1701 4052 154
1584 4049 1307
1506 4047 3011
1413 4009 3916
4071 40 1504
4068 45 1562
4067 50 2370
4066 57 3554
4066 65 4066
4059 147 1488
4057 312 1626
4056 154 2376
4057 157 3508
4059 160 4059
4058 1790 1348
4057 1964 1515
4057 2029 2265
4057 1363 3451
4057 437 4057
4057 3365 196
4055 3339 752
4053 3260 2049
4052 3215 3271
4050 2991 4049
4010 4050 68
3999 4046 147
3985 4043 1535
3969 4036 3035
3954 3955 3955
