Postproduction/IWLTBAP - Humble/LUTs by IWLTBAP (3DL)/UTILITY/Sony S-Log2 to Rec.709/U-SONY-S-LOG2-V4-LTR.3dl
# Copyright: (C) Copyright 2010-2018 by IWLTBAP SAS
# Cannot be resold, shared or otherwise redistributed
# Website: https://luts.iwltbap.com
0 256 512 768 1023
0 0 0
0 0 1041
0 26 2762
0 974 4095
0 2956 4095
0 1479 77
0 1493 1318
0 1644 2988
0 2180 4095
0 3738 4095
0 3694 382
0 3672 1660
0 3742 3407
0 4003 4095
0 4095 4095
0 4095 1734
0 4095 2834
0 4095 4095
0 4095 4095
0 4095 4095
0 4095 0
0 4095 976
0 4095 4095
0 4095 4095
0 4095 4095
1612 0 0
1594 0 1186
1506 0 2887
15 686 4095
0 2932 4095
1279 1168 0
1187 1152 1121
831 1240 2749
0 1840 4095
0 3661 4095
0 3480 116
0 3453 1434
0 3516 3210
0 3857 4095
0 4095 4095
0 4095 1553
0 4095 2665
0 4095 4095
0 4095 4095
0 4095 4095
0 4095 0
0 4095 1059
0 4095 4095
0 4095 4095
0 4095 4095
3723 0 166
3730 0 1484
3868 0 3292
3923 0 4095
388 1701 4095
3826 210 291
3790 196 1562
3732 251 3200
3426 710 4095
135 2529 4095
3181 2965 0
3128 2932 941
3061 2955 2835
2698 3131 4095
0 4085 4095
0 4095 357
0 4095 1492
0 4095 4039
0 4095 4095
0 4095 4095
0 4095 353
0 4095 1459
0 4095 4095
0 4095 4095
0 4095 4095
4095 0 0
4095 0 1024
4095 0 3467
4095 0 4095
4095 0 4095
4095 0 0
4095 0 1134
4095 0 3625
4095 0 4095
4095 0 4095
4095 802 80
4095 788 960
4095 829 3533
4095 1134 4095
4095 2320 4095
4095 4095 0
4095 4095 0
4095 4095 2523
4095 4095 4095
4071 4095 4095
0 4095 0
0 4095 184
0 4095 3631
0 4095 4095
0 4095 4095
4095 0 0
4095 0 0
4095 0 964
4095 0 4063
4095 0 4095
4095 0 0
4095 0 0
4095 0 1053
4095 0 4087
4095 0 4095
4095 0 0
4095 0 0
4095 0 1487
4095 0 4095
4095 0 4095
4095 1288 0
4095 1279 0
4095 1185 2133
4095 1281 4095
4095 2040 4095
4095 4095 0
4095 4095 0
4095 4095 0
4095 4095 4085
4095 4095 4095
