Postproduction/IWLTBAP - Humble/LUTs by IWLTBAP (3DL)/UTILITY/Sony S-Log2 to Rec.709/U-SONY-S-LOG2-V3-LTR.3dl
# Copyright: (C) Copyright 2010-2018 by IWLTBAP SAS
# Cannot be resold, shared or otherwise redistributed
# Website: https://luts.iwltbap.com
0 64 128 192 256 320 384 448 512 576 640 704 768 832 896 960 1023
5 5 5
6 5 44
6 4 99
5 3 260
3 3 561
4 4 894
4 4 1269
4 4 1668
5 5 2059
6 6 2435
6 6 2808
7 7 3180
8 8 3514
9 9 3783
9 9 3975
10 10 4051
11 11 4089
6 46 6
7 45 43
7 38 98
6 27 256
5 25 551
5 26 878
6 26 1244
6 27 1638
7 27 2026
8 28 2399
8 28 2769
9 29 3139
10 30 3477
11 31 3754
12 31 3959
13 32 4045
15 33 4084
5 103 5
6 103 33
6 99 93
6 69 255
7 53 545
7 53 865
8 54 1225
9 54 1612
9 54 1997
10 55 2368
11 56 2733
12 56 3101
13 57 3442
15 58 3725
16 58 3938
17 59 4037
18 60 4079
7 270 7
8 270 29
8 269 66
9 245 233
10 174 537
10 89 855
11 85 1209
12 85 1591
13 85 1973
14 86 2339
15 86 2702
16 87 3067
17 88 3409
18 88 3698
19 89 3918
21 90 4031
22 91 4074
11 574 11
11 574 30
12 574 57
12 568 165
13 529 495
14 432 836
15 240 1191
16 137 1570
17 118 1950
18 119 2314
19 119 2674
20 120 3035
21 120 3379
23 121 3672
24 122 3898
25 123 4024
27 123 4070
15 907 15
15 905 34
16 904 58
17 902 93
18 887 389
18 848 793
19 748 1164
20 527 1546
21 245 1926
22 156 2288
24 154 2646
25 155 3005
26 155 3350
28 156 3647
29 156 3877
30 157 4015
32 158 4067
19 1273 19
20 1271 38
21 1269 62
21 1267 90
22 1259 215
23 1238 682
24 1191 1114
25 1099 1511
27 937 1895
28 607 2259
29 387 2616
30 230 2974
32 197 3321
33 192 3620
35 193 3855
37 194 4005
38 194 4064
25 1665 25
25 1662 43
26 1660 66
27 1658 93
28 1651 136
29 1638 445
30 1610 1017
31 1558 1457
33 1480 1854
34 1365 2222
35 1172 2582
37 893 2940
39 579 3289
40 393 3590
42 296 3829
44 271 3991
46 232 4061
31 2057 31
31 2054 48
32 2051 71
33 2048 97
34 2043 127
35 2033 207
37 2013 816
38 1980 1380
40 1928 1801
41 1859 2179
43 1768 2543
44 1645 2904
46 1466 3256
48 1220 3558
50 1020 3799
51 868 3971
53 682 4058
38 2431 38
39 2427 55
40 2425 77
41 2422 102
42 2417 131
43 2408 171
45 2393 592
46 2367 1266
48 2331 1738
49 2281 2131
51 2216 2502
52 2135 2867
54 2032 3221
56 1925 3525
58 1826 3768
60 1746 3947
62 1691 4046
46 2800 46
47 2796 62
48 2794 83
49 2791 109
50 2786 136
52 2778 168
53 2765 400
55 2745 1094
56 2717 1657
58 2680 2075
60 2630 2457
62 2569 2827
64 2495 3184
66 2422 3491
68 2358 3734
70 2312 3915
72 2286 4024
55 3171 55
56 3167 71
57 3164 91
58 3160 116
59 3156 143
61 3149 173
62 3138 238
64 3121 847
66 3098 1554
68 3069 2006
70 3032 2406
72 2983 2785
73 2925 3145
75 2870 3453
77 2824 3698
78 2793 3880
79 2775 3998
65 3531 65
66 3528 80
67 3525 100
68 3522 124
70 3517 150
71 3511 179
73 3501 212
74 3486 597
76 3468 1417
77 3444 1921
78 3414 2346
79 3376 2743
79 3328 3108
80 3281 3418
81 3244 3663
81 3218 3843
82 3203 3968
75 3839 75
76 3836 91
77 3834 110
78 3831 132
79 3828 158
80 3824 186
80 3817 216
80 3805 420
81 3789 1211
81 3768 1831
81 3741 2288
82 3707 2701
82 3667 3075
83 3625 3385
83 3590 3628
84 3567 3807
84 3552 3936
84 3988 84
84 3988 98
83 3987 115
83 3987 137
83 3987 162
83 3987 189
83 3986 220
83 3985 318
83 3983 998
84 3981 1750
84 3975 2238
84 3953 2665
84 3920 3045
85 3886 3359
85 3854 3600
85 3829 3776
86 3815 3905
88 4028 88
87 4027 101
87 4027 119
86 4027 140
86 4027 165
86 4027 192
86 4027 223
86 4027 309
86 4027 930
86 4027 1692
86 4027 2206
86 4027 2642
86 4025 3024
86 4019 3339
86 4010 3582
87 3999 3755
87 3989 3882
90 4065 90
90 4064 104
89 4064 122
89 4064 143
88 4064 168
88 4063 195
88 4063 225
88 4063 297
87 4063 848
87 4063 1657
87 4063 2187
87 4062 2627
87 4062 3011
87 4062 3325
87 4062 3568
87 4062 3743
87 4062 3868
51 6 12
51 6 47
51 5 99
41 4 258
30 4 555
25 4 885
26 5 1256
26 5 1652
27 6 2042
27 7 2417
28 7 2788
28 8 3159
29 9 3495
30 10 3769
30 11 3967
31 12 4048
32 13 4087
46 47 10
45 47 45
46 40 99
40 28 255
31 26 547
27 27 870
27 27 1233
27 27 1624
28 28 2010
29 29 2382
29 29 2750
30 30 3118
31 31 3459
32 32 3739
32 32 3948
33 33 4041
34 34 4081
33 104 7
33 105 35
33 100 94
33 70 255
29 54 542
28 54 859
29 54 1215
29 55 1599
30 55 1983
31 56 2351
32 56 2715
32 57 3081
33 58 3424
34 58 3710
35 59 3927
36 60 4034
38 61 4076
28 270 9
29 270 30
29 270 68
30 245 234
30 175 536
31 90 850
31 85 1200
32 85 1579
33 86 1959
34 86 2324
34 87 2686
35 87 3048
36 88 3392
38 89 3684
39 90 3907
40 91 4027
41 92 4072
31 573 12
31 573 31
32 573 58
32 568 167
33 528 496
34 431 832
34 243 1184
35 138 1560
36 118 1938
37 119 2300
38 119 2658
39 120 3018
40 121 3363
42 121 3658
43 122 3887
44 123 4019
46 124 4068
34 903 16
35 902 35
35 901 59
36 899 95
37 885 392
38 846 792
38 747 1159
39 529 1537
40 249 1915
41 157 2276
43 154 2631
44 155 2989
45 155 3335
46 156 3633
48 157 3868
49 157 4010
51 158 4064
39 1267 21
39 1265 39
40 1264 63
41 1262 91
41 1254 219
42 1234 684
43 1188 1111
44 1097 1505
45 938 1886
46 615 2248
48 391 2604
49 229 2959
50 197 3307
52 192 3607
53 193 3845
55 194 4000
57 195 4061
44 1658 26
44 1656 44
45 1653 67
46 1651 94
47 1645 139
48 1632 455
49 1605 1018
50 1554 1453
51 1477 1847
52 1363 2213
54 1176 2571
55 897 2927
56 580 3277
58 394 3578
60 295 3819
62 272 3985
63 232 4059
49 2049 33
50 2046 50
51 2044 72
52 2041 98
53 2036 127
54 2026 214
55 2007 824
56 1974 1378
57 1923 1797
59 1855 2172
60 1766 2534
62 1644 2893
64 1467 3244
66 1221 3547
67 1018 3791
69 870 3966
71 677 4056
56 2422 40
57 2419 57
58 2417 78
59 2414 104
60 2409 132
61 2401 173
62 2385 604
64 2360 1269
65 2324 1736
67 2275 2125
68 2212 2494
70 2131 2857
72 2030 3211
74 1923 3516
76 1823 3761
78 1744 3942
80 1688 4043
64 2791 48
65 2788 65
66 2785 86
67 2782 110
68 2777 138
69 2770 169
71 2757 411
72 2737 1105
74 2710 1659
75 2673 2072
77 2625 2451
79 2564 2820
81 2491 3176
83 2419 3482
85 2355 3728
87 2309 3911
88 2282 4022
72 3161 57
73 3158 73
74 3155 94
76 3151 117
77 3147 144
78 3141 174
80 3129 246
81 3113 868
83 3090 1560
85 3062 2006
86 3026 2402
88 2978 2780
89 2921 3140
90 2867 3449
91 2821 3696
92 2789 3878
93 2769 3997
82 3523 68
83 3519 83
84 3516 103
85 3514 126
87 3510 152
88 3504 180
89 3495 214
90 3481 607
90 3463 1418
91 3439 1919
92 3410 2343
92 3372 2739
93 3324 3104
93 3277 3415
94 3239 3660
95 3212 3841
95 3197 3967
92 3832 78
92 3830 92
93 3828 111
93 3826 133
93 3824 157
93 3820 185
94 3813 216
94 3801 411
94 3785 1204
94 3763 1825
95 3736 2282
95 3702 2694
95 3662 3069
96 3620 3381
96 3584 3624
97 3561 3804
97 3546 3935
97 3987 83
97 3987 97
97 3987 115
96 3986 136
96 3986 161
96 3986 188
96 3985 219
97 3984 312
97 3981 977
97 3979 1739
97 3971 2229
97 3950 2656
97 3916 3037
98 3882 3353
98 3848 3595
98 3824 3773
98 3810 3903
100 4027 86
100 4027 100
99 4026 118
99 4026 139
99 4026 164
99 4026 191
99 4026 222
99 4026 304
99 4026 904
99 4026 1675
99 4026 2193
99 4026 2629
99 4023 3013
99 4017 3331
99 4007 3576
99 3996 3751
99 3986 3879
103 4064 89
102 4063 102
102 4063 120
101 4063 142
101 4062 166
101 4062 194
101 4062 224
100 4062 293
100 4061 818
100 4061 1632
100 4061 2170
100 4061 2612
100 4061 2998
100 4061 3315
99 4061 3561
99 4061 3737
99 4061 3864
115 6 25
115 7 53
116 6 102
113 5 258
93 5 552
70 5 878
54 6 1245
53 6 1638
54 7 2027
55 8 2400
56 9 2769
56 9 3139
56 10 3477
56 11 3754
57 12 3959
58 13 4045
58 15 4084
113 45 24
112 47 53
112 40 102
111 29 256
94 27 544
73 27 864
55 28 1223
55 28 1611
56 29 1996
57 30 2366
58 30 2732
59 31 3099
58 32 3441
58 33 3724
58 34 3937
59 35 4037
60 36 4079
98 104 16
96 107 45
97 101 99
97 71 256
84 55 540
72 54 854
58 55 1207
58 55 1588
60 56 1970
61 56 2337
62 57 2699
63 58 3063
61 59 3407
60 60 3696
61 61 3917
62 62 4031
63 63 4074
65 272 10
65 272 32
66 272 72
67 248 238
67 178 536
62 91 847
61 85 1194
62 86 1570
63 86 1948
63 87 2311
62 88 2671
62 88 3032
62 89 3377
63 90 3671
64 91 3897
65 92 4023
66 93 4070
57 574 14
58 573 33
58 574 59
58 569 171
59 530 498
60 435 831
60 247 1179
61 139 1552
62 119 1928
62 119 2288
63 120 2645
64 121 3003
65 121 3349
66 122 3646
67 123 3878
68 124 4015
70 125 4066
59 902 18
60 901 36
60 900 60
61 898 100
61 885 397
62 847 793
63 750 1156
64 536 1532
65 255 1907
66 157 2265
67 155 2620
68 155 2975
69 156 3322
70 156 3621
71 157 3858
73 158 4006
74 159 4062
63 1264 23
64 1263 41
64 1262 64
65 1260 92
65 1252 227
66 1233 690
67 1188 1111
68 1098 1501
69 942 1880
70 627 2239
71 400 2593
72 231 2947
74 198 3295
75 192 3595
76 193 3836
78 194 3995
79 195 4060
68 1653 29
68 1651 46
69 1649 69
69 1647 95
70 1642 144
71 1629 467
72 1602 1021
73 1552 1451
74 1476 1842
75 1365 2206
77 1182 2562
78 905 2917
79 588 3266
81 399 3568
82 297 3811
84 273 3981
86 232 4057
73 2043 35
73 2041 52
74 2039 74
75 2036 100
76 2032 129
77 2022 226
78 2003 835
79 1970 1380
80 1921 1795
81 1854 2167
83 1766 2527
84 1646 2884
86 1472 3235
88 1228 3538
89 1024 3783
91 878 3962
93 680 4054
79 2416 43
80 2413 59
80 2411 80
81 2408 106
82 2404 134
83 2396 176
85 2380 622
86 2356 1277
87 2321 1737
89 2272 2123
90 2210 2490
92 2131 2851
94 2030 3204
95 1925 3508
97 1825 3754
99 1746 3937
101 1690 4041
86 2784 51
87 2781 67
88 2778 88
89 2776 112
90 2771 139
91 2764 170
92 2752 427
94 2732 1121
95 2705 1663
97 2669 2072
98 2621 2449
100 2562 2815
102 2490 3171
103 2418 3477
105 2355 3725
106 2309 3908
107 2281 4021
94 3154 60
95 3151 76
96 3148 96
97 3145 120
98 3141 146
100 3134 175
101 3123 254
102 3107 893
104 3086 1568
105 3058 2008
106 3023 2403
106 2976 2779
107 2920 3139
108 2865 3448
109 2819 3695
110 2786 3878
110 2766 3996
103 3516 71
104 3513 86
105 3511 105
106 3508 128
106 3505 153
107 3500 181
107 3492 214
108 3478 613
108 3461 1420
109 3437 1919
109 3408 2342
110 3370 2737
110 3321 3102
111 3274 3413
111 3236 3658
112 3208 3840
113 3192 3967
111 3828 79
111 3827 93
111 3826 111
111 3824 132
111 3822 157
111 3818 185
111 3810 215
111 3798 407
112 3781 1203
112 3760 1822
112 3732 2278
113 3699 2691
113 3658 3065
113 3616 3377
114 3580 3621
114 3556 3802
114 3540 3933
115 3987 82
114 3986 96
114 3986 114
114 3986 136
114 3985 160
114 3985 188
114 3984 218
114 3982 308
114 3980 963
114 3976 1732
114 3969 2222
115 3946 2649
115 3912 3030
115 3877 3348
115 3843 3591
115 3819 3770
116 3804 3901
118 4026 85
117 4026 99
117 4026 117
116 4025 138
116 4025 163
116 4025 190
116 4025 221
116 4025 299
116 4025 883
116 4025 1662
116 4025 2182
116 4025 2619
116 4022 3004
116 4015 3324
116 4004 3570
116 3993 3747
116 3982 3876
120 4063 87
119 4062 101
119 4062 119
119 4062 140
118 4061 165
118 4061 192
118 4061 222
117 4061 289
117 4060 795
117 4060 1612
117 4060 2155
117 4060 2599
117 4060 2986
116 4060 3306
116 4059 3554
116 4059 3732
116 4059 3861
319 5 80
318 6 101
318 5 138
317 6 272
315 6 553
304 6 874
273 7 1236
267 8 1626
259 8 2013
248 9 2385
230 10 2752
186 11 3121
113 12 3460
88 13 3740
96 14 3949
106 15 4041
115 17 4082
316 31 80
314 34 101
313 31 138
313 28 271
315 28 546
307 28 861
278 29 1217
274 30 1600
270 30 1984
263 31 2352
248 32 2717
220 33 3082
156 33 3424
99 34 3711
109 35 3928
120 36 4034
