Postproduction/IWLTBAP - Humble/LUTs by IWLTBAP (3DL)/UTILITY/Sony S-Log2 to Rec.709/U-SONY-S-LOG2-V2-LTR.3dl
# Copyright: (C) Copyright 2010-2018 by IWLTBAP SAS
# Cannot be resold, shared or otherwise redistributed
# Website: https://luts.iwltbap.com
0 256 512 768 1023
34 34 34
24 5 567
0 0 1801
0 0 3647
0 0 4095
0 636 11
0 541 484
0 54 1771
0 0 3642
0 0 4095
0 1941 0
0 1908 62
0 1748 1630
0 588 3616
0 0 4095
0 3767 0
0 3762 0
0 3737 642
0 3597 3476
0 1771 4095
0 4095 0
0 4095 0
0 4095 0
0 4095 1946
0 4095 4095
710 13 29
679 0 549
528 0 1794
0 0 3646
0 0 4095
501 566 5
461 463 463
259 28 1764
0 0 3640
0 0 4095
0 1916 0
0 1882 54
0 1719 1623
0 536 3615
0 0 4095
0 3763 0
0 3758 0
0 3732 627
0 3591 3474
0 1733 4095
0 4095 0
0 4095 0
0 4095 0
0 4095 1939
0 4095 4095
2094 0 5
2083 0 462
2032 0 1764
1768 0 3640
0 0 4095
2023 169 0
2011 73 365
1958 0 1733
1682 0 3635
0 0 4095
1665 1799 0
1651 1762 27
1585 1587 1589
1225 277 3609
0 0 4095
0 3745 0
0 3739 0
0 3712 563
0 3565 3466
0 1587 4095
0 4095 0
0 4095 0
0 4095 0
0 4095 1908
0 4095 4095
3878 0 0
3876 0 46
3869 0 1611
3834 0 3613
3620 0 4095
3867 0 0
3866 0 20
3859 0 1578
3823 0 3607
3604 0 4095
3821 1073 0
3819 1009 0
3811 681 1418
3772 0 3579
3524 0 4095
3510 3645 0
3506 3638 0
3492 3606 257
3420 3425 3429
2938 862 4095
0 4095 0
0 4095 0
0 4095 0
0 4095 1753
0 4095 4095
4095 0 0
4095 0 0
4095 0 507
4095 0 3459
4095 0 4095
4095 0 0
4095 0 0
4095 0 436
4095 0 3451
4095 0 4095
4095 0 0
4095 0 0
4095 0 177
4095 0 3415
4095 0 4095
4095 2726 0
4095 2703 0
4095 2600 0
4095 2013 3220
4095 0 4095
4095 4095 0
4095 4095 0
4095 4095 0
4095 4095 868
4095 4095 4095
