Postproduction/IWLTBAP - Humble/LUTs by IWLTBAP (3DL)/UTILITY/Sony S-Log2 to Rec.709/U-SONY-S-LOG2-V1-LTR.3dl
# Copyright: (C) Copyright 2010-2018 by IWLTBAP SAS
# Cannot be resold, shared or otherwise redistributed
# Website: https://luts.iwltbap.com
0 64 128 192 256 320 384 448 512 576 640 704 768 832 896 960 1023
3 3 3
4 3 51
4 2 112
3 2 254
2 2 534
2 2 869
3 3 1273
3 3 1713
3 3 2152
4 4 2533
4 4 2860
4 4 3189
5 5 3487
5 5 3733
6 6 3921
7 7 4025
7 7 4089
4 53 4
4 52 50
4 47 112
4 40 250
3 38 523
3 39 850
4 39 1246
4 39 1680
4 40 2115
5 40 2503
5 40 2829
6 41 3155
6 41 3457
7 42 3709
8 42 3902
8 43 4018
9 44 4083
3 115 3
4 115 43
4 112 108
4 91 249
4 80 515
5 80 836
5 80 1224
5 80 1650
6 81 2082
6 81 2476
7 82 2799
8 82 3124
8 82 3428
9 83 3684
10 84 3885
10 84 4010
11 85 4078
5 260 5
5 260 41
5 260 89
6 241 233
6 189 503
6 127 823
7 124 1205
7 125 1626
8 125 2054
8 125 2451
9 126 2774
10 126 3096
10 126 3401
11 127 3662
12 128 3868
13 128 4003
14 129 4073
7 525 7
7 524 42
7 524 82
8 519 183
8 485 458
9 406 790
9 261 1179
10 185 1601
10 171 2027
11 171 2426
12 172 2750
12 172 3069
13 173 3376
14 173 3640
15 174 3851
16 174 3995
17 175 4068
9 849 9
9 847 44
10 846 83
10 844 130
11 829 373
11 791 739
12 698 1137
12 508 1564
13 287 1995
14 221 2400
15 219 2728
16 220 3045
16 220 3352
17 221 3619
18 221 3833
19 222 3986
20 222 4064
12 1221 12
12 1218 47
13 1217 86
13 1214 128
14 1206 242
14 1185 625
15 1137 1058
16 1045 1500
17 889 1940
17 598 2362
18 417 2704
19 298 3019
20 273 3328
21 270 3597
22 270 3814
23 271 3976
25 272 4061
15 1627 15
16 1624 50
16 1622 89
17 1619 130
18 1613 184
18 1599 439
19 1569 933
20 1515 1408
21 1434 1857
22 1319 2285
23 1129 2675
24 867 2992
25 589 3301
26 443 3572
27 370 3792
28 351 3960
29 322 4058
19 2035 19
20 2032 54
21 2030 92
21 2026 133
22 2021 177
23 2011 258
24 1989 749
24 1951 1291
25 1896 1762
26 1824 2196
27 1730 2622
29 1604 2962
30 1427 3274
31 1188 3546
32 1000 3768
34 868 3938
35 712 4055
24 2431 24
25 2427 58
25 2425 96
26 2421 137
27 2416 180
28 2408 232
29 2391 574
30 2360 1148
31 2319 1654
32 2265 2102
33 2195 2543
34 2109 2932
36 2003 3245
37 1895 3519
38 1797 3743
40 1719 3914
41 1665 4042
29 2829 30
30 2825 64
31 2822 101
32 2819 141
33 2814 184
34 2806 229
35 2792 427
36 2768 990
37 2734 1515
38 2692 1986
39 2636 2437
41 2567 2880
42 2488 3215
43 2411 3490
45 2346 3714
46 2300 3887
48 2272 4019
36 3181 36
36 3178 69
37 3176 107
38 3173 147
39 3170 189
40 3164 233
41 3154 304
42 3140 796
44 3121 1388
45 3096 1866
46 3059 2331
48 3008 2793
49 2949 3182
50 2892 3459
52 2844 3684
52 2812 3858
53 2792 3990
43 3501 43
43 3499 76
44 3496 113
45 3494 152
46 3490 194
47 3485 238
48 3477 284
50 3464 601
51 3449 1270
51 3429 1748
52 3404 2234
53 3373 2713
53 3333 3138
54 3295 3430
54 3264 3655
55 3243 3827
55 3230 3958
50 3779 50
51 3776 84
52 3774 120
52 3772 158
53 3770 199
53 3766 243
54 3760 287
54 3751 464
54 3737 1105
54 3719 1649
55 3697 2157
55 3669 2650
55 3636 3091
55 3601 3403
56 3572 3626
56 3553 3797
56 3541 3927
56 3934 56
56 3934 89
56 3933 124
56 3933 162
56 3933 202
56 3933 245
56 3932 290
56 3931 386
56 3929 937
56 3927 1570
56 3920 2092
56 3898 2599
57 3870 3049
57 3841 3382
57 3813 3603
57 3793 3772
58 3782 3901
59 4000 59
58 3999 91
58 3999 126
58 3999 164
58 3999 205
58 3999 248
58 3999 292
58 3999 380
58 3999 884
58 3999 1517
58 3999 2052
58 3999 2566
58 3997 3019
58 3990 3365
58 3980 3588
58 3969 3754
58 3958 3882
61 4062 61
60 4062 93
60 4061 128
60 4061 166
59 4061 207
59 4061 249
59 4060 294
59 4060 371
59 4060 819
59 4060 1487
58 4060 2027
58 4060 2545
58 4060 3002
58 4060 3352
58 4060 3577
58 4060 3744
58 4059 3870
56 4 8
56 4 53
56 3 112
49 2 252
41 2 529
38 3 860
39 3 1260
39 3 1696
39 4 2133
40 4 2518
40 5 2844
40 5 3172
41 6 3471
41 6 3720
42 7 3911
42 7 4022
43 8 4086
52 53 6
52 53 51
52 48 112
48 40 249
42 39 519
39 39 842
39 39 1234
40 40 1664
40 40 2098
41 41 2489
41 41 2813
42 41 3138
42 42 3441
43 43 3696
43 43 3893
44 44 4014
44 44 4080
44 116 4
44 116 45
44 113 109
44 92 249
41 80 512
40 80 829
41 80 1213
41 81 1636
42 81 2066
42 82 2462
43 82 2785
43 82 3108
44 83 3412
44 84 3672
45 84 3875
46 85 4006
47 86 4075
40 260 5
41 261 42
41 260 90
41 242 234
42 190 501
42 128 818
42 125 1196
43 125 1613
43 125 2039
44 125 2437
44 126 2760
45 126 3080
46 127 3386
47 127 3650
47 128 3859
48 129 3999
49 129 4070
42 524 7
42 523 42
43 523 83
43 518 184
44 484 458
44 406 786
44 263 1171
45 185 1590
46 171 2013
46 171 2413
47 172 2738
48 172 3055
48 173 3362
49 173 3629
50 174 3842
51 174 3990
52 175 4066
44 845 10
45 843 45
45 843 84
46 840 132
46 826 375
47 789 738
47 697 1131
48 510 1554
48 290 1984
49 221 2388
50 219 2716
51 220 3032
52 220 3339
52 221 3608
53 221 3825
55 222 3981
55 223 4062
47 1215 13
48 1213 48
48 1212 86
49 1209 129
49 1201 245
50 1181 627
50 1134 1055
51 1043 1494
52 890 1930
53 605 2351
53 421 2693
54 297 3007
55 273 3316
56 270 3586
57 270 3806
58 271 3970
60 272 4059
51 1620 17
51 1617 51
52 1615 89
52 1612 131
53 1607 186
53 1593 446
54 1564 934
55 1510 1404
56 1431 1849
57 1317 2275
58 1132 2666
59 870 2981
60 591 3291
61 444 3562
62 369 3784
63 352 3954
64 322 4056
55 2027 21
55 2024 55
56 2022 93
56 2019 134
57 2014 177
58 2004 264
59 1983 755
59 1945 1290
60 1891 1757
61 1820 2188
62 1728 2613
63 1603 2953
65 1428 3264
66 1189 3537
67 999 3761
68 868 3933
70 707 4053
59 2422 26
60 2419 60
60 2416 97
61 2413 138
62 2408 181
63 2399 233
64 2383 583
65 2353 1150
66 2312 1652
67 2259 2096
68 2190 2535
69 2105 2924
70 2001 3237
72 1893 3511
73 1795 3736
74 1717 3909
76 1661 4039
64 2820 31
65 2816 65
66 2813 102
67 2810 143
68 2805 185
68 2798 230
69 2784 435
70 2760 998
71 2726 1516
73 2685 1984
74 2630 2432
75 2562 2873
77 2484 3208
78 2408 3483
79 2343 3709
81 2296 3883
82 2268 4016
71 3173 38
71 3171 71
72 3168 108
73 3165 148
74 3162 190
75 3156 234
76 3147 310
77 3133 812
78 3115 1393
79 3089 1867
81 3053 2328
82 3003 2788
82 2945 3178
83 2888 3456
84 2841 3683
84 2807 3856
85 2787 3989
77 3494 45
78 3492 78
79 3489 115
80 3487 154
81 3483 195
82 3479 239
82 3471 286
83 3460 608
83 3445 1270
84 3425 1746
84 3401 2230
85 3370 2709
85 3330 3134
85 3291 3428
86 3260 3653
86 3238 3825
87 3225 3957
84 3773 52
85 3771 85
85 3770 120
85 3768 159
85 3766 199
85 3763 242
86 3757 287
86 3747 457
86 3733 1100
86 3716 1644
86 3694 2150
87 3666 2643
87 3632 3085
87 3597 3400
88 3568 3623
88 3548 3795
88 3536 3926
88 3933 56
88 3933 88
88 3933 123
88 3932 161
88 3932 202
88 3932 245
88 3931 290
88 3929 382
88 3927 920
88 3924 1561
88 3916 2082
88 3895 2589
88 3866 3041
89 3837 3376
89 3809 3599
89 3789 3769
89 3777 3899
90 3999 58
90 3999 90
90 3998 125
90 3998 164
90 3998 204
89 3998 247
89 3998 292
89 3998 376
89 3998 863
89 3998 1503
89 3998 2037
89 3998 2552
89 3995 3008
90 3988 3358
90 3977 3583
90 3966 3750
90 3954 3879
92 4061 59
92 4061 92
92 4060 127
91 4060 165
91 4060 206
91 4059 248
91 4059 293
90 4059 368
90 4059 796
90 4059 1466
90 4058 2009
90 4058 2528
90 4058 2987
90 4058 3343
90 4058 3571
90 4058 3739
90 4058 3867
124 4 16
124 4 57
124 4 114
122 3 251
108 3 524
91 3 851
80 4 1248
80 4 1681
80 4 2116
81 5 2503
82 5 2829
82 6 3155
82 6 3457
82 7 3708
82 8 3902
83 8 4018
84 9 4083
122 51 15
121 53 57
122 48 115
121 41 250
108 39 515
94 40 835
81 40 1223
81 40 1650
82 41 2082
83 41 2475
83 42 2798
84 42 3122
83 43 3426
83 43 3684
83 44 3884
84 45 4010
85 45 4077
111 116 10
110 117 52
111 114 112
111 92 250
101 81 510
93 81 824
83 81 1204
83 81 1624
84 82 2052
85 82 2449
86 83 2771
86 83 3093
85 84 3398
84 84 3660
85 85 3867
86 86 4003
86 86 4072
88 262 6
88 262 43
89 262 93
90 244 236
89 192 501
86 128 814
85 125 1188
86 125 1603
87 126 2026
87 126 2424
86 126 2748
86 127 3067
86 127 3374
86 128 3639
87 129 3850
88 129 3995
89 130 4067
83 524 8
83 523 43
83 523 84
84 519 187
84 486 460
84 408 785
85 266 1166
85 186 1581
86 171 2003
86 172 2401
87 172 2727
87 173 3043
88 173 3351
89 174 3619
89 174 3834
90 175 3986
91 176 4063
84 843 11
84 842 46
85 842 85
85 839 135
86 825 379
86 789 738
87 699 1128
87 515 1548
88 295 1974
88 222 2377
89 220 2706
90 220 3020
91 220 3328
92 221 3598
92 222 3817
93 222 3977
94 223 4060
87 1212 14
87 1210 49
87 1209 87
88 1207 130
88 1199 251
89 1179 631
89 1133 1055
90 1044 1489
91 893 1923
91 615 2342
92 427 2685
93 298 2997
94 274 3306
95 270 3577
96 271 3798
97 271 3965
98 272 4057
90 1615 18
90 1612 52
91 1611 91
91 1608 132
92 1603 189
92 1589 455
93 1561 937
94 1508 1402
94 1430 1844
95 1319 2267
96 1138 2659
97 877 2973
98 597 3282
99 448 3554
100 370 3778
101 353 3949
103 322 4054
94 2021 22
94 2019 57
94 2016 94
95 2014 135
96 2009 178
96 1999 272
97 1978 764
98 1941 1291
99 1888 1755
100 1819 2183
101 1728 2606
102 1605 2946
103 1432 3257
104 1196 3530
105 1005 3755
106 875 3928
108 710 4051
98 2415 28
98 2412 62
99 2410 99
100 2407 139
100 2402 182
101 2394 235
102 2378 597
103 2348 1157
104 2308 1653
105 2256 2094
106 2189 2530
107 2105 2918
108 2001 3231
110 1894 3505
111 1796 3731
112 1718 3906
114 1663 4037
103 2813 33
103 2809 67
104 2806 104
105 2804 144
106 2799 186
106 2792 231
107 2778 447
108 2754 1011
109 2721 1522
111 2680 1985
112 2627 2429
113 2560 2869
114 2482 3204
115 2407 3479
116 2343 3706
117 2296 3881
118 2267 4015
109 3167 40
109 3165 73
110 3162 110
111 3160 149
112 3157 191
113 3151 235
114 3142 316
114 3129 832
115 3111 1400
116 3085 1870
117 3051 2328
117 3002 2788
118 2943 3177
118 2887 3455
119 2839 3682
120 2804 3856
120 2784 3988
115 3489 47
116 3486 80
116 3484 116
117 3482 155
117 3480 196
118 3476 239
118 3469 286
118 3458 613
119 3443 1272
119 3424 1746
119 3399 2229
120 3368 2706
120 3328 3132
121 3289 3426
121 3257 3651
121 3235 3824
122 3221 3956
121 3770 53
121 3769 85
121 3768 121
121 3767 159
121 3764 199
121 3761 242
121 3755 287
121 3745 454
121 3731 1099
121 3713 1641
121 3690 2146
122 3662 2639
122 3629 3080
122 3594 3397
123 3564 3621
123 3544 3793
123 3531 3925
123 3933 55
123 3932 88
123 3932 123
123 3932 161
123 3931 202
123 3931 244
123 3930 289
123 3928 379
123 3925 909
123 3921 1554
123 3913 2074
123 3891 2580
123 3863 3034
123 3833 3372
124 3805 3596
124 3784 3766
124 3772 3898
125 3998 57
125 3998 89
125 3997 125
125 3997 163
124 3997 203
124 3997 246
124 3997 291
124 3997 372
124 3997 846
124 3997 1491
124 3997 2026
124 3996 2540
124 3994 2998
124 3986 3352
124 3974 3579
124 3962 3747
124 3950 3877
127 4060 59
127 4059 91
126 4059 126
126 4059 164
126 4058 205
126 4058 247
125 4058 292
125 4058 365
125 4058 778
125 4057 1448
125 4057 1993
125 4057 2512
125 4057 2973
125 4057 3336
125 4057 3565
124 4056 3735
124 4056 3864
297 3 54
297 4 91
296 3 140
296 3 262
294 4 522
286 4 844
263 4 1236
258 5 1666
253 5 2099
245 6 2490
230 6 2815
198 7 3140
144 7 3443
127 8 3697
133 9 3894
139 9 4014
146 10 4080
295 43 54
294 44 91
293 42 140
293 40 261
294 40 514
289 40 829
267 41 1213
264 41 1636
261 42 2066
255 42 2462
244 43 2786
223 43 3108
176 44 3413
135 44 3673
142 45 3876
150 46 4006
