Postproduction/IWLTBAP - Humble/LUTs by IWLTBAP (CUBE)/IWLTBAP Humble - LOG.cube
# Copyright: (C) Copyright 2017 by IWLTBAP
# Cannot be resold, shared or otherwise redistributed
# Website: https://luts.iwltbap.com
TITLE "IWLTBAP Humble (LOG)"
LUT_3D_SIZE 33
0.000916 0.001709 0.000061
0.004456 0.002075 0.000061
0.014069 0.003082 0.000092
0.031982 0.006348 0.000092
0.046051 0.009766 0.000092
0.065308 0.013184 0.000122
0.086426 0.020996 0.000153
0.114746 0.028717 0.000183
0.144714 0.040009 0.000244
0.179413 0.049896 0.000275
0.219086 0.058289 0.000336
0.263947 0.065247 0.000397
0.310577 0.072540 0.000427
0.356689 0.081085 0.000488
0.402893 0.090515 0.000488
0.450165 0.097046 0.000519
0.492615 0.108398 0.000549
0.536774 0.114929 0.000580
0.578674 0.121674 0.000580
0.618591 0.130646 0.000610
0.659424 0.138794 0.000610
0.698608 0.149719 0.000671
0.732727 0.159149 0.000671
0.761108 0.165833 0.000702
0.789032 0.173920 0.000763
0.814087 0.180939 0.000793
0.825714 0.184235 0.000793
0.828979 0.185455 0.000793
0.832275 0.186646 0.000793
0.835510 0.187866 0.000824
0.838806 0.189056 0.000824
0.842041 0.190277 0.000824
0.845337 0.191467 0.000824
0.004089 0.004028 0.000061
0.006195 0.004761 0.000061
0.012604 0.005432 0.000092
0.030823 0.008087 0.000092
0.043060 0.011719 0.000244
0.060425 0.014801 0.001221
0.081482 0.021179 0.000153
0.107178 0.027985 0.000183
0.137146 0.037811 0.000214
0.168976 0.048645 0.000275
0.206696 0.057404 0.000336
0.249756 0.065155 0.000397
0.295563 0.072052 0.000427
0.340820 0.080872 0.000458
0.385925 0.089569 0.000488
0.431519 0.096863 0.000519
0.474823 0.106354 0.000549
0.518616 0.114685 0.000549
0.562286 0.121796 0.000580
0.604187 0.130432 0.000580
0.645905 0.138916 0.000610
0.686768 0.148712 0.000641
0.723877 0.159271 0.000671
0.754547 0.166504 0.000702
0.782227 0.174316 0.000732
0.810425 0.182892 0.000763
0.826843 0.187225 0.000793
0.830139 0.188354 0.000793
0.833435 0.189575 0.000793
0.836670 0.190765 0.000824
0.839966 0.191956 0.000824
0.843201 0.193176 0.000824
0.846497 0.194366 0.000824
0.009399 0.007904 0.000061
0.010376 0.007812 0.000061
0.011536 0.007843 0.000092
0.029816 0.009979 0.000092
0.041260 0.013245 0.000092
0.055115 0.016876 0.002289
0.077393 0.020966 0.000153
0.101288 0.028259 0.000183
0.130585 0.036377 0.000214
0.160004 0.047699 0.000275
0.196136 0.056519 0.000305
0.236176 0.064331 0.000366
0.279480 0.072052 0.000397
0.325043 0.079315 0.000458
0.371063 0.088196 0.000488
0.417664 0.096741 0.000519
0.464142 0.105072 0.000519
0.507935 0.115448 0.000549
0.552673 0.123505 0.000580
0.595947 0.131287 0.000580
0.638153 0.141022 0.000610
0.680206 0.150452 0.000641
0.719879 0.160187 0.000671
0.752289 0.168457 0.000702
0.780273 0.176239 0.000732
0.809235 0.185455 0.000763
0.827881 0.190399 0.000793
0.831268 0.191315 0.000793
0.834564 0.192444 0.000793
0.837830 0.193665 0.000824
0.841095 0.194855 0.000824
0.844360 0.196075 0.000824
0.847656 0.197266 0.000824
0.025452 0.020569 0.000092
0.025665 0.019745 0.000092
0.026733 0.019196 0.000092
0.035919 0.021973 0.000122
0.046936 0.024658 0.000122
0.057434 0.028015 0.003510
0.075806 0.029816 0.003357
0.099854 0.032623 0.000183
0.125397 0.037323 0.000214
0.152710 0.047089 0.000244
0.186859 0.055908 0.000305
0.226532 0.063873 0.000366
0.270813 0.071503 0.000397
0.317688 0.079620 0.000427
0.363770 0.089325 0.000488
0.411499 0.098328 0.000488
0.459076 0.106842 0.000519
0.504028 0.117432 0.000549
0.549652 0.125427 0.000580
0.593689 0.133759 0.000580
0.636536 0.144165 0.000610
0.679230 0.154053 0.000641
0.721008 0.162628 0.000671
0.754761 0.171539 0.000702
0.782837 0.179474 0.000732
0.811035 0.188538 0.000763
0.828949 0.193573 0.000793
0.832336 0.194519 0.000793
0.835693 0.195435 0.000793
0.838989 0.196564 0.000824
0.842255 0.197784 0.000824
0.845520 0.198975 0.000824
0.848816 0.200165 0.000824
0.037720 0.033112 0.000122
0.037628 0.032135 0.000122
0.037628 0.031281 0.000122
0.044434 0.033447 0.000153
0.050201 0.037109 0.000153
0.058868 0.039612 0.004822
0.069794 0.042603 0.013550
0.098663 0.042145 0.004333
0.126556 0.045349 0.000641
0.154999 0.052155 0.000275
0.188232 0.059509 0.000305
0.227844 0.066406 0.000366
0.272430 0.074188 0.000427
0.319427 0.082642 0.000427
0.366089 0.092224 0.000488
0.414520 0.100861 0.000519
0.462189 0.110229 0.000519
0.508301 0.120483 0.000549
0.554321 0.129150 0.000580
0.598846 0.137817 0.000580
0.642151 0.148560 0.000641
0.685791 0.157928 0.000641
0.727631 0.166687 0.000702
0.761017 0.175720 0.000732
0.788971 0.183777 0.000732
0.815460 0.192566 0.000763
0.829987 0.196747 0.000793
0.833374 0.197662 0.000793
0.836761 0.198608 0.000793
0.840118 0.199524 0.000824
0.843414 0.200653 0.000824
0.846680 0.201874 0.000824
0.849945 0.203064 0.000824
0.033447 0.050201 0.007751
0.038177 0.047272 0.005768
0.043060 0.044037 0.003632
0.048065 0.044708 0.002869
0.056763 0.047150 0.001801
0.063354 0.051270 0.001831
0.070923 0.056000 0.014587
0.089508 0.059265 0.023651
0.124817 0.059875 0.006927
0.158417 0.063019 0.000275
0.192383 0.069763 0.000336
0.232422 0.076385 0.000366
0.276581 0.083099 0.000427
0.323120 0.090637 0.000458
0.370544 0.098694 0.000488
0.420532 0.105804 0.000519
0.468079 0.116272 0.000519
0.514954 0.125305 0.000549
0.560669 0.134247 0.000580
0.605286 0.142853 0.000580
0.648834 0.153107 0.000641
0.692932 0.161865 0.000641
0.734741 0.170898 0.000702
0.767822 0.180176 0.000732
0.795471 0.188171 0.000763
0.820160 0.196716 0.000793
0.831055 0.199921 0.000793
0.834442 0.200836 0.000793
0.837799 0.201782 0.000793
0.841156 0.202728 0.000824
0.844543 0.203644 0.000824
0.847839 0.204773 0.000824
0.851105 0.205963 0.000824
0.021637 0.069153 0.018158
0.028015 0.065979 0.015839
0.034363 0.063354 0.013580
0.041595 0.062592 0.012146
0.055908 0.063690 0.010223
0.070709 0.065033 0.007416
0.080078 0.069611 0.007965
0.091583 0.074799 0.020630
0.116730 0.078705 0.028412
0.152069 0.081757 0.018250
0.189941 0.086365 0.010651
0.233276 0.092010 0.005341
0.279327 0.099396 0.002502
0.328430 0.106720 0.000488
0.377930 0.114838 0.000488
0.427582 0.122528 0.000519
0.476105 0.130554 0.000549
0.522949 0.138184 0.000580
0.568298 0.145905 0.000580
0.612915 0.152618 0.000610
0.655853 0.162415 0.000641
0.699921 0.170898 0.000671
0.742310 0.178619 0.000702
0.775452 0.188171 0.000732
0.803192 0.195953 0.000763
0.826050 0.204102 0.000793
0.833313 0.206543 0.000793
0.836670 0.207367 0.000793
0.839966 0.208099 0.000793
0.843262 0.208862 0.000824
0.846558 0.209625 0.000824
0.849854 0.210327 0.000824
0.853149 0.211121 0.000824
0.000000 0.092957 0.034515
0.004089 0.090759 0.031189
0.009460 0.088531 0.029510
0.013947 0.087769 0.028687
0.023834 0.088959 0.028290
0.049744 0.089905 0.027191
0.076935 0.089874 0.023560
0.100555 0.091705 0.015350
0.118713 0.097748 0.019836
0.145142 0.103577 0.037354
0.181488 0.109497 0.038635
0.226440 0.115692 0.029816
0.275879 0.122589 0.017334
0.329010 0.129150 0.005737
0.382904 0.135498 0.000916
0.435760 0.142731 0.000549
0.485840 0.150726 0.000549
0.533844 0.159241 0.000580
0.578796 0.168884 0.000610
0.626068 0.174561 0.000610
0.668762 0.184113 0.000641
0.710907 0.192993 0.000702
0.750275 0.203033 0.000702
0.783508 0.212402 0.000763
0.814789 0.215057 0.000793
0.835938 0.222321 0.000824
0.840332 0.223358 0.000824
0.843445 0.223816 0.000824
0.846527 0.224182 0.000824
0.849640 0.224731 0.000824
0.852753 0.225189 0.000854
0.855865 0.225616 0.000854
0.859100 0.226135 0.000854
0.000000 0.112366 0.070679
0.000000 0.111572 0.065643
0.000000 0.111328 0.061707
0.000000 0.112061 0.059418
0.000000 0.114838 0.058136
0.011230 0.118439 0.053070
0.043640 0.119537 0.049225
0.088593 0.118683 0.045441
0.124268 0.119263 0.032745
0.149170 0.125183 0.028107
0.178345 0.132568 0.049622
0.218048 0.140717 0.059479
0.267822 0.148926 0.048798
0.322845 0.156769 0.032166
0.379822 0.164185 0.019165
0.436462 0.171112 0.007538
0.491089 0.177368 0.000580
0.542664 0.183868 0.000610
0.589386 0.192963 0.000641
0.636292 0.200592 0.000641
0.678619 0.211395 0.000671
0.722229 0.219177 0.000702
0.762329 0.228241 0.000732
0.796204 0.237976 0.000793
0.824005 0.246277 0.000824
0.843414 0.253479 0.000824
0.846313 0.254272 0.000824
0.849365 0.254913 0.000824
0.852417 0.255524 0.000824
0.855469 0.256104 0.000854
0.858490 0.256622 0.000854
0.861542 0.257233 0.000854
0.864655 0.257904 0.000854
0.000000 0.135986 0.090973
0.000000 0.135376 0.088379
0.000000 0.135651 0.086243
0.000000 0.136932 0.084991
0.000000 0.139893 0.084259
0.001862 0.144958 0.077881
0.022003 0.149017 0.068726
0.073303 0.149323 0.069397
0.115906 0.148895 0.065979
0.155273 0.149353 0.050629
0.183258 0.156372 0.045776
0.216614 0.164856 0.065521
0.260681 0.175385 0.074524
0.314362 0.185883 0.066803
0.373657 0.195587 0.050537
0.433289 0.204102 0.035583
0.490845 0.211212 0.022003
0.545319 0.217590 0.009064
0.596832 0.223541 0.000641
0.644989 0.230591 0.000671
0.688354 0.240295 0.000702
0.731689 0.247894 0.000732
0.770081 0.258972 0.000763
0.805756 0.267487 0.000793
0.834595 0.274994 0.000824
0.853851 0.281555 0.000854
0.856750 0.282104 0.000854
0.859619 0.282745 0.000854
0.862518 0.283386 0.000854
0.865448 0.283966 0.000885
0.868378 0.284607 0.000885
0.871338 0.285278 0.000885
0.874329 0.286102 0.000885
0.000000 0.164032 0.103577
0.000000 0.163574 0.102417
0.000000 0.164215 0.101776
0.000000 0.165924 0.101654
0.000000 0.169037 0.102142
0.000000 0.173615 0.101379
0.000000 0.181030 0.086884
0.061096 0.181854 0.087616
0.111389 0.181335 0.087952
0.152954 0.181122 0.082306
0.192017 0.182648 0.068115
0.221832 0.190979 0.066284
0.260986 0.201447 0.082458
0.309723 0.214386 0.088196
0.366333 0.227905 0.086273
0.427948 0.239441 0.072662
0.488617 0.248962 0.056152
0.546173 0.256805 0.037903
0.600006 0.263184 0.020935
0.650085 0.268860 0.007355
0.696686 0.274750 0.001190
0.739929 0.281525 0.000732
0.779205 0.290802 0.000793
0.815125 0.299225 0.000824
0.843079 0.308868 0.000854
0.861877 0.316345 0.000885
0.865356 0.316650 0.000885
0.868622 0.316772 0.000885
0.871887 0.316956 0.000885
0.875122 0.316925 0.000885
0.878296 0.317108 0.000885
0.881104 0.317902 0.000916
0.883911 0.318604 0.000916
0.000000 0.195740 0.119080
0.000000 0.195801 0.117828
0.000000 0.196838 0.117035
0.000000 0.198792 0.116821
0.000000 0.202179 0.117249
0.000000 0.206177 0.117188
0.000000 0.213959 0.110474
0.042786 0.217987 0.106628
0.106079 0.218018 0.107727
0.153351 0.217041 0.107269
0.193604 0.217041 0.098633
0.234009 0.219940 0.084229
0.267395 0.229767 0.087250
0.311005 0.242889 0.099854
0.363281 0.258850 0.106201
0.421417 0.274933 0.109650
0.483582 0.289062 0.099762
0.544830 0.299866 0.082184
0.601501 0.307770 0.062653
0.653076 0.313354 0.042175
0.700439 0.318298 0.021484
0.744843 0.323425 0.005432
0.786743 0.329376 0.001404
0.823608 0.336670 0.000824
0.852386 0.345551 0.000854
0.871063 0.353851 0.000885
0.875061 0.355194 0.000885
0.878082 0.355377 0.000885
0.881317 0.355682 0.000885
0.884491 0.355652 0.000885
0.887726 0.355896 0.000916
0.890930 0.356079 0.000916
0.894135 0.356171 0.000916
0.000000 0.231354 0.134644
0.000000 0.231537 0.133209
0.000000 0.232819 0.132294
0.000000 0.235168 0.131805
0.000000 0.239014 0.131958
0.000000 0.243225 0.131409
0.000000 0.250336 0.126343
0.027191 0.257141 0.124908
0.098022 0.258636 0.127716
0.157318 0.257599 0.128815
0.201477 0.256348 0.125641
0.242889 0.256958 0.115265
0.282379 0.262054 0.101837
0.318787 0.273560 0.108246
0.365112 0.289246 0.120300
0.419769 0.308472 0.128265
0.479584 0.328491 0.132751
0.540497 0.345428 0.130096
0.599304 0.356567 0.114624
0.653442 0.366089 0.093170
0.702515 0.372253 0.069977
0.747955 0.375702 0.045959
0.790283 0.379059 0.022919
0.828430 0.384521 0.006866
0.858765 0.392120 0.000854
0.878937 0.397827 0.000854
0.885132 0.399170 0.000885
0.888031 0.399475 0.000885
0.890930 0.399872 0.000885
0.893738 0.400146 0.000885
0.896271 0.400848 0.000885
0.898804 0.401581 0.000885
0.901367 0.402283 0.000885
0.000000 0.271057 0.150116
0.000000 0.271454 0.148499
0.000000 0.273163 0.147369
0.000000 0.275848 0.146606
0.000000 0.280457 0.146301
0.000000 0.285156 0.145508
0.010437 0.291199 0.144165
0.037292 0.299316 0.143158
0.097107 0.304596 0.148743
0.161255 0.305298 0.152252
0.212311 0.303833 0.153290
0.256165 0.302368 0.146942
0.298462 0.302551 0.135345
0.335999 0.308868 0.122284
0.374115 0.322296 0.131073
0.422516 0.341644 0.143311
0.478302 0.367310 0.152496
0.537323 0.387787 0.158508
0.595306 0.404419 0.158417
0.650360 0.414124 0.148651
0.702026 0.420105 0.129028
0.749176 0.423981 0.105011
0.792755 0.427155 0.079315
0.832031 0.430420 0.053223
0.863495 0.435028 0.032471
0.884125 0.439819 0.021576
0.892273 0.441040 0.016449
0.895172 0.441559 0.014648
0.898010 0.441772 0.012543
0.900848 0.441986 0.010590
0.903717 0.442169 0.008636
0.906586 0.442505 0.006775
0.909424 0.442688 0.005310
0.000000 0.316040 0.166168
0.000000 0.316650 0.163971
0.000000 0.318756 0.162415
0.000000 0.322174 0.161438
0.000000 0.327148 0.160980
0.000000 0.331879 0.160370
0.006958 0.337524 0.158936
0.062286 0.345795 0.162445
0.119690 0.354187 0.168915
0.167358 0.360779 0.175964
0.226898 0.360107 0.179535
0.275909 0.357849 0.178619
0.317902 0.355621 0.170197
0.358276 0.356110 0.158508
0.393341 0.362885 0.146576
0.432068 0.380127 0.155182
0.480438 0.400024 0.168365
0.535187 0.419952 0.179260
0.592102 0.438416 0.186066
0.647522 0.453186 0.187683
0.699341 0.463715 0.182526
0.747528 0.470062 0.168304
0.793091 0.473877 0.144165
0.833954 0.476654 0.118774
0.867218 0.480225 0.097626
0.889069 0.484619 0.085419
0.899200 0.486359 0.078796
0.902100 0.486664 0.076660
0.904968 0.486908 0.074463
0.907837 0.487244 0.072174
0.910706 0.487488 0.069427
0.913544 0.487610 0.066589
0.916412 0.487793 0.063812
0.000000 0.368011 0.181335
0.001373 0.368561 0.180084
0.002716 0.370911 0.179230
0.004089 0.374969 0.178741
0.005463 0.380890 0.178680
0.006836 0.386322 0.178497
0.012299 0.391602 0.177582
0.081390 0.398132 0.181824
0.144775 0.405365 0.188141
0.192932 0.411621 0.196625
0.242615 0.414825 0.204285
0.297699 0.413666 0.208191
0.342194 0.411499 0.205139
0.380371 0.409119 0.196533
0.418152 0.409607 0.184937
0.451355 0.416077 0.174194
0.489197 0.428986 0.180603
0.536163 0.446533 0.194550
0.589111 0.466278 0.207214
0.643494 0.485260 0.216675
0.696350 0.500763 0.219666
0.745789 0.512177 0.215302
0.791962 0.519745 0.204102
0.834229 0.524536 0.187592
0.869873 0.527802 0.166229
0.893768 0.532043 0.153412
0.905884 0.534210 0.146667
0.908783 0.534607 0.144684
0.911682 0.534943 0.142700
0.914551 0.535370 0.140808
0.917419 0.535583 0.138580
0.920258 0.535645 0.136169
0.923126 0.535706 0.133728
0.000000 0.415710 0.196228
0.007446 0.416382 0.195679
0.014587 0.418427 0.195496
0.022736 0.421448 0.195801
0.032135 0.425934 0.196808
0.041290 0.430084 0.197632
0.052979 0.434021 0.197784
0.098511 0.440155 0.201050
0.165771 0.448120 0.207245
0.220734 0.455536 0.215302
0.268158 0.461426 0.225830
0.320862 0.462646 0.234253
0.368744 0.460602 0.237915
0.406921 0.457367 0.233948
0.440796 0.454681 0.225128
0.475220 0.454865 0.213135
0.507019 0.460938 0.202332
0.543976 0.473541 0.206696
0.589294 0.490936 0.222534
0.639709 0.510803 0.236938
0.691803 0.530457 0.248077
0.742523 0.547302 0.253021
0.790558 0.560760 0.250732
0.835052 0.569946 0.241333
0.872192 0.575684 0.228638
0.897705 0.580872 0.219971
0.911743 0.583954 0.214508
0.914612 0.584564 0.213470
0.917419 0.585083 0.212280
0.920288 0.585571 0.210907
0.923187 0.585846 0.208893
0.926086 0.586090 0.206879
0.928955 0.586151 0.204590
0.000000 0.457489 0.210571
0.013855 0.458099 0.210724
0.027618 0.460114 0.211487
0.041504 0.463226 0.212708
0.055267 0.467529 0.214417
0.069122 0.471405 0.215942
0.084747 0.474762 0.217224
0.118652 0.480042 0.219635
0.186401 0.488678 0.224792
0.245941 0.497040 0.232422
0.300018 0.503876 0.243042
0.345703 0.508362 0.255707
0.395416 0.507568 0.265076
0.435242 0.504669 0.267883
0.467377 0.501160 0.264160
0.497925 0.498352 0.254791
0.530029 0.498657 0.242584
0.560791 0.504242 0.232483
0.596252 0.516205 0.234863
0.639648 0.533386 0.250854
0.687866 0.553802 0.266571
0.738129 0.575165 0.279816
0.787384 0.594574 0.287476
0.833862 0.609924 0.287659
0.873474 0.620697 0.281921
0.901581 0.628113 0.275848
0.917847 0.633179 0.272858
0.920685 0.633972 0.272125
0.923553 0.634735 0.271362
0.926392 0.635498 0.270599
0.929260 0.636200 0.269775
0.932068 0.636780 0.268799
0.934906 0.637299 0.267731
0.001862 0.496124 0.228363
0.018646 0.497131 0.228638
0.035400 0.499237 0.229401
0.053375 0.502289 0.230652
0.072601 0.506500 0.232452
0.091614 0.510284 0.234039
0.110138 0.513458 0.235321
0.140259 0.518005 0.237183
0.203979 0.526825 0.241425
0.269318 0.536377 0.248505
0.329742 0.544556 0.259216
0.379150 0.550476 0.273712
0.421204 0.552856 0.288757
0.461914 0.550842 0.298706
0.494507 0.547516 0.300903
0.522705 0.543640 0.295898
0.550751 0.540955 0.285553
0.581787 0.540955 0.272980
0.612061 0.546082 0.262939
0.646210 0.557800 0.262268
0.687561 0.575073 0.279053
0.734589 0.596985 0.296204
0.783447 0.620331 0.311249
0.830872 0.641724 0.320770
0.872101 0.659027 0.324738
0.903625 0.671692 0.325439
0.922272 0.680267 0.326355
0.925659 0.681885 0.326630
0.928589 0.683350 0.326874
0.931488 0.684814 0.327179
0.934357 0.685760 0.326813
0.937225 0.686707 0.326385
0.940094 0.687561 0.325867
0.041321 0.532440 0.246368
0.055969 0.533844 0.246674
0.071289 0.536041 0.247406
0.087738 0.539246 0.248596
0.105133 0.543579 0.250336
0.122253 0.547485 0.251892
0.138824 0.550751 0.253113
0.163605 0.554932 0.254730
0.218842 0.563416 0.257996
0.290527 0.574280 0.264526
0.356964 0.583893 0.274841
0.414001 0.591248 0.289703
0.454285 0.595184 0.307678
0.491241 0.595032 0.323364
0.524475 0.592194 0.332092
0.551758 0.588715 0.332886
0.576782 0.585297 0.326996
0.602631 0.582642 0.316040
0.631622 0.582672 0.303436
0.661407 0.587646 0.293671
0.694702 0.599274 0.289581
0.734772 0.617371 0.306702
0.780457 0.640778 0.324738
0.826874 0.665924 0.340454
0.869751 0.689362 0.350647
0.904205 0.708679 0.357147
0.924805 0.721710 0.363342
0.930054 0.725159 0.365326
0.932983 0.726990 0.366211
0.935913 0.728882 0.367157
0.938843 0.730499 0.367828
0.941742 0.732269 0.368622
0.944672 0.733887 0.369293
0.075867 0.567719 0.263763
0.089783 0.569275 0.264130
0.104492 0.571747 0.264954
0.119904 0.575195 0.266205
0.135651 0.579712 0.267975
0.151184 0.583771 0.269501
0.166260 0.587189 0.270752
0.185425 0.591095 0.272125
0.231201 0.598785 0.274719
0.307892 0.610779 0.280365
0.380615 0.621979 0.290161
0.443359 0.630768 0.305206
0.489258 0.636139 0.324097
0.521667 0.638458 0.342834
0.552704 0.637604 0.355835
0.580353 0.635223 0.361481
0.604797 0.631927 0.361023
0.628174 0.628510 0.355164
0.652435 0.625641 0.345428
0.680023 0.625153 0.333618
0.709839 0.629639 0.324066
0.742004 0.641327 0.320618
0.780853 0.660492 0.332703
0.824158 0.685181 0.348663
0.867188 0.712250 0.364258
0.903320 0.737030 0.381989
0.925842 0.754364 0.394928
0.933716 0.760742 0.399750
0.936676 0.763336 0.401764
0.939636 0.765747 0.403687
0.942596 0.768280 0.405670
0.945526 0.770508 0.407227
0.948456 0.772491 0.408478
0.104370 0.602173 0.280640
0.117432 0.603882 0.280945
0.131256 0.606689 0.281799
0.145752 0.610321 0.283020
0.160767 0.614807 0.284668
0.175781 0.619141 0.286224
0.190155 0.622650 0.287384
0.205231 0.626190 0.288605
0.243622 0.633331 0.291046
0.323639 0.646362 0.296509
0.402252 0.659149 0.305481
0.470215 0.669525 0.319946
0.522278 0.676575 0.338745
0.557281 0.680237 0.356079
0.583679 0.681580 0.374329
0.611420 0.680328 0.389191
0.636383 0.678009 0.394836
0.658722 0.674896 0.392426
0.679993 0.671570 0.383301
0.702118 0.668549 0.370483
0.727509 0.667786 0.357971
0.757141 0.672333 0.349792
0.787994 0.684265 0.347656
0.825409 0.704437 0.353760
0.865753 0.730865 0.372223
0.902100 0.758484 0.395599
0.926666 0.779510 0.413483
0.936920 0.789215 0.421936
0.939819 0.791992 0.424347
0.942749 0.794800 0.426697
0.945679 0.797485 0.429016
0.948578 0.800171 0.431305
0.951508 0.802765 0.433563
0.129913 0.636200 0.296814
0.143097 0.638153 0.297272
0.156982 0.641113 0.298187
0.171478 0.644989 0.299530
0.186523 0.649719 0.301300
0.201477 0.654236 0.302948
0.216003 0.658142 0.304321
0.229828 0.661713 0.305573
0.262695 0.668335 0.307831
0.338165 0.681458 0.312866
0.419830 0.695190 0.321259
0.494354 0.707245 0.334351
0.550842 0.715759 0.349487
0.590363 0.720978 0.368835
0.619171 0.723938 0.392517
0.642059 0.725250 0.413574
0.667084 0.724457 0.427094
0.689423 0.722412 0.431061
0.709595 0.719666 0.427094
0.729187 0.715912 0.416046
0.749664 0.712250 0.401001
0.773560 0.710968 0.385986
0.802948 0.715576 0.375732
0.832611 0.728394 0.374359
0.867432 0.750031 0.383270
0.902191 0.776611 0.401825
0.927826 0.799652 0.421356
0.940216 0.811890 0.432587
0.943024 0.814789 0.435394
0.945801 0.817719 0.438171
0.948608 0.820557 0.440948
0.951385 0.823334 0.443695
0.954224 0.826172 0.446350
0.153900 0.670227 0.313049
0.167084 0.672485 0.313599
0.180725 0.675659 0.314575
0.194885 0.679626 0.315918
0.209534 0.684540 0.317719
0.224060 0.689117 0.319366
0.238220 0.693054 0.320709
0.252075 0.696808 0.322052
0.280121 0.702820 0.324249
0.349213 0.715393 0.329010
0.435120 0.730255 0.336700
0.513855 0.743530 0.347198
0.576538 0.753876 0.361847
0.620850 0.760773 0.383453
0.652252 0.765137 0.409363
0.678131 0.768250 0.434357
0.700043 0.769836 0.454803
0.723053 0.769409 0.466339
0.743622 0.767487 0.468109
0.762268 0.764496 0.462067
0.779938 0.760254 0.449188
0.798157 0.756073 0.432770
0.819244 0.754730 0.417358
0.845276 0.760040 0.408264
0.874207 0.774078 0.409424
0.904297 0.795715 0.421539
0.929260 0.817719 0.438446
0.943207 0.831512 0.450226
0.945770 0.834229 0.452637
0.948364 0.836914 0.455017
0.951080 0.839661 0.457428
0.953735 0.842316 0.459747
0.956421 0.845093 0.462158
0.173584 0.703796 0.328888
0.187134 0.706268 0.329590
0.201172 0.709625 0.330719
0.215912 0.713867 0.332275
0.231110 0.718903 0.334229
0.246155 0.723572 0.335999
0.260742 0.727600 0.337433
0.274902 0.731445 0.338837
0.298798 0.736877 0.340759
0.361298 0.748505 0.344513
0.449799 0.764526 0.350342
0.530945 0.778961 0.358978
0.600220 0.790985 0.375702
0.648560 0.799500 0.399567
0.683685 0.805695 0.426727
0.712067 0.810272 0.454712
0.736176 0.813599 0.479767
0.757324 0.815765 0.498871
0.778381 0.815552 0.508240
0.796722 0.813965 0.508118
0.812622 0.810608 0.499664
0.827393 0.805847 0.485046
0.843109 0.801178 0.467529
0.861298 0.799744 0.451965
0.883698 0.805237 0.443878
0.909729 0.819458 0.447510
0.932983 0.837738 0.459717
0.946930 0.850952 0.470490
0.949280 0.853363 0.472534
0.951538 0.855621 0.474487
0.953766 0.857758 0.476318
0.955994 0.859985 0.478210
0.958221 0.862122 0.480042
0.193359 0.736237 0.344055
0.207245 0.738953 0.344696
0.221527 0.742493 0.345673
0.236389 0.746826 0.346985
0.251526 0.751831 0.348602
0.266571 0.756470 0.350067
0.281311 0.760620 0.351105
0.295685 0.764587 0.352142
0.318115 0.769897 0.353699
0.377594 0.781250 0.356323
0.468292 0.798157 0.363617
0.551514 0.813660 0.375580
0.623413 0.826904 0.393433
0.675140 0.836548 0.417786
0.713318 0.843933 0.446136
0.743652 0.849823 0.476410
0.770233 0.854645 0.505157
0.793518 0.858490 0.529419
0.813538 0.860626 0.546295
0.831940 0.860596 0.552277
0.847626 0.858643 0.549103
0.860901 0.854462 0.538177
0.872925 0.849304 0.521973
0.884888 0.844666 0.503876
0.898773 0.843262 0.488586
0.916016 0.847870 0.481171
0.935577 0.859161 0.484375
0.948517 0.869232 0.490540
0.950806 0.871155 0.491730
0.952484 0.872559 0.492554
0.954285 0.874023 0.493500
0.956299 0.875793 0.494843
0.958344 0.877594 0.496216
0.211365 0.766388 0.354828
0.225403 0.769318 0.355438
0.239929 0.773041 0.356567
0.254944 0.777405 0.358002
0.270142 0.782196 0.359650
0.284851 0.786072 0.360840
0.299316 0.789612 0.361877
0.313568 0.793121 0.363068
0.340851 0.798859 0.365448
0.408966 0.811554 0.370270
0.499420 0.828430 0.380005
0.580109 0.843536 0.393066
0.649658 0.856567 0.411346
0.701355 0.866852 0.436951
0.740326 0.874908 0.466705
0.772217 0.881836 0.498962
0.800385 0.887848 0.530273
0.825073 0.892883 0.557892
0.845581 0.896393 0.578827
0.863068 0.897980 0.590973
0.877838 0.897888 0.593292
0.890198 0.896362 0.587708
0.900421 0.893188 0.575409
0.909424 0.888733 0.558319
