Postproduction/IWLTBAP - Humble/LUTs by IWLTBAP (CUBE)/IWLTBAP Humble - LOG.cube
# Copyright: (C) Copyright 2017 by IWLTBAP
# Cannot be resold, shared or otherwise redistributed
# Website: https://luts.iwltbap.com
TITLE "IWLTBAP Humble (LOG)"
LUT_3D_SIZE 5
0.000916 0.001709 0.000061
0.144714 0.040009 0.000244
0.492615 0.108398 0.000549
0.789032 0.173920 0.000763
0.845337 0.191467 0.000824
0.000000 0.112366 0.070679
0.124268 0.119263 0.032745
0.491089 0.177368 0.000580
0.824005 0.246277 0.000824
0.864655 0.257904 0.000854
0.000000 0.415710 0.196228
0.165771 0.448120 0.207245
0.507019 0.460938 0.202332
0.872192 0.575684 0.228638
0.928955 0.586151 0.204590
0.173584 0.703796 0.328888
0.298798 0.736877 0.340759
0.736176 0.813599 0.479767
0.883698 0.805237 0.443878
0.958221 0.862122 0.480042
0.237518 0.809906 0.374512
0.376892 0.833313 0.383057
0.829041 0.920044 0.554749
0.943146 0.934479 0.614655
0.957458 0.910828 0.533478
0.045532 0.027557 0.109955
0.146423 0.020020 0.090210
0.503448 0.070618 0.002197
0.792908 0.162445 0.000732
0.848083 0.188202 0.000824
0.000000 0.117493 0.118469
0.112183 0.115143 0.105560
0.503723 0.167084 0.037903
0.842041 0.229218 0.000824
0.879974 0.241547 0.000885
0.000000 0.410583 0.241455
0.072449 0.442261 0.241699
0.507080 0.466766 0.243713
0.876343 0.567139 0.242706
0.930420 0.573151 0.217407
0.106750 0.694580 0.343475
0.231110 0.725922 0.353149
0.736023 0.818604 0.488800
0.888428 0.813507 0.466156
0.959106 0.867676 0.501495
0.166443 0.790833 0.385651
0.284637 0.810883 0.395782
0.816895 0.917816 0.553467
0.944122 0.936432 0.629608
0.958405 0.913879 0.550354
0.144684 0.122650 0.377319
0.144623 0.086212 0.356171
0.486633 0.009033 0.273956
0.788422 0.046051 0.163818
0.865662 0.085510 0.141144
0.108459 0.197845 0.366669
0.148529 0.177307 0.358307
0.470428 0.112854 0.301422
0.844727 0.144775 0.199982
0.892120 0.160126 0.187836
0.000000 0.408966 0.400055
0.000000 0.427002 0.415680
0.391266 0.431946 0.394379
0.881714 0.479340 0.305542
0.939697 0.490112 0.294373
0.001129 0.661133 0.471191
0.043213 0.678436 0.486725
0.456238 0.761658 0.509827
0.888458 0.832703 0.609039
0.965668 0.886139 0.643127
0.013824 0.744598 0.504364
0.066956 0.750854 0.515259
0.490265 0.850281 0.549316
0.947021 0.948059 0.734589
0.966492 0.933350 0.664795
0.202545 0.182892 0.607910
0.201538 0.156586 0.598663
0.251312 0.086212 0.569000
0.769287 0.000000 0.388763
0.831665 0.000000 0.338074
0.213013 0.261078 0.622009
0.215881 0.247803 0.623077
0.264374 0.165222 0.597168
0.808441 0.001648 0.431488
0.840363 0.000000 0.389740
0.056122 0.458282 0.647369
0.084167 0.469208 0.662903
0.249969 0.436798 0.669403
0.839935 0.408081 0.593903
0.925354 0.394043 0.539185
0.091522 0.628479 0.664703
0.106323 0.642120 0.680206
0.219269 0.672852 0.700958
0.750549 0.771942 0.753815
0.955078 0.821503 0.768219
0.115723 0.726410 0.715759
0.135162 0.728455 0.724030
0.280945 0.780212 0.728271
0.783722 0.917664 0.789307
0.978333 0.959839 0.846466
0.207642 0.188263 0.631104
0.206238 0.165344 0.623474
0.230469 0.098419 0.608765
0.793762 0.007141 0.478302
0.825226 0.000000 0.390381
0.219055 0.263153 0.651611
0.220459 0.250885 0.649017
0.253082 0.170807 0.629456
0.812408 0.048218 0.475739
0.832947 0.000000 0.425842
0.084167 0.469025 0.701172
0.101166 0.476746 0.704651
0.246887 0.441925 0.712158
0.819366 0.398163 0.661469
0.906952 0.361328 0.592377
0.110870 0.624146 0.725586
0.116028 0.634186 0.728668
0.202332 0.650970 0.750519
0.542419 0.677948 0.824585
0.972778 0.793182 0.820282
0.121277 0.691498 0.742828
0.127197 0.693909 0.744690
0.193054 0.718872 0.765594
0.367218 0.778381 0.815094
0.945221 0.960266 0.924866
