Postproduction/IWLTBAP - Humble/LUTs by IWLTBAP (CUBE)/IWLTBAP Humble - LOG.cube
# Copyright: (C) Copyright 2017 by IWLTBAP
# Cannot be resold, shared or otherwise redistributed
# Website: https://luts.iwltbap.com
TITLE "IWLTBAP Humble (LOG)"
LUT_3D_SIZE 9
0.000916 0.001709 0.000061
0.046051 0.009766 0.000092
0.144714 0.040009 0.000244
0.310577 0.072540 0.000427
0.492615 0.108398 0.000549
0.659424 0.138794 0.000610
0.789032 0.173920 0.000763
0.832275 0.186646 0.000793
0.845337 0.191467 0.000824
0.037720 0.033112 0.000122
0.050201 0.037109 0.000153
0.126556 0.045349 0.000641
0.272430 0.074188 0.000427
0.462189 0.110229 0.000519
0.642151 0.148560 0.000641
0.788971 0.183777 0.000732
0.836761 0.198608 0.000793
0.849945 0.203064 0.000824
0.000000 0.112366 0.070679
0.000000 0.114838 0.058136
0.124268 0.119263 0.032745
0.267822 0.148926 0.048798
0.491089 0.177368 0.000580
0.678619 0.211395 0.000671
0.824005 0.246277 0.000824
0.852417 0.255524 0.000824
0.864655 0.257904 0.000854
0.000000 0.231354 0.134644
0.000000 0.239014 0.131958
0.098022 0.258636 0.127716
0.282379 0.262054 0.101837
0.479584 0.328491 0.132751
0.702515 0.372253 0.069977
0.858765 0.392120 0.000854
0.890930 0.399872 0.000885
0.901367 0.402283 0.000885
0.000000 0.415710 0.196228
0.032135 0.425934 0.196808
0.165771 0.448120 0.207245
0.368744 0.460602 0.237915
0.507019 0.460938 0.202332
0.691803 0.530457 0.248077
0.872192 0.575684 0.228638
0.917419 0.585083 0.212280
0.928955 0.586151 0.204590
0.075867 0.567719 0.263763
0.135651 0.579712 0.267975
0.231201 0.598785 0.274719
0.489258 0.636139 0.324097
0.604797 0.631927 0.361023
0.709839 0.629639 0.324066
0.867188 0.712250 0.364258
0.936676 0.763336 0.401764
0.948456 0.772491 0.408478
0.173584 0.703796 0.328888
0.231110 0.718903 0.334229
0.298798 0.736877 0.340759
0.600220 0.790985 0.375702
0.736176 0.813599 0.479767
0.812622 0.810608 0.499664
0.883698 0.805237 0.443878
0.949280 0.853363 0.472534
0.958221 0.862122 0.480042
0.230255 0.797211 0.367859
0.285278 0.806305 0.370850
0.361847 0.819122 0.375580
0.669495 0.873383 0.423920
0.819946 0.906860 0.547974
0.899872 0.922638 0.622772
0.937378 0.916260 0.580750
0.953827 0.904816 0.530701
0.957153 0.904633 0.526337
0.237518 0.809906 0.374512
0.292755 0.819061 0.377594
0.376892 0.833313 0.383057
0.685669 0.888092 0.434845
0.829041 0.920044 0.554749
0.906860 0.936737 0.638641
0.943146 0.934479 0.614655
0.955963 0.913025 0.540924
0.957458 0.910828 0.533478
0.024536 0.004944 0.017303
0.067749 0.004242 0.024597
0.153198 0.028717 0.000244
0.311676 0.066650 0.000427
0.491180 0.102509 0.000549
0.656403 0.136932 0.000610
0.787903 0.172791 0.000732
0.833221 0.185577 0.000793
0.846436 0.190063 0.000824
0.027100 0.037872 0.036346
0.052551 0.033905 0.015045
0.128510 0.038757 0.001190
0.272430 0.070251 0.000427
0.463348 0.106628 0.000519
0.644806 0.143585 0.000641
0.790100 0.183197 0.000732
0.837616 0.197754 0.000793
0.850616 0.202545 0.000824
0.000000 0.111664 0.074982
0.000000 0.113770 0.068085
0.122314 0.118561 0.041870
0.269897 0.147736 0.052124
0.493561 0.176575 0.003784
0.683167 0.208466 0.000671
0.827698 0.243988 0.000824
0.855927 0.252655 0.000854
0.868347 0.254913 0.000854
0.000000 0.230804 0.142212
0.000000 0.238068 0.141541
0.081512 0.259979 0.134613
0.282623 0.263092 0.109528
0.481140 0.327972 0.139709
0.704865 0.371185 0.075806
0.861481 0.391907 0.006287
0.892120 0.399567 0.000885
0.902832 0.401886 0.000916
0.000000 0.414429 0.209564
0.002106 0.425232 0.205353
0.151001 0.447510 0.214508
0.362244 0.461975 0.245178
0.508514 0.463409 0.212402
0.693024 0.531189 0.255646
0.874084 0.574738 0.233398
0.917694 0.583801 0.217926
0.929199 0.585083 0.210815
0.031097 0.566010 0.273224
0.108765 0.577362 0.276581
0.211884 0.597321 0.283081
0.478607 0.636078 0.328552
0.605438 0.634430 0.367249
0.711487 0.632751 0.333038
0.869110 0.714630 0.372498
0.936707 0.763702 0.408234
0.948486 0.773010 0.415131
0.140961 0.699066 0.336517
0.199890 0.713867 0.340515
0.269257 0.732147 0.346130
0.581299 0.789459 0.380737
0.736603 0.816040 0.483887
0.814972 0.813751 0.508026
0.885712 0.808899 0.454102
0.949677 0.855743 0.481903
0.958618 0.864594 0.489471
0.196533 0.788147 0.373199
0.249512 0.797241 0.375763
0.326813 0.810699 0.380310
0.647644 0.869263 0.427277
0.817749 0.906616 0.549866
0.900238 0.923096 0.627686
0.938263 0.917236 0.587738
0.954285 0.906372 0.539154
0.957581 0.906189 0.534790
0.203522 0.800659 0.379761
0.256805 0.809875 0.382416
0.341339 0.824768 0.387634
0.664795 0.884155 0.437927
0.824738 0.919281 0.554626
0.905457 0.936920 0.642242
0.943634 0.935516 0.622253
0.956451 0.914520 0.549316
0.957916 0.912354 0.541901
0.045532 0.027557 0.109955
0.065948 0.022156 0.105469
0.146423 0.020020 0.090210
0.324432 0.030426 0.012390
0.503448 0.070618 0.002197
0.664398 0.117462 0.000610
0.792908 0.162445 0.000732
0.835663 0.182709 0.000793
0.848083 0.188202 0.000824
0.019897 0.058746 0.109833
0.054016 0.042969 0.092224
0.119080 0.033600 0.078308
0.284332 0.046509 0.008728
0.477173 0.086182 0.001617
0.654419 0.129761 0.000641
0.796814 0.176270 0.000732
0.841888 0.192047 0.000793
0.854004 0.198120 0.000824
0.000000 0.117493 0.118469
0.000000 0.118652 0.118347
0.112183 0.115143 0.105560
0.279816 0.136749 0.079407
0.503723 0.167084 0.037903
0.696747 0.196350 0.005463
0.842041 0.229218 0.000824
0.868408 0.238098 0.000885
0.879974 0.241547 0.000885
0.000000 0.230865 0.173096
0.000000 0.236816 0.176086
0.000000 0.258759 0.170258
0.274200 0.262085 0.148956
0.483368 0.318176 0.165619
0.709839 0.354797 0.097046
0.867584 0.384369 0.027802
0.896576 0.391174 0.018585
0.908508 0.392944 0.015717
0.000000 0.410583 0.241455
0.000000 0.420349 0.242981
0.072449 0.442261 0.241699
0.320404 0.463562 0.267181
0.507080 0.466766 0.243713
0.692780 0.528839 0.276154
0.876343 0.567139 0.242706
0.918610 0.573090 0.224518
0.930420 0.573151 0.217407
0.000031 0.563141 0.286804
0.047699 0.573547 0.290924
0.160858 0.591156 0.300659
0.443665 0.632568 0.337524
0.602905 0.637604 0.380402
0.712555 0.636749 0.348419
0.871613 0.717407 0.385315
0.936554 0.762726 0.419830
0.948334 0.771149 0.427673
0.106750 0.694580 0.343475
0.165527 0.708618 0.347504
0.231110 0.725922 0.353149
0.553375 0.786530 0.386871
0.736023 0.818604 0.488800
0.817993 0.817719 0.518585
0.888428 0.813507 0.466156
0.950134 0.858704 0.493347
0.959106 0.867676 0.501495
0.163422 0.779510 0.378693
0.206512 0.786224 0.382568
0.275665 0.798370 0.387695
0.603516 0.861023 0.432861
0.812775 0.905853 0.552032
0.900635 0.923706 0.634247
0.939331 0.918396 0.596069
0.954742 0.908051 0.548126
0.957977 0.907806 0.543335
0.166443 0.790833 0.385651
0.208649 0.797394 0.389740
0.284637 0.810883 0.395782
0.612976 0.874420 0.443054
0.816895 0.917816 0.553467
0.903931 0.937073 0.645569
0.944122 0.936432 0.629608
0.956970 0.916016 0.557709
0.958405 0.913879 0.550354
0.092224 0.072540 0.239136
0.093994 0.061829 0.233398
0.124023 0.038971 0.219482
0.302490 0.025879 0.183044
0.498962 0.020355 0.096588
0.663208 0.070404 0.070068
0.802032 0.114410 0.034210
0.854736 0.132385 0.010712
0.868042 0.138855 0.004883
0.087555 0.090729 0.226776
0.085480 0.076324 0.211853
0.107086 0.050964 0.196167
0.262177 0.038300 0.166534
0.479156 0.042511 0.091431
0.658844 0.088165 0.069214
0.810211 0.131195 0.037476
0.859863 0.146332 0.019073
0.873108 0.151917 0.012390
0.001068 0.151733 0.228790
0.001007 0.150360 0.231750
0.103485 0.131958 0.217560
0.258240 0.117828 0.197632
0.507629 0.132477 0.128601
0.702301 0.163940 0.106659
0.852325 0.196869 0.076324
0.880890 0.205109 0.066559
0.893097 0.208618 0.057587
0.000000 0.241577 0.252869
0.000000 0.246216 0.256897
0.000000 0.255585 0.261719
0.231598 0.245209 0.237244
0.486084 0.279633 0.202545
0.715088 0.313446 0.163086
0.877319 0.346436 0.126923
0.906525 0.357513 0.121490
0.918335 0.360565 0.117798
0.000000 0.409515 0.309692
0.000000 0.417206 0.314117
0.000000 0.432465 0.315125
0.187225 0.448151 0.313568
0.484131 0.461761 0.311035
0.682709 0.506683 0.325317
0.878967 0.529510 0.254944
0.921631 0.536926 0.240082
0.933594 0.538544 0.235260
0.000000 0.547272 0.355255
0.000000 0.556000 0.357727
0.000000 0.570374 0.359589
0.264038 0.603180 0.363220
0.556824 0.635620 0.418518
0.703400 0.640717 0.408081
0.868805 0.710205 0.434967
0.934570 0.744507 0.452576
0.946625 0.751343 0.456604
0.000000 0.666809 0.388550
0.000000 0.677338 0.393005
0.023621 0.690216 0.399445
0.329803 0.744690 0.415100
0.686218 0.810425 0.495911
0.813110 0.822540 0.563995
0.889984 0.823242 0.525604
0.952759 0.869263 0.554901
0.961792 0.878632 0.564453
0.000000 0.742340 0.420410
0.021484 0.746826 0.425293
0.066406 0.754333 0.431000
0.370300 0.814026 0.454193
0.753418 0.894409 0.550934
0.895874 0.925903 0.666046
0.942871 0.925842 0.650391
0.958221 0.917511 0.603271
0.960785 0.916656 0.592773
0.000000 0.752441 0.427338
0.025085 0.756927 0.432190
0.083923 0.765991 0.438080
0.378540 0.827026 0.462067
0.746857 0.904114 0.548004
0.895996 0.937866 0.664124
0.946198 0.941589 0.670380
0.959473 0.922729 0.596649
0.960632 0.920349 0.586914
0.144684 0.122650 0.377319
0.143494 0.113525 0.371124
0.144623 0.086212 0.356171
0.219513 0.052429 0.338959
0.486633 0.009033 0.273956
0.648071 0.000000 0.176727
0.788422 0.046051 0.163818
0.850677 0.076447 0.150482
0.865662 0.085510 0.141144
0.140076 0.133148 0.361389
0.135986 0.121613 0.351990
0.137085 0.097015 0.338104
0.197235 0.063843 0.320435
0.461182 0.037872 0.267792
0.645660 0.019958 0.178070
0.799744 0.070862 0.167908
0.856415 0.093079 0.158325
0.871185 0.100769 0.151306
0.108459 0.197845 0.366669
0.113068 0.195679 0.365479
0.148529 0.177307 0.358307
0.206512 0.139618 0.343231
0.470428 0.112854 0.301422
0.683655 0.107849 0.215729
0.844727 0.144775 0.199982
0.878357 0.155579 0.193695
0.892120 0.160126 0.187836
0.000000 0.284668 0.372192
0.000000 0.288757 0.376953
0.000000 0.292847 0.385376
0.170502 0.260529 0.366486
0.435944 0.247009 0.342560
0.711792 0.270813 0.266418
0.882019 0.302338 0.243866
0.914246 0.310669 0.239624
0.926697 0.313416 0.236481
0.000000 0.408966 0.400055
0.000000 0.415680 0.406525
0.000000 0.427002 0.415680
0.107056 0.429413 0.408325
0.391266 0.431946 0.394379
0.682251 0.461700 0.353729
0.881714 0.479340 0.305542
0.927399 0.487976 0.296997
0.939697 0.490112 0.294373
0.000000 0.546387 0.439484
0.011627 0.553467 0.444916
0.044128 0.564331 0.450806
0.153046 0.580597 0.441803
0.383820 0.610199 0.453857
0.684052 0.637390 0.479706
0.859467 0.681213 0.486176
0.929901 0.700897 0.480804
0.942444 0.704865 0.480011
0.001129 0.661133 0.471191
0.018982 0.668976 0.478516
0.043213 0.678436 0.486725
0.161560 0.703979 0.488098
0.456238 0.761658 0.509827
0.777618 0.820129 0.606628
0.888458 0.832703 0.609039
0.956604 0.877563 0.635803
0.965668 0.886139 0.643127
0.012604 0.734436 0.502319
0.034546 0.736664 0.507751
0.063171 0.740082 0.513519
0.180298 0.766602 0.518585
0.500336 0.840851 0.555206
0.860474 0.921570 0.684387
0.945099 0.934479 0.725098
0.964447 0.930695 0.686310
0.966949 0.930115 0.675018
0.013824 0.744598 0.504364
0.037109 0.746857 0.509766
0.066956 0.750854 0.515259
0.184509 0.778687 0.519226
0.490265 0.850281 0.549316
0.856750 0.931549 0.672058
0.947021 0.948059 0.734589
0.965424 0.935516 0.675415
0.966492 0.933350 0.664795
0.184631 0.164062 0.527557
0.183319 0.156982 0.521149
0.181854 0.132782 0.502991
0.190521 0.097046 0.470184
0.364532 0.060638 0.450470
0.641449 0.000000 0.342590
0.764465 0.000000 0.263062
0.831573 0.000000 0.251709
0.847260 0.000000 0.245880
0.181000 0.171295 0.506683
0.178925 0.165344 0.497101
0.177765 0.144989 0.483063
0.186340 0.109833 0.456116
0.344543 0.074738 0.443146
0.634247 0.019409 0.347229
0.774597 0.009247 0.268951
0.836426 0.017700 0.260437
0.851868 0.018890 0.255981
0.179596 0.237030 0.511597
0.181976 0.235413 0.511414
0.191895 0.221313 0.508881
0.207153 0.181244 0.487366
0.347443 0.141510 0.473480
0.652740 0.087280 0.373840
0.812469 0.073608 0.303619
0.852844 0.085785 0.294617
0.868713 0.089569 0.290558
0.066040 0.337463 0.528931
0.069244 0.340942 0.532257
0.107635 0.341949 0.538910
0.187561 0.307373 0.517731
0.324646 0.258881 0.497009
0.656555 0.240936 0.438599
0.861023 0.246399 0.352081
0.901947 0.257507 0.347473
0.916901 0.260834 0.345367
0.000000 0.430023 0.520966
0.004486 0.435242 0.526917
0.031830 0.442993 0.536652
0.119232 0.441742 0.538788
0.240387 0.419495 0.535095
0.622711 0.425659 0.506592
0.882812 0.444763 0.399597
0.932587 0.454895 0.394409
0.945557 0.457672 0.392944
0.010895 0.528839 0.540009
0.023834 0.535278 0.547211
0.046661 0.544250 0.556763
0.119446 0.556183 0.562622
0.234222 0.566589 0.560852
0.564911 0.596008 0.566376
0.857208 0.627197 0.519928
0.936371 0.634857 0.492493
0.949402 0.636475 0.488464
0.065765 0.654205 0.590149
0.089508 0.661652 0.597809
0.109589 0.670868 0.606110
0.191223 0.692383 0.596191
0.302979 0.720428 0.588745
0.596313 0.781281 0.627625
0.880035 0.834412 0.684204
0.955231 0.865540 0.698700
0.963745 0.871002 0.705719
0.130127 0.731598 0.604645
0.140045 0.733826 0.610077
0.152954 0.737061 0.616028
0.209106 0.758423 0.620605
0.325531 0.795990 0.623901
0.658356 0.876892 0.681519
0.934845 0.939056 0.791443
0.970276 0.942963 0.774872
0.973297 0.943024 0.765686
0.129486 0.741699 0.605835
0.139526 0.743988 0.611084
0.152527 0.747681 0.616394
0.205994 0.769287 0.617432
0.306213 0.803162 0.613922
0.632812 0.882507 0.664185
0.932220 0.949768 0.787781
0.971313 0.948578 0.766602
0.972961 0.947174 0.757660
0.202545 0.182892 0.607910
0.202148 0.177887 0.606110
0.201538 0.156586 0.598663
0.206848 0.126038 0.580902
0.251312 0.086212 0.569000
0.601227 0.050720 0.519165
0.769287 0.000000 0.388763
0.819977 0.000000 0.346619
0.831665 0.000000 0.338074
0.204071 0.195068 0.609100
0.203064 0.190857 0.604706
0.201843 0.172913 0.596436
0.206604 0.141388 0.579163
0.245819 0.101807 0.566956
0.584290 0.069397 0.533142
0.778931 0.000000 0.398529
0.822662 0.000000 0.358154
0.833221 0.000000 0.350403
0.213013 0.261078 0.622009
0.213470 0.260315 0.623352
0.215881 0.247803 0.623077
0.224640 0.209320 0.609497
0.264374 0.165222 0.597168
0.587158 0.127411 0.575226
0.808441 0.001648 0.431488
0.832123 0.000000 0.402039
0.840363 0.000000 0.389740
0.123779 0.380707 0.647247
0.126068 0.383087 0.651062
0.145813 0.379517 0.655029
0.216309 0.337891 0.644073
0.285309 0.282196 0.628113
0.519012 0.256897 0.631561
0.831329 0.199585 0.502716
0.870911 0.169830 0.480530
0.880402 0.164917 0.468872
0.056122 0.458282 0.647369
0.063202 0.462738 0.653381
0.084167 0.469208 0.662903
0.150055 0.466705 0.671356
0.249969 0.436798 0.669403
0.463806 0.404633 0.666199
0.839935 0.408081 0.593903
0.912231 0.394836 0.553162
0.925354 0.394043 0.539185
0.064636 0.533691 0.644135
0.071838 0.538971 0.650879
0.082794 0.545624 0.659729
0.134583 0.553070 0.670776
0.228577 0.557098 0.680664
0.370026 0.540649 0.692505
0.804108 0.582581 0.687531
0.944885 0.596680 0.605255
0.961517 0.599060 0.591888
0.091522 0.628479 0.664703
0.098511 0.634644 0.671844
0.106323 0.642120 0.680206
0.145020 0.655762 0.691528
0.219269 0.672852 0.700958
0.367188 0.699982 0.716766
0.750549 0.771942 0.753815
0.936157 0.817871 0.768829
0.955078 0.821503 0.768219
0.119385 0.714081 0.711823
0.125610 0.714600 0.715698
0.134033 0.715088 0.720123
0.175323 0.730713 0.729553
0.241119 0.764832 0.742462
0.454193 0.817291 0.734436
0.789703 0.905304 0.803925
0.969757 0.949371 0.852509
0.978638 0.951721 0.846649
0.115723 0.726410 0.715759
0.125427 0.726898 0.720123
0.135162 0.728455 0.724030
0.167389 0.747559 0.728882
0.280945 0.780212 0.728271
0.445282 0.832458 0.718323
0.783722 0.917664 0.789307
0.972321 0.959229 0.851227
0.978333 0.959839 0.846466
0.205078 0.185577 0.619537
0.204712 0.181519 0.618164
0.203888 0.160950 0.611145
0.209564 0.132172 0.602478
0.235046 0.094360 0.598114
0.530823 0.073547 0.614044
0.789581 0.004242 0.459381
0.818909 0.000000 0.394318
0.826050 0.000000 0.380341
0.206970 0.197601 0.622986
0.206787 0.194733 0.622101
0.206116 0.178711 0.616852
0.210907 0.148193 0.607697
0.234833 0.110535 0.601013
0.519165 0.087952 0.619385
0.794739 0.013550 0.459229
0.820435 0.000000 0.402863
0.827332 0.000000 0.388855
0.216949 0.263092 0.640747
0.217194 0.262146 0.640594
0.218536 0.249817 0.637848
0.226654 0.212463 0.628571
0.256195 0.169159 0.618744
0.547729 0.138062 0.629517
0.809143 0.049072 0.463501
0.829834 0.000000 0.429657
0.834625 0.000000 0.416656
0.139526 0.385437 0.675293
0.139343 0.387817 0.676117
0.155060 0.383575 0.675751
0.221588 0.342133 0.666107
0.283112 0.286255 0.652588
0.471069 0.260406 0.672638
0.833923 0.196686 0.536896
0.857758 0.175568 0.503326
0.870331 0.155518 0.490631
0.077820 0.467438 0.690369
0.081024 0.470703 0.691284
0.096405 0.475220 0.693909
0.157959 0.471191 0.701385
0.247772 0.441254 0.701782
0.418274 0.400208 0.705780
0.824432 0.400208 0.646393
0.895386 0.379181 0.596558
0.914429 0.364563 0.581665
0.084290 0.542816 0.701050
0.089142 0.547150 0.702454
0.097260 0.552490 0.704559
0.147583 0.559784 0.714081
0.238251 0.563202 0.729675
0.346405 0.533875 0.747040
0.735382 0.555511 0.752808
0.920227 0.572174 0.711426
0.949219 0.571228 0.685028
0.108276 0.624237 0.717712
0.110809 0.629120 0.719360
0.114197 0.634827 0.721313
0.140045 0.643188 0.728485
0.203033 0.653229 0.742859
0.321808 0.667175 0.768097
0.567566 0.689972 0.816956
0.938660 0.784607 0.820648
0.970276 0.800629 0.814148
0.120178 0.687134 0.737457
0.122925 0.688232 0.738251
0.126648 0.689697 0.739380
0.155243 0.700104 0.747711
0.210815 0.719330 0.763336
0.298828 0.747528 0.786102
0.469330 0.794556 0.827820
0.905762 0.930084 0.901550
0.956451 0.949799 0.912811
0.122711 0.696045 0.741180
0.125519 0.697174 0.742035
0.129364 0.698761 0.743195
0.155518 0.708984 0.751099
0.202271 0.726501 0.764679
0.279144 0.753998 0.785553
0.406128 0.796631 0.817291
0.877716 0.935547 0.894989
0.959503 0.963715 0.919159
0.207642 0.188263 0.631104
0.207275 0.184631 0.629944
0.206238 0.165344 0.623474
0.211121 0.136414 0.615265
0.230469 0.098419 0.608765
0.497162 0.077423 0.636322
0.793762 0.007141 0.478302
0.820679 0.000000 0.405670
0.825226 0.000000 0.390381
0.209534 0.200287 0.634583
0.209351 0.197449 0.633667
0.208527 0.182434 0.628906
0.212646 0.151855 0.620178
0.232117 0.114227 0.612274
0.490570 0.091400 0.640350
0.799194 0.015076 0.475067
0.822052 0.000000 0.413879
0.826385 0.000000 0.398956
0.219055 0.263153 0.651611
0.219330 0.262421 0.651520
0.220459 0.250885 0.649017
0.227753 0.214233 0.640411
0.253082 0.170807 0.629456
0.523407 0.140869 0.651031
0.812408 0.048218 0.475739
0.828674 0.008606 0.440399
0.832947 0.000000 0.425842
0.146698 0.385986 0.685608
0.146149 0.388611 0.686462
0.160370 0.385010 0.686279
0.224487 0.343109 0.676971
0.281830 0.287537 0.663635
0.449921 0.261017 0.688263
0.834717 0.195190 0.549805
0.857208 0.170593 0.511261
0.862579 0.161560 0.499695
0.084167 0.469025 0.701172
0.086853 0.472321 0.702057
0.101166 0.476746 0.704651
0.161652 0.472351 0.712219
0.246887 0.441925 0.712158
0.404602 0.398376 0.716614
0.819366 0.398163 0.661469
0.893341 0.372467 0.604095
0.906952 0.361328 0.592377
0.087524 0.544006 0.711121
0.092224 0.548309 0.712463
0.100647 0.553741 0.714630
0.150574 0.561127 0.724426
0.239868 0.564301 0.740662
0.344116 0.532928 0.758789
0.719849 0.549927 0.767487
0.914673 0.566772 0.715302
0.946320 0.563721 0.701599
0.110870 0.624146 0.725586
0.113037 0.628754 0.726929
0.116028 0.634186 0.728668
0.140015 0.641388 0.735352
0.202332 0.650970 0.750519
0.320251 0.664093 0.777496
0.542419 0.677948 0.824585
0.931641 0.777191 0.844910
0.972778 0.793182 0.820282
0.119629 0.683533 0.740326
0.122192 0.684570 0.741119
0.125549 0.685883 0.742218
0.151367 0.695251 0.750397
0.202820 0.712646 0.765808
0.280609 0.737366 0.787750
0.420135 0.775848 0.823914
0.887512 0.923859 0.909515
0.951447 0.947296 0.918427
0.121277 0.691498 0.742828
0.123932 0.692596 0.743652
0.127197 0.693909 0.744690
0.149933 0.702850 0.752075
0.193054 0.718872 0.765594
0.261017 0.743347 0.785614
0.367218 0.778381 0.815094
0.837830 0.923737 0.895508
0.945221 0.960266 0.924866
