Postproduction/IWLTBAP - Humble/LUTs by IWLTBAP (CUBE)/IWLTBAP Humble - Standard.cube
# Copyright: (C) Copyright 2017 by IWLTBAP
# Cannot be resold, shared or otherwise redistributed
# Website: https://luts.iwltbap.com
TITLE "IWLTBAP Humble (Rec709, sRGB, DCI-P3)"
LUT_3D_SIZE 33
0.000916 0.001709 0.000061
0.024536 0.004150 0.000092
0.041168 0.009033 0.000092
0.063232 0.012329 0.000122
0.081329 0.019684 0.000153
0.103607 0.025391 0.000183
0.128296 0.032776 0.000214
0.150574 0.042572 0.000244
0.177399 0.049438 0.000275
0.205597 0.055725 0.000336
0.236115 0.061554 0.000366
0.268555 0.065857 0.000397
0.300995 0.070496 0.000427
0.331818 0.077057 0.000458
0.363586 0.082184 0.000488
0.393555 0.089447 0.000488
0.425629 0.093109 0.000519
0.456146 0.097992 0.000519
0.482941 0.107117 0.000549
0.512451 0.111053 0.000549
0.541138 0.115631 0.000580
0.569275 0.119659 0.000580
0.595795 0.125336 0.000580
0.621979 0.131439 0.000610
0.649078 0.136017 0.000610
0.674774 0.142944 0.000641
0.700287 0.150177 0.000671
0.725525 0.157623 0.000671
0.751495 0.163147 0.000702
0.776215 0.170044 0.000732
0.799896 0.177216 0.000763
0.823395 0.183380 0.000793
0.845337 0.191467 0.000824
0.022156 0.017212 0.000092
0.036163 0.022125 0.000122
0.052032 0.026215 0.000122
0.064789 0.031921 0.007446
0.091675 0.033569 0.000183
0.112823 0.039307 0.000214
0.136475 0.044922 0.000244
0.158539 0.053680 0.000275
0.184387 0.060303 0.000305
0.212677 0.067017 0.000336
0.243317 0.072174 0.000397
0.274414 0.078613 0.000427
0.304779 0.086609 0.000427
0.338226 0.090851 0.000458
0.368286 0.098846 0.000488
0.400330 0.104309 0.000488
0.432220 0.109131 0.000519
0.461029 0.117493 0.000519
0.490753 0.123260 0.000549
0.519836 0.128784 0.000549
0.548370 0.134430 0.000580
0.575134 0.141418 0.000580
0.602539 0.146606 0.000580
0.628723 0.153931 0.000610
0.655426 0.160095 0.000641
0.680847 0.167664 0.000641
0.710175 0.168732 0.000671
0.736176 0.174927 0.000702
0.760956 0.182373 0.000732
0.784851 0.189301 0.000732
0.808441 0.196259 0.000763
0.830475 0.204681 0.000793
0.853088 0.210938 0.000824
0.039764 0.035187 0.000122
0.050232 0.040100 0.000153
0.058929 0.046417 0.000153
0.067810 0.052948 0.013855
0.082153 0.058319 0.026642
0.111145 0.060883 0.013885
0.138641 0.063995 0.002991
0.164551 0.068756 0.000275
0.190521 0.074890 0.000336
0.219208 0.080688 0.000366
0.248993 0.087097 0.000397
0.279358 0.094482 0.000427
0.310486 0.101837 0.000458
0.343170 0.107574 0.000488
0.374817 0.114929 0.000488
0.406586 0.121521 0.000519
0.438171 0.127777 0.000519
0.469330 0.133789 0.000549
0.498871 0.140808 0.000549
0.527863 0.147522 0.000580
0.556122 0.153931 0.000580
0.583679 0.160400 0.000610
0.613342 0.163940 0.000610
0.640411 0.170288 0.000641
0.665863 0.178436 0.000641
0.691254 0.186218 0.000671
0.717194 0.192780 0.000702
0.741943 0.200470 0.000702
0.765839 0.208344 0.000732
0.789490 0.215698 0.000763
0.816895 0.216339 0.000793
0.838715 0.224426 0.000824
0.860992 0.230927 0.000854
0.028442 0.062103 0.013794
0.051422 0.063354 0.011108
0.070770 0.065186 0.007477
0.081299 0.070984 0.008392
0.091644 0.076996 0.018463
0.108795 0.082642 0.032166
0.131104 0.087494 0.034943
0.158508 0.092194 0.027679
0.186157 0.097534 0.021332
0.215424 0.103485 0.020447
0.246674 0.109528 0.014099
0.279327 0.116058 0.009552
0.312805 0.121887 0.004120
0.346741 0.127808 0.000488
0.380585 0.133820 0.000519
0.414337 0.139587 0.000519
0.446381 0.146332 0.000549
0.477112 0.153381 0.000549
0.508942 0.158478 0.000580
0.537689 0.165833 0.000580
0.565460 0.173157 0.000610
0.592102 0.181396 0.000610
0.622284 0.185272 0.000641
0.648834 0.192780 0.000641
0.674225 0.200928 0.000671
0.699310 0.208954 0.000702
0.727661 0.212341 0.000702
0.751801 0.220398 0.000732
0.775360 0.227966 0.000763
0.798645 0.235474 0.000793
0.821564 0.242615 0.000824
0.842987 0.250946 0.000824
0.864685 0.258026 0.000854
0.000000 0.091614 0.032013
0.021332 0.092133 0.030273
0.055511 0.092590 0.028473
0.083435 0.093079 0.024841
0.104279 0.095764 0.016663
0.119202 0.101776 0.013031
0.136688 0.107513 0.030426
0.158020 0.113739 0.041412
0.182007 0.120392 0.052155
0.211731 0.126068 0.049622
0.244049 0.132507 0.041504
0.277405 0.138947 0.033325
0.311829 0.145447 0.025116
0.346954 0.151978 0.018738
0.382111 0.158234 0.013306
0.416840 0.164520 0.007843
0.450867 0.170593 0.003296
0.483948 0.176453 0.000580
0.515961 0.182129 0.000580
0.546631 0.187897 0.000610
0.576141 0.193939 0.000610
0.603241 0.202240 0.000641
0.632874 0.207031 0.000641
0.658325 0.215668 0.000671
0.683228 0.224182 0.000671
0.711395 0.228516 0.000702
0.735565 0.236603 0.000732
0.759033 0.244598 0.000763
0.782257 0.252350 0.000763
0.805115 0.260223 0.000793
0.830566 0.263489 0.000824
0.852295 0.270721 0.000854
0.872833 0.278748 0.000885
0.000000 0.112457 0.070831
0.000000 0.118469 0.058411
0.020508 0.120697 0.050262
0.068268 0.119995 0.049469
0.101410 0.120361 0.044983
0.127045 0.122528 0.034973
0.146240 0.127777 0.021301
0.165161 0.133789 0.040497
0.186829 0.140503 0.053040
0.212585 0.147827 0.064056
0.241547 0.155396 0.069824
0.275757 0.162628 0.060364
0.311066 0.169800 0.051483
0.347168 0.176971 0.042542
0.383392 0.184082 0.035248
0.419220 0.190948 0.028839
0.454315 0.197357 0.022461
0.488373 0.203583 0.016998
0.521210 0.209595 0.011536
0.552887 0.215240 0.005157
0.583740 0.220978 0.000641
0.613312 0.226929 0.000641
0.641571 0.233154 0.000671
0.669434 0.239014 0.000671
0.694153 0.247467 0.000702
0.721252 0.252472 0.000732
0.744751 0.260345 0.000732
0.767822 0.268341 0.000763
0.789764 0.277222 0.000793
0.815735 0.280640 0.000824
0.836884 0.289185 0.000854
0.858063 0.296570 0.000854
0.878082 0.304565 0.000885
0.000000 0.135254 0.090637
0.000000 0.141296 0.079987
0.011047 0.145630 0.066711
0.061005 0.145935 0.067474
0.096954 0.146271 0.067535
0.127014 0.147186 0.062469
0.154877 0.148987 0.050446
0.174805 0.154816 0.036865
0.194427 0.161224 0.055542
0.218445 0.168488 0.066254
0.246155 0.176453 0.073914
0.276978 0.185272 0.077209
0.310577 0.194183 0.077240
0.347382 0.202698 0.069214
0.384613 0.210663 0.061218
0.421478 0.218536 0.054077
0.457550 0.225769 0.046265
0.492584 0.232574 0.038055
0.526337 0.239014 0.029816
0.559082 0.245270 0.022522
0.590454 0.251221 0.015228
0.620514 0.257019 0.008850
0.649353 0.262543 0.003387
0.677185 0.268280 0.000702
0.704010 0.274078 0.000702
0.728851 0.280579 0.000732
0.754639 0.285522 0.000763
0.777252 0.293457 0.000793
0.798828 0.302094 0.000793
0.823822 0.306274 0.000824
0.844421 0.314606 0.000854
0.864532 0.322571 0.000885
0.887238 0.326660 0.000916
0.000000 0.159698 0.101379
0.000000 0.165405 0.097748
0.000000 0.171478 0.081299
0.058228 0.171753 0.081970
0.098419 0.172028 0.082611
0.130188 0.172577 0.082062
0.158661 0.174133 0.075104
0.185303 0.176666 0.065491
0.204590 0.183350 0.053925
0.226807 0.190216 0.071198
0.252960 0.198456 0.080963
0.282532 0.207672 0.085846
0.314728 0.217499 0.089355
0.349030 0.227905 0.091644
0.385376 0.237854 0.089417
0.423096 0.246887 0.082336
0.460114 0.255432 0.075378
0.496246 0.263214 0.067169
0.531250 0.270752 0.058167
0.564819 0.277466 0.049011
0.596771 0.283722 0.039001
0.627350 0.289368 0.030792
0.656525 0.294922 0.022583
0.684204 0.300232 0.014374
0.710754 0.305450 0.007080
0.736450 0.310730 0.000732
0.761383 0.316254 0.000763
0.785736 0.321808 0.000793
0.808411 0.328522 0.000824
0.832275 0.333466 0.000854
0.852661 0.341064 0.000854
0.872009 0.349548 0.000885
0.893951 0.354523 0.000916
0.000000 0.185547 0.114471
0.000000 0.191437 0.111237
0.000000 0.198700 0.097260
0.054230 0.199463 0.097351
0.100952 0.199493 0.097931
0.134949 0.199707 0.098511
0.164185 0.200836 0.094788
0.191132 0.202637 0.088104
0.218079 0.205933 0.078430
0.238708 0.213165 0.071899
0.262604 0.221161 0.086426
0.290344 0.230438 0.094391
0.321106 0.241028 0.099213
0.354370 0.252258 0.103363
0.389252 0.263702 0.106873
0.424988 0.274994 0.109314
0.461914 0.285583 0.106384
0.499268 0.295166 0.098785
0.535278 0.303772 0.091187
0.569641 0.311401 0.081787
0.602386 0.318146 0.073456
0.633362 0.324066 0.064331
0.662598 0.329376 0.053375
0.690399 0.334442 0.041809
0.717072 0.339447 0.030853
0.742798 0.344513 0.020813
0.767700 0.349884 0.012604
0.791901 0.356293 0.003510
0.815338 0.363342 0.000793
0.837982 0.370422 0.000824
0.859619 0.376892 0.000824
0.880005 0.382935 0.000854
0.897736 0.390015 0.000885
0.000000 0.212738 0.126740
0.000000 0.219299 0.121216
0.000000 0.226288 0.113586
0.049438 0.228516 0.111816
0.104126 0.228760 0.113281
0.141663 0.228973 0.114258
0.172546 0.229584 0.113373
0.199768 0.230957 0.107697
0.228241 0.233093 0.100189
0.254120 0.237640 0.091583
0.276123 0.245422 0.088776
0.301300 0.254364 0.101288
0.329926 0.264862 0.109253
0.361420 0.276611 0.114899
0.394989 0.289001 0.119873
0.430145 0.301941 0.123810
0.466248 0.314697 0.126770
0.502228 0.326538 0.128021
0.537872 0.337219 0.125519
0.573151 0.346161 0.117706
0.606445 0.354828 0.109344
0.637756 0.363159 0.099854
0.667542 0.370544 0.088928
0.695801 0.376770 0.078033
0.722809 0.381958 0.067261
0.748596 0.386108 0.055054
0.773590 0.390167 0.042755
0.797760 0.394318 0.030884
0.821106 0.398438 0.019958
0.843414 0.402679 0.009949
0.864899 0.406860 0.000854
0.885406 0.410980 0.000885
0.905151 0.415131 0.000916
0.000000 0.241882 0.139099
0.000000 0.248779 0.132080
0.000000 0.256195 0.122955
0.045593 0.259735 0.126862
0.110260 0.259796 0.128601
0.152039 0.259827 0.129852
0.184753 0.259857 0.130310
0.213165 0.260742 0.126617
0.240997 0.262451 0.120667
0.269409 0.265533 0.113007
0.293335 0.271545 0.105835
0.315918 0.279846 0.106842
0.341766 0.289764 0.117645
0.370850 0.301331 0.125488
0.402588 0.314392 0.131683
0.436493 0.328339 0.137604
0.471741 0.342560 0.142151
0.507263 0.357758 0.145477
0.542419 0.374084 0.147614
0.576172 0.385468 0.147644
0.608673 0.393585 0.145844
0.640778 0.400055 0.136841
0.671204 0.405518 0.127655
0.700104 0.410309 0.117310
0.727570 0.414551 0.106506
0.753754 0.418518 0.094604
0.778961 0.422302 0.082520
0.803162 0.425995 0.070190
0.826447 0.429565 0.056793
0.848724 0.433197 0.042877
0.869904 0.436859 0.029205
0.890167 0.440399 0.017365
0.909637 0.443970 0.005524
0.000000 0.272919 0.150818
0.000000 0.280518 0.141785
0.009308 0.287201 0.136871
0.066559 0.291412 0.141113
0.116119 0.293915 0.144867
0.161987 0.294250 0.147095
0.196503 0.294617 0.148590
0.227509 0.294800 0.147186
0.256134 0.295563 0.142059
0.284210 0.297241 0.135986
0.312622 0.300568 0.127960
0.334381 0.307404 0.121613
0.357147 0.316376 0.124207
0.383362 0.327209 0.134857
0.412720 0.340118 0.142517
0.444519 0.355530 0.149414
0.477966 0.374725 0.155640
0.512451 0.389435 0.161316
0.546692 0.401367 0.165527
0.580292 0.412018 0.167755
0.612793 0.421539 0.168091
0.644104 0.429596 0.167145
0.673889 0.436493 0.164642
0.703033 0.442139 0.157440
0.731049 0.446838 0.147034
0.757782 0.450958 0.135803
0.783417 0.454742 0.123993
0.807861 0.458130 0.111908
0.831299 0.461395 0.099030
0.853516 0.464569 0.085663
0.874634 0.467651 0.072388
0.894867 0.470764 0.058533
0.914368 0.474060 0.043030
0.000000 0.306488 0.162598
0.000000 0.314880 0.151520
0.038788 0.320648 0.151581
0.092133 0.325317 0.156464
0.128815 0.329620 0.161804
0.175751 0.330505 0.164734
0.213776 0.330414 0.166687
0.246490 0.330444 0.167358
0.275482 0.330750 0.163544
0.303009 0.331573 0.157990
0.329865 0.333618 0.151855
0.356262 0.337830 0.144714
0.376801 0.345551 0.139130
0.399689 0.356384 0.142120
0.425629 0.371521 0.152191
0.454559 0.386047 0.160309
0.485657 0.398834 0.168030
0.518097 0.411682 0.175079
0.551056 0.424286 0.180969
0.584076 0.436096 0.185516
0.616455 0.446838 0.188873
0.647675 0.456329 0.190521
0.677734 0.464600 0.190002
0.706573 0.471649 0.187805
0.734131 0.477722 0.183655
0.760529 0.482788 0.178192
0.786713 0.486908 0.166656
0.811646 0.490479 0.154877
0.835297 0.493713 0.142059
0.857880 0.496704 0.129578
0.879272 0.499634 0.116669
0.899628 0.502380 0.103302
0.918976 0.505035 0.089905
0.000000 0.340668 0.175323
0.000000 0.349854 0.162628
0.065460 0.355957 0.166534
0.116669 0.362732 0.171539
0.153839 0.369141 0.177277
0.188721 0.374054 0.182526
0.230652 0.374664 0.185669
0.266174 0.374756 0.187653
0.296448 0.374847 0.185425
0.323822 0.375031 0.181458
0.349670 0.376129 0.176208
0.375092 0.378754 0.169861
0.399261 0.383362 0.163239
0.419373 0.390198 0.158325
0.441895 0.398682 0.160004
0.467255 0.408875 0.170502
0.495117 0.420135 0.178925
0.524841 0.432404 0.186615
0.556122 0.445038 0.194244
0.587921 0.457489 0.201294
0.619659 0.469360 0.207062
0.650726 0.480286 0.211212
0.680847 0.490021 0.213379
0.709839 0.498566 0.213623
0.737671 0.505951 0.211731
0.764435 0.512299 0.207886
0.790161 0.517578 0.202454
0.815063 0.522278 0.195770
0.838989 0.526276 0.187134
0.861969 0.529388 0.174774
0.883575 0.532227 0.162018
0.903931 0.534729 0.149139
0.923309 0.537109 0.135742
0.000000 0.382721 0.184570
0.009155 0.390747 0.177124
0.091614 0.395905 0.181000
0.141663 0.400879 0.186127
0.179718 0.405579 0.192474
0.210663 0.409912 0.198822
0.250458 0.411316 0.203461
0.287811 0.411407 0.206696
0.319397 0.411285 0.206970
0.346680 0.411194 0.204498
0.371490 0.411194 0.200439
0.395233 0.411926 0.195251
0.419128 0.413788 0.189362
0.441559 0.417603 0.183228
0.460876 0.423798 0.178925
0.482544 0.431915 0.177765
0.506744 0.441376 0.188568
0.533691 0.452423 0.197144
0.562500 0.464417 0.205811
0.592590 0.476929 0.214294
0.623047 0.489319 0.222137
0.653503 0.501343 0.228821
0.683380 0.512451 0.233765
0.712433 0.522644 0.236908
0.740540 0.531616 0.237762
0.767670 0.539581 0.236542
0.794189 0.546631 0.233398
0.819550 0.552490 0.228485
0.843536 0.557404 0.222107
0.866211 0.561493 0.214752
0.887421 0.564880 0.206329
0.907593 0.567688 0.196198
0.927124 0.570007 0.183411
0.000000 0.414093 0.195740
0.042084 0.421082 0.191284
0.116241 0.426605 0.195343
0.166565 0.432190 0.200348
0.205505 0.437225 0.206940
0.238922 0.441864 0.214203
0.271088 0.444946 0.220947
0.311035 0.445038 0.225220
0.343597 0.444763 0.227661
0.371002 0.444305 0.226990
0.395050 0.443787 0.224335
0.417297 0.443542 0.220276
0.438812 0.444122 0.214966
0.460724 0.445953 0.208984
0.481720 0.449677 0.203033
0.500427 0.455627 0.198700
0.521515 0.463440 0.194000
0.544830 0.472565 0.207062
0.570770 0.483307 0.216400
0.598480 0.495117 0.225739
0.627289 0.507446 0.234802
0.656586 0.519897 0.243042
0.685852 0.532104 0.250336
0.714722 0.543640 0.256073
0.743011 0.554535 0.260162
0.770721 0.564514 0.261993
0.797577 0.573303 0.261841
0.823273 0.580841 0.259491
0.847687 0.587189 0.255432
0.870575 0.592468 0.249908
0.892029 0.596741 0.243042
0.912018 0.600189 0.235260
0.930908 0.603210 0.226929
0.000000 0.444122 0.204987
0.068878 0.450134 0.205353
0.138428 0.456116 0.209076
0.188660 0.461945 0.214417
0.230621 0.467377 0.220703
0.266266 0.472137 0.228088
0.296600 0.476074 0.236023
0.332611 0.477417 0.242188
0.365906 0.477386 0.247192
0.393311 0.476990 0.248566
0.416962 0.476288 0.247955
0.438141 0.475677 0.245605
0.458618 0.475128 0.240967
0.478973 0.475494 0.235413
0.500061 0.477081 0.229218
0.520325 0.480591 0.223480
0.538422 0.486206 0.219635
0.558990 0.493652 0.216187
0.581390 0.502594 0.226166
0.606232 0.513000 0.235840
0.632782 0.524567 0.245422
0.660370 0.536865 0.254730
0.688629 0.549500 0.263763
0.717072 0.562225 0.271729
0.745422 0.574738 0.278503
0.773315 0.586426 0.283478
0.800415 0.597198 0.286377
0.826447 0.606689 0.287201
0.851166 0.614960 0.285950
0.874298 0.621765 0.282745
0.895721 0.627319 0.278137
0.915741 0.631958 0.272583
0.934784 0.636108 0.266327
0.000000 0.471954 0.216583
0.092773 0.477936 0.218536
0.161072 0.484283 0.221802
0.212433 0.490540 0.226776
0.256744 0.496277 0.233276
0.294128 0.501251 0.240997
0.325623 0.505463 0.249756
0.355499 0.508087 0.258118
0.390015 0.507965 0.264496
0.417725 0.507477 0.268219
0.441223 0.506561 0.269440
0.461700 0.505585 0.268555
0.480743 0.504730 0.265747
0.499359 0.504364 0.261047
0.518127 0.504974 0.255463
0.537903 0.506897 0.249542
0.557434 0.510376 0.244415
0.574951 0.515686 0.240601
0.594696 0.522766 0.237946
0.616272 0.531433 0.245056
0.640076 0.541656 0.254913
0.665619 0.553131 0.264679
0.692322 0.565643 0.274475
0.720032 0.578949 0.284271
0.747894 0.592438 0.292969
0.775635 0.605591 0.300415
0.802887 0.618134 0.306152
0.829224 0.629730 0.310150
0.853912 0.639862 0.311859
0.877106 0.648682 0.311890
0.898804 0.656311 0.310638
0.919006 0.662842 0.308105
0.938232 0.668793 0.304810
0.002014 0.497955 0.229248
0.114288 0.504364 0.230835
0.180725 0.511169 0.233887
0.234497 0.517822 0.238739
0.281006 0.523987 0.245239
0.320648 0.529358 0.253418
0.354004 0.533813 0.262909
0.381592 0.537231 0.272949
0.412323 0.538147 0.281525
0.439514 0.537903 0.287964
0.462646 0.537140 0.291260
0.482910 0.536041 0.292206
0.501343 0.534943 0.290802
0.518951 0.534119 0.287323
0.536407 0.533844 0.282318
0.554626 0.534332 0.276489
0.573700 0.536041 0.270477
0.593079 0.539307 0.265198
0.609894 0.544281 0.261597
0.628906 0.551056 0.259216
0.649780 0.559631 0.263245
0.672638 0.569672 0.273804
0.697693 0.581543 0.283936
0.723969 0.594604 0.294220
0.750885 0.608459 0.304108
0.778168 0.622528 0.313538
0.805298 0.636597 0.321716
0.831390 0.649750 0.328033
0.856262 0.661987 0.333008
0.879700 0.673126 0.336517
0.901520 0.683044 0.338745
0.921967 0.692017 0.339844
0.941345 0.700378 0.340210
0.031952 0.522827 0.241669
0.134308 0.529877 0.242950
0.200012 0.537018 0.245819
0.257050 0.544373 0.250549
0.306641 0.551086 0.257019
0.348419 0.556824 0.265778
0.382904 0.561554 0.275879
0.410858 0.565002 0.286896
0.436340 0.566956 0.297455
0.463654 0.566681 0.305878
0.486206 0.566132 0.311035
0.505615 0.565308 0.313965
0.523071 0.564301 0.314270
0.539551 0.563446 0.312286
0.555603 0.562805 0.308594
0.571960 0.562683 0.303375
0.589386 0.563141 0.297424
0.607910 0.564636 0.291412
0.627350 0.567596 0.285889
0.643494 0.572327 0.282318
0.661926 0.578979 0.280365
0.682648 0.587677 0.280182
0.704926 0.598083 0.292358
0.729218 0.610138 0.302795
0.754852 0.623627 0.313110
0.781281 0.638062 0.323456
0.807709 0.652740 0.333008
0.833527 0.667328 0.341583
0.858459 0.681458 0.347504
0.882019 0.694794 0.351715
0.904053 0.707153 0.355774
0.924713 0.718689 0.360260
0.944244 0.729614 0.364777
0.055115 0.546631 0.253296
0.151764 0.554535 0.254700
0.219299 0.562561 0.257568
0.279266 0.570404 0.262207
0.331390 0.577576 0.268829
0.375214 0.583679 0.277740
0.411072 0.588531 0.288330
0.439667 0.592163 0.300018
0.462219 0.594666 0.311920
0.486938 0.595001 0.321899
0.509644 0.594452 0.329376
0.529053 0.593597 0.333832
0.546417 0.592651 0.335693
0.562378 0.591766 0.335327
0.577576 0.591034 0.332794
0.592773 0.590485 0.328583
0.608246 0.590424 0.323334
0.624390 0.591064 0.317383
0.641724 0.592804 0.311707
0.660492 0.595947 0.306732
0.676605 0.600586 0.303223
0.694580 0.607178 0.301453
0.714752 0.615845 0.301178
0.736542 0.626434 0.310150
0.760193 0.638885 0.320770
0.785278 0.652863 0.331360
0.810638 0.667603 0.341583
0.835968 0.683044 0.349030
0.860687 0.698578 0.355743
0.884277 0.713806 0.365021
0.906342 0.728363 0.374512
0.927155 0.742249 0.383667
0.946777 0.755707 0.392303
0.078247 0.570160 0.264984
0.169586 0.578796 0.266479
0.238464 0.587433 0.269165
0.300110 0.595856 0.273529
0.354370 0.603455 0.280426
0.399811 0.609894 0.289459
0.436981 0.615082 0.300476
0.466492 0.618988 0.312897
0.489746 0.621674 0.325623
0.509186 0.623291 0.337463
0.531128 0.623322 0.346558
0.549957 0.623047 0.350983
0.566925 0.622650 0.353394
0.582520 0.622070 0.354218
0.597687 0.621246 0.353455
0.612366 0.620453 0.351410
0.626923 0.619873 0.348358
0.641815 0.619629 0.344025
0.657593 0.620026 0.338013
0.674255 0.621460 0.332123
0.692444 0.624359 0.327118
0.709015 0.628906 0.323578
0.726501 0.635437 0.321838
0.746124 0.644196 0.322113
0.767761 0.655182 0.326721
0.790527 0.667786 0.337738
0.814514 0.682129 0.346893
0.839081 0.697662 0.354095
0.863220 0.713959 0.364685
0.886536 0.730469 0.377014
0.908569 0.746704 0.389343
0.929291 0.762604 0.401855
0.949036 0.778351 0.414124
0.097717 0.593079 0.276337
0.185669 0.602509 0.277740
0.257050 0.611908 0.280426
0.320953 0.620880 0.285034
0.378021 0.629211 0.291992
0.425659 0.636139 0.301392
0.463745 0.641693 0.312775
0.493530 0.645752 0.325500
0.516937 0.648590 0.338684
0.535614 0.650513 0.349609
0.553680 0.651428 0.356842
0.572998 0.651276 0.364624
0.590057 0.651062 0.370117
0.605682 0.650665 0.373352
0.620270 0.650208 0.373901
0.634216 0.649689 0.372253
0.647797 0.649139 0.368439
0.661316 0.648743 0.363342
0.675293 0.648529 0.357849
0.690063 0.648956 0.353424
0.706116 0.650238 0.349609
0.723694 0.652954 0.345947
0.740906 0.657440 0.343048
0.757812 0.663940 0.341492
0.776855 0.672699 0.341827
0.797852 0.683807 0.343658
0.820068 0.697052 0.350342
0.843170 0.712128 0.359009
0.866364 0.728363 0.371887
0.889099 0.745392 0.385681
0.910767 0.762726 0.400146
0.931396 0.780121 0.415009
0.950928 0.797577 0.430054
0.114014 0.615387 0.286865
0.200562 0.625458 0.288361
0.275055 0.635773 0.291382
0.341492 0.645508 0.296173
0.400452 0.654388 0.303497
0.449585 0.661835 0.312927
0.488800 0.667694 0.324463
0.519318 0.672089 0.337463
0.543060 0.675262 0.349304
0.562134 0.677582 0.358307
0.578156 0.679138 0.370697
0.595245 0.679688 0.381622
0.612793 0.679626 0.389618
0.628601 0.679474 0.394379
0.643127 0.679260 0.396698
0.656860 0.678864 0.396393
0.670044 0.678284 0.393982
0.682892 0.677734 0.389496
0.695679 0.677155 0.383789
0.708862 0.676819 0.377136
0.722809 0.677094 0.370239
0.737885 0.678314 0.363800
0.754395 0.681183 0.358765
0.771912 0.685883 0.355896
0.788300 0.692444 0.354797
0.806915 0.701538 0.355408
0.827240 0.713196 0.358093
0.848755 0.727051 0.363770
0.870514 0.742676 0.376801
0.892212 0.759552 0.391785
0.913239 0.777191 0.407532
0.933441 0.795288 0.424011
0.952728 0.813690 0.440887
0.130981 0.637604 0.297485
0.217773 0.648712 0.299500
0.293701 0.659698 0.302643
0.361847 0.669983 0.307587
0.421814 0.679230 0.314636
0.472198 0.687103 0.324219
0.512177 0.693268 0.335876
0.543427 0.698029 0.347748
0.567657 0.701508 0.356873
0.587250 0.704102 0.370483
0.603729 0.706055 0.384552
0.618378 0.707611 0.397247
0.634308 0.708313 0.407623
0.649933 0.708649 0.414734
0.664429 0.708862 0.418762
0.677765 0.708832 0.420349
0.690491 0.708618 0.419556
0.702637 0.708191 0.416565
0.714935 0.707367 0.411407
0.727448 0.706573 0.405182
0.740143 0.705994 0.397888
0.753632 0.705963 0.390594
0.768250 0.707092 0.383942
0.784302 0.709808 0.378601
0.802124 0.714722 0.375092
0.818298 0.721588 0.373993
0.836121 0.731110 0.375763
0.855408 0.743134 0.380646
0.875641 0.757446 0.388458
0.896149 0.773529 0.398987
0.916351 0.790924 0.411621
0.935760 0.808960 0.428467
0.954376 0.827393 0.446869
0.147858 0.659882 0.308136
0.233704 0.671600 0.310333
0.311188 0.683197 0.313690
0.381134 0.694092 0.318787
0.442810 0.703796 0.326080
0.494873 0.712158 0.335754
0.536011 0.718750 0.346497
0.567688 0.723785 0.355072
0.592255 0.727600 0.368042
0.612061 0.730621 0.383392
0.629059 0.732941 0.398407
0.644043 0.734894 0.412231
0.657684 0.736511 0.424438
0.673126 0.737366 0.434021
0.687988 0.737793 0.440063
0.701660 0.738098 0.443329
0.714447 0.738068 0.444092
0.726501 0.737732 0.442383
0.738007 0.737213 0.438568
0.749298 0.736450 0.433075
0.760590 0.735596 0.426270
0.772308 0.735016 0.418823
0.784882 0.735016 0.411377
0.798584 0.736145 0.404602
0.813751 0.738953 0.399323
0.830536 0.744019 0.396179
0.847260 0.751404 0.395782
0.863983 0.761169 0.398651
0.881958 0.773590 0.404816
0.900604 0.788208 0.414246
0.919373 0.804443 0.426361
0.937897 0.821655 0.440643
0.955872 0.839539 0.456207
0.160645 0.681763 0.318512
0.247192 0.694122 0.320831
0.326233 0.706299 0.324707
0.399170 0.717682 0.330017
0.462433 0.727814 0.337158
0.515564 0.736511 0.346100
0.557617 0.743530 0.353638
0.590057 0.749023 0.364990
0.615265 0.753265 0.380249
0.635742 0.756683 0.396210
0.653198 0.759460 0.412048
0.668945 0.761932 0.427124
0.683258 0.764130 0.440765
0.696564 0.765991 0.452362
0.711304 0.766968 0.461121
0.725128 0.767700 0.466187
0.737915 0.768036 0.468628
0.749847 0.768036 0.468475
0.761292 0.767731 0.466125
0.772186 0.766968 0.461609
0.782928 0.765961 0.455353
0.793640 0.764954 0.447906
0.804626 0.764099 0.440063
