Postproduction/IWLTBAP - Humble/LUTs by IWLTBAP (CUBE)/IWLTBAP Humble - Standard.cube
# Copyright: (C) Copyright 2017 by IWLTBAP
# Cannot be resold, shared or otherwise redistributed
# Website: https://luts.iwltbap.com
TITLE "IWLTBAP Humble (Rec709, sRGB, DCI-P3)"
LUT_3D_SIZE 5
0.000916 0.001709 0.000061
0.177399 0.049438 0.000275
0.425629 0.093109 0.000519
0.649078 0.136017 0.000610
0.845337 0.191467 0.000824
0.000000 0.185547 0.114471
0.218079 0.205933 0.078430
0.461914 0.285583 0.106384
0.717072 0.339447 0.030853
0.897736 0.390015 0.000885
0.000000 0.444122 0.204987
0.365906 0.477386 0.247192
0.538422 0.486206 0.219635
0.745422 0.574738 0.278503
0.934784 0.636108 0.266327
0.130981 0.637604 0.297485
0.567657 0.701508 0.356873
0.690491 0.708618 0.419556
0.802124 0.714722 0.375092
0.954376 0.827393 0.446869
0.237518 0.809906 0.374512
0.740784 0.899475 0.465759
0.880096 0.932098 0.615356
0.937653 0.937042 0.628296
0.957458 0.910828 0.533478
0.052521 0.033478 0.130035
0.186279 0.022095 0.116913
0.450958 0.036804 0.058807
0.669281 0.083069 0.042603
0.868256 0.136078 0.008087
0.000000 0.196869 0.205719
0.185669 0.194092 0.186493
0.472870 0.243774 0.159698
0.728088 0.293701 0.131378
0.915070 0.342346 0.097534
0.000000 0.433167 0.320892
0.181854 0.457916 0.310181
0.514069 0.484100 0.320221
0.731506 0.545013 0.344360
0.936371 0.578064 0.280304
0.000000 0.604248 0.392944
0.305908 0.655457 0.391754
0.648773 0.707214 0.478394
0.789673 0.723083 0.476562
0.954987 0.826782 0.543518
0.000000 0.746918 0.454803
0.409119 0.833221 0.484863
0.835541 0.925293 0.625763
0.939972 0.946136 0.714661
0.965027 0.930420 0.646606
0.115479 0.094299 0.301208
0.152283 0.052124 0.291595
0.448212 0.021973 0.256927
0.661865 0.000000 0.175598
0.862762 0.066223 0.169739
0.000000 0.255920 0.358856
0.148712 0.225830 0.347382
0.431244 0.214355 0.327179
0.729034 0.249207 0.259033
0.924683 0.295135 0.241364
0.000000 0.435120 0.428741
0.097687 0.442078 0.423065
0.414764 0.455627 0.418213
0.734344 0.496429 0.379395
0.942902 0.521118 0.335266
0.056763 0.603607 0.504669
0.181488 0.627899 0.489441
0.462006 0.678406 0.515442
0.779083 0.728455 0.568176
0.951233 0.794067 0.602051
0.093842 0.743103 0.565948
0.220490 0.783051 0.567932
0.580627 0.870544 0.623596
0.924866 0.947815 0.770721
0.972687 0.946594 0.753448
0.170471 0.148651 0.467224
0.175781 0.106232 0.448944
0.328186 0.063293 0.450897
0.664001 0.000000 0.351379
0.840210 0.000000 0.277527
0.097717 0.318909 0.528137
0.184418 0.282440 0.512268
0.315674 0.237549 0.501068
0.681305 0.219574 0.441895
0.908325 0.237305 0.355591
0.010559 0.457001 0.559479
0.121094 0.458923 0.565704
0.259460 0.441162 0.572266
0.680969 0.462982 0.554993
0.949860 0.490814 0.445770
0.059418 0.583801 0.608948
0.143799 0.600128 0.617432
0.281158 0.623688 0.628571
0.655914 0.682739 0.658844
0.953217 0.726532 0.625763
0.034821 0.736389 0.696960
0.251068 0.771912 0.680389
0.406982 0.824646 0.692871
0.770111 0.914703 0.775146
0.978516 0.960236 0.849274
0.207642 0.188263 0.631104
0.208221 0.146210 0.617706
0.230988 0.097809 0.608795
0.625549 0.071838 0.612885
0.825226 0.000000 0.390381
0.163391 0.367432 0.680206
0.227264 0.320160 0.669708
0.277740 0.268097 0.657837
0.532104 0.251007 0.684998
0.861298 0.157013 0.497681
0.078400 0.488251 0.703217
0.155365 0.486572 0.713470
0.258484 0.458893 0.719543
0.485718 0.432678 0.737213
0.923035 0.415405 0.622223
0.100372 0.588531 0.718292
0.157043 0.594452 0.730560
0.275452 0.609039 0.756500
0.420715 0.594269 0.788849
0.965363 0.686890 0.759705
0.121277 0.691498 0.742828
0.169861 0.710297 0.758362
0.244537 0.737427 0.780792
0.357758 0.775513 0.812622
0.945221 0.960266 0.924866
