Postproduction/IWLTBAP - Humble/LUTs by IWLTBAP (CUBE)/IWLTBAP Humble - Standard.cube
# Copyright: (C) Copyright 2017 by IWLTBAP
# Cannot be resold, shared or otherwise redistributed
# Website: https://luts.iwltbap.com
TITLE "IWLTBAP Humble (Rec709, sRGB, DCI-P3)"
LUT_3D_SIZE 9
0.000916 0.001709 0.000061
0.081329 0.019684 0.000153
0.177399 0.049438 0.000275
0.300995 0.070496 0.000427
0.425629 0.093109 0.000519
0.541138 0.115631 0.000580
0.649078 0.136017 0.000610
0.751495 0.163147 0.000702
0.845337 0.191467 0.000824
0.000000 0.091614 0.032013
0.104279 0.095764 0.016663
0.182007 0.120392 0.052155
0.311829 0.145447 0.025116
0.450867 0.170593 0.003296
0.576141 0.193939 0.000610
0.683228 0.224182 0.000671
0.782257 0.252350 0.000763
0.872833 0.278748 0.000885
0.000000 0.185547 0.114471
0.100952 0.199493 0.097931
0.218079 0.205933 0.078430
0.321106 0.241028 0.099213
0.461914 0.285583 0.106384
0.602386 0.318146 0.073456
0.717072 0.339447 0.030853
0.815338 0.363342 0.000793
0.897736 0.390015 0.000885
0.000000 0.306488 0.162598
0.128815 0.329620 0.161804
0.275482 0.330750 0.163544
0.376801 0.345551 0.139130
0.485657 0.398834 0.168030
0.616455 0.446838 0.188873
0.734131 0.477722 0.183655
0.835297 0.493713 0.142059
0.918976 0.505035 0.089905
0.000000 0.444122 0.204987
0.230621 0.467377 0.220703
0.365906 0.477386 0.247192
0.458618 0.475128 0.240967
0.538422 0.486206 0.219635
0.632782 0.524567 0.245422
0.745422 0.574738 0.278503
0.851166 0.614960 0.285950
0.934784 0.636108 0.266327
0.055115 0.546631 0.253296
0.331390 0.577576 0.268829
0.462219 0.594666 0.311920
0.546417 0.592651 0.335693
0.608246 0.590424 0.323334
0.676605 0.600586 0.303223
0.760193 0.638885 0.320770
0.860687 0.698578 0.355743
0.946777 0.755707 0.392303
0.130981 0.637604 0.297485
0.421814 0.679230 0.314636
0.567657 0.701508 0.356873
0.634308 0.708313 0.407623
0.690491 0.708618 0.419556
0.740143 0.705994 0.397888
0.802124 0.714722 0.375092
0.875641 0.757446 0.388458
0.954376 0.827393 0.446869
0.186890 0.725220 0.339233
0.500427 0.775116 0.354767
0.659424 0.803894 0.406128
0.732544 0.818787 0.474030
0.786041 0.827606 0.517731
0.828644 0.828094 0.516205
0.863068 0.823517 0.487061
0.904724 0.832367 0.466980
0.959045 0.871582 0.489777
0.237518 0.809906 0.374512
0.570404 0.866882 0.403595
0.740784 0.899475 0.465759
0.823730 0.918762 0.548462
0.880096 0.932098 0.615356
0.915436 0.937653 0.641602
0.937653 0.937042 0.628296
0.949188 0.927124 0.586365
0.957458 0.910828 0.533478
0.032379 0.012268 0.045746
0.094727 0.012299 0.049408
0.204712 0.014008 0.000305
0.322083 0.039337 0.000427
0.446594 0.062775 0.000488
0.562012 0.083618 0.000549
0.666595 0.107483 0.000610
0.764526 0.143890 0.000702
0.856567 0.173187 0.000824
0.000000 0.097809 0.096100
0.092743 0.094818 0.082581
0.189087 0.110260 0.076416
0.322540 0.133789 0.057220
0.461426 0.158478 0.040741
0.587006 0.180878 0.025238
0.698578 0.205505 0.009796
0.799622 0.230896 0.000793
0.888947 0.256317 0.000916
0.000000 0.186249 0.152527
0.017242 0.199646 0.142181
0.202332 0.201538 0.127838
0.317108 0.231964 0.149719
0.467316 0.265717 0.126770
0.606293 0.294739 0.101929
0.721680 0.317352 0.074188
0.821320 0.341003 0.044678
0.907227 0.369934 0.014587
0.000000 0.300873 0.215393
0.015533 0.319763 0.199463
0.214264 0.329041 0.206207
0.363831 0.342377 0.189636
0.477661 0.390350 0.217255
0.609741 0.429230 0.226105
0.733826 0.452545 0.198242
0.837433 0.467651 0.158600
0.922119 0.481232 0.118988
0.000000 0.431244 0.274933
0.104218 0.451355 0.259247
0.272766 0.470398 0.277496
0.426758 0.474976 0.287445
0.527985 0.486450 0.273407
0.622894 0.520935 0.295532
0.738068 0.561951 0.313354
0.847382 0.591888 0.304535
0.933838 0.606995 0.275482
0.000000 0.527802 0.318634
0.173645 0.553650 0.306763
0.369873 0.579712 0.330353
0.508850 0.591187 0.358246
0.593231 0.591248 0.359680
0.667419 0.602631 0.350891
0.752686 0.639282 0.361053
0.857147 0.691406 0.392548
0.945160 0.736633 0.411530
0.000000 0.610626 0.350708
0.231476 0.645996 0.348114
0.457123 0.682220 0.368713
0.597992 0.703796 0.420441
0.675995 0.708588 0.452576
0.730835 0.708374 0.444427
0.794800 0.718719 0.426239
0.874573 0.761749 0.438110
0.955048 0.830139 0.498383
0.000000 0.687103 0.375885
0.284332 0.733765 0.382782
0.534485 0.780487 0.415375
0.694336 0.811859 0.477814
0.771027 0.827209 0.536987
0.823395 0.830902 0.555634
0.861237 0.828918 0.536926
0.906311 0.839935 0.520966
0.961121 0.881805 0.547302
0.000031 0.760437 0.411774
0.332458 0.817780 0.427826
0.606537 0.873993 0.471161
0.781433 0.910828 0.546082
0.866150 0.930725 0.623871
0.912842 0.940063 0.671844
0.939606 0.942291 0.674011
0.953156 0.934998 0.639679
0.960846 0.920929 0.590240
0.052521 0.033478 0.130035
0.089142 0.023682 0.124664
0.186279 0.022095 0.116913
0.329346 0.014801 0.062561
0.450958 0.036804 0.058807
0.564789 0.059540 0.054016
0.669281 0.083069 0.042603
0.772858 0.110229 0.027130
0.868256 0.136078 0.008087
0.000000 0.117676 0.159912
0.084167 0.103760 0.151550
0.183197 0.102142 0.149200
0.330719 0.114105 0.106262
0.468414 0.140137 0.099213
0.593903 0.162811 0.092255
0.706512 0.186646 0.083008
0.808197 0.211304 0.069458
0.897583 0.235748 0.050171
0.000000 0.196869 0.205719
0.000000 0.201324 0.203705
0.185669 0.194092 0.186493
0.316254 0.215820 0.177704
0.472870 0.243774 0.159698
0.611633 0.270569 0.145874
0.728088 0.293701 0.131378
0.828796 0.317993 0.115601
0.915070 0.342346 0.097534
0.000000 0.307983 0.267151
0.000000 0.315918 0.252594
0.124359 0.326599 0.250397
0.335266 0.333649 0.241974
0.466187 0.376068 0.267609
0.610962 0.406433 0.247894
0.736481 0.426239 0.218933
0.841125 0.442413 0.189545
0.926666 0.458130 0.162659
0.000000 0.433167 0.320892
0.000000 0.444489 0.306061
0.181854 0.457916 0.310181
0.359985 0.471954 0.326935
0.514069 0.484100 0.320221
0.614197 0.513336 0.340912
0.731506 0.545013 0.344360
0.845581 0.566772 0.320190
0.936371 0.578064 0.280304
0.000000 0.525726 0.359619
0.049133 0.540527 0.350464
0.247650 0.560791 0.353668
0.427063 0.584808 0.379517
0.570801 0.591064 0.399567
0.659576 0.603638 0.393677
0.746033 0.636841 0.407471
0.853119 0.679718 0.425262
0.943146 0.712067 0.425232
0.000000 0.604248 0.392944
0.094330 0.624420 0.383301
0.305908 0.655457 0.391754
0.516693 0.689819 0.431061
0.648773 0.707214 0.478394
0.721893 0.710999 0.488037
0.789673 0.723083 0.476562
0.873566 0.764801 0.484253
0.954987 0.826782 0.543518
0.000000 0.676758 0.424469
0.132690 0.703430 0.421844
0.359772 0.746338 0.435547
0.599426 0.792969 0.481384
0.743225 0.823029 0.547974
0.815552 0.833160 0.589386
0.859558 0.834351 0.584930
0.907593 0.847839 0.575043
0.964050 0.890686 0.603638
0.000000 0.746918 0.454803
0.167175 0.779449 0.461121
0.409119 0.833221 0.484863
0.675262 0.889343 0.542969
0.835541 0.925293 0.625763
0.905823 0.941010 0.692383
0.939972 0.946136 0.714661
0.956390 0.942078 0.690857
0.965027 0.930420 0.646606
0.082428 0.064453 0.214020
0.096863 0.044006 0.208710
0.168396 0.031006 0.203583
0.314301 0.026154 0.189240
0.457306 0.008148 0.130310
0.566040 0.016296 0.117554
0.666718 0.042389 0.116699
0.769470 0.077911 0.110779
0.867584 0.107025 0.096283
0.051208 0.144348 0.249969
0.105499 0.124878 0.234619
0.168579 0.112091 0.226227
0.303650 0.112915 0.219330
0.469757 0.115143 0.168945
0.594666 0.137848 0.155640
0.706757 0.163025 0.154358
0.810303 0.187836 0.147064
0.901978 0.211121 0.133575
0.000000 0.221710 0.276520
0.000000 0.218079 0.278046
0.141022 0.204956 0.265869
0.294189 0.202179 0.258301
0.475555 0.219086 0.207275
0.614288 0.247925 0.201782
0.731781 0.272247 0.195374
0.834534 0.294861 0.184265
0.921906 0.317139 0.170532
0.000000 0.316650 0.326447
0.000000 0.319641 0.323669
0.088898 0.320312 0.317627
0.294159 0.318512 0.305664
0.456787 0.346436 0.295746
0.614319 0.380859 0.275543
0.739594 0.400421 0.255585
0.845276 0.417572 0.235657
0.931824 0.433777 0.216583
0.000000 0.435577 0.379425
0.012238 0.443451 0.362610
0.125427 0.449829 0.353943
0.252899 0.464264 0.358704
0.477661 0.475647 0.359680
0.602386 0.500092 0.379089
0.730682 0.522217 0.359161
0.847961 0.538391 0.332458
0.939362 0.549622 0.300629
0.000000 0.528503 0.407715
0.047302 0.537140 0.397644
0.166321 0.548553 0.392059
0.322815 0.568909 0.405151
0.509521 0.587555 0.433563
0.649078 0.602509 0.436096
0.739899 0.630066 0.452240
0.848724 0.662476 0.455414
0.940918 0.684082 0.440155
0.000000 0.605530 0.444122
0.074585 0.617523 0.436523
0.199646 0.635773 0.433929
0.383911 0.666168 0.450623
0.576874 0.698730 0.494995
0.704437 0.712494 0.526978
0.786499 0.727264 0.524658
0.871582 0.764679 0.533569
0.953827 0.815033 0.577606
0.000000 0.676208 0.477051
0.098083 0.691772 0.473083
0.228394 0.718140 0.475220
0.439667 0.760406 0.496460
0.664490 0.806946 0.552643
0.793823 0.832703 0.612946
0.857117 0.839752 0.629089
0.909119 0.855652 0.627136
0.967194 0.897003 0.654480
0.019318 0.744476 0.508453
0.119965 0.763458 0.508972
0.255066 0.797089 0.518188
0.491791 0.850616 0.550537
0.745514 0.906372 0.621155
0.883484 0.937988 0.701752
0.937469 0.948395 0.748535
0.958527 0.947601 0.738739
0.969177 0.939056 0.700928
0.115479 0.094299 0.301208
0.119598 0.072540 0.293488
0.152283 0.052124 0.291595
0.280548 0.038361 0.284454
0.448212 0.021973 0.256927
0.566132 0.000000 0.190918
0.661865 0.000000 0.175598
0.763458 0.023560 0.174774
0.862762 0.066223 0.169739
0.097900 0.176300 0.333038
0.136169 0.154388 0.321899
0.165833 0.135284 0.314789
0.267517 0.123169 0.308014
0.439423 0.118103 0.288788
0.585846 0.112030 0.237671
0.697876 0.131622 0.216370
0.804291 0.158356 0.213379
0.900055 0.184784 0.205231
0.000000 0.255920 0.358856
0.000610 0.248352 0.359863
0.148712 0.225830 0.347382
0.259918 0.208466 0.335327
0.431244 0.214355 0.327179
0.606964 0.224884 0.279510
0.729034 0.249207 0.259033
0.833588 0.274139 0.253265
0.924683 0.295135 0.241364
0.000000 0.335754 0.382935
0.000000 0.336151 0.385284
0.075623 0.329468 0.380066
0.208649 0.320251 0.372345
0.419617 0.323883 0.366272
0.614624 0.347626 0.321320
0.740173 0.380890 0.309326
0.847229 0.398834 0.295654
0.936646 0.412415 0.278870
0.000000 0.435120 0.428741
0.010651 0.439362 0.427307
0.097687 0.442078 0.423065
0.196838 0.446625 0.421844
0.414764 0.455627 0.418213
0.587982 0.479370 0.409058
0.734344 0.496429 0.379395
0.850372 0.510193 0.354065
0.942902 0.521118 0.335266
0.000000 0.523041 0.477112
0.000000 0.533417 0.477509
0.152252 0.541077 0.457275
0.244415 0.553345 0.448303
0.393311 0.575287 0.466736
0.611084 0.593414 0.479584
0.729797 0.616577 0.496643
0.845490 0.637970 0.481354
0.944244 0.651001 0.443085
0.056763 0.603607 0.504669
0.113953 0.615112 0.495911
0.181488 0.627899 0.489441
0.286102 0.647003 0.490662
0.462006 0.678406 0.515442
0.649292 0.707855 0.556549
0.779083 0.728455 0.568176
0.868164 0.758636 0.579987
0.951233 0.794067 0.602051
0.076813 0.675171 0.534546
0.133148 0.689575 0.531372
0.202911 0.707245 0.528717
0.320618 0.734039 0.534698
0.522858 0.777039 0.565552
0.728271 0.822052 0.625732
0.845856 0.843140 0.667145
0.910675 0.862518 0.674866
0.968903 0.898254 0.694336
0.093842 0.743103 0.565948
0.148712 0.760559 0.565887
0.220490 0.783051 0.567932
0.349670 0.817383 0.581268
0.580627 0.870544 0.623596
0.813385 0.922974 0.700287
0.924866 0.947815 0.770721
0.959412 0.952148 0.783264
0.972687 0.946594 0.753448
0.145264 0.123199 0.378845
0.146301 0.101715 0.369934
0.157593 0.078491 0.364044
0.226562 0.058929 0.366425
0.412354 0.039978 0.352417
0.567627 0.000000 0.308228
0.658569 0.000000 0.247925
0.752441 0.000000 0.230499
0.852325 0.005585 0.225525
0.139160 0.205017 0.408600
0.163116 0.184021 0.399353
0.177582 0.162842 0.390869
0.230652 0.144775 0.387939
0.389008 0.131439 0.375702
0.561340 0.115448 0.346527
0.681793 0.100739 0.300446
0.787750 0.125854 0.273102
0.892517 0.148010 0.264771
0.006073 0.289948 0.447449
0.107788 0.277069 0.439819
0.165344 0.254730 0.425110
0.239380 0.228333 0.414337
0.374634 0.220795 0.407684
0.564575 0.221802 0.384796
0.711395 0.223541 0.347351
0.822693 0.246948 0.315491
0.922821 0.269623 0.304047
0.000000 0.368774 0.464081
0.023285 0.366608 0.465668
0.092804 0.354431 0.462585
0.206451 0.331543 0.455505
0.363281 0.320099 0.443268
0.559540 0.338898 0.435272
0.732117 0.355927 0.379272
0.846893 0.381897 0.351929
0.939209 0.398499 0.343292
0.000000 0.442108 0.488312
0.031891 0.444153 0.490265
0.100220 0.444794 0.489990
0.171051 0.441345 0.488770
0.297363 0.442688 0.491272
0.544800 0.453949 0.490417
0.735016 0.474762 0.423309
0.852722 0.492096 0.401428
0.946350 0.502472 0.380463
0.000336 0.515656 0.523590
0.059479 0.521942 0.525360
0.119904 0.528381 0.525513
0.190857 0.535217 0.525604
0.305298 0.547089 0.532135
0.533844 0.567780 0.536041
0.709564 0.595581 0.533875
0.850800 0.608917 0.494873
0.948517 0.616852 0.459381
0.032623 0.594147 0.568970
0.082062 0.606079 0.569122
0.135590 0.619263 0.574036
0.249908 0.632324 0.554871
0.361053 0.653961 0.553558
0.534393 0.687347 0.583282
0.742157 0.717834 0.609131
0.859497 0.742432 0.622925
0.946411 0.762512 0.623749
0.120178 0.671204 0.606415
0.165710 0.685822 0.592194
0.215485 0.701752 0.588623
0.287842 0.721222 0.587921
0.410889 0.751038 0.599182
0.609497 0.795837 0.638092
0.797668 0.836945 0.692139
0.907623 0.864075 0.713898
0.968842 0.891754 0.721375
0.140686 0.740936 0.620850
0.182312 0.758789 0.622223
0.237030 0.779297 0.624298
0.314545 0.804016 0.629181
0.452057 0.840668 0.648621
0.679260 0.893311 0.699310
0.875702 0.938324 0.776428
0.954834 0.954529 0.819031
0.975708 0.953552 0.802917
0.170471 0.148651 0.467224
0.170471 0.128052 0.458923
0.175781 0.106232 0.448944
0.200775 0.082581 0.446442
0.328186 0.063293 0.450897
0.542511 0.034241 0.405487
0.664001 0.000000 0.351379
0.747955 0.000000 0.299377
0.840210 0.000000 0.277527
0.175842 0.229431 0.493713
0.185455 0.210602 0.487305
0.195099 0.189514 0.478882
0.219971 0.168457 0.472565
0.316406 0.152466 0.474915
0.517456 0.133362 0.445526
0.666565 0.108154 0.389160
0.772491 0.085846 0.349274
0.873383 0.115082 0.318695
0.097717 0.318909 0.528137
0.132690 0.306091 0.522736
0.184418 0.282440 0.512268
0.239655 0.252838 0.500793
0.315674 0.237549 0.501068
0.501099 0.230286 0.486664
0.681305 0.219574 0.441895
0.805084 0.211121 0.393127
0.908325 0.237305 0.355591
0.007416 0.397583 0.545685
0.064209 0.395477 0.548279
0.122040 0.386597 0.548706
0.208679 0.360535 0.539978
0.323181 0.330414 0.530670
0.488525 0.334839 0.527161
0.688141 0.346130 0.499023
0.832916 0.350464 0.440430
0.934296 0.377350 0.397797
0.010559 0.457001 0.559479
0.062653 0.458527 0.562897
0.121094 0.458923 0.565704
0.180084 0.452606 0.567352
0.259460 0.441162 0.572266
0.472687 0.438934 0.564697
0.680969 0.462982 0.554993
0.850922 0.476288 0.479156
0.949860 0.490814 0.445770
0.031036 0.516510 0.577484
0.070679 0.519958 0.580933
0.122009 0.524597 0.585022
0.183136 0.528625 0.588593
0.261658 0.529175 0.593292
0.401367 0.538971 0.604828
0.669403 0.561218 0.617065
0.853516 0.587311 0.537323
0.954132 0.598328 0.509338
0.059418 0.583801 0.608948
0.097534 0.591339 0.613037
0.143799 0.600128 0.617432
0.200043 0.610352 0.621674
0.281158 0.623688 0.628571
0.416260 0.646240 0.645416
0.655914 0.682739 0.658844
0.833618 0.717987 0.667084
0.953217 0.726532 0.625763
0.092194 0.658905 0.652954
0.130188 0.671661 0.656799
0.169983 0.687347 0.660828
0.232147 0.705688 0.672394
0.353302 0.727386 0.654419
0.484894 0.759583 0.664948
0.682373 0.807098 0.708221
0.876343 0.849243 0.747284
0.963745 0.873138 0.762848
0.034821 0.736389 0.696960
0.200928 0.752045 0.690979
0.251068 0.771912 0.680389
0.313538 0.795135 0.683411
0.406982 0.824646 0.692871
0.556580 0.864441 0.717316
0.770111 0.914703 0.775146
0.925568 0.949829 0.839539
0.978516 0.960236 0.849274
0.190094 0.169983 0.551910
0.189331 0.149231 0.544464
0.192810 0.128021 0.535522
0.204010 0.105011 0.527710
0.257568 0.081543 0.534912
0.454407 0.064423 0.532501
0.666229 0.026825 0.456635
0.758057 0.000000 0.384552
0.832428 0.000000 0.334900
0.202240 0.250305 0.575165
0.204254 0.232513 0.570404
0.211426 0.211853 0.563965
0.226257 0.189728 0.555969
0.269775 0.170258 0.557648
0.425323 0.154999 0.560638
0.647705 0.129303 0.504791
0.767242 0.095154 0.434448
0.854218 0.060089 0.378723
0.131439 0.343048 0.605164
0.163757 0.326813 0.600220
0.206360 0.303497 0.592865
0.248230 0.274567 0.583588
0.286560 0.253876 0.582184
0.409729 0.243652 0.588898
0.633667 0.232574 0.555573
0.788666 0.207031 0.487305
0.887848 0.186035 0.429810
0.061005 0.418213 0.623413
0.105774 0.414398 0.627075
0.160187 0.405945 0.628967
0.216248 0.385406 0.620239
0.302460 0.346069 0.610565
0.407166 0.337524 0.617737
0.619415 0.344513 0.603088
0.805420 0.336517 0.548584
0.917877 0.323975 0.481232
0.047729 0.472931 0.631744
0.089417 0.474365 0.636169
0.140869 0.474487 0.641235
0.192261 0.466553 0.644897
0.269592 0.450287 0.648621
0.409668 0.432404 0.645813
0.601044 0.447998 0.644684
0.808624 0.464386 0.612732
0.939575 0.463501 0.532043
0.060974 0.525726 0.641968
0.092560 0.527924 0.646393
0.141937 0.532654 0.653137
0.199432 0.536011 0.660187
0.260712 0.531067 0.666321
0.346100 0.522186 0.677368
0.578705 0.533600 0.681854
0.801788 0.569153 0.677216
0.959381 0.582672 0.578247
0.079346 0.582031 0.658051
0.103638 0.585327 0.662018
0.142181 0.591278 0.668427
0.192841 0.599091 0.676147
0.260468 0.607239 0.685425
0.350464 0.612732 0.697662
0.514099 0.632965 0.719849
0.805878 0.671326 0.733612
0.964752 0.709991 0.664825
0.101166 0.646332 0.686890
0.128723 0.654144 0.692108
0.165802 0.664246 0.699127
0.211853 0.676636 0.707245
0.275787 0.692139 0.717102
0.370911 0.712799 0.732697
0.528534 0.748383 0.765259
0.781433 0.804169 0.790009
0.958557 0.857422 0.813934
0.126678 0.718933 0.728394
0.161682 0.732513 0.735962
0.196930 0.749908 0.742462
0.238800 0.771881 0.752136
0.352814 0.796997 0.768677
0.461914 0.828918 0.753418
0.613068 0.869965 0.780334
0.811523 0.920288 0.838745
0.977783 0.965485 0.891724
0.207642 0.188263 0.631104
0.206238 0.167847 0.624329
0.208221 0.146210 0.617706
0.215759 0.124512 0.612213
0.230988 0.097809 0.608795
0.332397 0.079407 0.632294
0.625549 0.071838 0.612885
0.789825 0.010437 0.486572
0.825226 0.000000 0.390381
0.219940 0.269073 0.653107
0.220459 0.250977 0.649048
0.225006 0.229797 0.644501
0.235291 0.206726 0.638458
0.254211 0.185883 0.633179
0.323639 0.168365 0.648468
0.574371 0.162415 0.651947
0.788147 0.113159 0.541138
0.842102 0.000000 0.443207
0.163391 0.367432 0.680206
0.190216 0.344696 0.675568
0.227264 0.320160 0.669708
0.256104 0.291992 0.663055
0.277740 0.268097 0.657837
0.330750 0.252441 0.667480
0.532104 0.251007 0.684998
0.786438 0.220551 0.600677
0.861298 0.157013 0.497681
0.118164 0.437347 0.703644
0.126373 0.432922 0.703766
0.172302 0.420258 0.700348
0.226959 0.398193 0.694427
0.292877 0.363617 0.685883
0.348053 0.339355 0.690979
0.502777 0.345764 0.713135
0.773132 0.339172 0.659607
0.892029 0.282715 0.554657
0.078400 0.488251 0.703217
0.111755 0.488556 0.707672
0.155365 0.486572 0.713470
0.210022 0.476532 0.720367
0.258484 0.458893 0.719543
0.347443 0.432190 0.717438
0.485718 0.432678 0.737213
0.748108 0.450897 0.713470
0.923035 0.415405 0.622223
0.085266 0.537598 0.710052
0.115326 0.540161 0.715546
0.161926 0.544983 0.723816
0.213013 0.546509 0.732483
0.262268 0.537323 0.739258
0.328613 0.519196 0.751068
0.469696 0.507690 0.761505
0.717133 0.538513 0.762543
0.943756 0.546051 0.693024
0.100372 0.588531 0.718292
0.119415 0.589600 0.722473
0.157043 0.594452 0.730560
0.210571 0.602509 0.742279
0.275452 0.609039 0.756500
0.338562 0.605011 0.769714
0.420715 0.594269 0.788849
0.684937 0.625732 0.809387
0.965363 0.686890 0.759705
0.112427 0.639832 0.728973
0.127808 0.642456 0.732941
0.155853 0.647858 0.740143
0.194458 0.655579 0.750031
0.248077 0.665619 0.763123
0.319214 0.676666 0.780273
0.411469 0.684418 0.802094
0.605621 0.722839 0.841156
0.961884 0.844879 0.871002
0.121277 0.691498 0.742828
0.141327 0.699554 0.749298
0.169861 0.710297 0.758362
0.203766 0.722687 0.768738
0.244537 0.737427 0.780792
0.292816 0.754456 0.794861
0.357758 0.775513 0.812622
0.524689 0.828949 0.854370
0.945221 0.960266 0.924866
