Postproduction/IWLTBAP - Humble/LUTs by IWLTBAP (3DL)/UTILITY/Generic LOG to Rec.709/U-9990-LTR.3dl
# Copyright: (C) Copyright 2010-2018 by IWLTBAP SAS
# Cannot be resold, shared or otherwise redistributed
# Website: https://luts.iwltbap.com
0 128 256 384 512 640 768 896 1023
0 0 0
0 0 260
0 0 903
0 0 1745
0 0 2665
0 0 3587
0 0 4087
0 0 4095
0 0 4095
0 206 0
0 190 190
0 163 786
0 115 1601
0 59 2498
0 15 3420
0 7 4058
0 2 4095
0 2 4095
0 602 0
0 593 28
0 582 582
0 549 1415
0 510 2341
0 468 3299
0 442 4022
0 422 4095
0 402 4095
0 1218 0
0 1220 0
0 1225 374
0 1205 1205
0 1175 2141
0 1142 3118
0 1119 3946
0 1106 4095
0 1092 4095
0 1942 0
0 1949 0
0 1960 184
0 1948 986
0 1924 1924
0 1895 2913
0 1872 3827
0 1865 4095
0 1854 4095
0 2722 0
0 2734 0
0 2748 52
0 2744 767
0 2725 1703
0 2700 2700
0 2675 3676
0 2671 4095
0 2664 4095
0 3536 0
0 3550 0
0 3565 6
0 3569 572
0 3554 1499
0 3532 2498
0 3508 3506
0 3503 4091
0 3499 4095
0 4091 0
0 4092 0
0 4093 12
0 4094 572
0 4093 1467
0 4092 2459
0 4091 3474
0 4090 4091
0 4090 4095
0 4095 0
0 4095 0
0 4095 24
0 4095 594
0 4095 1442
0 4095 2427
0 4095 3449
0 4095 4095
0 4095 4095
262 0 0
256 0 256
238 0 891
200 0 1726
153 0 2640
101 0 3559
71 0 4084
41 0 4095
24 0 4095
163 163 0
142 142 142
115 115 717
70 69 1529
23 23 2431
8 8 3363
3 3 4036
2 2 4095
1 1 4095
29 589 0
29 584 28
28 579 579
14 551 1412
8 514 2339
4 476 3301
3 452 4032
2 435 4095
2 416 4095
1 1236 0
1 1239 1
1 1246 400
1 1228 1228
1 1200 2163
0 1168 3140
0 1146 3971
0 1135 4095
0 1121 4095
0 1973 0
0 1981 0
0 1993 222
0 1983 1023
0 1960 1960
0 1932 2948
0 1910 3864
0 1904 4095
0 1894 4095
0 2764 0
0 2775 0
0 2790 81
0 2787 815
0 2769 1750
0 2745 2745
0 2721 3721
0 2717 4095
0 2712 4095
0 3585 0
0 3598 0
0 3613 18
0 3618 627
0 3604 1552
0 3582 2549
0 3558 3556
0 3554 4095
0 3550 4095
0 4095 0
0 4095 0
0 4095 42
0 4095 631
0 4095 1525
0 4095 2516
0 4095 3530
0 4095 4095
0 4095 4095
0 4095 0
0 4095 0
0 4095 56
0 4095 653
0 4095 1498
0 4095 2482
0 4095 3503
0 4095 4095
0 4095 4095
867 0 0
854 0 202
827 0 827
780 0 1658
724 0 2570
664 0 3495
619 0 4077
569 0 4095
520 0 4095
690 90 0
670 77 78
645 61 646
600 29 1465
546 10 2377
488 4 3318
450 2 4020
418 2 4095
386 1 4095
583 583 0
584 583 32
584 583 584
561 561 1419
530 529 2350
495 494 3317
475 474 4049
462 461 4095
447 446 4095
419 1266 0
427 1271 2
437 1280 438
424 1264 1265
402 1239 2201
377 1208 3180
363 1188 4002
362 1179 4095
358 1167 4095
249 2021 0
261 2029 0
278 2043 278
274 2034 1076
259 2013 2013
240 1986 3001
227 1964 3916
233 1958 4095
236 1949 4095
105 2820 0
118 2832 0
134 2847 132
138 2846 876
128 2827 1809
114 2803 2804
102 2780 3779
109 2777 4095
114 2770 4095
33 3642 0
39 3656 0
47 3672 44
49 3677 690
45 3662 1614
40 3641 2610
33 3618 3615
35 3613 4095
37 3609 4095
57 4095 0
63 4095 0
70 4095 68
73 4095 694
68 4095 1589
59 4095 2578
50 4095 3591
47 4095 4095
45 4095 4095
71 4095 0
77 4095 0
85 4095 85
94 4095 711
85 4095 1557
69 4095 2536
54 4095 3548
42 4095 4095
32 4095 4095
1620 0 0
1601 0 87
1572 0 695
1521 0 1521
1456 0 2427
1387 0 3354
1337 0 4021
1291 0 4095
1249 0 4095
1424 11 0
1409 10 9
1392 8 527
1350 5 1351
1302 2 2269
1252 1 3223
1217 1 3976
1189 1 4095
1160 1 4095
1382 523 0
1384 526 9
1386 530 530
1364 509 1364
1333 480 2297
1298 448 3267
1275 430 4028
1259 420 4095
1240 408 4095
1230 1230 0
1237 1237 1
1248 1248 412
1235 1235 1235
1211 1211 2172
1184 1184 3154
1165 1164 3999
1159 1159 4095
1149 1149 4095
1048 2006 0
1058 2016 0
1074 2032 278
1069 2025 1069
1050 2006 2006
1027 1982 2997
1007 1961 3926
1007 1959 4095
1002 1953 4095
857 2828 0
871 2840 0
889 2857 153
890 2857 890
875 2842 1824
854 2820 2820
834 2798 3802
835 2797 4095
833 2792 4095
681 3669 0
697 3683 0
715 3700 59
722 3706 722
709 3693 1644
689 3673 2641
667 3651 3649
666 3648 4095
666 3644 4095
691 4095 0
706 4095 0
724 4095 98
733 4095 733
720 4095 1624
698 4095 2612
672 4095 3625
662 4095 4095
658 4095 4095
710 4095 0
724 4095 0
736 4095 115
736 4095 736
714 4095 1563
675 4095 2526
627 4095 3523
587 4095 4095
560 4095 4095
2429 0 0
2400 0 6
2366 0 519
2312 0 1340
2253 0 2253
2192 0 3197
2147 0 3934
2107 0 4095
2070 0 4095
2249 1 0
2238 1 1
2230 1 402
2197 1 1230
2155 0 2155
2110 0 3118
2077 0 3910
2053 0 4095
2028 0 4095
2263 444 0
2265 449 2
2271 456 457
2251 439 1287
2221 412 2221
2186 382 3195
2162 364 3997
2146 356 4095
2127 346 4095
2131 1169 0
2139 1178 0
2151 1191 365
2140 1179 1180
2117 1158 2117
2090 1132 3103
2070 1112 3980
2065 1108 4095
2056 1100 4095
1960 1960 0
1971 1971 0
1987 1987 249
1983 1983 1028
1965 1965 1965
1942 1942 2958
1921 1921 3903
1920 1920 4095
1915 1915 4095
1772 2792 0
1786 2805 0
1804 2822 136
1806 2825 860
1791 2810 1791
1770 2789 2788
1749 2767 3779
1748 2766 4095
1745 2763 4095
1591 3643 0
1606 3656 0
1624 3673 51
1630 3681 697
1617 3668 1617
1596 3649 2614
1573 3627 3626
1568 3624 4095
1565 3621 4095
1571 4095 0
1586 4095 0
1604 4095 80
1610 4095 710
1596 4095 1596
1570 4095 2584
1540 4095 3598
1523 4095 4095
1512 4095 4095
1532 4095 0
1531 4095 0
1526 4095 67
1509 4095 664
1473 4095 1473
1422 4095 2429
1370 4095 3428
1331 4095 4095
1309 4095 4095
3240 0 0
3216 0 0
3194 0 344
3150 0 1170
3098 0 2089
3044 0 3044
3002 0 3826
2968 0 4095
2937 0 4095
3123 0 0
3117 0 0
3115 0 285
3088 0 1112
3051 0 2041
3010 0 3010
2980 0 3841
2960 0 4095
2938 0 4095
3180 361 0
3184 367 1
3191 377 378
3173 362 1201
3144 337 2134
3111 308 3111
3085 289 3959
3072 284 4095
3054 276 4095
3074 1100 0
3082 1109 0
3096 1124 312
3086 1115 1115
3066 1095 2053
3040 1069 3040
3020 1049 3947
3016 1046 4095
3008 1039 4095
2918 1901 0
2930 1913 0
2946 1930 211
2944 1928 975
2927 1911 1911
2905 1888 2905
2885 1867 3868
2884 1866 4095
2880 1862 4095
2741 2741 0
2754 2755 0
2772 2772 108
2775 2776 813
2761 2761 1743
2741 2741 2740
2719 2720 3740
2717 2718 4095
2715 2715 4095
2561 3596 0
2575 3610 0
2593 3628 37
2600 3635 654
2587 3623 1569
2566 3605 2566
2543 3582 3581
2537 3578 4095
2534 3576 4095
2527 4095 0
2541 4095 0
2558 4095 53
2564 4095 660
2548 4095 1535
2520 4095 2520
2485 4095 3532
2459 4095 4095
2437 4095 4095
2420 4095 0
2407 4095 0
2396 4095 13
2380 4095 538
2353 4095 1346
2313 4095 2313
2269 4095 3323
2232 4095 4090
2210 4095 4095
3907 0 0
3895 0 0
3886 0 233
3858 0 1052
3822 0 1974
3785 0 2935
3759 0 3759
3744 0 4095
3730 0 4095
3877 0 0
3878 0 0
3883 0 219
3869 0 1034
3845 0 1962
3819 0 2935
3799 0 3799
3792 0 4095
3783 0 4095
3973 314 0
3976 321 0
3984 332 334
3978 318 1142
3964 293 2072
3943 263 3049
3926 241 3927
3923 235 4095
3916 226 4095
3940 1052 0
3950 1062 0
3964 1077 285
3962 1069 1070
3951 1048 2004
3935 1022 2993
3922 999 3922
3926 995 4095
3927 987 4095
3846 1851 0
3858 1864 0
3875 1881 185
3878 1880 930
3867 1862 1863
3850 1839 2857
3834 1817 3834
3837 1815 4095
3837 1809 4095
3708 2689 0
3721 2703 0
3739 2720 82
3745 2726 766
3733 2711 1693
3716 2691 2691
3696 2668 3696
3696 2666 4095
3695 2662 4095
3544 3544 0
3557 3558 0
3575 3575 23
3583 3584 606
3571 3572 1515
3552 3553 2512
3529 3530 3529
3524 3524 4095
3521 3521 4095
3502 4095 0
3514 4095 0
3527 4095 29
3528 4095 590
3506 4095 1446
3468 4095 2420
3422 4095 3422
3384 4095 4095
3353 4095 4095
3323 4095 0
3320 4095 0
3321 4095 2
3312 4095 429
3289 4095 1229
3250 4095 2196
3207 4095 3207
3169 4095 4080
3148 4095 4095
4095 0 0
4095 0 0
4095 0 160
4095 0 968
4095 0 1895
4095 0 2866
4095 0 3731
4095 0 4095
4095 0 4095
4095 0 0
4095 0 0
4095 0 191
4095 0 989
4095 0 1919
4095 0 2896
4095 0 3793
4095 0 4095
4095 0 4095
4095 303 0
4095 311 0
4095 324 325
4095 314 1116
4095 291 2045
4095 263 3025
4095 241 3929
4095 236 4095
4095 230 4095
4095 1051 0
4095 1062 0
4095 1078 310
4095 1073 1074
4095 1053 2006
4095 1028 2995
4095 1004 3945
4095 1001 4095
4095 994 4095
4095 1858 0
4095 1872 0
4095 1889 222
4095 1890 945
4095 1874 1873
4095 1850 2868
4095 1826 3853
4095 1823 4095
4095 1817 4095
4095 2696 0
4095 2710 0
4095 2728 110
4095 2733 782
4095 2719 1702
4095 2697 2697
4095 2674 3706
4095 2668 4095
4095 2663 4095
4095 3542 0
4095 3556 0
4095 3573 30
4095 3581 613
4095 3569 1511
4095 3548 2504
4095 3523 3523
4095 3513 4095
4095 3507 4095
4095 4095 0
4095 4095 0
4095 4095 11
4095 4095 525
4095 4095 1355
4095 4095 2317
4093 4093 3314
4089 4090 4089
4086 4087 4095
4084 4095 0
4083 4095 0
4084 4095 0
4083 4095 345
4081 4095 1130
4078 4095 2094
4059 4095 3105
4034 4095 4034
4023 4095 4095
4095 0 0
4095 0 0
4095 0 110
4095 0 903
4095 0 1832
4095 0 2810
4095 0 3710
4095 0 4095
4095 0 4095
4095 0 0
4095 0 0
4095 0 168
4095 0 945
4095 0 1874
4095 0 2855
4095 0 3782
4095 0 4095
4095 0 4095
4095 289 0
4095 299 0
4095 313 313
4095 306 1083
4095 284 2010
4095 258 2992
4095 235 3923
4095 233 4095
4095 229 4095
4095 1043 0
4095 1055 0
4095 1071 328
4095 1069 1069
4095 1050 1998
4095 1025 2989
4095 1002 3947
4095 998 4095
4095 992 4095
4095 1857 0
4095 1871 0
4095 1888 249
4095 1891 951
4095 1876 1876
4095 1853 2870
4095 1829 3863
4095 1825 4095
4095 1820 4095
4095 2699 0
4095 2713 0
4095 2730 136
4095 2737 796
4095 2724 1708
4095 2702 2702
4095 2678 3713
4095 2671 4095
4095 2666 4095
4095 3546 0
4095 3560 0
4095 3577 39
4095 3585 630
4095 3573 1515
4095 3550 2505
4095 3522 3522
4095 3507 4095
4095 3494 4095
4095 4095 0
4095 4095 0
4095 4095 4
4095 4095 456
4095 4095 1267
4095 4091 2231
4095 4086 3235
4095 4082 4081
4095 4077 4095
4095 4095 0
4095 4095 0
4095 4095 0
4095 4095 314
4095 4095 1081
4095 4095 2043
4095 4095 3056
4095 4095 4009
4095 4095 4095
