Postproduction/IWLTBAP - Humble/LUTs by IWLTBAP (3DL)/UTILITY/Generic LOG to Rec.709/U-9997-LTR.3dl
# Copyright: (C) Copyright 2010-2018 by IWLTBAP SAS
# Cannot be resold, shared or otherwise redistributed
# Website: https://luts.iwltbap.com
0 256 512 768 1023
0 0 0
0 0 560
0 0 1869
0 0 3253
0 0 4095
0 560 0
0 560 560
0 560 1869
0 560 3253
0 560 4095
0 1869 0
0 1869 560
0 1869 1869
0 1869 3253
0 1869 4095
0 3253 0
0 3253 560
0 3253 1869
0 3253 3253
0 3252 4095
0 4095 0
0 4095 560
0 4095 1869
0 4095 3252
0 4095 4095
560 0 0
560 0 560
560 0 1869
560 0 3253
560 0 4095
560 560 0
561 561 561
441 441 1993
336 336 3481
560 560 4095
560 1869 0
441 1993 441
432 1984 1984
325 1861 3489
560 1869 4095
560 3253 0
336 3481 336
325 3489 1861
323 3485 3485
560 3253 4095
560 4095 0
560 4095 560
560 4095 1869
560 4095 3253
560 4095 4095
1869 0 0
1869 0 560
1869 0 1869
1869 0 3253
1869 0 4095
1869 560 0
1963 470 470
1984 432 1984
1861 325 3489
1869 560 4095
1869 1869 0
1984 1984 432
1868 1870 1870
1745 1745 3390
1869 1869 4095
1869 3253 0
1861 3489 325
1745 3390 1745
1736 3381 3381
1869 3253 4095
1869 4095 0
1869 4095 560
1869 4095 1869
1869 4095 3253
1869 4095 4095
3253 0 0
3253 0 560
3253 0 1869
3253 0 3253
3252 0 4095
3253 560 0
3444 373 373
3467 346 1862
3485 323 3485
3253 560 4095
3253 1869 0
3466 1862 347
3357 1775 1775
3381 1736 3381
3253 1869 4095
3253 3253 0
3485 3485 323
3381 3381 1736
3252 3253 3253
3253 3253 4095
3252 4095 0
3253 4095 560
3253 4095 1869
3253 4095 3253
3253 4095 4095
4095 0 0
4095 0 560
4095 0 1869
4095 0 3252
4095 0 4095
4095 560 0
4095 560 560
4095 560 1869
4095 560 3253
4095 560 4095
4095 1869 0
4095 1869 560
4095 1869 1869
4095 1869 3253
4095 1869 4095
4095 3252 0
4095 3253 560
4095 3253 1869
4095 3253 3253
4095 3253 4095
4095 4095 0
4095 4095 560
4095 4095 1869
4095 4095 3253
4095 4095 4095
