Postproduction/IWLTBAP - Humble/LUTs by IWLTBAP (3DL)/UTILITY/Generic LOG to Rec.709/U-9996-LTR.3dl
# Copyright: (C) Copyright 2010-2018 by IWLTBAP SAS
# Cannot be resold, shared or otherwise redistributed
# Website: https://luts.iwltbap.com
0 256 512 768 1023
64 64 64
58 77 663
42 114 2316
28 149 3822
26 155 4090
0 867 202
0 881 801
0 918 2454
0 952 3961
0 958 4095
0 3085 582
0 3099 1181
0 3136 2834
0 3170 4095
0 3176 4095
0 4095 929
0 4095 1528
0 4095 3181
0 4095 4095
0 4095 4095
0 4095 991
0 4095 1590
0 4095 3243
0 4095 4095
0 4095 4095
799 0 0
793 0 525
777 0 2178
763 0 3685
761 0 3953
669 650 64
663 663 663
648 701 2316
633 735 3823
631 741 4084
311 2867 445
306 2881 1044
290 2918 2697
276 2953 4090
273 2959 4095
32 4095 792
31 4095 1391
27 4095 3044
25 4095 4095
24 4095 4095
21 4095 854
20 4095 1453
17 4095 3106
15 4095 4095
14 4095 4095
2827 0 0
2821 0 149
2806 0 1800
2792 0 3306
2789 0 3573
2697 80 0
2692 89 285
2676 115 1938
2662 145 3444
2659 150 3711
2340 2268 68
2334 2281 665
2318 2318 2318
2304 2353 3825
2302 2359 4076
2014 4079 413
2008 4094 1012
1993 4095 2665
1979 4095 4086
1976 4095 4095
1956 4095 475
1951 4095 1074
1935 4095 2727
1921 4095 4094
1918 4095 4095
4095 0 0
4095 0 0
4095 0 1455
4095 0 2961
4095 0 3228
4095 0 0
4095 0 19
4095 0 1593
4095 0 3099
4095 0 3366
4060 1721 0
4088 1734 320
4085 1772 1974
4083 1806 3480
4082 1812 3747
3848 3726 68
3857 3756 667
3842 3793 2320
3827 3827 3825
3824 3833 4089
3789 4088 130
3799 4092 729
3783 4095 2382
3769 4095 3889
3766 4095 4095
4095 0 0
4095 0 0
4095 0 1394
4095 0 2900
4095 0 3167
4095 0 0
4095 0 8
4095 0 1532
4095 0 3038
4095 0 3305
4095 1624 0
4095 1637 259
4095 1675 1912
4095 1709 3419
4095 1715 3686
4095 3628 11
4095 3658 606
4095 3696 2259
4095 3730 3764
4095 3736 4034
4095 4001 69
4095 4018 668
4095 4055 2321
4095 4090 3827
4095 4095 4095
