Postproduction/IWLTBAP - Humble/LUTs by IWLTBAP (3DL)/UTILITY/Generic LOG to Rec.709/U-9992-LTR.3dl
# Copyright: (C) Copyright 2010-2018 by IWLTBAP SAS
# Cannot be resold, shared or otherwise redistributed
# Website: https://luts.iwltbap.com
0 128 256 384 512 640 768 896 1023
0 0 0
0 0 529
0 0 1359
0 0 2276
0 0 3260
0 0 4076
0 0 4095
0 0 4095
0 0 4095
0 356 0
0 338 338
0 309 1178
0 274 2103
0 234 3091
0 191 4035
0 147 4095
0 131 4095
0 122 4095
0 961 0
0 946 48
0 920 919
0 889 1855
0 854 2849
0 816 3867
0 778 4095
0 759 4095
0 750 4095
0 1630 0
0 1617 0
0 1592 608
0 1563 1563
0 1530 2566
0 1494 3615
0 1457 4095
0 1437 4095
0 1428 4095
0 2346 0
0 2336 0
0 2312 239
0 2284 1236
0 2252 2252
0 2218 3310
0 2182 4089
0 2158 4095
0 2149 4095
0 3101 0
0 3091 0
0 3070 0
0 3042 871
0 3012 1910
0 2978 2978
0 2942 3994
0 2916 4095
0 2907 4095
0 3887 0
0 3878 0
0 3859 0
0 3832 461
0 3802 1540
0 3769 2623
0 3734 3734
0 3705 4095
0 3696 4095
0 4095 0
0 4095 0
0 4095 0
0 4095 112
0 4095 1198
0 4095 2295
0 4095 3412
0 4095 4095
0 4095 4095
0 4095 0
0 4095 0
0 4095 0
0 4095 60
0 4095 1088
0 4095 2187
0 4095 3305
0 4095 4095
0 4095 4095
489 0 0
469 0 469
440 0 1302
405 0 2221
365 0 3207
323 0 4066
282 0 4095
262 0 4095
252 0 4095
303 303 0
285 286 285
257 257 1130
223 222 2057
184 183 3046
144 140 4016
104 99 4095
88 83 4095
79 74 4095
20 918 0
16 904 17
8 878 878
0 848 1815
0 814 2810
0 777 3835
0 738 4095
0 720 4095
0 711 4095
0 1593 0
0 1581 0
0 1557 572
0 1528 1528
0 1496 2532
0 1461 3582
0 1423 4095
0 1403 4095
0 1394 4095
0 2315 0
0 2304 0
0 2282 209
0 2254 1206
0 2223 2223
0 2188 3280
0 2151 4086
0 2128 4095
0 2119 4095
0 3071 0
0 3061 0
0 3040 0
0 3013 841
0 2982 1880
0 2949 2948
0 2913 3980
0 2886 4095
0 2877 4095
0 3858 0
0 3847 0
0 3829 0
0 3802 429
0 3773 1511
0 3740 2594
0 3705 3705
0 3675 4095
0 3666 4095
0 4095 0
0 4095 0
0 4095 0
0 4095 96
0 4095 1162
0 4095 2259
0 4095 3377
0 4095 4095
0 4095 4095
0 4095 0
0 4095 0
0 4095 0
0 4095 41
0 4095 1050
0 4095 2151
0 4095 3269
0 4095 4095
0 4095 4095
1267 0 0
1248 0 382
1221 0 1221
1188 0 2143
1153 0 3130
1113 0 4044
1075 0 4095
1057 0 4095
1047 0 4095
1096 217 0
1081 201 201
1056 171 1056
1025 135 1984
992 97 2975
955 55 3966
917 7 4095
901 1 4095
893 0 4095
842 842 0
829 829 0
803 803 803
773 773 1743
739 739 2740
701 701 3777
662 662 4095
643 643 4095
635 635 4095
533 1522 0
521 1511 0
495 1488 495
463 1459 1459
427 1427 2465
387 1392 3516
344 1354 4095
321 1333 4095
312 1325 4095
169 2248 0
161 2239 0
141 2216 144
113 2189 1138
82 2158 2158
51 2124 3217
26 2088 4076
13 2064 4095
8 2055 4095
0 3011 0
0 3001 0
0 2982 0
0 2955 778
0 2925 1822
0 2892 2892
0 2857 3948
0 2830 4095
0 2821 4095
0 3804 0
0 3795 0
0 3778 0
0 3752 369
0 3722 1458
0 3690 2543
0 3656 3656
0 3625 4095
0 3617 4095
0 4095 0
0 4095 0
0 4095 0
0 4095 66
0 4095 1106
0 4095 2206
0 4095 3325
0 4095 4095
0 4095 4095
0 4095 0
0 4095 0
0 4095 0
0 4095 7
0 4095 997
0 4095 2101
0 4095 3220
0 4095 4095
0 4095 4095
2126 0 0
2109 0 275
2082 0 1125
2051 0 2051
2017 0 3041
1980 0 4005
1944 0 4095
1925 0 4095
1915 0 4095
1967 113 0
1953 98 105
1928 69 966
1899 31 1899
1867 2 2893
1832 0 3902
1797 0 4095
1779 0 4095
1770 0 4095
1724 752 0
1712 739 0
1687 713 713
1659 683 1659
1626 648 2658
1591 610 3703
1555 570 4095
1536 550 4095
1527 541 4095
1437 1437 0
1426 1426 0
1403 1403 400
1374 1374 1374
1342 1342 2383
1307 1307 3436
1269 1270 4095
1248 1248 4095
1239 1239 4095
1114 2167 0
1104 2157 0
1081 2135 65
1052 2108 1052
1019 2077 2077
983 2043 3138
944 2007 4055
918 1982 4095
910 1973 4095
751 2932 0
741 2922 0
721 2903 0
691 2876 691
656 2846 1741
619 2814 2814
578 2779 3896
546 2751 4095
537 2742 4095
337 3728 0
326 3718 0
306 3702 0
275 3676 276
240 3647 1377
203 3615 2466
163 3580 3580
139 3550 4095
135 3541 4095
42 4095 0
37 4095 0
27 4095 0
10 4095 14
0 4095 1015
0 4095 2121
0 4095 3243
0 4095 4095
0 4095 4095
0 4095 0
0 4095 0
0 4095 0
0 4095 0
0 4095 906
0 4095 2017
0 4095 3139
0 4095 4082
0 4095 4095
3049 0 0
3032 0 156
3006 0 1018
2976 0 1950
2943 0 2943
2907 0 3942
2871 0 4095
2851 0 4095
2841 0 4095
2897 3 0
2884 0 5
2860 0 866
2832 0 1805
2800 0 2800
2766 0 3826
2730 0 4095
2711 0 4095
2703 0 4095
2661 650 0
2649 637 0
2625 611 611
2598 580 1564
2566 544 2566
2533 506 3616
2497 464 4095
2477 443 4095
2469 435 4095
2384 1342 0
2373 1331 0
2351 1308 290
2323 1279 1279
2292 1247 2292
2259 1212 3348
2223 1174 4093
2200 1151 4095
2192 1142 4095
2074 2074 0
2065 2065 0
2044 2044 5
2016 2017 955
1985 1986 1985
1952 1952 3049
1915 1916 4026
1889 1890 4095
1881 1881 4095
1736 2842 0
1727 2833 0
1708 2815 0
1681 2788 589
1649 2758 1649
1616 2725 2725
1579 2691 3823
1549 2661 4095
1540 2653 4095
1369 3641 0
1359 3631 0
1342 3615 0
1315 3590 176
1283 3560 1283
1248 3529 2377
1211 3494 3494
1176 3463 4095
1168 3454 4095
1007 4095 0
994 4095 0
976 4095 0
945 4095 0
909 4095 909
869 4095 2023
826 4095 3148
782 4095 4093
769 4095 4095
896 4095 0
883 4095 0
866 4095 0
835 4095 0
798 4095 798
757 4095 1918
713 4095 3045
667 4095 4051
653 4095 4095
3971 0 0
3960 0 24
3940 0 903
3916 0 1841
3890 0 2837
3860 0 3858
3829 0 4095
3812 0 4095
3803 0 4095
3854 0 0
3843 0 0
3823 0 757
3798 0 1700
3771 0 2699
3740 0 3739
3707 0 4095
3689 0 4095
3681 0 4095
3643 536 0
3632 523 0
3610 497 497
3582 465 1461
3552 429 2467
3519 389 3519
3484 347 4095
3463 324 4095
3454 315 4095
3373 1237 0
3363 1228 0
3341 1205 179
3314 1175 1175
3284 1143 2193
3251 1107 3251
3217 1069 4083
3193 1044 4095
3184 1036 4095
3072 1974 0
3062 1965 0
3043 1944 0
3016 1917 848
2986 1886 1886
2953 1852 2953
2918 1816 3983
2891 1789 4095
2883 1780 4095
2745 2745 0
2736 2736 0
2718 2718 0
2692 2692 476
2662 2662 1549
2629 2629 2629
2594 2594 3737
2564 2564 4095
2555 2555 4095
2394 3546 0
2384 3536 0
2369 3521 0
2343 3496 106
2313 3466 1180
2280 3434 2280
2245 3400 3400
2211 3367 4095
2202 3359 4095
2042 4095 0
2031 4095 0
2014 4095 0
1986 4095 0
1952 4095 791
1916 4095 1916
1878 4091 3046
1839 4082 4077
1830 4076 4095
1936 4095 0
1924 4095 0
1908 4095 0
1880 4095 0
1846 4095 677
1809 4095 1809
1770 4095 2940
1728 4095 4007
1714 4095 4095
4095 0 0
4095 0 0
4095 0 782
4095 0 1728
4095 0 2727
4095 0 3765
4095 0 4095
4095 0 4095
4095 0 4095
4095 0 0
4095 0 0
4095 0 637
4095 0 1590
4095 0 2592
4095 0 3641
4095 0 4095
4095 0 4095
4095 0 4095
4095 411 0
4095 399 0
4095 373 371
4095 340 1350
4095 302 2361
4095 260 3416
4095 213 4095
4095 187 4095
4095 178 4095
4090 1125 0
4090 1115 0
4088 1092 74
4083 1063 1063
4078 1030 2087
4070 994 3148
4061 955 4060
4053 929 4095
4052 921 4095
4010 1867 0
4006 1857 0
3997 1838 0
3983 1810 732
3967 1779 1779
3947 1745 2850
3924 1709 3922
3904 1680 4095
3897 1672 4095
3783 2641 0
3773 2632 0
3758 2615 0
3733 2589 349
3704 2558 1440
3673 2526 2526
3638 2491 3638
3608 2459 4095
3599 2451 4095
3445 3445 0
3434 3435 0
3420 3420 0
3394 3395 40
3365 3366 1069
3333 3333 2176
3299 3299 3299
3266 3266 4095
3256 3257 4095
3094 4095 0
3082 4095 0
3066 4095 0
3040 4091 0
3011 4082 666
2978 4071 1806
2943 4059 2943
2908 4044 4038
2896 4036 4095
2988 4095 0
2976 4095 0
2961 4095 0
2934 4095 0
2902 4095 544
2867 4095 1692
2829 4095 2829
2789 4095 3946
2775 4095 4095
4095 0 0
4095 0 0
4095 0 723
4095 0 1668
4095 0 2667
4095 0 3708
4095 0 4095
4095 0 4095
4095 0 4095
4095 0 0
4095 0 0
4095 0 577
4095 0 1531
4095 0 2533
4095 0 3581
4095 0 4095
4095 0 4095
4095 0 4095
4095 344 0
4095 332 0
4095 304 302
4095 268 1287
4095 228 2297
4095 181 3351
4095 139 4094
4095 117 4095
4095 109 4095
4095 1052 0
4095 1041 0
4095 1018 21
4095 988 987
4095 953 2014
4095 916 3075
4095 876 4036
4095 847 4095
4095 838 4095
4095 1786 0
4095 1776 0
4095 1756 0
4095 1728 643
4095 1696 1696
4095 1660 2768
4095 1623 3857
4095 1592 4095
4095 1583 4095
4095 2552 0
4095 2542 0
4095 2525 0
4095 2498 240
4095 2467 1344
4095 2433 2433
4095 2397 3547
4095 2363 4095
4095 2354 4095
4095 3347 0
4095 3337 0
4095 3322 0
4095 3296 0
4095 3266 959
4095 3233 2072
4095 3198 3198
4095 3162 4095
4095 3153 4095
4078 4082 0
4072 4076 0
4063 4067 0
4052 4056 0
4039 4043 538
4023 4028 1694
4005 4011 2836
3977 3983 3975
3967 3973 4095
4002 4095 0
3993 4095 0
3983 4095 0
3967 4095 0
3948 4095 403
3926 4095 1568
3900 4095 2710
3866 4095 3865
3853 4095 4095
4095 0 0
4095 0 0
4095 0 691
4095 0 1638
4095 0 2636
4095 0 3679
4095 0 4095
4095 0 4095
4095 0 4095
4095 0 0
4095 0 0
4095 0 548
4095 0 1503
4095 0 2505
4095 0 3553
4095 0 4095
4095 0 4095
4095 0 4095
4095 316 0
4095 304 0
4095 275 272
4095 240 1260
4095 197 2271
4095 154 3324
4095 117 4093
4095 92 4095
4095 84 4095
4095 1025 0
4095 1014 0
4095 992 10
4095 961 961
4095 927 1987
4095 890 3049
4095 849 4029
4095 820 4095
4095 811 4095
4095 1759 0
4095 1749 0
4095 1730 0
4095 1702 616
4095 1670 1669
4095 1635 2741
4095 1596 3832
4095 1565 4095
4095 1555 4095
4095 2526 0
4095 2515 0
4095 2499 0
4095 2471 214
4095 2440 1317
4095 2407 2406
4095 2370 3520
4095 2336 4095
4095 2327 4095
4095 3320 0
4095 3310 0
4095 3295 0
4095 3269 0
4095 3239 931
4095 3206 2045
4095 3171 3171
4095 3135 4093
4095 3126 4095
4095 4063 0
4095 4056 0
4095 4047 0
4095 4035 0
4095 4020 502
4095 4003 1660
4095 3983 2802
4095 3953 3945
4095 3942 4095
4095 4095 0
4095 4095 0
4095 4095 0
4095 4095 0
4095 4095 358
4095 4095 1523
4095 4095 2666
4095 4095 3824
4095 4095 4095
