Postproduction/IWLTBAP - Humble/LUTs by IWLTBAP (3DL)/UTILITY/Generic LOG to Rec.709/U-9993-LTR.3dl
# Copyright: (C) Copyright 2010-2018 by IWLTBAP SAS
# Cannot be resold, shared or otherwise redistributed
# Website: https://luts.iwltbap.com
0 128 256 384 512 640 768 896 1023
256 256 256
256 256 284
256 256 722
256 256 1569
256 256 2608
256 256 3505
256 256 3760
256 256 3760
256 256 3760
256 288 256
256 282 280
256 259 720
256 256 1568
256 256 2608
256 256 3504
256 256 3760
256 256 3760
256 256 3760
256 765 256
256 763 260
256 694 685
256 315 1559
256 256 2604
256 256 3502
256 256 3760
256 256 3760
256 256 3760
256 1658 256
256 1657 256
256 1639 422
256 1511 1493
256 959 2578
256 361 3488
256 256 3760
256 256 3760
256 256 3760
256 2754 256
256 2754 256
256 2746 256
256 2697 1231
256 2530 2492
256 2205 3438
256 1910 3757
256 1882 3760
256 1882 3760
256 3673 256
256 3673 256
256 3668 256
256 3644 651
256 3560 2342
256 3410 3356
256 3308 3750
256 3302 3760
256 3302 3760
256 3760 256
256 3760 256
256 3760 256
256 3760 412
256 3760 2242
256 3759 3305
256 3751 3726
256 3750 3747
256 3750 3747
256 3760 256
256 3760 256
256 3760 256
256 3760 412
256 3760 2235
256 3760 3302
256 3760 3724
256 3760 3745
256 3760 3745
256 3760 256
256 3760 256
256 3760 256
256 3760 412
256 3760 2235
256 3760 3302
256 3760 3724
256 3760 3745
256 3760 3745
293 256 256
290 256 284
267 256 722
256 256 1569
256 256 2608
256 256 3505
256 256 3760
256 256 3760
256 256 3760
285 287 256
283 282 281
264 259 721
256 256 1568
256 256 2608
256 256 3504
256 256 3760
256 256 3760
256 256 3760
257 765 256
257 763 260
256 693 685
256 315 1559
256 256 2605
256 256 3502
256 256 3760
256 256 3760
256 256 3760
256 1658 256
256 1657 256
256 1639 422
256 1511 1493
256 959 2578
256 361 3488
256 256 3760
256 256 3760
256 256 3760
256 2754 256
256 2754 256
256 2746 256
256 2697 1231
256 2530 2492
256 2205 3438
256 1910 3757
256 1882 3760
256 1882 3760
256 3673 256
256 3673 256
256 3668 256
256 3644 651
256 3560 2342
256 3410 3356
256 3308 3750
256 3302 3760
256 3302 3760
256 3760 256
256 3760 256
256 3760 256
256 3760 412
256 3760 2242
256 3759 3305
256 3751 3726
256 3750 3747
256 3750 3747
256 3760 256
256 3760 256
256 3760 256
256 3760 412
256 3760 2235
256 3760 3302
256 3760 3724
256 3760 3745
256 3760 3745
256 3760 256
256 3760 256
256 3760 256
256 3760 412
256 3760 2235
256 3760 3302
256 3760 3724
256 3760 3745
256 3760 3745
812 256 262
812 256 290
792 256 725
642 256 1570
308 256 2609
256 256 3505
256 256 3760
256 256 3760
256 256 3760
809 271 260
808 267 287
788 258 724
636 256 1569
305 256 2609
256 256 3505
256 256 3760
256 256 3760
256 256 3760
701 757 256
700 754 261
675 683 689
516 313 1559
281 256 2605
256 256 3502
256 256 3760
256 256 3760
256 256 3760
300 1656 256
299 1655 256
294 1636 426
267 1508 1494
256 955 2578
256 360 3489
256 256 3760
256 256 3760
256 256 3760
256 2753 256
256 2753 256
256 2745 256
256 2696 1232
256 2529 2493
256 2204 3438
256 1908 3757
256 1881 3760
256 1881 3760
256 3672 256
256 3672 256
256 3668 256
256 3643 654
256 3560 2342
256 3409 3356
256 3307 3750
256 3301 3760
256 3301 3760
256 3760 256
256 3760 256
256 3760 256
256 3760 412
256 3760 2242
256 3759 3305
256 3751 3726
256 3750 3747
256 3750 3747
256 3760 256
256 3760 256
256 3760 256
256 3760 412
256 3760 2236
256 3760 3302
256 3760 3724
256 3760 3745
256 3760 3745
256 3760 256
256 3760 256
256 3760 256
256 3760 412
256 3760 2236
256 3760 3302
256 3760 3724
256 3760 3745
256 3760 3745
1754 256 299
1753 256 327
1748 256 743
1712 256 1575
1585 256 2611
1327 256 3506
1187 256 3760
1180 256 3760
1180 256 3760
1753 259 296
1753 258 324
1747 256 742
1711 256 1574
1584 256 2611
1326 256 3506
1186 256 3760
1179 256 3760
1179 256 3760
1725 698 259
1725 694 270
1720 615 708
1682 303 1564
1550 256 2607
1286 256 3504
1145 256 3760
1137 256 3760
1137 256 3760
1526 1640 256
1526 1639 256
1518 1620 453
1465 1488 1500
1294 929 2581
1003 354 3490
792 256 3760
779 256 3760
779 256 3760
512 2747 256
512 2746 256
510 2739 256
499 2689 1239
459 2521 2495
360 2194 3440
335 1897 3757
335 1871 3760
335 1871 3760
256 3669 256
256 3669 256
256 3665 256
256 3639 671
256 3556 2345
256 3405 3357
256 3302 3751
256 3296 3760
256 3296 3760
256 3760 256
256 3760 256
256 3760 256
256 3760 413
256 3760 2245
256 3758 3307
256 3751 3727
256 3749 3748
256 3749 3748
256 3760 256
256 3760 256
256 3760 256
256 3760 413
256 3760 2239
256 3760 3304
256 3760 3725
256 3760 3746
256 3760 3746
256 3760 256
256 3760 256
256 3760 256
256 3760 413
256 3760 2239
256 3760 3304
256 3760 3725
256 3760 3746
256 3760 3746
2911 256 413
2910 256 439
2908 256 796
2893 256 1592
2846 256 2618
2766 256 3510
2716 256 3760
2713 256 3760
2713 256 3760
2910 256 410
2910 256 436
2908 256 796
2893 256 1592
2845 256 2618
2765 256 3510
2715 256 3760
2712 256 3760
2712 256 3760
2899 472 345
2899 468 371
2897 379 766
2881 271 1582
2833 256 2614
2753 256 3508
2702 256 3760
2699 256 3760
2699 256 3760
2826 1588 256
2826 1587 256
2823 1567 533
2807 1422 1519
2757 837 2588
2672 334 3494
2619 256 3760
2616 256 3760
2616 256 3760
2570 2726 256
2570 2725 256
2566 2718 257
2548 2667 1260
2487 2497 2503
2383 2161 3444
2314 1862 3758
2309 1842 3760
2309 1842 3760
1982 3658 256
1982 3658 256
1978 3654 256
1953 3628 721
1872 3544 2354
1719 3390 3362
1623 3287 3751
1619 3281 3760
1619 3281 3760
1590 3760 256
1589 3760 256
1584 3760 256
1552 3760 416
1440 3760 2255
1217 3758 3312
1040 3750 3731
1030 3748 3752
1030 3748 3752
1570 3760 256
1569 3760 256
1564 3760 256
1531 3760 415
1416 3760 2249
1185 3760 3308
995 3760 3729
984 3760 3750
984 3760 3750
1570 3760 256
1569 3760 256
1564 3760 256
1531 3760 415
1416 3760 2249
1185 3760 3308
995 3760 3729
984 3760 3750
984 3760 3750
3726 256 571
3726 256 589
3725 256 872
3724 256 1618
3721 256 2630
3715 256 3516
3710 256 3760
3709 256 3760
3709 256 3760
3726 256 569
3726 256 588
3725 256 871
3724 256 1618
3721 256 2629
3715 256 3516
3710 256 3760
3709 256 3760
3709 256 3760
3725 305 517
3725 304 538
3725 292 845
3724 256 1609
3720 256 2626
3714 256 3514
3709 256 3760
3708 256 3760
3708 256 3760
3720 1494 273
3720 1493 278
3720 1470 636
3719 1300 1548
3716 603 2600
3707 315 3500
3700 256 3760
3699 256 3760
3699 256 3760
3680 2692 256
3680 2692 256
3679 2683 266
3671 2632 1303
3646 2457 2516
3604 2105 3451
3576 1803 3758
3575 1793 3760
3575 1793 3760
3464 3640 256
3464 3640 256
3462 3636 256
3452 3610 786
3420 3525 2368
3365 3368 3369
3330 3263 3752
3328 3257 3760
3328 3257 3760
3307 3760 256
3307 3760 256
3305 3760 256
3293 3760 419
3255 3760 2270
3192 3757 3319
3154 3748 3738
3151 3746 3757
3151 3746 3757
3297 3760 256
3297 3760 256
3295 3760 256
3283 3760 418
3244 3760 2264
3181 3760 3316
3143 3760 3735
3141 3760 3756
3141 3760 3756
3297 3760 256
3297 3760 256
3295 3760 256
3283 3760 418
3244 3760 2264
3181 3760 3316
3143 3760 3735
3141 3760 3756
3141 3760 3756
3760 256 641
3760 256 657
3760 256 912
3760 256 1634
3760 256 2637
3760 256 3519
3760 256 3760
3760 256 3760
3760 256 3760
3760 256 640
3760 256 655
3760 256 910
3760 256 1634
3760 256 2636
3760 256 3519
3760 256 3760
3760 256 3760
3760 256 3760
3760 291 597
3760 290 615
3760 271 887
3760 256 1624
3760 256 2632
3760 256 3517
3760 256 3760
3760 256 3760
3760 256 3760
3760 1428 287
3760 1426 302
3760 1399 695
3760 1233 1565
3760 489 2607
3760 307 3504
3760 256 3760
3760 256 3760
3760 256 3760
3760 2671 256
3760 2671 256
3760 2663 275
3760 2611 1331
3760 2432 2523
3760 2068 3455
3760 1774 3759
3760 1765 3760
3760 1765 3760
3760 3629 256
3760 3629 256
3760 3625 256
3760 3599 819
3760 3514 2376
3759 3354 3374
3758 3248 3753
3758 3242 3760
3758 3242 3760
3756 3760 256
3756 3760 256
3756 3760 256
3755 3760 420
3753 3760 2279
3749 3756 3324
3739 3740 3741
3737 3737 3760
3737 3737 3760
3754 3760 256
3754 3760 256
3754 3760 256
3753 3760 420
3751 3760 2273
3746 3760 3320
3734 3760 3739
3732 3760 3760
3732 3760 3760
3754 3760 256
3754 3760 256
3754 3760 256
3753 3760 420
3751 3760 2273
3746 3760 3320
3734 3760 3739
3732 3760 3760
3732 3760 3760
3760 256 645
3760 256 661
3760 256 914
3760 256 1635
3760 256 2637
3760 256 3519
3760 256 3760
3760 256 3760
3760 256 3760
3760 256 643
3760 256 659
3760 256 912
3760 256 1635
3760 256 2637
3760 256 3519
3760 256 3760
3760 256 3760
3760 256 3760
3760 290 601
3760 289 619
3760 271 889
3760 256 1626
3760 256 2633
3760 256 3518
3760 256 3760
3760 256 3760
3760 256 3760
3760 1423 288
3760 1421 305
3760 1394 698
3760 1229 1566
3760 488 2607
3760 307 3504
3760 256 3760
3760 256 3760
3760 256 3760
3760 2670 256
3760 2669 256
3760 2661 276
3760 2609 1333
3760 2431 2523
3760 2065 3456
3760 1773 3759
3760 1763 3760
3760 1763 3760
3760 3629 256
3760 3629 256
3760 3624 256
3760 3598 821
3760 3513 2377
3760 3353 3374
3760 3247 3753
3760 3241 3760
3760 3241 3760
3760 3760 256
3760 3760 256
3760 3760 256
3760 3760 420
3760 3760 2279
3760 3756 3324
3760 3740 3741
3760 3736 3760
3760 3736 3760
3760 3760 256
3760 3760 256
3760 3760 256
3760 3760 420
3760 3760 2273
3760 3760 3321
3760 3760 3739
3760 3760 3760
3760 3760 3760
3760 3760 256
3760 3760 256
3760 3760 256
3760 3760 420
3760 3760 2273
3760 3760 3321
3760 3760 3739
3760 3760 3760
3760 3760 3760
3760 256 645
3760 256 661
3760 256 914
3760 256 1635
3760 256 2637
3760 256 3519
3760 256 3760
3760 256 3760
3760 256 3760
3760 256 643
3760 256 659
3760 256 912
3760 256 1635
3760 256 2637
3760 256 3519
3760 256 3760
3760 256 3760
3760 256 3760
3760 290 601
3760 289 619
3760 271 889
3760 256 1626
3760 256 2633
3760 256 3518
3760 256 3760
3760 256 3760
3760 256 3760
3760 1423 288
3760 1421 305
3760 1394 698
3760 1229 1566
3760 488 2607
3760 307 3504
3760 256 3760
3760 256 3760
3760 256 3760
3760 2670 256
3760 2669 256
3760 2661 276
3760 2609 1333
3760 2431 2523
3760 2065 3456
3760 1773 3759
3760 1763 3760
3760 1763 3760
3760 3629 256
3760 3629 256
3760 3624 256
3760 3598 821
3760 3513 2377
3760 3353 3374
3760 3247 3753
3760 3241 3760
3760 3241 3760
3760 3760 256
3760 3760 256
3760 3760 256
3760 3760 420
3760 3760 2279
3760 3756 3324
3760 3740 3741
3760 3736 3760
3760 3736 3760
3760 3760 256
3760 3760 256
3760 3760 256
3760 3760 420
3760 3760 2273
3760 3760 3321
3760 3760 3739
3760 3760 3760
3760 3760 3760
3760 3760 256
3760 3760 256
3760 3760 256
3760 3760 420
3760 3760 2273
3760 3760 3321
3760 3760 3739
3760 3760 3760
3760 3760 3760
