Postproduction/IWLTBAP - Humble/LUTs by IWLTBAP (3DL)/UTILITY/Generic LOG to Rec.709/U-9990-LTR.3dl
# Copyright: (C) Copyright 2010-2018 by IWLTBAP SAS
# Cannot be resold, shared or otherwise redistributed
# Website: https://luts.iwltbap.com
0 64 128 192 256 320 384 448 512 576 640 704 768 832 896 960 1023
0 0 0
0 0 46
0 0 260
0 0 536
0 0 903
0 0 1310
0 0 1745
0 0 2199
0 0 2665
0 0 3136
0 0 3587
0 0 3926
0 0 4087
0 0 4095
0 0 4095
0 0 4095
0 0 4095
0 17 0
0 11 12
0 10 216
0 6 473
0 4 828
0 3 1226
0 2 1652
0 1 2099
0 0 2560
0 0 3025
0 0 3483
0 0 3852
0 0 4075
0 0 4095
0 0 4095
0 0 4095
0 0 4095
0 206 0
0 195 4
0 190 190
0 181 438
0 163 786
0 141 1180
0 115 1601
0 87 2043
0 59 2498
0 32 2960
0 15 3420
0 10 3809
0 7 4058
0 4 4095
0 2 4095
0 2 4095
0 2 4095
0 376 0
0 364 1
0 359 119
0 352 354
0 337 699
0 317 1095
0 295 1521
0 271 1970
0 247 2433
0 221 2904
0 197 3373
0 177 3784
0 165 4045
0 152 4095
0 139 4095
0 128 4095
0 117 4095
0 602 0
0 593 0
0 593 28
0 592 245
0 582 582
0 567 983
0 549 1415
0 530 1870
0 510 2341
0 489 2820
0 468 3299
0 450 3736
0 442 4022
0 432 4095
0 422 4095
0 411 4095
0 402 4095
0 889 0
0 884 0
0 887 3
0 891 150
0 886 475
0 875 876
0 862 1310
0 846 1768
0 829 2243
0 810 2726
0 792 3212
0 775 3669
0 768 3989
0 761 4095
0 753 4095
0 743 4095
0 736 4095
0 1218 0
0 1215 0
0 1220 0
0 1226 74
0 1225 374
0 1217 770
0 1205 1205
0 1191 1664
0 1175 2141
0 1159 2628
0 1142 3118
0 1126 3591
0 1119 3946
0 1113 4093
0 1106 4095
0 1099 4095
0 1092 4095
0 1571 0
0 1569 0
0 1575 0
0 1582 26
0 1584 276
0 1578 663
0 1568 1096
0 1556 1556
0 1542 2034
0 1526 2523
0 1511 3017
0 1495 3502
0 1487 3890
0 1484 4086
0 1478 4095
0 1472 4095
0 1466 4095
0 1942 0
0 1941 0
0 1949 0
0 1956 5
0 1960 184
0 1956 553
0 1948 986
0 1937 1445
0 1924 1924
0 1910 2416
0 1895 2913
0 1881 3405
0 1872 3827
0 1869 4075
0 1865 4095
0 1860 4095
0 1854 4095
0 2326 0
0 2327 0
0 2336 0
0 2343 1
0 2348 105
0 2348 447
0 2341 875
0 2331 1334
0 2320 1813
0 2307 2307
0 2293 2806
0 2279 3304
0 2268 3756
0 2267 4042
0 2263 4095
0 2259 4095
0 2255 4095
0 2722 0
0 2724 0
0 2734 0
0 2742 0
0 2748 52
0 2749 347
0 2744 767
0 2736 1224
0 2725 1703
0 2713 2198
0 2700 2700
0 2687 3202
0 2675 3676
0 2674 4000
0 2671 4095
0 2668 4095
0 2664 4095
0 3128 0
0 3129 0
0 3140 0
0 3148 0
0 3154 18
0 3158 258
0 3155 664
0 3147 1119
0 3138 1597
0 3126 2092
0 3114 2596
0 3101 3101
0 3090 3591
0 3087 3960
0 3086 4095
0 3083 4095
0 3080 4095
0 3536 0
0 3539 0
0 3550 0
0 3559 0
0 3565 6
0 3570 189
0 3569 572
0 3562 1023
0 3554 1499
0 3543 1993
0 3532 2498
0 3519 3006
0 3508 3506
0 3503 3911
0 3503 4091
0 3501 4095
0 3499 4095
0 3917 0
0 3921 0
0 3931 0
0 3939 0
0 3946 7
0 3951 190
0 3953 549
0 3949 988
0 3942 1460
0 3934 1950
0 3925 2452
0 3915 2958
0 3905 3462
0 3899 3897
0 3901 4087
0 3900 4095
0 3900 4095
0 4091 0
0 4091 0
0 4092 0
0 4093 0
0 4093 12
0 4094 230
0 4094 572
0 4094 999
0 4093 1467
0 4093 1956
0 4092 2459
0 4092 2968
0 4091 3474
0 4090 3936
0 4090 4091
0 4090 4095
0 4090 4095
0 4095 0
0 4095 0
0 4095 0
0 4095 0
0 4095 18
0 4095 254
0 4095 583
0 4095 991
0 4095 1455
0 4095 1942
0 4095 2444
0 4095 2954
0 4095 3464
0 4095 3941
0 4095 4095
0 4095 4095
0 4095 4095
0 4095 0
0 4095 0
0 4095 0
0 4095 0
0 4095 24
0 4095 272
0 4095 594
0 4095 983
0 4095 1442
0 4095 1926
0 4095 2427
0 4095 2937
0 4095 3449
0 4095 3935
0 4095 4095
0 4095 4095
0 4095 4095
44 0 0
41 0 41
42 0 252
39 0 523
27 0 887
13 0 1292
8 0 1724
7 0 2177
5 0 2642
3 0 3110
1 0 3564
0 0 3909
0 0 4084
0 0 4095
0 0 4095
0 0 4095
0 0 4095
5 4 0
4 3 4
4 3 190
3 3 441
2 2 793
1 1 1189
0 0 1615
0 0 2060
0 0 2519
0 0 2984
0 0 3443
0 0 3824
0 0 4067
0 0 4095
0 0 4095
0 0 4095
0 0 4095
2 176 0
2 164 2
2 159 159
1 150 397
0 131 740
0 106 1129
0 80 1549
0 55 1991
0 29 2448
0 13 2913
0 8 3376
0 5 3778
0 3 4040
0 2 4095
0 2 4095
0 1 4095
0 1 4095
0 344 0
0 333 0
0 330 96
0 325 326
0 311 667
0 292 1063
0 272 1489
0 249 1938
0 226 2402
0 202 2874
0 178 3345
0 158 3765
0 148 4036
0 137 4095
0 126 4095
0 116 4095
0 106 4095
0 582 0
0 574 0
0 575 20
0 575 234
0 567 568
0 554 968
0 537 1400
0 519 1855
0 500 2326
0 479 2806
0 459 3287
0 443 3730
0 435 4021
0 426 4095
0 417 4095
0 407 4095
0 397 4095
0 880 0
0 875 0
0 880 3
0 884 152
0 880 471
0 870 871
0 857 1304
0 842 1762
0 825 2236
0 807 2721
0 789 3207
0 773 3669
0 766 3991
0 759 4095
0 751 4095
0 743 4095
0 735 4095
0 1215 0
0 1212 0
0 1218 0
0 1224 80
0 1223 376
0 1216 771
0 1204 1205
0 1191 1663
0 1176 2140
0 1160 2627
0 1143 3117
0 1127 3593
0 1120 3954
0 1115 4094
0 1108 4095
0 1101 4095
0 1094 4095
0 1571 0
0 1570 0
0 1577 0
0 1584 30
0 1586 283
0 1580 667
0 1571 1100
0 1559 1559
0 1545 2037
0 1530 2526
0 1515 3020
0 1500 3507
0 1492 3900
0 1488 4087
0 1483 4095
0 1477 4095
0 1471 4095
0 1945 0
0 1945 0
0 1953 0
0 1960 7
0 1964 195
0 1962 562
0 1954 993
0 1943 1452
0 1930 1930
0 1917 2422
0 1903 2919
0 1888 3412
0 1879 3838
0 1876 4079
0 1872 4095
0 1867 4095
0 1862 4095
0 2333 0
0 2333 0
0 2342 0
0 2350 1
0 2356 118
0 2355 459
0 2349 886
0 2340 1343
0 2328 1822
0 2315 2315
0 2301 2815
0 2288 3313
0 2278 3768
0 2276 4053
0 2273 4095
0 2269 4095
0 2265 4095
0 2732 0
0 2733 0
0 2743 0
0 2751 0
0 2757 60
0 2759 362
0 2754 780
0 2746 1236
0 2736 1715
0 2723 2209
0 2711 2711
0 2698 3213
0 2686 3690
0 2685 4010
0 2683 4095
0 2679 4095
0 2676 4095
0 3139 0
0 3141 0
0 3150 0
0 3159 0
0 3166 27
0 3169 276
0 3166 679
0 3159 1133
0 3150 1611
0 3139 2105
0 3126 2608
0 3114 3114
0 3102 3605
0 3099 3973
0 3099 4095
0 3095 4095
0 3093 4095
0 3550 0
0 3552 0
0 3562 0
0 3571 0
0 3577 8
0 3583 206
0 3582 589
0 3576 1038
0 3567 1514
0 3557 2007
0 3546 2512
0 3534 3019
0 3522 3520
0 3517 3929
0 3517 4093
0 3515 4095
0 3512 4095
0 3932 0
0 3935 0
0 3946 0
0 3954 0
0 3960 10
0 3964 205
0 3965 564
0 3962 1003
0 3957 1473
0 3949 1963
0 3940 2464
0 3931 2971
0 3921 3473
0 3915 3913
0 3916 4089
0 3917 4095
0 3915 4095
0 4092 0
0 4093 0
0 4094 0
0 4094 0
0 4095 22
0 4095 250
0 4095 589
0 4095 1015
0 4095 1482
0 4095 1971
0 4094 2473
0 4093 2981
0 4093 3488
0 4092 3949
0 4092 4093
0 4092 4095
0 4092 4095
0 4095 0
0 4095 0
0 4095 0
0 4095 0
0 4095 31
0 4095 274
0 4095 601
0 4095 1008
0 4095 1471
0 4095 1957
0 4095 2458
0 4095 2968
0 4095 3478
0 4095 3947
0 4095 4095
0 4095 4095
0 4095 4095
0 4095 0
0 4095 0
0 4095 0
0 4095 0
0 4095 37
0 4095 292
0 4095 614
0 4095 999
0 4095 1456
0 4095 1940
0 4095 2441
0 4095 2951
0 4095 3462
0 4095 3939
0 4095 4095
0 4095 4095
0 4095 4095
262 0 0
256 0 47
256 0 256
251 0 528
238 0 891
220 0 1295
200 0 1726
177 0 2177
153 0 2640
126 0 3106
101 0 3559
85 0 3905
71 0 4084
56 0 4095
41 0 4095
31 0 4095
24 0 4095
197 3 0
187 3 4
184 3 184
176 2 432
160 1 783
138 0 1177
114 0 1601
88 0 2045
62 0 2503
36 0 2966
16 0 3424
10 0 3808
6 0 4057
4 0 4095
2 0 4095
2 0 4095
1 0 4095
163 163 0
150 150 1
142 142 142
133 133 375
115 115 717
93 92 1108
70 69 1529
46 46 1972
23 23 2431
12 12 2898
8 8 3363
4 5 3769
3 3 4036
2 2 4095
2 2 4095
1 2 4095
1 1 4095
102 338 0
94 327 0
93 325 93
91 322 323
80 310 664
65 293 1060
49 273 1487
31 252 1937
16 229 2402
11 206 2875
8 183 3348
6 165 3770
5 155 4040
3 146 4095
2 137 4095
2 127 4095
2 118 4095
29 589 0
27 582 0
29 584 28
31 586 246
28 579 579
21 566 980
14 551 1412
11 533 1868
8 514 2339
6 495 2820
4 476 3301
3 459 3746
3 452 4032
2 444 4095
2 435 4095
2 426 4095
2 416 4095
5 897 0
4 892 0
5 897 5
6 902 170
6 899 490
5 890 890
4 877 1323
3 862 1781
2 845 2256
2 828 2740
1 810 3226
1 795 3689
1 788 4003
1 781 4095
1 774 4095
1 766 4095
1 758 4095
1 1236 0
1 1233 0
1 1239 1
1 1246 100
1 1246 400
1 1238 794
1 1228 1228
1 1215 1686
1 1200 2163
0 1184 2650
0 1168 3140
0 1152 3616
0 1146 3971
0 1141 4095
0 1135 4095
0 1128 4095
0 1121 4095
0 1596 0
0 1594 0
0 1601 0
0 1609 42
0 1612 310
0 1606 694
0 1597 1127
0 1586 1586
0 1572 2064
0 1557 2553
0 1542 3047
0 1528 3533
0 1520 3924
0 1517 4091
0 1512 4095
0 1506 4095
0 1501 4095
0 1973 0
0 1972 0
0 1981 0
0 1989 13
0 1993 222
0 1991 592
0 1983 1023
0 1972 1482
0 1960 1960
0 1947 2452
0 1932 2948
0 1919 3441
0 1910 3864
0 1908 4083
0 1904 4095
0 1899 4095
0 1894 4095
0 2364 0
0 2364 0
0 2373 0
0 2382 3
0 2387 145
0 2387 491
0 2381 918
0 2371 1376
0 2360 1855
0 2348 2347
0 2334 2847
0 2321 3345
0 2311 3798
0 2310 4069
0 2307 4095
0 2303 4095
0 2299 4095
0 2764 0
0 2765 0
0 2775 0
0 2784 1
0 2790 81
0 2792 396
0 2787 815
0 2779 1272
0 2769 1750
0 2758 2243
0 2745 2745
0 2732 3247
0 2721 3721
0 2720 4031
0 2717 4095
0 2715 4095
0 2712 4095
0 3173 0
0 3174 0
0 3185 0
0 3194 0
0 3200 42
0 3204 311
0 3201 716
0 3194 1170
0 3185 1647
0 3174 2142
0 3162 2645
0 3150 3149
0 3138 3639
0 3136 3994
0 3134 4095
0 3132 4095
0 3130 4095
0 3585 0
0 3587 0
0 3598 0
0 3607 0
0 3613 18
0 3619 241
0 3618 627
0 3612 1077
0 3604 1552
0 3593 2045
0 3582 2549
0 3570 3057
0 3558 3556
0 3554 3958
0 3554 4095
0 3552 4095
0 3550 4095
0 3963 0
0 3965 0
0 3971 0
0 3977 0
0 3982 23
0 3986 243
0 3986 605
0 3984 1045
0 3979 1516
0 3973 2006
0 3967 2507
0 3960 3012
0 3953 3514
0 3948 3947
0 3949 4092
0 3949 4095
0 3948 4095
0 4095 0
0 4095 0
0 4095 0
0 4095 0
0 4095 42
0 4095 289
0 4095 631
0 4095 1058
0 4095 1525
0 4095 2014
0 4095 2516
0 4095 3023
0 4095 3530
0 4095 3976
0 4095 4095
0 4095 4095
0 4095 4095
0 4095 0
0 4095 0
0 4095 0
0 4095 0
0 4095 50
0 4095 314
0 4095 641
0 4095 1050
0 4095 1513
0 4095 2000
0 4095 2501
0 4095 3010
0 4095 3519
0 4095 3972
0 4095 4095
0 4095 4095
0 4095 4095
0 4095 0
0 4095 0
0 4095 0
0 4095 0
0 4095 56
0 4095 332
0 4095 653
0 4095 1041
0 4095 1498
0 4095 1981
0 4095 2482
0 4095 2991
0 4095 3503
0 4095 3963
0 4095 4095
0 4095 4095
0 4095 4095
529 0 0
521 0 36
520 0 243
513 0 513
497 0 875
476 0 1277
452 0 1707
426 0 2156
398 0 2618
369 0 3085
341 0 3540
321 0 3892
303 0 4082
284 0 4095
264 0 4095
243 0 4095
224 0 4095
435 2 0
423 1 2
418 1 164
409 1 409
389 0 758
365 0 1152
338 0 1574
308 0 2017
276 0 2472
244 0 2934
212 0 3395
187 0 3790
170 0 4047
152 0 4095
135 0 4095
118 0 4095
