Postproduction/IWLTBAP - Humble/LUTs by IWLTBAP (3DL)/UTILITY/Generic LOG to Rec.709/U-9991-LTR.3dl
# Copyright: (C) Copyright 2010-2018 by IWLTBAP SAS
# Cannot be resold, shared or otherwise redistributed
# Website: https://luts.iwltbap.com
0 128 256 384 512 640 768 896 1023
0 0 0
0 0 319
0 0 938
0 0 1685
0 0 2534
0 0 3267
0 0 3285
0 0 3285
0 0 3285
0 185 0
0 167 170
0 141 798
0 108 1540
0 75 2386
0 52 3230
0 39 3285
0 34 3285
0 32 3285
0 633 0
0 622 12
0 603 603
0 580 1336
0 554 2174
0 526 3078
0 498 3285
0 485 3285
0 478 3285
0 1153 0
0 1143 0
0 1123 375
0 1100 1100
0 1073 1931
0 1045 2851
0 1015 3285
0 999 3285
0 992 3285
0 1744 0
0 1735 0
0 1715 101
0 1692 843
0 1665 1665
0 1636 2578
0 1606 3280
0 1586 3285
0 1578 3285
0 2395 0
0 2385 0
0 2367 0
0 2343 567
0 2316 1381
0 2287 2287
0 2255 3193
0 2233 3285
0 2225 3285
0 3096 0
0 3087 0
0 3070 0
0 3046 261
0 3019 1082
0 2989 1979
0 2958 2958
0 2931 3285
0 2923 3285
0 3285 0
0 3285 0
0 3285 0
0 3285 30
0 3285 814
0 3285 1701
0 3285 2669
0 3285 3285
0 3285 3285
0 3285 0
0 3285 0
0 3285 0
0 3285 15
0 3285 729
0 3285 1611
0 3285 2574
0 3285 3285
0 3285 3285
288 0 0
271 0 271
247 0 894
220 0 1639
193 0 2487
157 0 3259
118 0 3285
101 0 3285
92 0 3285
138 135 0
122 119 123
97 93 761
70 67 1502
52 50 2347
38 37 3213
27 25 3285
22 21 3285
20 18 3285
5 601 0
4 591 4
2 572 572
0 550 1303
0 524 2141
0 498 3049
0 470 3285
0 457 3285
0 450 3285
0 1123 0
0 1114 0
0 1095 348
0 1072 1072
0 1046 1901
0 1018 2821
0 989 3285
0 973 3285
0 966 3285
0 1717 0
0 1708 0
0 1690 80
0 1666 820
0 1640 1640
0 1611 2552
0 1580 3276
0 1561 3285
0 1553 3285
0 2368 0
0 2359 0
0 2341 0
0 2317 545
0 2290 1357
0 2261 2261
0 2230 3180
0 2206 3285
0 2199 3285
0 3069 0
0 3060 0
0 3043 0
0 3019 237
0 2992 1058
0 2963 1955
0 2931 2931
0 2904 3285
0 2896 3285
0 3285 0
0 3285 0
0 3285 0
0 3285 25
0 3285 786
0 3285 1670
0 3285 2638
0 3285 3285
0 3285 3285
0 3285 0
0 3285 0
0 3285 0
0 3285 10
0 3285 701
0 3285 1580
0 3285 2543
0 3285 3285
0 3285 3285
867 0 0
852 0 204
830 0 831
805 0 1573
778 0 2420
748 0 3239
719 0 3285
705 0 3285
698 0 3285
735 63 0
723 56 59
705 46 705
681 36 1442
656 25 2284
629 13 3168
601 1 3285
589 0 3285
583 0 3285
546 545 0
536 535 0
517 517 517
495 495 1245
470 470 2080
443 443 2996
414 415 3285
400 401 3285
394 395 3285
319 1067 0
310 1058 0
289 1040 288
264 1017 1017
236 991 1844
208 964 2762
179 934 3285
161 918 3285
155 911 3285
56 1661 0
51 1653 0
40 1635 42
30 1612 767
21 1586 1586
13 1558 2496
6 1528 3267
3 1507 3285
2 1500 3285
0 2315 0
0 2307 0
0 2290 0
0 2267 499
0 2240 1309
0 2212 2212
0 2181 3151
0 2158 3285
0 2150 3285
0 3021 0
0 3012 0
0 2997 0
0 2973 195
0 2947 1016
0 2918 1911
0 2887 2887
0 2860 3285
0 2852 3285
0 3285 0
0 3285 0
0 3285 0
0 3285 17
0 3285 743
0 3285 1626
0 3285 2592
0 3285 3285
0 3285 3285
0 3285 0
0 3285 0
0 3285 0
0 3285 1
0 3285 661
0 3285 1538
0 3285 2499
0 3285 3285
0 3285 3285
1559 0 0
1545 0 114
1523 0 757
1497 0 1497
1469 0 2342
1439 0 3203
1408 0 3285
1393 0 3285
1384 0 3285
1427 29 0
1416 25 27
1396 17 637
1372 7 1372
1345 0 2212
1317 0 3109
1288 0 3285
1274 0 3285
1267 0 3285
1229 479 0
1219 470 0
1200 452 452
1176 430 1176
1150 404 2009
1122 377 2929
1093 347 3285
1078 333 3285
1071 327 3285
1000 1000 0
991 991 0
973 973 218
950 950 950
925 925 1775
898 898 2691
868 868 3285
852 851 3285
845 845 3285
749 1593 0
742 1585 0
724 1567 16
702 1544 702
678 1518 1518
650 1490 2427
621 1460 3249
602 1440 3285
596 1433 3285
479 2246 0
472 2238 0
457 2221 0
435 2198 435
410 2172 1243
382 2144 2144
351 2113 3103
327 2089 3285
320 2082 3285
173 2952 0
166 2943 0
154 2928 0
135 2905 137
113 2879 952
87 2850 1845
60 2819 2820
43 2792 3285
40 2784 3285
10 3285 0
9 3285 0
6 3285 0
2 3285 3
0 3285 675
0 3285 1556
0 3285 2519
0 3285 3285
0 3285 3285
0 3285 0
0 3285 0
0 3285 0
0 3285 0
0 3285 593
0 3285 1469
0 3285 2428
0 3285 3273
0 3285 3285
2348 0 0
2334 0 42
2311 0 676
2285 0 1414
2256 0 2256
2225 0 3146
2193 0 3285
2176 0 3285
2168 0 3285
2216 1 0
2205 0 1
2184 0 563
2160 0 1294
2132 0 2132
2103 0 3041
2072 0 3285
2055 0 3285
2048 0 3285
2012 406 0
2002 396 0
1981 378 377
1958 355 1100
1931 329 1931
1902 301 2851
1872 267 3285
1855 249 3285
1848 242 3285
1776 925 0
1767 917 0
1748 899 141
1725 876 876
1699 851 1699
1670 824 2612
1640 795 3283
1621 777 3285
1614 770 3285
1516 1516 0
1508 1508 0
1491 1491 1
1468 1468 629
1443 1443 1443
1415 1415 2349
1385 1385 3222
1364 1364 3285
1357 1357 3285
1239 2169 0
1231 2160 0
1216 2145 0
1194 2122 360
1169 2096 1169
1142 2068 2068
1112 2037 3038
1088 2012 3285
1081 2005 3285
947 2874 0
939 2865 0
925 2851 0
904 2828 71
879 2802 879
852 2773 1770
824 2742 2743
797 2714 3285
790 2706 3285
668 3285 0
658 3285 0
645 3285 0
622 3285 0
596 3285 595
566 3285 1474
534 3285 2436
502 3285 3283
493 3285 3285
585 3285 0
576 3285 0
563 3285 0
541 3285 0
514 3285 514
484 3285 1387
452 3285 2345
418 3285 3245
408 3285 3285
3172 0 0
3162 0 5
3144 0 590
3122 0 1324
3098 0 2164
3072 0 3070
3043 0 3285
3028 0 3285
3020 0 3285
3066 0 0
3056 0 0
3038 0 483
3015 0 1210
2991 0 2045
2963 0 2962
2934 0 3285
2917 0 3285
2910 0 3285
2876 323 0
2866 314 0
2846 295 290
2821 268 1019
2794 237 1847
2765 205 2765
2733 176 3285
2715 160 3285
2707 154 3285
2635 843 0
2626 836 0
2607 818 60
2583 796 796
2556 771 1615
2527 744 2527
2496 715 3274
2475 696 3285
2468 689 3285
2369 1433 0
2361 1426 0
2343 1409 0
2320 1386 550
2294 1361 1361
2265 1333 2265
2235 1304 3183
2211 1281 3285
2204 1274 3285
2085 2085 0
2077 2076 0
2061 2061 0
2039 2038 272
2013 2013 1089
1985 1985 1985
1955 1954 2960
1929 1929 3285
1922 1922 3285
1785 2789 0
1776 2780 0
1763 2766 0
1741 2744 28
1716 2718 800
1688 2689 1688
1659 2659 2659
1630 2630 3285
1623 2622 3285
1490 3285 0
1480 3285 0
1466 3285 0
1443 3285 0
1415 3285 509
1385 3285 1385
1354 3281 2347
1323 3273 3269
1315 3267 3285
1402 3285 0
1392 3285 0
1379 3285 0
1356 3285 0
1328 3285 426
1298 3285 1298
1266 3285 2254
1232 3285 3205
1221 3285 3285
3285 0 0
3285 0 0
3285 0 502
3285 0 1233
3285 0 2069
3285 0 2985
3285 0 3285
3285 0 3285
3285 0 3285
3285 0 0
3285 0 0
3285 0 396
3285 0 1121
3285 0 1953
3285 0 2874
3285 0 3285
3285 0 3285
3285 0 3285
3285 222 0
3285 213 0
3285 193 198
3285 171 932
3285 143 1757
3285 108 2672
3285 73 3285
3285 56 3285
3285 52 3285
3281 757 0
3280 749 0
3278 732 19
3274 710 710
3269 685 1527
3262 658 2436
3254 629 3253
3247 610 3285
3245 603 3285
3207 1345 0
3203 1337 0
3196 1321 0
3183 1299 465
3168 1274 1274
3150 1246 2175
3129 1217 3128
3111 1194 3285
3105 1187 3285
3002 1995 0
2993 1987 0
2979 1972 0
2957 1950 183
2931 1924 1002
2902 1896 1896
2872 1866 2872
2844 1840 3285
2836 1832 3285
2698 2698 0
2689 2689 0
2676 2676 0
2654 2654 10
2628 2628 715
2599 2599 1601
2569 2569 2569
2539 2539 3285
2531 2531 3285
2388 3285 0
2377 3285 0
2364 3284 0
2341 3281 0
2316 3273 418
2287 3263 1296
2257 3252 2257
2225 3238 3233
2216 3231 3285
2295 3285 0
2285 3285 0
2272 3285 0
2249 3285 0
2220 3285 326
2190 3285 1203
2157 3285 2157
2122 3285 3150
2110 3285 3285
3285 0 0
3285 0 0
3285 0 459
3285 0 1184
3285 0 2017
3285 0 2934
3285 0 3285
3285 0 3285
3285 0 3285
3285 0 0
3285 0 0
3285 0 352
3285 0 1074
3285 0 1902
3285 0 2820
3285 0 3285
3285 0 3285
3285 0 3285
3285 174 0
3285 166 0
3285 144 150
3285 114 882
3285 82 1703
3285 52 2615
3285 38 3284
3285 31 3285
3285 29 3285
3285 702 0
3285 694 0
3285 676 5
3285 653 654
3285 628 1466
3285 600 2372
3285 571 3231
3285 549 3285
3285 542 3285
3285 1279 0
3285 1271 0
3285 1255 0
3285 1232 400
3285 1206 1206
3285 1178 2104
3285 1148 3068
3285 1123 3285
3285 1115 3285
3285 1919 0
3285 1910 0
3285 1895 0
3285 1872 114
3285 1846 927
3285 1817 1817
3285 1787 2790
3285 1758 3285
3285 1751 3285
3285 2612 0
3285 2603 0
3285 2589 0
3285 2566 0
3285 2540 633
3285 2511 1515
3285 2480 2480
3285 2448 3285
3285 2440 3285
3270 3273 0
3264 3267 0
3255 3259 0
3245 3249 0
3233 3238 321
3219 3223 1205
3203 3208 2163
3177 3183 3176
3168 3174 3285
3200 3285 0
3192 3285 0
3182 3285 0
3169 3285 0
3151 3285 210
3131 3285 1104
3107 3285 2055
3076 3285 3075
3064 3285 3285
3285 0 0
3285 0 0
3285 0 435
3285 0 1160
3285 0 1991
3285 0 2908
3285 0 3285
3285 0 3285
3285 0 3285
3285 0 0
3285 0 0
3285 0 331
3285 0 1052
3285 0 1879
3285 0 2795
3285 0 3285
3285 0 3285
3285 0 3285
3285 153 0
3285 144 0
3285 121 128
3285 91 861
3285 61 1681
3285 42 2591
3285 31 3283
3285 24 3285
3285 21 3285
3285 681 0
3285 673 0
3285 656 2
3285 633 634
3285 608 1445
3285 581 2349
3285 551 3224
3285 529 3285
3285 522 3285
3285 1258 0
3285 1249 0
3285 1234 0
3285 1211 380
3285 1185 1185
3285 1157 2082
3285 1126 3046
3285 1101 3285
3285 1094 3285
3285 1896 0
3285 1887 0
3285 1873 0
3285 1850 97
3285 1824 906
3285 1795 1795
3285 1764 2766
3285 1735 3285
3285 1727 3285
3285 2588 0
3285 2578 0
3285 2565 0
3285 2543 0
3285 2516 612
3285 2487 1492
3285 2456 2456
3285 2424 3283
3285 2416 3285
3285 3255 0
3285 3249 0
3285 3241 0
3285 3230 0
3285 3216 292
3285 3201 1177
3285 3182 2134
3285 3155 3148
3285 3145 3285
3285 3285 0
3285 3285 0
3285 3285 0
3285 3285 0
3285 3285 181
3285 3285 1068
3285 3285 2017
3285 3285 3039
3285 3285 3285
