Postproduction/IWLTBAP - Humble/LUTs by IWLTBAP (3DL)/UTILITY/Generic LOG to Rec.709/U-9995-LTR.3dl
# Copyright: (C) Copyright 2010-2018 by IWLTBAP SAS
# Cannot be resold, shared or otherwise redistributed
# Website: https://luts.iwltbap.com
0 64 128 192 256 320 384 448 512 576 640 704 768 832 896 960 1023
0 0 0
0 0 0
0 0 4
0 0 253
0 0 541
0 0 882
0 0 1296
0 0 1749
0 0 2196
0 0 2600
0 0 2933
0 0 3197
0 0 3411
0 0 3592
0 0 3749
0 0 3774
0 0 3774
0 0 0
0 0 0
0 0 4
0 0 253
0 0 541
0 0 882
0 0 1296
0 0 1749
0 0 2196
0 0 2600
0 0 2933
0 0 3197
0 0 3411
0 0 3592
0 0 3749
0 0 3774
0 0 3774
0 4 0
0 4 0
0 4 4
0 4 253
0 4 541
0 4 882
0 4 1296
0 4 1749
0 4 2196
0 4 2600
0 4 2933
0 4 3197
0 4 3411
0 4 3592
0 4 3749
0 4 3774
0 4 3774
0 253 0
0 253 0
0 253 4
0 253 253
0 253 541
0 253 882
0 253 1296
0 253 1749
0 253 2196
0 253 2600
0 253 2933
0 253 3197
0 253 3411
0 253 3592
0 253 3749
0 253 3774
0 253 3774
0 541 0
0 541 0
0 541 4
0 541 253
0 541 541
0 541 882
0 541 1296
0 541 1749
0 541 2196
0 541 2600
0 541 2933
0 541 3197
0 541 3411
0 541 3592
0 541 3749
0 541 3774
0 541 3774
0 882 0
0 882 0
0 882 4
0 882 253
0 882 541
0 882 882
0 882 1296
0 882 1749
0 882 2196
0 882 2600
0 882 2933
0 882 3197
0 882 3411
0 882 3592
0 882 3749
0 882 3774
0 882 3774
0 1296 0
0 1296 0
0 1296 4
0 1296 253
0 1296 541
0 1296 882
0 1296 1296
0 1296 1749
0 1296 2196
0 1296 2600
0 1296 2933
0 1296 3197
0 1296 3411
0 1296 3592
0 1296 3749
0 1296 3774
0 1296 3774
0 1749 0
0 1749 0
0 1749 4
0 1749 253
0 1749 541
0 1749 882
0 1749 1296
0 1749 1749
0 1749 2196
0 1749 2600
0 1749 2933
0 1749 3197
0 1749 3411
0 1749 3592
0 1749 3749
0 1749 3774
0 1749 3774
0 2196 0
0 2196 0
0 2196 4
0 2196 253
0 2196 541
0 2196 882
0 2196 1296
0 2196 1749
0 2196 2196
0 2196 2600
0 2196 2933
0 2196 3197
0 2196 3411
0 2196 3592
0 2196 3749
0 2196 3774
0 2196 3774
0 2600 0
0 2600 0
0 2600 4
0 2600 253
0 2600 541
0 2600 882
0 2600 1296
0 2600 1749
0 2600 2196
0 2600 2600
0 2600 2933
0 2600 3197
0 2600 3411
0 2600 3592
0 2600 3749
0 2600 3774
0 2600 3774
0 2933 0
0 2933 0
0 2933 4
0 2933 253
0 2933 541
0 2933 882
0 2933 1296
0 2933 1749
0 2933 2196
0 2933 2600
0 2933 2933
0 2933 3197
0 2933 3411
0 2933 3592
0 2933 3749
0 2933 3774
0 2933 3774
0 3197 0
0 3197 0
0 3197 4
0 3197 253
0 3197 541
0 3197 882
0 3197 1296
0 3197 1749
0 3197 2196
0 3197 2600
0 3197 2933
0 3197 3197
0 3197 3411
0 3197 3592
0 3197 3749
0 3197 3774
0 3197 3774
0 3411 0
0 3411 0
0 3411 4
0 3411 253
0 3411 541
0 3411 882
0 3411 1296
0 3411 1749
0 3411 2196
0 3411 2600
0 3411 2933
0 3411 3197
0 3411 3411
0 3411 3592
0 3411 3749
0 3411 3774
0 3411 3774
0 3592 0
0 3592 0
0 3592 4
0 3592 253
0 3592 541
0 3592 882
0 3592 1296
0 3592 1749
0 3592 2196
0 3592 2600
0 3592 2933
0 3592 3197
0 3592 3411
0 3592 3592
0 3592 3749
0 3592 3774
0 3592 3774
0 3749 0
0 3749 0
0 3749 4
0 3749 253
0 3749 541
0 3749 882
0 3749 1296
0 3749 1749
0 3749 2196
0 3749 2600
0 3749 2933
0 3749 3197
0 3749 3411
0 3749 3592
0 3749 3749
0 3749 3774
0 3749 3774
0 3774 0
0 3774 0
0 3774 4
0 3774 253
0 3774 541
0 3774 882
0 3774 1296
0 3774 1749
0 3774 2196
0 3774 2600
0 3774 2933
0 3774 3197
0 3774 3411
0 3774 3592
0 3774 3749
0 3774 3774
0 3774 3774
0 3774 0
0 3774 0
0 3774 4
0 3774 253
0 3774 541
0 3774 882
0 3774 1296
0 3774 1749
0 3774 2196
0 3774 2600
0 3774 2933
0 3774 3197
0 3774 3411
0 3774 3592
0 3774 3749
0 3774 3774
0 3774 3774
0 0 0
0 0 0
0 0 4
0 0 253
0 0 541
0 0 882
0 0 1296
0 0 1749
0 0 2196
0 0 2600
0 0 2933
0 0 3197
0 0 3411
0 0 3592
0 0 3749
0 0 3774
0 0 3774
0 0 0
0 0 0
0 0 4
0 0 253
0 0 541
0 0 882
0 0 1296
0 0 1749
0 0 2196
0 0 2600
0 0 2933
0 0 3197
0 0 3411
0 0 3592
0 0 3749
0 0 3774
0 0 3774
0 4 0
0 4 0
0 4 4
0 4 253
0 4 541
0 4 882
0 4 1296
0 4 1749
0 4 2196
0 4 2600
0 4 2933
0 4 3197
0 4 3411
0 4 3592
0 4 3749
0 4 3774
0 4 3774
0 253 0
0 253 0
0 253 4
0 253 253
0 253 541
0 253 882
0 253 1296
0 253 1749
0 253 2196
0 253 2600
0 253 2933
0 253 3197
0 253 3411
0 253 3592
0 253 3749
0 253 3774
0 253 3774
0 541 0
0 541 0
0 541 4
0 541 253
0 541 541
0 541 882
0 541 1296
0 541 1749
0 541 2196
0 541 2600
0 541 2933
0 541 3197
0 541 3411
0 541 3592
0 541 3749
0 541 3774
0 541 3774
0 882 0
0 882 0
0 882 4
0 882 253
0 882 541
0 882 882
0 882 1296
0 882 1749
0 882 2196
0 882 2600
0 882 2933
0 882 3197
0 882 3411
0 882 3592
0 882 3749
0 882 3774
0 882 3774
0 1296 0
0 1296 0
0 1296 4
0 1296 253
0 1296 541
0 1296 882
0 1296 1296
0 1296 1749
0 1296 2196
0 1296 2600
0 1296 2933
0 1296 3197
0 1296 3411
0 1296 3592
0 1296 3749
0 1296 3774
0 1296 3774
0 1749 0
0 1749 0
0 1749 4
0 1749 253
0 1749 541
0 1749 882
0 1749 1296
0 1749 1749
0 1749 2196
0 1749 2600
0 1749 2933
0 1749 3197
0 1749 3411
0 1749 3592
0 1749 3749
0 1749 3774
0 1749 3774
0 2196 0
0 2196 0
0 2196 4
0 2196 253
0 2196 541
0 2196 882
0 2196 1296
0 2196 1749
0 2196 2196
0 2196 2600
0 2196 2933
0 2196 3197
0 2196 3411
0 2196 3592
0 2196 3749
0 2196 3774
0 2196 3774
0 2600 0
0 2600 0
0 2600 4
0 2600 253
0 2600 541
0 2600 882
0 2600 1296
0 2600 1749
0 2600 2196
0 2600 2600
0 2600 2933
0 2600 3197
0 2600 3411
0 2600 3592
0 2600 3749
0 2600 3774
0 2600 3774
0 2933 0
0 2933 0
0 2933 4
0 2933 253
0 2933 541
0 2933 882
0 2933 1296
0 2933 1749
0 2933 2196
0 2933 2600
0 2933 2933
0 2933 3197
0 2933 3411
0 2933 3592
0 2933 3749
0 2933 3774
0 2933 3774
0 3197 0
0 3197 0
0 3197 4
0 3197 253
0 3197 541
0 3197 882
0 3197 1296
0 3197 1749
0 3197 2196
0 3197 2600
0 3197 2933
0 3197 3197
0 3197 3411
0 3197 3592
0 3197 3749
0 3197 3774
0 3197 3774
0 3411 0
0 3411 0
0 3411 4
0 3411 253
0 3411 541
0 3411 882
0 3411 1296
0 3411 1749
0 3411 2196
0 3411 2600
0 3411 2933
0 3411 3197
0 3411 3411
0 3411 3592
0 3411 3749
0 3411 3774
0 3411 3774
0 3592 0
0 3592 0
0 3592 4
0 3592 253
0 3592 541
0 3592 882
0 3592 1296
0 3592 1749
0 3592 2196
0 3592 2600
0 3592 2933
0 3592 3197
0 3592 3411
0 3592 3592
0 3592 3749
0 3592 3774
0 3592 3774
0 3749 0
0 3749 0
0 3749 4
0 3749 253
0 3749 541
0 3749 882
0 3749 1296
0 3749 1749
0 3749 2196
0 3749 2600
0 3749 2933
0 3749 3197
0 3749 3411
0 3749 3592
0 3749 3749
0 3749 3774
0 3749 3774
0 3774 0
0 3774 0
0 3774 4
0 3774 253
0 3774 541
0 3774 882
0 3774 1296
0 3774 1749
0 3774 2196
0 3774 2600
0 3774 2933
0 3774 3197
0 3774 3411
0 3774 3592
0 3774 3749
0 3774 3774
0 3774 3774
0 3774 0
0 3774 0
0 3774 4
0 3774 253
0 3774 541
0 3774 882
0 3774 1296
0 3774 1749
0 3774 2196
0 3774 2600
0 3774 2933
0 3774 3197
0 3774 3411
0 3774 3592
0 3774 3749
0 3774 3774
0 3774 3774
4 0 0
4 0 0
4 0 4
4 0 253
4 0 541
4 0 882
4 0 1296
4 0 1749
4 0 2196
4 0 2600
4 0 2933
4 0 3197
4 0 3411
4 0 3592
4 0 3749
4 0 3774
4 0 3774
4 0 0
4 0 0
4 0 4
4 0 253
4 0 541
4 0 882
4 0 1296
4 0 1749
4 0 2196
4 0 2600
4 0 2933
4 0 3197
4 0 3411
4 0 3592
4 0 3749
4 0 3774
4 0 3774
4 4 0
4 4 0
4 4 4
4 4 253
4 4 541
4 4 882
4 4 1296
4 4 1749
4 4 2196
4 4 2600
4 4 2933
4 4 3197
4 4 3411
4 4 3592
4 4 3749
4 4 3774
4 4 3774
4 253 0
4 253 0
4 253 4
4 253 253
4 253 541
4 253 882
4 253 1296
4 253 1749
4 253 2196
4 253 2600
4 253 2933
4 253 3197
4 253 3411
4 253 3592
4 253 3749
4 253 3774
4 253 3774
4 541 0
4 541 0
4 541 4
4 541 253
4 541 541
4 541 882
4 541 1296
4 541 1749
4 541 2196
4 541 2600
4 541 2933
4 541 3197
4 541 3411
4 541 3592
4 541 3749
4 541 3774
4 541 3774
4 882 0
4 882 0
4 882 4
4 882 253
4 882 541
4 882 882
4 882 1296
4 882 1749
4 882 2196
4 882 2600
4 882 2933
4 882 3197
4 882 3411
4 882 3592
4 882 3749
4 882 3774
4 882 3774
4 1296 0
4 1296 0
4 1296 4
4 1296 253
4 1296 541
4 1296 882
4 1296 1296
4 1296 1749
4 1296 2196
4 1296 2600
4 1296 2933
4 1296 3197
4 1296 3411
4 1296 3592
4 1296 3749
4 1296 3774
4 1296 3774
4 1749 0
4 1749 0
4 1749 4
4 1749 253
4 1749 541
4 1749 882
4 1749 1296
4 1749 1749
4 1749 2196
4 1749 2600
4 1749 2933
4 1749 3197
4 1749 3411
4 1749 3592
4 1749 3749
4 1749 3774
4 1749 3774
4 2196 0
4 2196 0
4 2196 4
4 2196 253
4 2196 541
4 2196 882
4 2196 1296
4 2196 1749
4 2196 2196
4 2196 2600
4 2196 2933
4 2196 3197
4 2196 3411
4 2196 3592
4 2196 3749
4 2196 3774
4 2196 3774
4 2600 0
4 2600 0
4 2600 4
4 2600 253
4 2600 541
4 2600 882
4 2600 1296
4 2600 1749
4 2600 2196
4 2600 2600
4 2600 2933
4 2600 3197
4 2600 3411
4 2600 3592
4 2600 3749
4 2600 3774
4 2600 3774
4 2933 0
4 2933 0
4 2933 4
4 2933 253
4 2933 541
4 2933 882
4 2933 1296
4 2933 1749
4 2933 2196
4 2933 2600
4 2933 2933
4 2933 3197
4 2933 3411
4 2933 3592
4 2933 3749
4 2933 3774
4 2933 3774
4 3197 0
4 3197 0
4 3197 4
4 3197 253
4 3197 541
4 3197 882
4 3197 1296
4 3197 1749
4 3197 2196
4 3197 2600
4 3197 2933
4 3197 3197
4 3197 3411
4 3197 3592
4 3197 3749
4 3197 3774
4 3197 3774
4 3411 0
4 3411 0
4 3411 4
4 3411 253
4 3411 541
4 3411 882
4 3411 1296
4 3411 1749
4 3411 2196
4 3411 2600
4 3411 2933
4 3411 3197
4 3411 3411
4 3411 3592
4 3411 3749
4 3411 3774
4 3411 3774
4 3592 0
4 3592 0
4 3592 4
4 3592 253
4 3592 541
4 3592 882
4 3592 1296
4 3592 1749
4 3592 2196
4 3592 2600
4 3592 2933
4 3592 3197
4 3592 3411
4 3592 3592
4 3592 3749
4 3592 3774
4 3592 3774
4 3749 0
4 3749 0
4 3749 4
4 3749 253
4 3749 541
4 3749 882
4 3749 1296
4 3749 1749
4 3749 2196
4 3749 2600
4 3749 2933
4 3749 3197
4 3749 3411
4 3749 3592
4 3749 3749
4 3749 3774
4 3749 3774
4 3774 0
4 3774 0
4 3774 4
4 3774 253
4 3774 541
4 3774 882
4 3774 1296
4 3774 1749
4 3774 2196
4 3774 2600
4 3774 2933
4 3774 3197
4 3774 3411
4 3774 3592
4 3774 3749
4 3774 3774
4 3774 3774
4 3774 0
4 3774 0
4 3774 4
4 3774 253
4 3774 541
4 3774 882
4 3774 1296
4 3774 1749
4 3774 2196
4 3774 2600
4 3774 2933
4 3774 3197
4 3774 3411
4 3774 3592
4 3774 3749
4 3774 3774
4 3774 3774
253 0 0
253 0 0
253 0 4
253 0 253
253 0 541
253 0 882
253 0 1296
253 0 1749
253 0 2196
253 0 2600
253 0 2933
253 0 3197
253 0 3411
253 0 3592
253 0 3749
253 0 3774
253 0 3774
253 0 0
253 0 0
253 0 4
253 0 253
253 0 541
253 0 882
253 0 1296
253 0 1749
253 0 2196
253 0 2600
253 0 2933
253 0 3197
253 0 3411
253 0 3592
253 0 3749
253 0 3774
