Postproduction/IWLTBAP - Humble/LUTs by IWLTBAP (3DL)/UTILITY/Generic LOG to Rec.709/U-9997-LTR.3dl
# Copyright: (C) Copyright 2010-2018 by IWLTBAP SAS
# Cannot be resold, shared or otherwise redistributed
# Website: https://luts.iwltbap.com
0 128 256 384 512 640 768 896 1023
0 0 0
0 0 222
0 0 560
0 0 1080
0 0 1869
0 0 2665
0 0 3253
0 0 3707
0 0 4095
0 222 0
0 222 222
0 222 560
0 222 1080
0 222 1869
0 222 2665
0 222 3253
0 222 3707
0 221 4095
0 560 0
0 560 222
0 560 560
0 560 1080
0 560 1869
0 560 2665
0 560 3253
0 561 3707
0 560 4095
0 1080 0
0 1080 222
0 1080 560
0 1080 1080
0 1080 1869
0 1080 2665
0 1080 3253
0 1080 3707
0 1080 4095
0 1869 0
0 1869 222
0 1869 560
0 1869 1080
0 1869 1869
0 1869 2665
0 1869 3253
0 1869 3707
0 1869 4095
0 2665 0
0 2665 222
0 2665 560
0 2665 1080
0 2665 1869
0 2665 2665
0 2665 3253
0 2665 3707
0 2665 4095
0 3253 0
0 3253 222
0 3253 560
0 3253 1080
0 3253 1869
0 3253 2665
0 3253 3253
0 3253 3707
0 3252 4095
0 3707 0
0 3707 222
0 3707 561
0 3707 1080
0 3707 1869
0 3707 2665
0 3707 3253
0 3707 3707
0 3707 4095
0 4095 0
0 4095 221
0 4095 560
0 4095 1080
0 4095 1869
0 4095 2665
0 4095 3252
0 4095 3707
0 4095 4095
222 0 0
222 0 222
222 0 560
222 0 1080
222 0 1869
222 0 2665
222 0 3253
222 0 3707
221 0 4095
222 222 0
222 222 222
200 200 584
162 162 1139
157 157 1934
157 157 2730
157 157 3317
157 157 3771
222 222 4095
222 560 0
200 584 200
197 581 581
160 540 1142
153 513 1938
153 505 2734
153 503 3322
153 501 3776
222 560 4095
222 1080 0
162 1139 162
160 1142 540
157 1136 1136
153 1075 1938
153 1052 2734
153 1044 3322
153 1040 3776
222 1079 4095
222 1869 0
157 1934 157
153 1938 513
153 1938 1075
153 1932 1932
153 1890 2734
153 1873 3322
153 1864 3776
222 1869 4095
222 2665 0
157 2730 157
153 2734 505
153 2734 1052
153 2734 1890
153 2731 2731
153 2708 3322
153 2695 3776
222 2666 4095
222 3253 0
157 3317 157
153 3322 503
153 3322 1044
153 3322 1873
153 3322 2708
153 3320 3320
153 3305 3776
222 3253 4095
222 3707 0
157 3771 157
153 3776 501
153 3776 1040
153 3776 1864
153 3776 2695
153 3776 3305
153 3775 3775
222 3707 4095
221 4095 0
222 4095 222
222 4095 560
222 4095 1079
222 4095 1869
222 4095 2666
222 4095 3253
222 4095 3707
222 4095 4095
560 0 0
560 0 222
560 0 560
560 0 1080
560 0 1869
560 0 2665
560 0 3253
561 0 3707
560 0 4095
560 222 0
578 205 205
581 197 581
540 160 1142
513 153 1938
505 153 2734
503 153 3322
501 153 3776
560 222 4095
560 560 0
581 581 197
561 561 561
518 518 1126
441 441 1993
366 366 2863
336 336 3481
347 347 3923
560 560 4095
560 1080 0
540 1142 160
518 1126 518
511 1119 1119
439 1047 1991
363 970 2863
325 926 3489
338 925 3929
560 1080 4095
560 1869 0
513 1938 153
441 1993 441
439 1991 1047
432 1984 1984
363 1912 2863
325 1861 3489
338 1834 3929
560 1869 4095
560 2665 0
505 2734 153
366 2863 366
363 2863 970
363 2863 1912
359 2857 2857
325 2803 3489
338 2751 3929
560 2665 4095
560 3253 0
503 3322 153
336 3481 336
325 3489 926
325 3489 1861
325 3489 2803
323 3485 3485
338 3420 3929
560 3253 4095
561 3707 0
501 3776 153
347 3923 347
338 3929 925
338 3929 1834
338 3929 2751
338 3929 3420
344 3921 3921
560 3707 4095
560 4095 0
560 4095 222
560 4095 560
560 4095 1080
560 4095 1869
560 4095 2665
560 4095 3253
560 4095 3707
560 4095 4095
1080 0 0
1080 0 222
1080 0 560
1080 0 1080
1080 0 1869
1080 0 2665
1080 0 3253
1080 0 3707
1080 0 4095
1080 222 0
1129 173 173
1132 169 544
1136 157 1136
1075 153 1938
1052 153 2734
1044 153 3322
1040 153 3776
1079 222 4095
1080 560 0
1131 544 170
1115 528 528
1119 512 1119
1047 439 1991
970 363 2863
926 325 3489
925 338 3929
1080 560 4095
1080 1080 0
1136 1136 157
1119 1119 512
1079 1080 1080
1007 1007 1951
929 929 2825
877 877 3465
858 858 3937
1080 1080 4095
1080 1869 0
1075 1938 153
1047 1991 439
1007 1951 1007
996 1940 1940
925 1868 2820
872 1816 3460
851 1785 3935
1080 1869 4095
1080 2665 0
1052 2734 153
970 2863 363
929 2825 929
925 2820 1868
919 2815 2815
872 2768 3460
851 2727 3935
1080 2665 4095
1080 3253 0
1044 3322 153
926 3489 325
877 3465 877
872 3460 1816
872 3460 2768
869 3458 3458
851 3413 3935
1080 3253 4095
1080 3707 0
1040 3776 153
925 3929 338
858 3937 858
851 3935 1785
851 3935 2727
851 3935 3413
858 3927 3927
1080 3707 4095
1080 4095 0
1079 4095 222
1080 4095 560
1080 4095 1080
1080 4095 1869
1080 4095 2665
1080 4095 3253
1080 4095 3707
1080 4095 4095
1869 0 0
1869 0 222
1869 0 560
1869 0 1080
1869 0 1869
1869 0 2665
1869 0 3253
1869 0 3707
1869 0 4095
1869 222 0
1934 157 157
1938 153 513
1938 153 1075
1932 153 1932
1890 153 2734
1873 153 3322
1864 153 3776
1869 222 4095
1869 560 0
1938 513 153
1963 470 470
1969 461 1054
1984 432 1984
1912 363 2863
1861 325 3489
1834 338 3929
1869 560 4095
1869 1080 0
1938 1075 153
1968 1054 461
1932 1025 1025
1939 996 1940
1868 925 2820
1816 872 3460
1785 851 3935
1869 1080 4095
1869 1869 0
1932 1932 153
1984 1984 432
1939 1939 996
1868 1870 1870
1798 1798 2750
1745 1745 3390
1710 1710 3879
1869 1869 4095
1869 2665 0
1890 2734 153
1912 2863 363
1868 2820 925
1798 2750 1798
1786 2738 2738
1739 2691 3383
1703 2654 3873
1869 2665 4095
1869 3253 0
1873 3322 153
1861 3489 325
1816 3460 872
1745 3390 1745
1739 3383 2691
1736 3381 3381
1703 3346 3873
1869 3253 4095
1869 3707 0
1864 3776 153
1834 3929 338
1785 3935 851
1710 3879 1710
1703 3873 2654
1703 3873 3346
1703 3871 3871
1869 3707 4095
1869 4095 0
1869 4095 222
1869 4095 560
1869 4095 1080
1869 4095 1869
1869 4095 2665
1869 4095 3253
1869 4095 3707
1869 4095 4095
2665 0 0
2665 0 222
2665 0 560
2665 0 1080
2665 0 1869
2665 0 2665
2665 0 3253
2665 0 3707
2665 0 4095
2665 222 0
2730 157 157
2734 153 505
2734 153 1052
2734 153 1890
2731 153 2731
2708 153 3322
2695 153 3776
2666 222 4095
2665 560 0
2734 505 153
2818 411 411
2818 408 995
2852 374 1911
2857 359 2857
2803 325 3489
2751 338 3929
2665 560 4095
2665 1080 0
2734 1052 153
2817 995 408
2787 966 966
2802 943 1870
2815 919 2815
2768 872 3460
2727 851 3935
2665 1080 4095
2665 1869 0
2734 1890 153
2850 1911 376
2801 1870 943
2731 1815 1815
2738 1786 2738
2691 1739 3383
2654 1703 3873
2665 1869 4095
2665 2665 0
2731 2731 153
2857 2857 359
2815 2815 919
2738 2738 1786
2664 2666 2666
2618 2618 3310
2581 2581 3801
2665 2665 4095
2665 3253 0
2708 3322 153
2803 3489 325
2768 3460 872
2691 3383 1739
2618 3310 2618
2610 3303 3303
2576 3269 3796
2665 3253 4095
2665 3707 0
2695 3776 153
2751 3929 338
2727 3935 851
2654 3873 1703
2581 3801 2581
2576 3796 3269
2575 3795 3795
2665 3707 4095
2665 4095 0
2666 4095 222
2665 4095 560
2665 4095 1080
2665 4095 1869
2665 4095 2665
2665 4095 3253
2665 4095 3707
2665 4095 4095
3253 0 0
3253 0 222
3253 0 560
3253 0 1080
3253 0 1869
3253 0 2665
3253 0 3253
3253 0 3707
3252 0 4095
3253 222 0
3317 157 157
3322 153 503
3322 153 1044
3322 153 1873
3322 153 2708
3320 153 3320
3305 153 3776
3253 222 4095
3253 560 0
3322 503 153
3444 373 373
3443 370 956
3467 346 1862
3488 325 2803
3485 323 3485
3420 338 3929
3253 560 4095
3253 1080 0
3322 1044 153
3443 956 370
3414 926 926
3424 908 1826
3459 873 2767
3458 869 3458
3413 851 3935
3253 1080 4095
3253 1869 0
3322 1873 153
3466 1862 347
3423 1827 910
3357 1775 1775
3375 1747 2690
3381 1736 3381
3346 1703 3873
3253 1869 4095
3253 2665 0
3322 2708 153
3488 2803 325
3458 2767 874
3373 2690 1749
3297 2629 2629
3303 2610 3303
3269 2576 3796
3253 2665 4095
3253 3253 0
3320 3320 153
3485 3485 323
3458 3458 869
3381 3381 1736
3303 3303 2610
3252 3253 3253
3219 3219 3746
3253 3253 4095
3253 3707 0
3305 3776 153
3420 3929 338
3413 3935 851
3346 3873 1703
3269 3796 2576
3219 3746 3219
3215 3742 3742
3253 3707 4095
3252 4095 0
3253 4095 222
3253 4095 560
3253 4095 1080
3253 4095 1869
3253 4095 2665
3253 4095 3253
3253 4095 3707
3253 4095 4095
3707 0 0
3707 0 222
3707 0 561
3707 0 1080
3707 0 1869
3707 0 2665
3707 0 3253
3707 0 3707
3707 0 4095
3707 222 0
3771 157 157
3776 153 501
3776 153 1040
3776 153 1864
3776 153 2695
3776 153 3305
3775 153 3775
3707 222 4095
3707 561 0
3776 501 153
3911 359 359
3913 355 937
3926 341 1835
3929 338 2751
3929 338 3420
3921 344 3921
3707 560 4095
3707 1080 0
3776 1040 153
3913 937 355
3893 901 901
3898 888 1800
3928 858 2726
3935 851 3413
3927 858 3927
3707 1080 4095
3707 1869 0
3776 1864 153
3925 1835 342
3897 1800 890
3838 1748 1748
3852 1724 2657
3873 1703 3346
3871 1703 3871
3707 1869 4095
3707 2665 0
3776 2695 153
3929 2751 338
3927 2725 859
3850 2657 1725
3778 2601 2601
3790 2582 3268
3795 2575 3795
3707 2665 4095
3707 3253 0
3776 3305 153
3929 3420 338
3935 3413 851
3872 3346 1703
3789 3268 2583
3737 3227 3227
3742 3215 3742
3707 3253 4095
3707 3707 0
3775 3775 153
3921 3921 344
3927 3927 858
3871 3871 1703
3795 3795 2575
3742 3742 3215
3706 3707 3707
3707 3707 4095
3707 4095 0
3707 4095 222
3707 4095 560
3707 4095 1080
3707 4095 1869
3707 4095 2665
3707 4095 3253
3707 4095 3707
3707 4095 4095
4095 0 0
4095 0 221
4095 0 560
4095 0 1080
4095 0 1869
4095 0 2665
4095 0 3252
4095 0 3707
4095 0 4095
4095 221 0
4095 222 222
4095 222 560
4095 222 1079
4095 222 1869
4095 222 2666
4095 222 3253
4095 222 3707
4095 222 4095
4095 560 0
4095 560 222
4095 560 560
4095 560 1080
4095 560 1869
4095 560 2665
4095 560 3253
4095 560 3707
4095 560 4095
4095 1080 0
4095 1079 222
4095 1080 560
4095 1080 1080
4095 1080 1869
4095 1080 2665
4095 1080 3253
4095 1080 3707
4095 1080 4095
4095 1869 0
4095 1869 222
4095 1869 560
4095 1869 1080
4095 1869 1869
4095 1869 2665
4095 1869 3253
4095 1869 3707
4095 1869 4095
4095 2665 0
4095 2666 222
4095 2665 560
4095 2665 1080
4095 2665 1869
4095 2665 2665
4095 2665 3253
4095 2665 3707
4095 2665 4095
4095 3252 0
4095 3253 222
4095 3253 560
4095 3253 1080
4095 3253 1869
4095 3253 2665
4095 3253 3253
4095 3253 3707
4095 3253 4095
4095 3707 0
4095 3707 222
4095 3707 560
4095 3707 1080
4095 3707 1869
4095 3707 2665
4095 3707 3253
4095 3707 3707
4095 3707 4095
4095 4095 0
4095 4095 222
4095 4095 560
4095 4095 1080
4095 4095 1869
4095 4095 2665
4095 4095 3253
4095 4095 3707
4095 4095 4095
