Postproduction/IWLTBAP - Humble/LUTs by IWLTBAP (3DL)/UTILITY/Generic LOG to Rec.709/U-9996-LTR.3dl
# Copyright: (C) Copyright 2010-2018 by IWLTBAP SAS
# Cannot be resold, shared or otherwise redistributed
# Website: https://luts.iwltbap.com
0 128 256 384 512 640 768 896 1023
64 64 64
62 68 254
58 77 663
51 93 1389
42 114 2316
34 135 3206
28 149 3822
26 154 4060
26 155 4090
23 318 107
21 323 297
17 332 706
10 348 1433
3 369 2359
1 389 3249
0 403 3866
0 409 4093
0 409 4095
0 867 202
0 871 391
0 881 801
0 897 1527
0 918 2454
0 938 3343
0 952 3961
0 957 4095
0 958 4095
0 1842 369
0 1846 559
0 1856 968
0 1872 1695
0 1893 2621
0 1913 3511
0 1927 4076
0 1933 4095
0 1933 4095
0 3085 582
0 3089 772
0 3099 1181
0 3115 1908
0 3136 2834
0 3156 3724
0 3170 4095
0 3175 4095
0 3176 4095
0 4053 787
0 4055 977
0 4059 1386
0 4067 2113
0 4078 3039
0 4088 3921
0 4095 4095
0 4095 4095
0 4095 4095
0 4095 929
0 4095 1119
0 4095 1528
0 4095 2255
0 4095 3181
0 4095 4019
0 4095 4095
0 4095 4095
0 4095 4095
0 4095 983
0 4095 1174
0 4095 1583
0 4095 2309
0 4095 3236
0 4095 4010
0 4095 4095
0 4095 4095
0 4095 4095
0 4095 991
0 4095 1181
0 4095 1590
0 4095 2316
0 4095 3243
0 4095 4014
0 4095 4095
0 4095 4095
0 4095 4095
297 2 20
295 2 210
291 10 619
284 25 1346
275 45 2272
267 66 3162
261 79 3779
259 85 4017
259 85 4047
256 250 64
254 254 254
250 263 663
243 280 1390
234 300 2316
226 320 3206
220 334 3822
218 340 4061
218 341 4089
167 798 158
165 802 348
161 812 757
155 828 1484
146 849 2410
137 869 3300
132 883 3917
129 889 4095
129 889 4095
24 1773 325
22 1777 515
19 1787 924
16 1803 1651
13 1824 2577
10 1844 3467
9 1858 4059
8 1864 4095
8 1864 4095
0 3016 538
0 3020 729
0 3030 1138
0 3046 1864
0 3067 2791
0 3087 3681
0 3101 4095
0 3106 4095
0 3107 4095
0 4018 744
0 4021 934
0 4025 1343
0 4033 2069
0 4044 2996
0 4054 3884
0 4061 4095
0 4064 4095
0 4064 4095
0 4095 885
0 4095 1076
0 4095 1484
0 4095 2211
0 4095 3138
0 4095 3988
0 4095 4095
0 4095 4095
0 4095 4095
0 4095 940
0 4095 1131
0 4095 1539
0 4095 2266
0 4095 3192
0 4095 3989
0 4095 4095
0 4095 4095
0 4095 4095
0 4095 947
0 4095 1137
0 4095 1546
0 4095 2273
0 4095 3199
0 4095 3992
0 4095 4095
0 4095 4095
0 4095 4095
799 0 0
797 0 117
793 0 525
786 0 1252
777 0 2178
769 0 3068
763 0 3685
761 0 3923
761 0 3953
757 101 0
755 106 160
752 115 569
745 131 1296
736 152 2222
728 172 3112
722 186 3729
720 192 3967
719 192 3997
669 650 64
667 654 254
663 663 663
656 680 1390
648 701 2316
639 721 3206
633 735 3823
631 740 4060
631 741 4084
512 1625 232
510 1629 422
506 1638 831
499 1655 1557
490 1676 2484
482 1696 3374
476 1710 3988
474 1715 4095
474 1716 4095
311 2867 445
309 2872 635
306 2881 1044
299 2897 1771
290 2918 2697
282 2939 3587
276 2953 4090
274 2958 4095
273 2959 4095
128 3941 650
126 3948 840
123 3952 1249
117 3960 1976
110 3971 2902
104 3981 3792
99 3988 4095
97 3991 4095
97 3991 4095
32 4095 792
32 4095 982
31 4095 1391
29 4095 2118
27 4095 3044
26 4095 3919
25 4095 4095
25 4095 4095
24 4095 4095
23 4095 847
22 4095 1037
21 4095 1446
20 4095 2172
18 4095 3099
17 4095 3943
16 4095 4095
15 4095 4095
15 4095 4095
21 4095 854
21 4095 1044
20 4095 1453
19 4095 2179
17 4095 3106
16 4095 3946
15 4095 4095
14 4095 4095
14 4095 4095
1690 0 0
1688 0 2
1685 0 359
1677 0 1086
1669 0 2012
1660 0 2902
1654 0 3518
1653 0 3756
1653 0 3786
1649 0 0
1647 0 14
1643 0 403
1636 0 1129
1628 1 2056
1619 1 2946
1614 2 3562
1611 3 3800
1611 3 3830
1561 386 0
1559 390 88
1555 399 497
1548 416 1223
1539 437 2150
1531 457 3040
1525 471 3656
1523 476 3895
1523 477 3925
1404 1361 66
1402 1365 255
1398 1375 664
1391 1391 1391
1382 1412 2317
1374 1432 3207
1368 1446 3824
1366 1451 4056
1366 1452 4078
1203 2604 278
1201 2608 469
1197 2617 877
1191 2634 1604
1182 2655 2531
1174 2675 3421
1168 2689 4027
1166 2694 4095
1165 2695 4095
1010 3765 484
1009 3792 674
1005 3800 1082
998 3815 1809
989 3830 2736
981 3843 3626
975 3853 4094
973 3856 4095
973 3856 4095
877 4095 626
875 4095 816
872 4095 1225
865 4095 1951
856 4095 2878
848 4095 3765
842 4095 4095
840 4095 4095
839 4095 4095
826 4095 680
824 4095 870
820 4095 1279
813 4095 2006
805 4095 2932
796 4095 3818
790 4095 4095
788 4095 4095
788 4095 4095
820 4095 687
818 4095 877
814 4095 1286
807 4095 2013
798 4095 2939
790 4095 3825
784 4095 4095
782 4095 4095
782 4095 4095
2827 0 0
2825 0 0
2821 0 149
2815 0 873
2806 0 1800
2797 0 2690
2792 0 3306
2789 0 3544
2789 0 3573
2785 0 0
2784 0 0
2780 0 191
2773 0 917
2764 0 1844
2756 0 2734
2750 0 3350
2748 0 3588
2748 0 3617
2697 80 0
2695 83 0
2692 89 285
2685 100 1011
2676 115 1938
2668 133 2828
2662 145 3444
2660 149 3682
2659 150 3711
2540 1025 0
2538 1029 50
2534 1038 452
2528 1055 1179
2519 1076 2105
2510 1096 2995
2505 1110 3611
2502 1115 3850
2502 1116 3880
2340 2268 68
2338 2272 256
2334 2281 665
2327 2297 1392
2318 2318 2318
2310 2339 3208
2304 2353 3825
2302 2358 4055
2302 2359 4076
2147 3452 271
2145 3460 461
2141 3469 870
2135 3485 1597
2126 3506 2523
2118 3526 3413
2112 3540 4022
2109 3546 4095
2109 3546 4095
2014 4079 413
2012 4094 603
2008 4094 1012
2001 4095 1739
1993 4095 2665
1984 4095 3554
1979 4095 4086
1976 4095 4095
1976 4095 4095
1962 4095 468
1961 4095 658
1957 4095 1067
1950 4095 1794
1941 4095 2720
1933 4095 3606
1927 4095 4094
1925 4095 4095
1924 4095 4095
1956 4095 475
1954 4095 665
1951 4095 1074
1944 4095 1801
1935 4095 2727
1927 4095 3612
1921 4095 4094
1919 4095 4095
1918 4095 4095
3884 0 0
3883 0 0
3879 0 16
3874 0 670
3866 0 1596
3858 0 2486
3853 0 3102
3851 0 3340
3851 0 3370
3848 0 0
3847 0 0
3843 0 29
3837 0 714
3830 0 1640
3822 0 2530
3817 0 3146
3815 0 3384
3815 0 3414
3770 0 0
3769 0 0
3765 0 92
3759 0 808
3752 1 1734
3744 1 2624
3739 3 3240
3737 3 3478
3737 3 3508
3629 702 0
3627 706 0
3623 715 248
3617 732 975
3608 753 1901
3599 773 2791
3594 787 3408
3591 792 3645
3591 793 3675
3429 1944 0
3427 1949 57
3423 1958 462
3416 1974 1188
3408 1995 2115
3399 2016 3005
3393 2029 3621
3391 2035 3860
3391 2036 3889
3236 3129 68
3235 3137 258
3231 3146 667
3224 3162 1393
3215 3183 2320
3207 3204 3210
3201 3218 3826
3199 3223 4059
3198 3223 4081
3103 3937 210
3101 3967 400
3097 3975 809
3090 3989 1535
3082 4007 2462
3073 4022 3350
3067 4032 3965
3065 4035 4095
3065 4036 4095
3051 4095 265
3049 4095 454
3046 4095 863
3039 4095 1590
3030 4095 2516
3022 4095 3402
3016 4095 4018
3014 4095 4095
3013 4095 4095
3045 4095 271
3043 4095 461
3040 4095 870
3033 4095 1597
3024 4095 2523
3016 4095 3409
3010 4095 4024
3008 4095 4095
3007 4095 4095
4095 0 0
4095 0 0
4095 0 0
4095 0 529
4095 0 1455
4095 0 2345
4095 0 2961
4095 0 3199
4095 0 3228
4095 0 0
4095 0 0
4095 0 1
4095 0 572
4095 0 1499
4095 0 2389
4095 0 3005
4095 0 3243
4095 0 3272
4095 0 0
4095 0 0
4095 0 19
4095 0 666
4095 0 1593
4095 0 2483
4095 0 3099
4095 0 3337
4095 0 3366
4093 478 0
4095 482 0
4095 491 114
4095 508 834
4095 529 1760
4095 549 2650
4095 563 3267
4095 568 3504
4095 569 3534
4060 1721 0
4088 1725 2
4088 1734 320
4087 1751 1047
4085 1772 1974
4084 1792 2864
4083 1806 3480
4082 1811 3718
4082 1812 3747
3964 2905 0
3991 2913 117
3987 2922 525
3981 2938 1252
3974 2959 2178
3966 2980 3068
3960 2994 3685
3958 2999 3924
3958 3000 3953
3848 3726 68
3861 3746 258
3857 3756 667
3850 3772 1394
3842 3793 2320
3833 3813 3209
3827 3827 3825
3825 3833 4063
3824 3833 4089
3796 4051 123
3809 4064 313
3805 4072 722
3799 4085 1449
3790 4091 2375
3782 4095 3261
3776 4095 3882
3774 4095 4095
3773 4095 4095
3789 4088 130
3803 4090 320
3799 4092 729
3792 4095 1456
3783 4095 2382
3775 4095 3267
3769 4095 3889
3767 4095 4095
3766 4095 4095
4095 0 0
4095 0 0
4095 0 0
4095 0 474
4095 0 1400
4095 0 2290
4095 0 2907
4095 0 3145
4095 0 3175
4095 0 0
4095 0 0
4095 0 0
4095 0 518
4095 0 1444
4095 0 2334
4095 0 2950
4095 0 3188
4095 0 3218
4095 0 0
4095 0 0
4095 0 9
4095 0 612
4095 0 1538
4095 0 2428
4095 0 3045
4095 0 3283
4095 0 3312
4095 392 0
4095 396 0
4095 405 70
4095 422 779
4095 443 1706
4095 463 2596
4095 477 3212
4095 482 3450
4095 483 3479
4095 1634 0
4095 1639 0
4095 1648 266
4095 1664 993
4095 1685 1919
4095 1706 2809
4095 1719 3426
4095 1725 3663
4095 1725 3693
4095 2819 0
4095 2827 63
4095 2836 471
4095 2852 1198
4095 2873 2124
4095 2894 3014
4095 2908 3631
4095 2913 3869
4095 2913 3899
4094 3639 16
4095 3660 204
4095 3669 613
4095 3685 1340
4095 3706 2266
4095 3727 3155
4094 3741 3770
4094 3746 4010
4094 3747 4040
4082 3967 69
4093 3980 259
4092 3989 668
4090 4005 1394
4082 4026 2321
4074 4047 3206
4068 4060 3827
4066 4066 4066
4065 4066 4094
4079 4012 75
4092 4019 266
4090 4029 674
4084 4045 1401
4076 4066 2328
4068 4086 3213
4062 4095 3834
4060 4095 4073
4059 4095 4095
4095 0 0
4095 0 0
4095 0 0
4095 0 467
4095 0 1394
4095 0 2284
4095 0 2900
4095 0 3138
4095 0 3167
4095 0 0
4095 0 0
4095 0 0
4095 0 511
4095 0 1437
4095 0 2327
4095 0 2944
4095 0 3182
4095 0 3211
4095 0 0
4095 0 0
4095 0 8
4095 0 605
4095 0 1532
4095 0 2422
4095 0 3038
4095 0 3276
4095 0 3305
4095 381 0
4095 385 0
4095 394 65
4095 411 773
4095 432 1699
4095 452 2589
4095 466 3205
4095 471 3443
4095 472 3473
4095 1624 0
4095 1628 0
4095 1637 259
4095 1654 986
4095 1675 1912
4095 1695 2802
4095 1709 3419
4095 1714 3656
4095 1715 3686
4095 2808 0
4095 2815 57
4095 2825 464
4095 2841 1191
4095 2863 2117
4095 2883 3007
4095 2896 3624
4095 2902 3862
4095 2902 3892
4095 3628 11
4095 3649 197
4095 3658 606
4095 3675 1333
4095 3696 2259
4095 3716 3148
4095 3730 3764
4095 3735 4003
4095 3736 4034
4095 3955 62
4095 3969 252
4095 3978 661
4095 3995 1388
4095 4016 2314
4095 4036 3200
4095 4050 3821
4095 4055 4059
4095 4056 4089
4095 4001 69
4095 4009 259
4095 4018 668
4095 4034 1395
4095 4055 2321
4095 4076 3206
4095 4090 3827
4095 4095 4066
4095 4095 4095
