Postproduction/IWLTBAP - Humble/LUTs by IWLTBAP (3DL)/UTILITY/Generic LOG to Rec.709/U-9997-LTR.3dl
# Copyright: (C) Copyright 2010-2018 by IWLTBAP SAS
# Cannot be resold, shared or otherwise redistributed
# Website: https://luts.iwltbap.com
0 64 128 192 256 320 384 448 512 576 640 704 768 832 896 960 1023
0 0 0
0 0 102
0 0 222
0 0 374
0 0 560
0 0 787
0 0 1080
0 0 1452
0 0 1869
0 0 2287
0 0 2665
0 0 2984
0 0 3253
0 0 3491
0 0 3707
0 0 3905
0 0 4095
0 102 0
0 102 102
0 102 222
0 102 374
0 102 560
0 102 787
0 102 1080
0 102 1452
0 102 1869
0 102 2287
0 102 2665
0 102 2984
0 102 3253
0 102 3491
0 102 3707
0 102 3905
0 101 4095
0 222 0
0 222 102
0 222 222
0 222 374
0 222 560
0 222 787
0 222 1080
0 222 1452
0 222 1869
0 221 2287
0 222 2665
0 221 2984
0 222 3253
0 221 3491
0 222 3707
0 222 3905
0 221 4095
0 374 0
0 374 102
0 374 222
0 374 374
0 374 560
0 374 787
0 374 1080
0 374 1452
0 374 1869
0 374 2287
0 374 2665
0 374 2984
0 374 3253
0 374 3491
0 374 3707
0 374 3905
0 374 4095
0 560 0
0 560 102
0 560 222
0 560 374
0 560 560
0 560 787
0 560 1080
0 560 1452
0 560 1869
0 561 2287
0 560 2665
0 560 2984
0 560 3253
0 560 3491
0 561 3707
0 560 3905
0 560 4095
0 787 0
0 787 102
0 787 222
0 787 374
0 787 560
0 787 787
0 787 1080
0 787 1452
0 787 1869
0 787 2287
0 787 2665
0 787 2984
0 787 3253
0 787 3491
0 787 3707
0 787 3905
0 787 4095
0 1080 0
0 1080 102
0 1080 222
0 1080 374
0 1080 560
0 1080 787
0 1080 1080
0 1080 1452
0 1080 1869
0 1080 2287
0 1080 2665
0 1080 2984
0 1080 3253
0 1080 3491
0 1080 3707
0 1079 3905
0 1080 4095
0 1452 0
0 1452 102
0 1452 222
0 1452 374
0 1452 560
0 1452 787
0 1452 1080
0 1451 1451
0 1451 1869
0 1452 2287
0 1451 2665
0 1451 2984
0 1452 3253
0 1451 3491
0 1451 3707
0 1451 3905
0 1452 4095
0 1869 0
0 1869 102
0 1869 222
0 1869 374
0 1869 560
0 1869 787
0 1869 1080
0 1869 1451
0 1869 1869
0 1869 2287
0 1869 2665
0 1869 2984
0 1869 3253
0 1869 3491
0 1869 3707
0 1869 3905
0 1869 4095
0 2287 0
0 2287 102
0 2287 221
0 2287 374
0 2287 561
0 2287 787
0 2287 1080
0 2287 1452
0 2287 1869
0 2287 2287
0 2287 2665
0 2287 2984
0 2287 3253
0 2287 3491
0 2287 3707
0 2287 3905
0 2287 4095
0 2665 0
0 2665 102
0 2665 222
0 2665 374
0 2665 560
0 2665 787
0 2665 1080
0 2665 1451
0 2665 1869
0 2665 2287
0 2665 2665
0 2665 2984
0 2665 3253
0 2665 3491
0 2665 3707
0 2666 3905
0 2665 4095
0 2984 0
0 2984 102
0 2984 221
0 2984 374
0 2984 560
0 2984 787
0 2984 1080
0 2984 1451
0 2984 1869
0 2984 2287
0 2984 2665
0 2984 2984
0 2984 3253
0 2984 3491
0 2984 3707
0 2984 3905
0 2984 4095
0 3253 0
0 3253 102
0 3253 222
0 3253 374
0 3253 560
0 3253 787
0 3253 1080
0 3253 1452
0 3253 1869
0 3253 2287
0 3253 2665
0 3253 2984
0 3253 3253
0 3253 3491
0 3253 3707
0 3253 3905
0 3252 4095
0 3491 0
0 3491 102
0 3491 221
0 3491 374
0 3491 560
0 3491 787
0 3491 1080
0 3491 1451
0 3491 1869
0 3491 2287
0 3491 2665
0 3491 2984
0 3491 3253
0 3491 3491
0 3491 3707
0 3491 3905
0 3491 4095
0 3707 0
0 3707 102
0 3707 222
0 3707 374
0 3707 561
0 3707 787
0 3707 1080
0 3707 1451
0 3707 1869
0 3707 2287
0 3707 2665
0 3707 2984
0 3707 3253
0 3707 3491
0 3707 3707
0 3707 3905
0 3707 4095
0 3905 0
0 3905 102
0 3905 222
0 3905 374
0 3905 560
0 3905 787
0 3905 1079
0 3905 1451
0 3905 1869
0 3905 2287
0 3905 2666
0 3905 2984
0 3905 3253
0 3905 3491
0 3905 3707
0 3905 3905
0 3905 4095
0 4095 0
0 4095 101
0 4095 221
0 4095 374
0 4095 560
0 4095 787
0 4095 1080
0 4095 1452
0 4095 1869
0 4095 2287
0 4095 2665
0 4095 2984
0 4095 3252
0 4095 3491
0 4095 3707
0 4095 3905
0 4095 4095
102 0 0
102 0 102
102 0 222
102 0 374
102 0 560
102 0 787
102 0 1080
102 0 1452
102 0 1869
102 0 2287
102 0 2665
102 0 2984
102 0 3253
102 0 3491
102 0 3707
102 0 3905
101 0 4095
102 102 0
102 102 102
97 97 227
88 88 388
79 79 583
78 78 811
78 78 1104
78 78 1476
78 78 1893
78 78 2311
78 78 2689
78 78 3008
78 78 3277
78 78 3515
78 78 3731
78 78 3929
102 102 4095
102 222 0
97 227 97
96 226 226
88 218 388
78 207 584
76 202 812
76 200 1105
76 199 1477
76 198 1895
76 198 2312
76 197 2691
76 197 3009
76 197 3278
76 197 3516
76 197 3732
76 197 3931
102 221 4095
102 374 0
88 388 88
88 388 218
87 387 387
78 375 584
76 365 812
76 359 1105
76 355 1477
76 354 1895
76 353 2312
76 352 2691
76 351 3009
76 351 3278
76 351 3516
76 351 3732
76 351 3931
102 374 4095
102 560 0
79 583 79
78 584 207
78 584 375
77 582 582
76 566 812
76 555 1105
76 548 1477
76 545 1895
76 543 2312
76 541 2691
76 541 3009
76 540 3278
76 540 3516
76 540 3732
76 539 3931
102 560 4095
102 787 0
78 811 78
76 812 202
76 812 365
76 812 566
76 809 809
76 795 1105
76 783 1477
76 777 1895
76 774 2312
76 772 2691
76 771 3009
76 770 3278
76 770 3516
76 769 3732
76 769 3931
102 787 4095
102 1080 0
78 1104 78
76 1105 200
76 1105 359
76 1105 555
76 1105 795
76 1102 1102
76 1089 1477
76 1079 1895
76 1073 2312
76 1070 2691
76 1069 3009
76 1067 3278
76 1067 3516
76 1066 3732
76 1066 3931
102 1080 4095
102 1452 0
78 1476 78
76 1477 199
76 1477 355
76 1477 548
76 1477 783
76 1477 1089
76 1474 1474
76 1463 1895
76 1455 2312
76 1450 2691
76 1448 3009
76 1446 3278
76 1444 3516
76 1444 3732
76 1443 3931
102 1452 4095
102 1869 0
78 1893 78
76 1895 198
76 1895 354
76 1895 545
76 1895 777
76 1895 1079
76 1895 1463
76 1893 1893
76 1884 2312
76 1877 2691
76 1873 3009
76 1871 3278
76 1869 3516
76 1868 3732
76 1867 3931
102 1869 4095
102 2287 0
78 2311 78
76 2312 198
76 2312 353
76 2312 543
76 2312 774
76 2312 1073
76 2312 1455
76 2312 1884
76 2310 2310
76 2304 2691
76 2299 3009
76 2296 3278
76 2294 3516
76 2292 3732
76 2290 3931
102 2287 4095
102 2665 0
78 2689 78
76 2691 197
76 2691 352
76 2691 541
76 2691 772
76 2691 1070
76 2691 1450
76 2691 1877
76 2691 2304
76 2690 2690
76 2685 3009
76 2681 3278
76 2679 3516
76 2676 3732
76 2675 3931
102 2666 4095
102 2984 0
78 3008 78
76 3009 197
76 3009 351
76 3009 541
76 3009 771
76 3009 1069
76 3009 1448
76 3009 1873
76 3009 2299
76 3009 2685
76 3008 3008
76 3005 3278
76 3002 3516
76 3000 3732
76 2998 3931
102 2984 4095
102 3253 0
78 3277 78
76 3278 197
76 3278 351
76 3278 540
76 3278 770
76 3278 1067
76 3278 1446
76 3278 1871
76 3278 2296
76 3278 2681
76 3278 3005
76 3278 3278
76 3275 3516
76 3272 3732
76 3270 3931
102 3253 4095
102 3491 0
78 3515 78
76 3516 197
76 3516 351
76 3516 540
76 3516 770
76 3516 1067
76 3516 1444
76 3516 1869
76 3516 2294
76 3516 2679
76 3516 3002
76 3516 3275
76 3516 3516
76 3514 3732
76 3511 3931
102 3491 4095
102 3707 0
78 3731 78
76 3732 197
76 3732 351
76 3732 540
76 3732 769
76 3732 1066
76 3732 1444
76 3732 1868
76 3732 2292
76 3732 2676
76 3732 3000
76 3732 3272
76 3732 3514
76 3732 3732
76 3730 3931
102 3707 4095
102 3905 0
78 3929 78
76 3931 197
76 3931 351
76 3931 539
76 3931 769
76 3931 1066
76 3931 1443
76 3931 1867
76 3931 2290
76 3931 2675
76 3931 2998
76 3931 3270
76 3931 3511
76 3931 3730
76 3931 3931
102 3905 4095
101 4095 0
102 4095 102
102 4095 221
102 4095 374
102 4095 560
102 4095 787
102 4095 1080
102 4095 1452
102 4095 1869
102 4095 2287
102 4095 2666
102 4095 2984
102 4095 3253
102 4095 3491
102 4095 3707
102 4095 3905
102 4095 4095
222 0 0
222 0 102
222 0 222
222 0 374
222 0 560
222 0 787
222 0 1080
222 0 1452
222 0 1869
221 0 2287
222 0 2665
221 0 2984
222 0 3253
221 0 3491
222 0 3707
222 0 3905
221 0 4095
222 102 0
226 98 98
226 96 226
218 88 388
207 78 584
202 76 812
200 76 1105
199 76 1477
198 76 1895
198 76 2312
197 76 2691
197 76 3009
197 76 3278
197 76 3516
197 76 3732
197 76 3931
221 102 4095
222 222 0
226 226 96
222 222 222
213 213 384
200 200 584
182 182 828
162 162 1139
158 158 1516
157 157 1934
157 157 2351
157 157 2730
157 157 3048
157 157 3317
157 157 3555
157 157 3771
158 158 3969
222 222 4095
222 374 0
218 388 88
213 384 213
211 382 382
199 370 583
181 352 827
160 329 1142
153 318 1520
153 314 1938
153 312 2356
153 311 2734
153 310 3053
153 310 3322
153 309 3560
153 309 3776
154 310 3973
222 374 4095
222 560 0
207 584 78
200 584 200
199 583 370
197 581 581
181 565 827
160 540 1142
153 522 1520
153 513 1938
153 508 2356
153 505 2734
153 504 3053
153 503 3322
153 502 3560
153 501 3776
154 502 3973
222 560 4095
222 787 0
202 812 76
182 828 182
181 827 352
181 827 565
178 824 824
160 801 1142
153 774 1520
153 757 1938
153 748 2356
153 743 2734
153 740 3053
153 739 3322
153 737 3560
153 736 3776
154 736 3973
222 787 4095
222 1080 0
200 1105 76
162 1139 162
160 1142 329
160 1142 540
160 1142 801
157 1136 1136
153 1102 1520
153 1075 1938
153 1061 2356
153 1052 2734
153 1047 3053
153 1044 3322
153 1042 3560
153 1040 3776
154 1040 3973
222 1079 4095
222 1452 0
199 1477 76
158 1516 158
153 1520 318
153 1520 522
153 1520 774
153 1520 1102
153 1513 1513
153 1482 1938
153 1459 2356
153 1446 2734
153 1439 3053
153 1434 3322
153 1431 3560
153 1428 3776
154 1426 3973
222 1452 4095
222 1869 0
198 1895 76
157 1934 157
153 1938 314
153 1938 513
153 1938 757
153 1938 1075
153 1938 1482
153 1932 1932
153 1908 2356
153 1890 2734
153 1880 3053
153 1873 3322
153 1868 3560
153 1864 3776
154 1861 3973
222 1869 4095
221 2287 0
198 2312 76
157 2351 157
153 2356 312
153 2356 508
153 2356 748
153 2356 1061
153 2356 1459
153 2356 1908
153 2351 2351
153 2333 2734
153 2319 3053
153 2311 3322
153 2305 3560
153 2300 3776
154 2296 3973
222 2287 4095
222 2665 0
197 2691 76
157 2730 157
153 2734 311
153 2734 505
153 2734 743
153 2734 1052
153 2734 1446
153 2734 1890
153 2734 2333
153 2731 2731
153 2718 3053
153 2708 3322
153 2701 3560
153 2695 3776
154 2690 3973
222 2666 4095
221 2984 0
197 3009 76
157 3048 157
153 3053 310
153 3053 504
153 3053 740
153 3053 1047
153 3053 1439
153 3053 1880
153 3053 2319
153 3053 2718
153 3051 3051
153 3041 3322
153 3033 3560
153 3026 3776
154 3020 3973
222 2984 4095
222 3253 0
197 3278 76
157 3317 157
153 3322 310
153 3322 503
153 3322 739
153 3322 1044
153 3322 1434
153 3322 1873
153 3322 2311
153 3322 2708
153 3322 3041
153 3320 3320
153 3312 3560
153 3305 3776
154 3299 3973
222 3253 4095
221 3491 0
197 3516 76
157 3555 157
153 3560 309
153 3560 502
153 3560 737
153 3560 1042
153 3560 1431
153 3560 1868
153 3560 2305
153 3560 2701
153 3560 3033
153 3560 3312
153 3559 3559
153 3553 3776
154 3545 3973
222 3491 4095
222 3707 0
197 3732 76
157 3771 157
153 3776 309
153 3776 501
153 3776 736
153 3776 1040
153 3776 1428
153 3776 1864
153 3776 2300
153 3776 2695
153 3776 3026
153 3776 3305
153 3776 3553
153 3775 3775
154 3768 3973
222 3707 4095
222 3905 0
197 3931 76
158 3969 158
154 3973 310
154 3973 502
154 3973 736
154 3973 1040
154 3973 1426
154 3973 1861
154 3973 2296
154 3973 2690
154 3973 3020
154 3973 3299
154 3973 3545
154 3973 3768
155 3972 3972
222 3905 4095
221 4095 0
221 4095 102
222 4095 222
222 4095 374
222 4095 560
222 4095 787
222 4095 1079
222 4095 1452
222 4095 1869
222 4095 2287
222 4095 2666
222 4095 2984
222 4095 3253
222 4095 3491
222 4095 3707
222 4095 3905
222 4095 4095
374 0 0
374 0 102
374 0 222
374 0 374
374 0 560
374 0 787
374 0 1080
374 0 1452
374 0 1869
374 0 2287
374 0 2665
374 0 2984
374 0 3253
374 0 3491
374 0 3707
374 0 3905
374 0 4095
374 102 0
385 91 91
386 90 219
387 87 387
375 78 584
365 76 812
359 76 1105
355 76 1477
354 76 1895
353 76 2312
352 76 2691
351 76 3009
351 76 3278
351 76 3516
351 76 3732
351 76 3931
