Postproduction/IWLTBAP - Humble/LUTs by IWLTBAP (3DL)/UTILITY/Generic LOG to Rec.709/U-9992-LTR.3dl
# Copyright: (C) Copyright 2010-2018 by IWLTBAP SAS
# Cannot be resold, shared or otherwise redistributed
# Website: https://luts.iwltbap.com
0 256 512 768 1023
0 0 0
0 0 1359
0 0 3260
0 0 4095
0 0 4095
0 961 0
0 920 919
0 854 2849
0 778 4095
0 750 4095
0 2346 0
0 2312 239
0 2252 2252
0 2182 4089
0 2149 4095
0 3887 0
0 3859 0
0 3802 1540
0 3734 3734
0 3696 4095
0 4095 0
0 4095 0
0 4095 1088
0 4095 3305
0 4095 4095
1267 0 0
1221 0 1221
1153 0 3130
1075 0 4095
1047 0 4095
842 842 0
803 803 803
739 739 2740
662 662 4095
635 635 4095
169 2248 0
141 2216 144
82 2158 2158
26 2088 4076
8 2055 4095
0 3804 0
0 3778 0
0 3722 1458
0 3656 3656
0 3617 4095
0 4095 0
0 4095 0
0 4095 997
0 4095 3220
0 4095 4095
3049 0 0
3006 0 1018
2943 0 2943
2871 0 4095
2841 0 4095
2661 650 0
2625 611 611
2566 544 2566
2497 464 4095
2469 435 4095
2074 2074 0
2044 2044 5
1985 1986 1985
1915 1916 4026
1881 1881 4095
1369 3641 0
1342 3615 0
1283 3560 1283
1211 3494 3494
1168 3454 4095
896 4095 0
866 4095 0
798 4095 798
713 4095 3045
653 4095 4095
4095 0 0
4095 0 782
4095 0 2727
4095 0 4095
4095 0 4095
4095 411 0
4095 373 371
4095 302 2361
4095 213 4095
4095 178 4095
4010 1867 0
3997 1838 0
3967 1779 1779
3924 1709 3922
3897 1672 4095
3445 3445 0
3420 3420 0
3365 3366 1069
3299 3299 3299
3256 3257 4095
2988 4095 0
2961 4095 0
2902 4095 544
2829 4095 2829
2775 4095 4095
4095 0 0
4095 0 691
4095 0 2636
4095 0 4095
4095 0 4095
4095 316 0
4095 275 272
4095 197 2271
4095 117 4093
4095 84 4095
4095 1759 0
4095 1730 0
4095 1670 1669
4095 1596 3832
4095 1555 4095
4095 3320 0
4095 3295 0
4095 3239 931
4095 3171 3171
4095 3126 4095
4095 4095 0
4095 4095 0
4095 4095 358
4095 4095 2666
4095 4095 4095
