Postproduction/IWLTBAP - Humble/LUTs by IWLTBAP (3DL)/UTILITY/Generic LOG to Rec.709/U-9995-LTR.3dl
# Copyright: (C) Copyright 2010-2018 by IWLTBAP SAS
# Cannot be resold, shared or otherwise redistributed
# Website: https://luts.iwltbap.com
0 256 512 768 1023
0 0 0
0 0 541
0 0 2196
0 0 3411
0 0 3774
0 541 0
0 541 541
0 541 2196
0 541 3411
0 541 3774
0 2196 0
0 2196 541
0 2196 2196
0 2196 3411
0 2196 3774
0 3411 0
0 3411 541
0 3411 2196
0 3411 3411
0 3411 3774
0 3774 0
0 3774 541
0 3774 2196
0 3774 3411
0 3774 3774
541 0 0
541 0 541
541 0 2196
541 0 3411
541 0 3774
541 541 0
541 541 541
541 541 2196
541 541 3411
541 541 3774
541 2196 0
541 2196 541
541 2196 2196
541 2196 3411
541 2196 3774
541 3411 0
541 3411 541
541 3411 2196
541 3411 3411
541 3411 3774
541 3774 0
541 3774 541
541 3774 2196
541 3774 3411
541 3774 3774
2196 0 0
2196 0 541
2196 0 2196
2196 0 3411
2196 0 3774
2196 541 0
2196 541 541
2196 541 2196
2196 541 3411
2196 541 3774
2196 2196 0
2196 2196 541
2196 2196 2196
2196 2196 3411
2196 2196 3774
2196 3411 0
2196 3411 541
2196 3411 2196
2196 3411 3411
2196 3411 3774
2196 3774 0
2196 3774 541
2196 3774 2196
2196 3774 3411
2196 3774 3774
3411 0 0
3411 0 541
3411 0 2196
3411 0 3411
3411 0 3774
3411 541 0
3411 541 541
3411 541 2196
3411 541 3411
3411 541 3774
3411 2196 0
3411 2196 541
3411 2196 2196
3411 2196 3411
3411 2196 3774
3411 3411 0
3411 3411 541
3411 3411 2196
3411 3411 3411
3411 3411 3774
3411 3774 0
3411 3774 541
3411 3774 2196
3411 3774 3411
3411 3774 3774
3774 0 0
3774 0 541
3774 0 2196
3774 0 3411
3774 0 3774
3774 541 0
3774 541 541
3774 541 2196
3774 541 3411
3774 541 3774
3774 2196 0
3774 2196 541
3774 2196 2196
3774 2196 3411
3774 2196 3774
3774 3411 0
3774 3411 541
3774 3411 2196
3774 3411 3411
3774 3411 3774
3774 3774 0
3774 3774 541
3774 3774 2196
3774 3774 3411
3774 3774 3774
