Postproduction/IWLTBAP - Humble/LUTs by IWLTBAP (3DL)/UTILITY/Generic LOG to Rec.709/U-9996-LTR.3dl
# Copyright: (C) Copyright 2010-2018 by IWLTBAP SAS
# Cannot be resold, shared or otherwise redistributed
# Website: https://luts.iwltbap.com
0 64 128 192 256 320 384 448 512 576 640 704 768 832 896 960 1023
64 64 64
63 65 148
62 68 254
60 71 418
58 77 663
55 84 990
51 93 1389
47 104 1841
42 114 2316
38 125 2781
34 135 3206
31 143 3559
28 149 3822
27 152 3986
26 154 4060
26 154 4079
26 155 4090
45 177 83
44 179 167
43 182 273
42 185 438
40 191 682
37 198 1009
33 207 1409
29 217 1860
24 228 2335
20 238 2801
16 248 3225
12 256 3579
10 262 3842
8 266 4006
8 267 4080
7 268 4094
7 268 4095
23 318 107
22 320 192
21 323 297
19 326 462
17 332 706
14 339 1033
10 348 1433
7 358 1884
3 369 2359
1 380 2825
1 389 3249
0 397 3603
0 403 3866
0 407 4030
0 409 4093
0 409 4095
0 409 4095
1 539 146
1 541 230
1 544 335
1 547 500
0 553 744
0 560 1071
0 570 1471
0 580 1923
0 590 2397
0 601 2863
0 611 3287
0 619 3641
0 625 3904
0 628 4064
0 630 4095
0 630 4095
0 631 4095
0 867 202
0 869 286
0 871 391
0 875 556
0 881 801
0 888 1128
0 897 1527
0 907 1979
0 918 2454
0 928 2919
0 938 3343
0 946 3697
0 952 3961
0 956 4088
0 957 4095
0 958 4095
0 958 4095
0 1306 277
0 1308 361
0 1310 467
0 1314 632
0 1319 876
0 1327 1203
0 1336 1603
0 1346 2054
0 1357 2529
0 1367 2994
0 1377 3419
0 1385 3773
0 1391 4028
0 1394 4095
0 1396 4095
0 1396 4095
0 1397 4095
0 1842 369
0 1844 454
0 1846 559
0 1850 724
0 1856 968
0 1863 1295
0 1872 1695
0 1882 2146
0 1893 2621
0 1904 3087
0 1913 3511
0 1921 3865
0 1927 4076
0 1931 4095
0 1933 4095
0 1933 4095
0 1933 4095
0 2448 473
0 2450 558
0 2452 663
0 2456 827
0 2461 1072
0 2469 1399
0 2478 1798
0 2488 2250
0 2499 2725
0 2509 3191
0 2519 3615
0 2527 3961
0 2533 4093
0 2537 4095
0 2538 4095
0 2539 4095
0 2539 4095
0 3085 582
0 3087 667
0 3089 772
0 3093 937
0 3099 1181
0 3106 1508
0 3115 1908
0 3125 2359
0 3136 2834
0 3146 3300
0 3156 3724
0 3164 4041
0 3170 4095
0 3174 4095
0 3175 4095
0 3176 4095
0 3176 4095
0 3710 689
0 3712 774
0 3715 879
0 3718 1044
0 3724 1288
0 3731 1615
0 3740 2015
0 3750 2467
0 3761 2941
0 3771 3407
0 3781 3832
0 3789 4076
0 3795 4095
0 3798 4095
0 3799 4095
0 3799 4095
0 3800 4095
0 4053 787
0 4054 872
0 4055 977
0 4057 1142
0 4059 1386
0 4063 1713
0 4067 2113
0 4072 2564
0 4078 3039
0 4083 3505
0 4088 3921
0 4092 4093
0 4095 4095
0 4095 4095
0 4095 4095
0 4095 4095
0 4095 4095
0 4095 869
0 4095 953
0 4095 1058
0 4095 1224
0 4095 1468
0 4095 1794
0 4095 2194
0 4095 2646
0 4095 3121
0 4095 3586
0 4095 3984
0 4095 4095
0 4095 4095
0 4095 4095
0 4095 4095
0 4095 4095
0 4095 4095
0 4095 929
0 4095 1014
0 4095 1119
0 4095 1284
0 4095 1528
0 4095 1855
0 4095 2255
0 4095 2706
0 4095 3181
0 4095 3647
0 4095 4019
0 4095 4095
0 4095 4095
0 4095 4095
0 4095 4095
0 4095 4095
0 4095 4095
0 4095 967
0 4095 1051
0 4095 1157
0 4095 1322
0 4095 1566
0 4095 1893
0 4095 2292
0 4095 2744
0 4095 3219
0 4095 3685
0 4095 4001
0 4095 4095
0 4095 4095
0 4095 4095
0 4095 4095
0 4095 4095
0 4095 4095
0 4095 983
0 4095 1069
0 4095 1174
0 4095 1339
0 4095 1583
0 4095 1910
0 4095 2309
0 4095 2761
0 4095 3236
0 4095 3702
0 4095 4010
0 4095 4095
0 4095 4095
0 4095 4095
0 4095 4095
0 4095 4095
0 4095 4095
0 4095 988
0 4095 1073
0 4095 1178
0 4095 1343
0 4095 1587
0 4095 1914
0 4095 2314
0 4095 2765
0 4095 3240
0 4095 3706
0 4095 4013
0 4095 4095
0 4095 4095
0 4095 4095
0 4095 4095
0 4095 4095
0 4095 4095
0 4095 991
0 4095 1075
0 4095 1181
0 4095 1346
0 4095 1590
0 4095 1917
0 4095 2316
0 4095 2768
0 4095 3243
0 4095 3708
0 4095 4014
0 4095 4095
0 4095 4095
0 4095 4095
0 4095 4095
0 4095 4095
0 4095 4095
167 33 44
166 35 129
166 37 234
164 41 399
162 46 643
159 54 970
155 63 1370
151 73 1821
146 84 2296
142 94 2762
138 104 3186
135 112 3540
132 118 3803
130 122 3967
130 123 4041
129 124 4060
129 124 4071
149 146 64
148 148 148
147 150 254
146 154 418
143 160 663
140 167 990
136 176 1389
132 187 1841
128 197 2316
123 208 2781
119 218 3206
116 226 3559
114 231 3822
112 235 3986
111 237 4061
111 237 4080
111 237 4090
126 288 88
126 290 173
125 292 278
123 296 442
121 301 687
118 309 1014
114 318 1413
110 328 1865
105 339 2340
101 349 2806
97 359 3230
93 367 3584
91 373 3847
89 376 4011
89 378 4084
89 378 4094
88 379 4095
91 509 126
90 511 211
89 513 316
88 517 481
85 522 725
82 530 1052
78 539 1452
74 549 1903
70 560 2378
65 570 2844
61 580 3268
58 588 3622
56 594 3885
54 598 4048
53 599 4095
53 600 4095
53 600 4095
39 836 182
38 838 267
37 840 372
36 844 537
34 850 781
31 857 1108
28 866 1508
25 877 1959
21 887 2434
18 898 2900
15 907 3324
12 915 3678
10 921 3941
9 925 4083
8 927 4095
8 927 4095
8 927 4095
2 1275 258
2 1277 342
2 1279 447
1 1283 612
1 1288 857
1 1296 1184
1 1305 1583
0 1315 2035
0 1326 2509
0 1337 2975
0 1346 3399
0 1354 3753
0 1360 4012
0 1364 4094
0 1365 4095
0 1366 4095
0 1366 4095
0 1812 350
0 1814 434
0 1816 539
0 1820 705
0 1825 949
0 1832 1275
0 1842 1675
0 1852 2126
0 1862 2601
0 1873 3067
0 1882 3491
0 1890 3846
0 1896 4069
0 1900 4095
0 1902 4095
0 1902 4095
0 1903 4095
0 2417 453
0 2419 538
0 2421 643
0 2425 808
0 2431 1052
0 2438 1379
0 2447 1779
0 2457 2231
0 2468 2705
0 2478 3171
0 2488 3595
0 2496 3945
0 2502 4091
0 2506 4095
0 2508 4095
0 2508 4095
0 2508 4095
0 3054 563
0 3056 647
0 3058 753
0 3062 918
0 3068 1162
0 3075 1489
0 3084 1888
0 3094 2340
0 3105 2815
0 3116 3280
0 3125 3705
0 3133 4029
0 3139 4095
0 3143 4095
0 3145 4095
0 3145 4095
0 3145 4095
0 3679 670
0 3681 755
0 3684 860
0 3687 1025
0 3693 1269
0 3700 1596
0 3709 1996
0 3720 2447
0 3730 2922
0 3741 3388
0 3750 3812
0 3758 4072
0 3764 4095
0 3768 4095
0 3770 4095
0 3770 4095
0 3770 4095
0 4037 768
0 4038 852
0 4039 958
0 4041 1123
0 4044 1367
0 4048 1694
0 4052 2093
0 4057 2545
0 4063 3020
0 4068 3485
0 4073 3905
0 4077 4091
0 4080 4095
0 4082 4095
0 4083 4095
0 4083 4095
0 4083 4095
0 4095 849
0 4095 934
0 4095 1039
0 4095 1204
0 4095 1448
0 4095 1775
0 4095 2175
0 4095 2626
0 4095 3101
0 4095 3567
0 4095 3969
0 4095 4095
0 4095 4095
0 4095 4095
0 4095 4095
0 4095 4095
0 4095 4095
0 4095 910
0 4095 995
0 4095 1100
0 4095 1265
0 4095 1509
0 4095 1836
0 4095 2235
0 4095 2687
0 4095 3162
0 4095 3628
0 4095 4005
0 4095 4095
0 4095 4095
0 4095 4095
0 4095 4095
0 4095 4095
0 4095 4095
0 4095 947
0 4095 1032
0 4095 1137
0 4095 1302
0 4095 1546
0 4095 1874
0 4095 2273
0 4095 2725
0 4095 3199
0 4095 3665
0 4095 3992
0 4095 4095
0 4095 4095
0 4095 4095
0 4095 4095
0 4095 4095
0 4095 4095
0 4095 964
0 4095 1049
0 4095 1154
0 4095 1319
0 4095 1563
0 4095 1890
0 4095 2290
0 4095 2742
0 4095 3216
0 4095 3683
0 4095 4001
0 4095 4095
0 4095 4095
0 4095 4095
0 4095 4095
0 4095 4095
0 4095 4095
0 4095 969
0 4095 1053
0 4095 1159
0 4095 1324
0 4095 1568
0 4095 1895
0 4095 2294
0 4095 2746
0 4095 3221
0 4095 3687
0 4095 4003
0 4095 4095
0 4095 4095
0 4095 4095
0 4095 4095
0 4095 4095
0 4095 4095
0 4095 972
0 4095 1056
0 4095 1161
0 4095 1326
0 4095 1570
0 4095 1897
0 4095 2297
0 4095 2748
0 4095 3223
0 4095 3689
0 4095 4004
0 4095 4095
0 4095 4095
0 4095 4095
0 4095 4095
0 4095 4095
0 4095 4095
297 2 20
296 2 105
295 2 210
293 5 375
291 10 619
288 16 946
284 25 1346
280 35 1797
275 45 2272
271 56 2738
267 66 3162
264 74 3516
261 79 3779
260 83 3943
259 85 4017
259 85 4036
259 85 4047
278 108 40
278 110 124
277 113 229
275 116 395
273 122 639
270 129 965
266 138 1365
262 148 1817
257 159 2291
253 170 2757
249 179 3181
245 187 3535
243 193 3798
241 197 3962
241 199 4037
241 199 4056
240 199 4067
256 250 64
255 252 148
254 254 254
252 258 418
250 263 663
247 271 990
243 280 1390
239 290 1841
234 300 2316
230 311 2781
226 320 3206
223 328 3560
220 334 3822
219 338 3987
218 340 4061
218 341 4080
218 341 4089
220 471 101
219 473 186
218 475 292
216 479 456
214 484 701
211 492 1028
207 501 1427
203 511 1879
199 522 2354
194 532 2820
190 542 3244
187 550 3597
184 556 3861
183 559 4025
182 561 4090
182 562 4095
182 562 4095
167 798 158
166 800 243
165 802 348
164 806 513
161 812 757
158 819 1084
155 828 1484
150 838 1935
146 849 2410
141 860 2876
137 869 3300
134 877 3654
132 883 3917
130 887 4072
129 889 4095
129 889 4095
129 889 4095
97 1237 233
96 1239 318
95 1241 423
93 1245 588
91 1251 832
88 1258 1159
85 1267 1559
81 1277 2010
76 1288 2485
72 1299 2951
68 1308 3375
65 1316 3729
63 1322 3991
61 1326 4093
61 1327 4095
60 1328 4095
60 1328 4095
24 1773 325
23 1775 410
22 1777 515
21 1781 680
19 1787 924
17 1794 1251
16 1803 1651
15 1813 2103
13 1824 2577
12 1835 3043
10 1844 3467
9 1852 3821
9 1858 4059
8 1862 4095
8 1864 4095
8 1864 4095
8 1864 4095
1 2379 429
1 2381 514
1 2383 619
0 2387 784
0 2392 1028
0 2400 1355
0 2409 1755
0 2419 2206
0 2430 2681
0 2440 3147
0 2450 3571
0 2458 3923
0 2464 4088
0 2468 4095
0 2469 4095
0 2470 4095
0 2470 4095
0 3016 538
0 3018 624
0 3020 729
0 3024 894
0 3030 1138
0 3037 1465
0 3046 1864
0 3056 2316
0 3067 2791
0 3077 3256
0 3087 3681
0 3095 4014
0 3101 4095
0 3105 4095
0 3106 4095
0 3107 4095
0 3107 4095
0 3641 646
0 3643 730
0 3645 836
0 3649 1001
0 3655 1245
0 3662 1572
0 3671 1972
0 3681 2423
0 3692 2898
0 3703 3364
0 3712 3788
0 3720 4066
0 3726 4095
0 3730 4095
0 3732 4095
0 3732 4095
0 3732 4095
0 4018 744
0 4019 828
0 4021 934
0 4022 1098
0 4025 1343
0 4029 1670
0 4033 2069
0 4038 2521
0 4044 2996
0 4049 3461
0 4054 3884
0 4058 4088
0 4061 4095
0 4063 4095
0 4064 4095
0 4064 4095
0 4064 4095
0 4095 825
0 4095 910
0 4095 1015
0 4095 1180
0 4095 1424
0 4095 1751
0 4095 2151
0 4095 2602
0 4095 3077
0 4095 3543
0 4095 3951
0 4095 4095
0 4095 4095
0 4095 4095
0 4095 4095
0 4095 4095
0 4095 4095
0 4095 885
0 4095 970
0 4095 1076
0 4095 1240
0 4095 1484
0 4095 1812
0 4095 2211
0 4095 2663
0 4095 3138
0 4095 3603
0 4095 3988
0 4095 4094
0 4095 4095
0 4095 4095
0 4095 4095
0 4095 4095
0 4095 4095
0 4095 923
0 4095 1008
0 4095 1113
0 4095 1278
0 4095 1522
0 4095 1849
0 4095 2249
0 4095 2700
0 4095 3175
0 4095 3641
0 4095 3980
0 4095 4094
0 4095 4095
0 4095 4095
0 4095 4095
0 4095 4095
0 4095 4095
0 4095 940
0 4095 1025
0 4095 1131
0 4095 1295
0 4095 1539
0 4095 1866
0 4095 2266
0 4095 2717
0 4095 3192
0 4095 3659
0 4095 3989
0 4095 4095
0 4095 4095
0 4095 4095
0 4095 4095
0 4095 4095
0 4095 4095
0 4095 944
0 4095 1030
0 4095 1135
0 4095 1299
0 4095 1544
0 4095 1871
0 4095 2270
0 4095 2722
0 4095 3197
0 4095 3663
0 4095 3991
0 4095 4095
0 4095 4095
0 4095 4095
0 4095 4095
0 4095 4095
0 4095 4095
0 4095 947
0 4095 1032
0 4095 1137
0 4095 1302
0 4095 1546
0 4095 1873
0 4095 2273
0 4095 2724
0 4095 3199
0 4095 3665
0 4095 3992
0 4095 4095
0 4095 4095
0 4095 4095
0 4095 4095
0 4095 4095
0 4095 4095
499 0 1
498 0 67
497 0 172
496 0 337
493 0 581
490 0 908
487 0 1308
482 1 1759
478 3 2234
473 5 2700
469 11 3124
466 17 3478
464 23 3741
462 26 3905
461 27 3980
461 28 3998
461 28 4009
481 49 5
480 51 87
479 53 192
477 57 357
475 62 600
472 69 928
468 78 1327
464 89 1779
459 99 2254
455 110 2720
451 119 3144
448 128 3497
445 133 3760
444 137 3925
443 139 3999
443 139 4018
