Postproduction/IWLTBAP - Humble/LUTs by IWLTBAP (3DL)/UTILITY/Generic LOG to Rec.709/U-9995-LTR.3dl
# Copyright: (C) Copyright 2010-2018 by IWLTBAP SAS
# Cannot be resold, shared or otherwise redistributed
# Website: https://luts.iwltbap.com
0 128 256 384 512 640 768 896 1023
0 0 0
0 0 4
0 0 541
0 0 1296
0 0 2196
0 0 2933
0 0 3411
0 0 3749
0 0 3774
0 4 0
0 4 4
0 4 541
0 4 1296
0 4 2196
0 4 2933
0 4 3411
0 4 3749
0 4 3774
0 541 0
0 541 4
0 541 541
0 541 1296
0 541 2196
0 541 2933
0 541 3411
0 541 3749
0 541 3774
0 1296 0
0 1296 4
0 1296 541
0 1296 1296
0 1296 2196
0 1296 2933
0 1296 3411
0 1296 3749
0 1296 3774
0 2196 0
0 2196 4
0 2196 541
0 2196 1296
0 2196 2196
0 2196 2933
0 2196 3411
0 2196 3749
0 2196 3774
0 2933 0
0 2933 4
0 2933 541
0 2933 1296
0 2933 2196
0 2933 2933
0 2933 3411
0 2933 3749
0 2933 3774
0 3411 0
0 3411 4
0 3411 541
0 3411 1296
0 3411 2196
0 3411 2933
0 3411 3411
0 3411 3749
0 3411 3774
0 3749 0
0 3749 4
0 3749 541
0 3749 1296
0 3749 2196
0 3749 2933
0 3749 3411
0 3749 3749
0 3749 3774
0 3774 0
0 3774 4
0 3774 541
0 3774 1296
0 3774 2196
0 3774 2933
0 3774 3411
0 3774 3749
0 3774 3774
4 0 0
4 0 4
4 0 541
4 0 1296
4 0 2196
4 0 2933
4 0 3411
4 0 3749
4 0 3774
4 4 0
4 4 4
4 4 541
4 4 1296
4 4 2196
4 4 2933
4 4 3411
4 4 3749
4 4 3774
4 541 0
4 541 4
4 541 541
4 541 1296
4 541 2196
4 541 2933
4 541 3411
4 541 3749
4 541 3774
4 1296 0
4 1296 4
4 1296 541
4 1296 1296
4 1296 2196
4 1296 2933
4 1296 3411
4 1296 3749
4 1296 3774
4 2196 0
4 2196 4
4 2196 541
4 2196 1296
4 2196 2196
4 2196 2933
4 2196 3411
4 2196 3749
4 2196 3774
4 2933 0
4 2933 4
4 2933 541
4 2933 1296
4 2933 2196
4 2933 2933
4 2933 3411
4 2933 3749
4 2933 3774
4 3411 0
4 3411 4
4 3411 541
4 3411 1296
4 3411 2196
4 3411 2933
4 3411 3411
4 3411 3749
4 3411 3774
4 3749 0
4 3749 4
4 3749 541
4 3749 1296
4 3749 2196
4 3749 2933
4 3749 3411
4 3749 3749
4 3749 3774
4 3774 0
4 3774 4
4 3774 541
4 3774 1296
4 3774 2196
4 3774 2933
4 3774 3411
4 3774 3749
4 3774 3774
541 0 0
541 0 4
541 0 541
541 0 1296
541 0 2196
541 0 2933
541 0 3411
541 0 3749
541 0 3774
541 4 0
541 4 4
541 4 541
541 4 1296
541 4 2196
541 4 2933
541 4 3411
541 4 3749
541 4 3774
541 541 0
541 541 4
541 541 541
541 541 1296
541 541 2196
541 541 2933
541 541 3411
541 541 3749
541 541 3774
541 1296 0
541 1296 4
541 1296 541
541 1296 1296
541 1296 2196
541 1296 2933
541 1296 3411
541 1296 3749
541 1296 3774
541 2196 0
541 2196 4
541 2196 541
541 2196 1296
541 2196 2196
541 2196 2933
541 2196 3411
541 2196 3749
541 2196 3774
541 2933 0
541 2933 4
541 2933 541
541 2933 1296
541 2933 2196
541 2933 2933
541 2933 3411
541 2933 3749
541 2933 3774
541 3411 0
541 3411 4
541 3411 541
541 3411 1296
541 3411 2196
541 3411 2933
541 3411 3411
541 3411 3749
541 3411 3774
541 3749 0
541 3749 4
541 3749 541
541 3749 1296
541 3749 2196
541 3749 2933
541 3749 3411
541 3749 3749
541 3749 3774
541 3774 0
541 3774 4
541 3774 541
541 3774 1296
541 3774 2196
541 3774 2933
541 3774 3411
541 3774 3749
541 3774 3774
1296 0 0
1296 0 4
1296 0 541
1296 0 1296
1296 0 2196
1296 0 2933
1296 0 3411
1296 0 3749
1296 0 3774
1296 4 0
1296 4 4
1296 4 541
1296 4 1296
1296 4 2196
1296 4 2933
1296 4 3411
1296 4 3749
1296 4 3774
1296 541 0
1296 541 4
1296 541 541
1296 541 1296
1296 541 2196
1296 541 2933
1296 541 3411
1296 541 3749
1296 541 3774
1296 1296 0
1296 1296 4
1296 1296 541
1296 1296 1296
1296 1296 2196
1296 1296 2933
1296 1296 3411
1296 1296 3749
1296 1296 3774
1296 2196 0
1296 2196 4
1296 2196 541
1296 2196 1296
1296 2196 2196
1296 2196 2933
1296 2196 3411
1296 2196 3749
1296 2196 3774
1296 2933 0
1296 2933 4
1296 2933 541
1296 2933 1296
1296 2933 2196
1296 2933 2933
1296 2933 3411
1296 2933 3749
1296 2933 3774
1296 3411 0
1296 3411 4
1296 3411 541
1296 3411 1296
1296 3411 2196
1296 3411 2933
1296 3411 3411
1296 3411 3749
1296 3411 3774
1296 3749 0
1296 3749 4
1296 3749 541
1296 3749 1296
1296 3749 2196
1296 3749 2933
1296 3749 3411
1296 3749 3749
1296 3749 3774
1296 3774 0
1296 3774 4
1296 3774 541
1296 3774 1296
1296 3774 2196
1296 3774 2933
1296 3774 3411
1296 3774 3749
1296 3774 3774
2196 0 0
2196 0 4
2196 0 541
2196 0 1296
2196 0 2196
2196 0 2933
2196 0 3411
2196 0 3749
2196 0 3774
2196 4 0
2196 4 4
2196 4 541
2196 4 1296
2196 4 2196
2196 4 2933
2196 4 3411
2196 4 3749
2196 4 3774
2196 541 0
2196 541 4
2196 541 541
2196 541 1296
2196 541 2196
2196 541 2933
2196 541 3411
2196 541 3749
2196 541 3774
2196 1296 0
2196 1296 4
2196 1296 541
2196 1296 1296
2196 1296 2196
2196 1296 2933
2196 1296 3411
2196 1296 3749
2196 1296 3774
2196 2196 0
2196 2196 4
2196 2196 541
2196 2196 1296
2196 2196 2196
2196 2196 2933
2196 2196 3411
2196 2196 3749
2196 2196 3774
2196 2933 0
2196 2933 4
2196 2933 541
2196 2933 1296
2196 2933 2196
2196 2933 2933
2196 2933 3411
2196 2933 3749
2196 2933 3774
2196 3411 0
2196 3411 4
2196 3411 541
2196 3411 1296
2196 3411 2196
2196 3411 2933
2196 3411 3411
2196 3411 3749
2196 3411 3774
2196 3749 0
2196 3749 4
2196 3749 541
2196 3749 1296
2196 3749 2196
2196 3749 2933
2196 3749 3411
2196 3749 3749
2196 3749 3774
2196 3774 0
2196 3774 4
2196 3774 541
2196 3774 1296
2196 3774 2196
2196 3774 2933
2196 3774 3411
2196 3774 3749
2196 3774 3774
2933 0 0
2933 0 4
2933 0 541
2933 0 1296
2933 0 2196
2933 0 2933
2933 0 3411
2933 0 3749
2933 0 3774
2933 4 0
2933 4 4
2933 4 541
2933 4 1296
2933 4 2196
2933 4 2933
2933 4 3411
2933 4 3749
2933 4 3774
2933 541 0
2933 541 4
2933 541 541
2933 541 1296
2933 541 2196
2933 541 2933
2933 541 3411
2933 541 3749
2933 541 3774
2933 1296 0
2933 1296 4
2933 1296 541
2933 1296 1296
2933 1296 2196
2933 1296 2933
2933 1296 3411
2933 1296 3749
2933 1296 3774
2933 2196 0
2933 2196 4
2933 2196 541
2933 2196 1296
2933 2196 2196
2933 2196 2933
2933 2196 3411
2933 2196 3749
2933 2196 3774
2933 2933 0
2933 2933 4
2933 2933 541
2933 2933 1296
2933 2933 2196
2933 2933 2933
2933 2933 3411
2933 2933 3749
2933 2933 3774
2933 3411 0
2933 3411 4
2933 3411 541
2933 3411 1296
2933 3411 2196
2933 3411 2933
2933 3411 3411
2933 3411 3749
2933 3411 3774
2933 3749 0
2933 3749 4
2933 3749 541
2933 3749 1296
2933 3749 2196
2933 3749 2933
2933 3749 3411
2933 3749 3749
2933 3749 3774
2933 3774 0
2933 3774 4
2933 3774 541
2933 3774 1296
2933 3774 2196
2933 3774 2933
2933 3774 3411
2933 3774 3749
2933 3774 3774
3411 0 0
3411 0 4
3411 0 541
3411 0 1296
3411 0 2196
3411 0 2933
3411 0 3411
3411 0 3749
3411 0 3774
3411 4 0
3411 4 4
3411 4 541
3411 4 1296
3411 4 2196
3411 4 2933
3411 4 3411
3411 4 3749
3411 4 3774
3411 541 0
3411 541 4
3411 541 541
3411 541 1296
3411 541 2196
3411 541 2933
3411 541 3411
3411 541 3749
3411 541 3774
3411 1296 0
3411 1296 4
3411 1296 541
3411 1296 1296
3411 1296 2196
3411 1296 2933
3411 1296 3411
3411 1296 3749
3411 1296 3774
3411 2196 0
3411 2196 4
3411 2196 541
3411 2196 1296
3411 2196 2196
3411 2196 2933
3411 2196 3411
3411 2196 3749
3411 2196 3774
3411 2933 0
3411 2933 4
3411 2933 541
3411 2933 1296
3411 2933 2196
3411 2933 2933
3411 2933 3411
3411 2933 3749
3411 2933 3774
3411 3411 0
3411 3411 4
3411 3411 541
3411 3411 1296
3411 3411 2196
3411 3411 2933
3411 3411 3411
3411 3411 3749
3411 3411 3774
3411 3749 0
3411 3749 4
3411 3749 541
3411 3749 1296
3411 3749 2196
3411 3749 2933
3411 3749 3411
3411 3749 3749
3411 3749 3774
3411 3774 0
3411 3774 4
3411 3774 541
3411 3774 1296
3411 3774 2196
3411 3774 2933
3411 3774 3411
3411 3774 3749
3411 3774 3774
3749 0 0
3749 0 4
3749 0 541
3749 0 1296
3749 0 2196
3749 0 2933
3749 0 3411
3749 0 3749
3749 0 3774
3749 4 0
3749 4 4
3749 4 541
3749 4 1296
3749 4 2196
3749 4 2933
3749 4 3411
3749 4 3749
3749 4 3774
3749 541 0
3749 541 4
3749 541 541
3749 541 1296
3749 541 2196
3749 541 2933
3749 541 3411
3749 541 3749
3749 541 3774
3749 1296 0
3749 1296 4
3749 1296 541
3749 1296 1296
3749 1296 2196
3749 1296 2933
3749 1296 3411
3749 1296 3749
3749 1296 3774
3749 2196 0
3749 2196 4
3749 2196 541
3749 2196 1296
3749 2196 2196
3749 2196 2933
3749 2196 3411
3749 2196 3749
3749 2196 3774
3749 2933 0
3749 2933 4
3749 2933 541
3749 2933 1296
3749 2933 2196
3749 2933 2933
3749 2933 3411
3749 2933 3749
3749 2933 3774
3749 3411 0
3749 3411 4
3749 3411 541
3749 3411 1296
3749 3411 2196
3749 3411 2933
3749 3411 3411
3749 3411 3749
3749 3411 3774
3749 3749 0
3749 3749 4
3749 3749 541
3749 3749 1296
3749 3749 2196
3749 3749 2933
3749 3749 3411
3749 3749 3749
3749 3749 3774
3749 3774 0
3749 3774 4
3749 3774 541
3749 3774 1296
3749 3774 2196
3749 3774 2933
3749 3774 3411
3749 3774 3749
3749 3774 3774
3774 0 0
3774 0 4
3774 0 541
3774 0 1296
3774 0 2196
3774 0 2933
3774 0 3411
3774 0 3749
3774 0 3774
3774 4 0
3774 4 4
3774 4 541
3774 4 1296
3774 4 2196
3774 4 2933
3774 4 3411
3774 4 3749
3774 4 3774
3774 541 0
3774 541 4
3774 541 541
3774 541 1296
3774 541 2196
3774 541 2933
3774 541 3411
3774 541 3749
3774 541 3774
3774 1296 0
3774 1296 4
3774 1296 541
3774 1296 1296
3774 1296 2196
3774 1296 2933
3774 1296 3411
3774 1296 3749
3774 1296 3774
3774 2196 0
3774 2196 4
3774 2196 541
3774 2196 1296
3774 2196 2196
3774 2196 2933
3774 2196 3411
3774 2196 3749
3774 2196 3774
3774 2933 0
3774 2933 4
3774 2933 541
3774 2933 1296
3774 2933 2196
3774 2933 2933
3774 2933 3411
3774 2933 3749
3774 2933 3774
3774 3411 0
3774 3411 4
3774 3411 541
3774 3411 1296
3774 3411 2196
3774 3411 2933
3774 3411 3411
3774 3411 3749
3774 3411 3774
3774 3749 0
3774 3749 4
3774 3749 541
3774 3749 1296
3774 3749 2196
3774 3749 2933
3774 3749 3411
3774 3749 3749
3774 3749 3774
3774 3774 0
3774 3774 4
3774 3774 541
3774 3774 1296
3774 3774 2196
3774 3774 2933
3774 3774 3411
3774 3774 3749
3774 3774 3774
