Postproduction/IWLTBAP - Humble/LUTs by IWLTBAP (3DL)/UTILITY/Generic LOG to Rec.709/U-9991-LTR.3dl
# Copyright: (C) Copyright 2010-2018 by IWLTBAP SAS
# Cannot be resold, shared or otherwise redistributed
# Website: https://luts.iwltbap.com
0 256 512 768 1023
0 0 0
0 0 938
0 0 2534
0 0 3285
0 0 3285
0 633 0
0 603 603
0 554 2174
0 498 3285
0 478 3285
0 1744 0
0 1715 101
0 1665 1665
0 1606 3280
0 1578 3285
0 3096 0
0 3070 0
0 3019 1082
0 2958 2958
0 2923 3285
0 3285 0
0 3285 0
0 3285 729
0 3285 2574
0 3285 3285
867 0 0
830 0 831
778 0 2420
719 0 3285
698 0 3285
546 545 0
517 517 517
470 470 2080
414 415 3285
394 395 3285
56 1661 0
40 1635 42
21 1586 1586
6 1528 3267
2 1500 3285
0 3021 0
0 2997 0
0 2947 1016
0 2887 2887
0 2852 3285
0 3285 0
0 3285 0
0 3285 661
0 3285 2499
0 3285 3285
2348 0 0
2311 0 676
2256 0 2256
2193 0 3285
2168 0 3285
2012 406 0
1981 378 377
1931 329 1931
1872 267 3285
1848 242 3285
1516 1516 0
1491 1491 1
1443 1443 1443
1385 1385 3222
1357 1357 3285
947 2874 0
925 2851 0
879 2802 879
824 2742 2743
790 2706 3285
585 3285 0
563 3285 0
514 3285 514
452 3285 2345
408 3285 3285
3285 0 0
3285 0 502
3285 0 2069
3285 0 3285
3285 0 3285
3285 222 0
3285 193 198
3285 143 1757
3285 73 3285
3285 52 3285
3207 1345 0
3196 1321 0
3168 1274 1274
3129 1217 3128
3105 1187 3285
2698 2698 0
2676 2676 0
2628 2628 715
2569 2569 2569
2531 2531 3285
2295 3285 0
2272 3285 0
2220 3285 326
2157 3285 2157
2110 3285 3285
3285 0 0
3285 0 435
3285 0 1991
3285 0 3285
3285 0 3285
3285 153 0
3285 121 128
3285 61 1681
3285 31 3283
3285 21 3285
3285 1258 0
3285 1234 0
3285 1185 1185
3285 1126 3046
3285 1094 3285
3285 2588 0
3285 2565 0
3285 2516 612
3285 2456 2456
3285 2416 3285
3285 3285 0
3285 3285 0
3285 3285 181
3285 3285 2017
3285 3285 3285
