Postproduction/IWLTBAP - Humble/LUTs by IWLTBAP (3DL)/UTILITY/Generic LOG to Rec.709/U-9991-LTR.3dl
# Copyright: (C) Copyright 2010-2018 by IWLTBAP SAS
# Cannot be resold, shared or otherwise redistributed
# Website: https://luts.iwltbap.com
0 64 128 192 256 320 384 448 512 576 640 704 768 832 896 960 1023
0 0 0
0 0 45
0 0 319
0 0 611
0 0 938
0 0 1297
0 0 1685
0 0 2098
0 0 2534
0 0 2992
0 0 3267
0 0 3285
0 0 3285
0 0 3285
0 0 3285
0 0 3285
0 0 3285
0 23 0
0 20 21
0 18 255
0 15 553
0 11 879
0 7 1237
0 4 1624
0 0 2037
0 0 2473
0 0 2930
0 0 3259
0 0 3285
0 0 3285
0 0 3285
0 0 3285
0 0 3285
0 0 3285
0 185 0
0 178 1
0 167 170
0 155 475
0 141 798
0 124 1155
0 108 1540
0 91 1951
0 75 2386
0 61 2842
0 52 3230
0 45 3285
0 39 3285
0 37 3285
0 34 3285
0 32 3285
0 32 3285
0 405 0
0 401 0
0 393 60
0 384 383
0 374 705
0 362 1059
0 351 1442
0 338 1852
0 325 2285
0 311 2740
0 295 3168
0 277 3285
0 261 3285
0 254 3285
0 247 3285
0 240 3285
0 239 3285
0 633 0
0 630 0
0 622 12
0 613 275
0 603 603
0 592 954
0 580 1336
0 567 1743
0 554 2174
0 541 2627
0 526 3078
0 512 3285
0 498 3285
0 491 3285
0 485 3285
0 479 3285
0 478 3285
0 883 0
0 879 0
0 873 0
0 863 154
0 853 493
0 842 842
0 830 1221
0 817 1626
0 804 2056
0 790 2508
0 776 2972
0 761 3283
0 747 3285
0 738 3285
0 732 3285
0 725 3285
0 725 3285
0 1153 0
0 1149 0
0 1143 0
0 1134 41
0 1123 375
0 1112 724
0 1100 1100
0 1087 1504
0 1073 1931
0 1060 2381
0 1045 2851
0 1030 3246
0 1015 3285
0 1006 3285
0 999 3285
0 993 3285
0 992 3285
0 1441 0
0 1437 0
0 1431 0
0 1422 5
0 1412 240
0 1400 600
0 1388 973
0 1375 1375
0 1361 1801
0 1347 2249
0 1333 2718
0 1317 3171
0 1302 3285
0 1291 3285
0 1284 3285
0 1277 3285
0 1277 3285
0 1744 0
0 1740 0
0 1735 0
0 1726 0
0 1715 101
0 1704 471
0 1692 843
0 1679 1241
0 1665 1665
0 1651 2111
0 1636 2578
0 1621 3058
0 1606 3280
0 1593 3285
0 1586 3285
0 1579 3285
0 1578 3285
0 2062 0
0 2058 0
0 2054 0
0 2045 0
0 2034 20
0 2023 330
0 2010 707
0 1997 1103
0 1983 1525
0 1969 1969
0 1954 2435
0 1939 2920
0 1923 3252
0 1910 3285
0 1902 3285
0 1895 3285
0 1895 3285
0 2395 0
0 2390 0
0 2385 0
0 2377 0
0 2367 0
0 2355 183
0 2343 567
0 2330 962
0 2316 1381
0 2301 1823
0 2287 2287
0 2271 2770
0 2255 3193
0 2240 3285
0 2233 3285
0 2225 3285
0 2225 3285
0 2739 0
0 2735 0
0 2730 0
0 2723 0
0 2713 0
0 2701 46
0 2689 422
0 2676 816
0 2661 1233
0 2647 1673
0 2632 2135
0 2616 2617
0 2601 3100
0 2585 3285
0 2576 3285
0 2568 3285
0 2568 3285
0 3096 0
0 3092 0
0 3087 0
0 3080 0
0 3070 0
0 3058 0
0 3046 261
0 3033 666
0 3019 1082
0 3004 1519
0 2989 1979
0 2974 2459
0 2958 2958
0 2941 3278
0 2931 3285
0 2924 3285
0 2923 3285
0 3284 0
0 3284 0
0 3284 0
0 3284 0
0 3282 0
0 3279 0
0 3277 115
0 3273 514
0 3269 927
0 3263 1363
0 3258 1820
0 3252 2298
0 3246 2796
0 3238 3231
0 3232 3285
0 3230 3285
0 3230 3285
0 3285 0
0 3285 0
0 3285 0
0 3285 0
0 3285 0
0 3285 0
0 3285 30
0 3285 403
0 3285 814
0 3285 1247
0 3285 1701
0 3285 2176
0 3285 2669
0 3285 3152
0 3285 3285
0 3285 3285
0 3285 3285
0 3285 0
0 3285 0
0 3285 0
0 3285 0
0 3285 0
0 3285 0
0 3285 16
0 3285 323
0 3285 735
0 3285 1165
0 3285 1617
0 3285 2090
0 3285 2581
0 3285 3074
0 3285 3285
0 3285 3285
0 3285 3285
0 3285 0
0 3285 0
0 3285 0
0 3285 0
0 3285 0
0 3285 0
0 3285 15
0 3285 315
0 3285 729
0 3285 1159
0 3285 1611
0 3285 2083
0 3285 2574
0 3285 3067
0 3285 3285
0 3285 3285
0 3285 3285
39 0 0
37 0 37
34 0 300
30 0 593
26 0 919
22 0 1278
18 0 1666
14 0 2079
9 0 2515
5 0 2973
1 0 3265
0 0 3285
0 0 3285
0 0 3285
0 0 3285
0 0 3285
0 0 3285
17 16 0
15 14 15
13 12 237
9 9 537
6 5 863
2 2 1221
1 0 1608
0 0 2020
0 0 2456
0 0 2913
0 0 3256
0 0 3285
0 0 3285
0 0 3285
0 0 3285
0 0 3285
0 0 3285
1 166 0
1 160 1
0 151 154
0 137 462
0 122 784
0 107 1141
0 92 1526
0 77 1937
0 63 2371
0 54 2827
0 47 3225
0 40 3285
0 34 3285
0 32 3285
0 30 3285
0 27 3285
0 27 3285
0 393 0
0 389 0
0 382 53
0 372 372
0 362 693
0 351 1047
0 340 1430
0 327 1839
0 314 2272
0 300 2727
0 283 3158
0 266 3285
0 250 3285
0 243 3285
0 235 3285
0 228 3285
0 228 3285
0 623 0
0 619 0
0 612 7
0 603 264
0 593 593
0 582 943
0 570 1324
0 557 1731
0 545 2163
0 531 2615
0 517 3068
0 503 3285
0 488 3285
0 481 3285
0 475 3285
0 469 3285
0 469 3285
0 873 0
0 869 0
0 862 0
0 853 142
0 843 484
0 832 832
0 820 1210
0 807 1615
0 794 2045
0 780 2496
0 766 2961
0 751 3279
0 737 3285
0 728 3285
0 722 3285
0 716 3285
0 715 3285
0 1142 0
0 1139 0
0 1132 0
0 1123 37
0 1113 366
0 1101 714
0 1089 1089
0 1076 1493
0 1063 1920
0 1049 2370
0 1035 2839
0 1020 3238
0 1005 3285
0 995 3285
0 989 3285
0 982 3285
0 982 3285
0 1430 0
0 1426 0
0 1420 0
0 1411 4
0 1401 230
0 1389 591
0 1377 963
0 1364 1364
0 1350 1789
0 1336 2238
0 1322 2706
0 1307 3163
0 1291 3285
0 1280 3285
0 1274 3285
0 1267 3285
0 1266 3285
0 1733 0
0 1729 0
0 1724 0
0 1715 0
0 1704 92
0 1693 461
0 1681 833
0 1668 1231
0 1654 1654
0 1640 2100
0 1625 2567
0 1610 3049
0 1595 3278
0 1582 3285
0 1575 3285
0 1568 3285
0 1568 3285
0 2051 0
0 2047 0
0 2042 0
0 2034 0
0 2023 17
0 2012 320
0 1999 697
0 1986 1093
0 1972 1514
0 1958 1958
0 1943 2423
0 1928 2908
0 1913 3248
0 1898 3285
0 1891 3285
0 1884 3285
0 1884 3285
0 2383 0
0 2379 0
0 2374 0
0 2366 0
0 2356 0
0 2344 173
0 2332 558
0 2319 952
0 2305 1370
0 2290 1812
0 2275 2276
0 2260 2759
0 2244 3187
0 2229 3285
0 2221 3285
0 2214 3285
0 2213 3285
0 2728 0
0 2724 0
0 2719 0
0 2711 0
0 2701 0
0 2689 39
0 2677 412
0 2664 806
0 2650 1222
0 2636 1662
0 2620 2124
0 2605 2605
0 2589 3090
0 2573 3285
0 2564 3285
0 2557 3285
0 2556 3285
0 3084 0
0 3080 0
0 3075 0
0 3068 0
0 3058 0
0 3047 0
0 3034 250
0 3021 656
0 3007 1071
0 2993 1508
0 2977 1968
0 2962 2448
0 2946 2947
0 2930 3278
0 2919 3285
0 2912 3285
0 2911 3285
0 3284 0
0 3284 0
0 3284 0
0 3284 0
0 3282 0
0 3279 0
0 3276 104
0 3272 504
0 3268 916
0 3262 1352
0 3256 1809
0 3250 2287
0 3243 2784
0 3235 3229
0 3229 3285
0 3227 3285
0 3227 3285
0 3285 0
0 3285 0
0 3285 0
0 3285 0
0 3285 0
0 3285 0
0 3285 28
0 3285 390
0 3285 802
0 3285 1234
0 3285 1688
0 3285 2162
0 3285 2655
0 3285 3140
0 3285 3285
0 3285 3285
0 3285 3285
0 3285 0
0 3285 0
0 3285 0
0 3285 0
0 3285 0
0 3285 0
0 3285 14
0 3285 308
0 3285 723
0 3285 1152
0 3285 1604
0 3285 2076
0 3285 2567
0 3285 3061
0 3285 3285
0 3285 3285
0 3285 3285
0 3285 0
0 3285 0
0 3285 0
0 3285 0
0 3285 0
0 3285 0
0 3285 13
0 3285 300
0 3285 717
0 3285 1146
0 3285 1597
0 3285 2069
0 3285 2560
0 3285 3054
0 3285 3285
0 3285 3285
0 3285 3285
288 0 0
281 0 28
271 0 271
260 0 567
247 0 894
234 0 1252
220 0 1639
207 0 2052
193 0 2487
177 0 2945
157 0 3259
135 0 3285
118 0 3285
109 0 3285
101 0 3285
93 0 3285
92 0 3285
227 9 0
221 7 8
213 5 214
204 2 515
194 0 839
182 0 1197
166 0 1583
150 0 1995
131 0 2430
112 0 2888
93 0 3248
75 0 3285
63 0 3285
57 0 3285
55 0 3285
52 0 3285
52 0 3285
138 135 0
132 129 0
122 119 123
110 106 440
97 93 761
83 80 1118
70 67 1502
59 56 1912
52 50 2347
45 43 2802
38 37 3213
32 31 3285
27 25 3285
24 23 3285
22 21 3285
20 18 3285
20 18 3285
47 371 0
45 367 0
41 360 42
37 351 350
33 341 671
28 330 1025
23 318 1407
18 305 1815
12 290 2248
6 275 2703
3 258 3139
2 241 3285
1 225 3285
0 218 3285
0 211 3285
0 205 3285
0 205 3285
5 601 0
5 598 0
4 591 4
3 582 240
2 572 572
1 561 922
0 550 1303
0 537 1709
0 524 2141
0 511 2593
0 498 3049
0 483 3285
0 470 3285
0 462 3285
0 457 3285
0 451 3285
0 450 3285
0 852 0
0 849 0
0 842 0
0 834 119
0 824 465
0 812 812
0 801 1190
0 788 1595
0 775 2024
0 762 2475
0 748 2942
0 733 3274
0 719 3285
0 711 3285
0 705 3285
0 699 3285
0 698 3285
0 1123 0
0 1120 0
0 1114 0
0 1105 31
0 1095 348
0 1083 697
0 1072 1072
0 1059 1475
0 1046 1901
0 1032 2351
0 1018 2821
0 1004 3229
0 989 3285
0 979 3285
0 973 3285
0 966 3285
0 966 3285
0 1413 0
0 1409 0
0 1403 0
0 1394 2
0 1384 215
0 1373 576
0 1361 948
0 1348 1348
0 1335 1774
0 1321 2221
0 1306 2689
0 1292 3151
0 1277 3285
0 1265 3285
0 1259 3285
0 1252 3285
0 1252 3285
0 1717 0
0 1713 0
0 1708 0
0 1700 0
0 1690 80
0 1678 448
0 1666 820
0 1653 1217
0 1640 1640
0 1626 2085
0 1611 2552
0 1596 3036
0 1580 3276
0 1568 3285
0 1561 3285
0 1554 3285
0 1553 3285
0 2036 0
0 2032 0
0 2027 0
0 2019 0
0 2009 12
0 1997 307
0 1985 685
0 1972 1080
0 1958 1501
0 1944 1944
0 1929 2409
0 1914 2893
0 1898 3245
0 1884 3285
0 1877 3285
0 1870 3285
0 1869 3285
0 2368 0
0 2364 0
0 2359 0
0 2351 0
0 2341 0
0 2329 162
0 2317 545
0 2304 939
0 2290 1357
0 2276 1799
0 2261 2261
0 2246 2744
0 2230 3180
0 2214 3285
0 2206 3285
0 2199 3285
0 2199 3285
0 2713 0
0 2709 0
0 2703 0
0 2696 0
0 2686 0
0 2675 34
0 2662 400
0 2649 793
0 2636 1209
0 2621 1649
0 2606 2110
0 2591 2591
0 2575 3076
0 2559 3285
0 2549 3285
0 2542 3285
0 2541 3285
0 3069 0
0 3065 0
0 3060 0
0 3053 0
0 3043 0
0 3032 0
0 3019 237
0 3006 644
0 2992 1058
0 2978 1495
0 2963 1955
0 2947 2434
0 2931 2931
0 2915 3278
0 2904 3285
0 2897 3285
0 2896 3285
0 3284 0
0 3284 0
0 3284 0
0 3284 0
0 3282 0
0 3279 0
0 3275 93
0 3271 491
0 3266 903
0 3260 1339
0 3254 1796
0 3247 2273
0 3240 2769
0 3231 3224
0 3225 3285
0 3223 3285
0 3223 3285
0 3285 0
0 3285 0
0 3285 0
0 3285 0
0 3285 0
0 3285 0
0 3285 25
0 3285 374
0 3285 786
0 3285 1218
0 3285 1670
0 3285 2145
0 3285 2638
0 3285 3125
0 3285 3285
0 3285 3285
0 3285 3285
0 3285 0
0 3285 0
0 3285 0
0 3285 0
0 3285 0
0 3285 0
0 3285 11
0 3285 289
0 3285 707
0 3285 1136
0 3285 1587
0 3285 2059
0 3285 2550
0 3285 3045
0 3285 3285
0 3285 3285
0 3285 3285
0 3285 0
0 3285 0
0 3285 0
0 3285 0
0 3285 0
0 3285 0
0 3285 10
0 3285 280
0 3285 701
0 3285 1129
0 3285 1580
0 3285 2052
0 3285 2543
0 3285 3039
0 3285 3285
0 3285 3285
0 3285 3285
562 0 0
556 0 19
548 0 238
538 0 538
527 0 864
515 0 1221
503 0 1608
489 0 2020
476 0 2455
462 0 2912
447 0 3250
432 0 3285
420 0 3285
412 0 3285
406 0 3285
399 0 3285
398 0 3285
509 1 0
505 0 1
497 0 187
488 0 488
478 0 811
467 0 1168
455 0 1553
442 0 1965
429 0 2400
416 0 2857
401 0 3237
387 0 3285
374 0 3285
368 0 3285
362 0 3285
356 0 3285
