Postproduction/IWLTBAP - Humble/LUTs by IWLTBAP (3DL)/UTILITY/Generic LOG to Rec.709/U-9992-LTR.3dl
# Copyright: (C) Copyright 2010-2018 by IWLTBAP SAS
# Cannot be resold, shared or otherwise redistributed
# Website: https://luts.iwltbap.com
0 64 128 192 256 320 384 448 512 576 640 704 768 832 896 960 1023
0 0 0
0 0 167
0 0 529
0 0 931
0 0 1359
0 0 1808
0 0 2276
0 0 2760
0 0 3260
0 0 3772
0 0 4076
0 0 4095
0 0 4095
0 0 4095
0 0 4095
0 0 4095
0 0 4095
0 91 0
0 83 85
0 74 450
0 63 852
0 48 1283
0 34 1734
0 19 2203
0 3 2690
0 0 3190
0 0 3704
0 0 4067
0 0 4095
0 0 4095
0 0 4095
0 0 4095
0 0 4095
0 0 4095
0 356 0
0 349 5
0 338 338
0 325 746
0 309 1178
0 292 1632
0 274 2103
0 255 2590
0 234 3091
0 213 3605
0 191 4035
0 167 4095
0 147 4095
0 139 4095
0 131 4095
0 123 4095
0 122 4095
0 649 0
0 643 0
0 633 200
0 620 620
0 605 1056
0 590 1512
0 573 1984
0 555 2473
0 537 2976
0 517 3491
0 497 3967
0 476 4095
0 457 4095
0 448 4095
0 440 4095
0 431 4095
0 430 4095
0 961 0
0 956 0
0 946 48
0 933 476
0 920 919
0 905 1379
0 889 1855
0 872 2344
0 854 2849
0 836 3365
0 816 3867
0 797 4095
0 778 4095
0 767 4095
0 759 4095
0 751 4095
0 750 4095
0 1288 0
0 1284 0
0 1275 0
0 1263 316
0 1249 771
0 1235 1235
0 1220 1714
0 1203 2206
0 1186 2712
0 1168 3229
0 1149 3750
0 1130 4093
0 1111 4095
0 1100 4095
0 1092 4095
0 1083 4095
0 1083 4095
0 1630 0
0 1625 0
0 1617 0
0 1606 148
0 1592 608
0 1578 1081
0 1563 1563
0 1547 2059
0 1530 2566
0 1513 3086
0 1494 3615
0 1476 4052
0 1457 4095
0 1445 4095
0 1437 4095
0 1428 4095
0 1428 4095
0 1983 0
0 1979 0
0 1971 0
0 1960 20
0 1948 431
0 1934 916
0 1919 1403
0 1903 1903
0 1887 2413
0 1869 2934
0 1852 3466
0 1833 3970
0 1814 4095
0 1801 4095
0 1792 4095
0 1784 4095
0 1783 4095
0 2346 0
0 2342 0
0 2336 0
0 2325 0
0 2312 239
0 2299 739
0 2284 1236
0 2269 1739
0 2252 2252
0 2236 2776
0 2218 3310
0 2200 3845
0 2182 4089
0 2167 4095
0 2158 4095
0 2150 4095
0 2149 4095
0 2719 0
0 2715 0
0 2709 0
0 2699 0
0 2687 79
0 2673 551
0 2659 1059
0 2644 1567
0 2627 2085
0 2611 2611
0 2594 3147
0 2576 3692
0 2558 4059
0 2541 4095
0 2533 4095
0 2524 4095
0 2524 4095
0 3101 0
0 3097 0
0 3091 0
0 3082 0
0 3070 0
0 3056 349
0 3042 871
0 3027 1388
0 3012 1910
0 2995 2440
0 2978 2978
0 2961 3525
0 2942 3994
0 2925 4095
0 2916 4095
0 2907 4095
0 2907 4095
0 3491 0
0 3486 0
0 3480 0
0 3472 0
0 3461 0
0 3448 147
0 3434 673
0 3419 1200
0 3403 1728
0 3387 2262
0 3370 2803
0 3353 3353
0 3335 3892
0 3317 4095
0 3307 4095
0 3298 4095
0 3298 4095
0 3887 0
0 3883 0
0 3878 0
0 3870 0
0 3859 0
0 3846 0
0 3832 461
0 3817 1004
0 3802 1540
0 3786 2078
0 3769 2623
0 3752 3174
0 3734 3734
0 3716 4087
0 3705 4095
0 3697 4095
0 3696 4095
0 4094 0
0 4094 0
0 4094 0
0 4094 0
0 4092 0
0 4089 0
0 4086 242
0 4082 799
0 4077 1344
0 4071 1888
0 4066 2436
0 4059 2991
0 4052 3554
0 4044 4036
0 4038 4095
0 4035 4095
0 4035 4095
0 4095 0
0 4095 0
0 4095 0
0 4095 0
0 4095 0
0 4095 0
0 4095 112
0 4095 647
0 4095 1198
0 4095 1746
0 4095 2295
0 4095 2850
0 4095 3412
0 4095 3950
0 4095 4095
0 4095 4095
0 4095 4095
0 4095 0
0 4095 0
0 4095 0
0 4095 0
0 4095 0
0 4095 0
0 4095 64
0 4095 538
0 4095 1096
0 4095 1645
0 4095 2195
0 4095 2751
0 4095 3313
0 4095 3863
0 4095 4095
0 4095 4095
0 4095 4095
0 4095 0
0 4095 0
0 4095 0
0 4095 0
0 4095 0
0 4095 0
0 4095 60
0 4095 529
0 4095 1088
0 4095 1636
0 4095 2187
0 4095 2743
0 4095 3305
0 4095 3856
0 4095 4095
0 4095 4095
0 4095 4095
149 0 0
141 0 141
130 0 505
117 0 906
103 0 1335
89 0 1784
75 0 2253
59 0 2738
42 0 3238
23 0 3751
5 0 4073
0 0 4095
0 0 4095
0 0 4095
0 0 4095
0 0 4095
0 0 4095
70 68 0
63 61 63
54 52 428
41 40 831
27 25 1263
12 10 1714
2 0 2184
1 0 2670
0 0 3171
0 0 3685
0 0 4064
0 0 4095
0 0 4095
0 0 4095
0 0 4095
0 0 4095
0 0 4095
4 337 0
3 330 3
2 319 318
0 305 728
0 290 1161
0 274 1615
0 256 2086
0 236 2573
0 216 3074
0 196 3589
0 173 4030
0 150 4095
0 131 4095
0 123 4095
0 116 4095
0 107 4095
0 106 4095
0 632 0
0 627 0
0 617 184
0 604 603
0 590 1040
0 574 1497
0 558 1970
0 540 2458
0 522 2961
0 503 3476
0 483 3956
0 463 4095
0 443 4095
0 435 4095
0 425 4095
0 417 4095
0 417 4095
0 947 0
0 942 0
0 932 31
0 920 463
0 907 906
0 892 1365
0 875 1841
0 859 2331
0 841 2835
0 822 3351
0 803 3856
0 784 4095
0 764 4095
0 754 4095
0 746 4095
0 738 4095
0 737 4095
0 1275 0
0 1271 0
0 1262 0
0 1250 302
0 1237 758
0 1222 1222
0 1207 1701
0 1190 2193
0 1173 2699
0 1155 3216
0 1136 3738
0 1117 4089
0 1098 4095
0 1087 4095
0 1078 4095
0 1070 4095
0 1070 4095
0 1617 0
0 1612 0
0 1604 0
0 1593 139
0 1580 596
0 1565 1068
0 1550 1550
0 1534 2046
0 1517 2553
0 1500 3073
0 1482 3602
0 1463 4044
0 1444 4095
0 1432 4095
0 1424 4095
0 1415 4095
0 1415 4095
0 1970 0
0 1965 0
0 1958 0
0 1948 16
0 1935 418
0 1921 903
0 1906 1391
0 1890 1890
0 1873 2400
0 1856 2921
0 1839 3453
0 1820 3961
0 1801 4095
0 1787 4095
0 1779 4095
0 1771 4095
0 1770 4095
0 2334 0
0 2329 0
0 2323 0
0 2312 0
0 2300 227
0 2286 726
0 2272 1223
0 2256 1726
0 2240 2240
0 2223 2763
0 2205 3297
0 2187 3835
0 2169 4088
0 2153 4095
0 2145 4095
0 2137 4095
0 2136 4095
0 2706 0
0 2702 0
0 2696 0
0 2686 0
0 2674 67
0 2660 538
0 2646 1046
0 2631 1554
0 2615 2072
0 2598 2598
0 2581 3134
0 2563 3679
0 2545 4055
0 2528 4095
0 2520 4095
0 2512 4095
0 2511 4095
0 3088 0
0 3083 0
0 3078 0
0 3069 0
0 3057 0
0 3044 336
0 3029 858
0 3015 1376
0 2999 1897
0 2982 2427
0 2965 2965
0 2947 3512
0 2929 3988
0 2911 4095
0 2903 4095
0 2894 4095
0 2893 4095
0 3477 0
0 3473 0
0 3467 0
0 3459 0
0 3448 0
0 3435 137
0 3421 659
0 3406 1188
0 3390 1715
0 3374 2249
0 3357 2790
0 3340 3340
0 3322 3880
0 3304 4095
0 3294 4095
0 3285 4095
0 3285 4095
0 3874 0
0 3870 0
0 3864 0
0 3856 0
0 3845 0
0 3833 0
0 3819 447
0 3804 990
0 3789 1527
0 3773 2065
0 3756 2610
0 3739 3161
0 3721 3722
0 3703 4087
0 3692 4095
0 3683 4095
0 3683 4095
0 4094 0
0 4094 0
0 4094 0
0 4094 0
0 4092 0
0 4089 0
0 4086 227
0 4081 785
0 4076 1330
0 4070 1874
0 4064 2423
0 4057 2978
0 4049 3540
0 4041 4034
0 4034 4095
0 4032 4095
0 4032 4095
0 4095 0
0 4095 0
0 4095 0
0 4095 0
0 4095 0
0 4095 0
0 4095 105
0 4095 631
0 4095 1182
0 4095 1729
0 4095 2279
0 4095 2835
0 4095 3396
0 4095 3936
0 4095 4095
0 4095 4095
0 4095 4095
0 4095 0
0 4095 0
0 4095 0
0 4095 0
0 4095 0
0 4095 0
0 4095 56
0 4095 521
0 4095 1080
0 4095 1628
0 4095 2179
0 4095 2735
0 4095 3297
0 4095 3849
0 4095 4095
0 4095 4095
0 4095 4095
0 4095 0
0 4095 0
0 4095 0
0 4095 0
0 4095 0
0 4095 0
0 4095 51
0 4095 511
0 4095 1072
0 4095 1620
0 4095 2171
0 4095 2727
0 4095 3289
0 4095 3841
0 4095 4095
0 4095 4095
0 4095 4095
489 0 0
481 0 111
469 0 469
456 0 872
440 0 1302
423 0 1752
405 0 2221
386 0 2707
365 0 3207
344 0 3720
323 0 4066
299 0 4095
282 0 4095
272 0 4095
262 0 4095
253 0 4095
252 0 4095
413 40 0
407 32 34
396 22 396
383 10 800
367 2 1232
351 0 1684
334 0 2154
315 0 2641
295 0 3142
275 0 3656
253 0 4055
230 0 4095
213 0 4095
205 0 4095
197 0 4095
189 0 4095
188 0 4095
303 303 0
296 297 0
285 286 285
272 273 697
257 257 1130
240 240 1585
223 222 2057
204 204 2544
184 183 3046
164 162 3561
144 140 4016
123 118 4095
104 99 4095
96 91 4095
88 83 4095
80 75 4095
79 74 4095
168 602 0
163 596 0
153 586 154
141 574 573
125 560 1011
109 544 1468
92 528 1942
73 511 2431
51 492 2934
27 473 3449
13 453 3935
9 433 4095
4 412 4095
2 404 4095
0 396 4095
0 388 4095
0 387 4095
20 918 0
19 914 0
16 904 17
13 892 433
8 878 878
3 864 1338
0 848 1815
0 831 2305
0 814 2810
0 796 3326
0 777 3835
0 757 4095
0 738 4095
0 728 4095
0 720 4095
0 712 4095
0 711 4095
0 1249 0
0 1245 0
0 1236 0
0 1225 274
0 1212 732
0 1197 1197
0 1182 1676
0 1166 2169
0 1149 2675
0 1131 3193
0 1113 3717
0 1094 4083
0 1075 4095
0 1064 4095
0 1056 4095
0 1048 4095
0 1047 4095
0 1593 0
0 1589 0
0 1581 0
0 1570 119
0 1557 572
0 1543 1045
0 1528 1528
0 1513 2024
0 1496 2532
0 1479 3052
0 1461 3582
0 1442 4034
0 1423 4095
0 1411 4095
0 1403 4095
0 1395 4095
0 1394 4095
0 1949 0
0 1945 0
0 1938 0
0 1927 9
0 1914 396
0 1901 883
0 1886 1371
0 1870 1870
0 1854 2381
0 1837 2903
0 1819 3434
0 1802 3948
0 1783 4095
0 1769 4095
0 1761 4095
0 1753 4095
0 1753 4095
0 2315 0
0 2310 0
0 2304 0
0 2294 0
0 2282 209
0 2269 708
0 2254 1206
0 2239 1709
0 2223 2223
0 2206 2746
0 2188 3280
0 2170 3820
0 2151 4086
0 2136 4095
0 2128 4095
0 2120 4095
0 2119 4095
0 2689 0
0 2685 0
0 2679 0
0 2669 0
0 2657 50
0 2644 521
0 2629 1029
0 2614 1538
0 2598 2055
0 2581 2581
0 2564 3117
0 2547 3662
0 2528 4051
0 2512 4095
0 2503 4095
0 2495 4095
0 2494 4095
0 3071 0
0 3067 0
0 3061 0
0 3052 0
0 3040 0
0 3027 320
0 3013 841
0 2998 1359
0 2982 1880
0 2966 2411
0 2949 2948
0 2931 3496
0 2913 3980
0 2895 4095
0 2886 4095
0 2878 4095
0 2877 4095
0 3461 0
0 3456 0
0 3450 0
0 3443 0
0 3431 0
0 3418 124
0 3404 643
0 3390 1171
0 3374 1699
0 3358 2233
0 3341 2774
0 3324 3324
0 3306 3865
0 3288 4095
0 3277 4095
0 3268 4095
0 3268 4095
0 3858 0
0 3853 0
0 3847 0
0 3840 0
0 3829 0
0 3817 0
0 3802 429
0 3788 974
0 3773 1511
0 3756 2049
0 3740 2594
0 3723 3145
0 3705 3705
0 3687 4087
0 3675 4095
0 3667 4095
0 3666 4095
0 4094 0
0 4094 0
0 4094 0
0 4094 0
0 4092 0
0 4088 0
0 4085 209
0 4080 767
0 4074 1314
0 4068 1858
0 4061 2407
0 4054 2962
0 4046 3524
0 4036 4028
0 4030 4095
0 4027 4095
0 4027 4095
0 4095 0
0 4095 0
0 4095 0
0 4095 0
0 4095 0
0 4095 0
0 4095 96
0 4095 608
0 4095 1162
0 4095 1710
0 4095 2259
0 4095 2814
0 4095 3377
0 4095 3919
0 4095 4095
0 4095 4095
0 4095 4095
0 4095 0
0 4095 0
0 4095 0
0 4095 0
0 4095 0
0 4095 0
0 4095 45
0 4095 497
0 4095 1059
0 4095 1608
0 4095 2159
0 4095 2715
0 4095 3277
0 4095 3831
0 4095 4095
0 4095 4095
0 4095 4095
0 4095 0
0 4095 0
0 4095 0
0 4095 0
0 4095 0
0 4095 0
0 4095 41
0 4095 488
0 4095 1050
0 4095 1600
0 4095 2151
0 4095 2707
0 4095 3269
0 4095 3824
0 4095 4095
0 4095 4095
0 4095 4095
865 0 0
857 0 77
846 0 428
832 0 832
817 0 1264
801 0 1714
784 0 2184
766 0 2670
747 0 3170
727 0 3684
707 0 4057
686 0 4095
669 0 4095
659 0 4095
650 0 4095
641 0 4095
640 0 4095
793 6 0
786 2 5
776 0 356
763 0 763
749 0 1195
734 0 1648
718 0 2119
701 0 2606
683 0 3107
664 0 3622
644 0 4042
624 0 4095
607 0 4095
598 0 4095
590 0 4095
582 0 4095
