Postproduction/IWLTBAP - Humble/LUTs by IWLTBAP (3DL)/UTILITY/Generic LOG to Rec.709/U-9994-LTR.3dl
# Copyright: (C) Copyright 2010-2018 by IWLTBAP SAS
# Cannot be resold, shared or otherwise redistributed
# Website: https://luts.iwltbap.com
0 64 128 192 256 320 384 448 512 576 640 704 768 832 896 960 1023
38 38 38
38 39 161
37 40 288
36 42 472
35 45 708
33 49 1009
31 55 1382
28 62 1809
25 69 2253
22 76 2675
20 82 3043
18 87 3345
17 90 3580
16 91 3756
16 92 3885
16 92 3978
16 93 4065
29 175 47
29 176 170
28 177 298
28 179 482
27 181 717
25 186 1018
22 192 1391
19 199 1818
16 206 2262
14 213 2685
11 219 3053
9 223 3354
8 226 3590
7 228 3766
7 229 3894
6 229 3986
6 229 4069
19 318 58
19 319 181
19 320 308
18 322 493
17 325 728
15 329 1028
12 335 1401
9 342 1829
7 349 2273
4 356 2695
3 362 3063
1 366 3365
0 370 3601
0 371 3776
0 372 3902
0 372 3987
0 372 4069
4 530 77
4 531 200
4 532 327
3 534 512
2 537 747
1 541 1047
1 547 1420
0 554 1848
0 562 2292
0 569 2714
0 574 3082
0 579 3384
0 582 3620
0 584 3792
0 585 3903
0 585 3987
0 585 4069
0 810 107
0 811 230
0 812 357
0 814 541
0 817 777
0 821 1077
0 827 1450
0 834 1878
0 841 2322
0 848 2744
0 854 3112
0 859 3414
0 862 3649
0 864 3806
0 865 3904
0 865 3987
0 865 4069
0 1176 151
0 1177 274
0 1178 401
0 1180 586
0 1183 821
0 1187 1121
0 1193 1495
0 1200 1922
0 1207 2366
0 1214 2788
0 1220 3156
0 1225 3458
0 1228 3684
0 1230 3809
0 1230 3904
0 1230 3987
0 1231 4069
0 1637 210
0 1638 333
0 1639 461
0 1641 645
0 1644 880
0 1648 1181
0 1654 1554
0 1661 1981
0 1669 2425
0 1676 2848
0 1681 3216
0 1686 3515
0 1689 3708
0 1691 3809
0 1692 3904
0 1692 3987
0 1692 4069
0 2170 282
0 2171 404
0 2172 532
0 2174 716
0 2177 951
0 2181 1252
0 2187 1625
0 2194 2052
0 2201 2497
0 2208 2919
0 2214 3287
0 2219 3571
0 2222 3712
0 2223 3809
0 2224 3904
0 2224 3987
0 2224 4069
0 2726 357
0 2727 479
0 2728 607
0 2730 791
0 2733 1027
0 2737 1327
0 2743 1700
0 2750 2127
0 2757 2572
0 2764 2994
0 2770 3360
0 2775 3604
0 2778 3713
0 2779 3809
0 2780 3904
0 2780 3987
0 2781 4069
0 3242 428
0 3243 550
0 3244 678
0 3246 862
0 3249 1098
0 3253 1398
0 3258 1771
0 3265 2198
0 3272 2643
0 3279 3065
0 3284 3424
0 3289 3612
0 3291 3713
0 3292 3809
0 3293 3904
0 3293 3987
0 3293 4069
0 3497 488
0 3497 610
0 3498 738
0 3498 922
0 3499 1157
0 3500 1458
0 3502 1831
0 3503 2258
0 3505 2702
0 3507 3125
0 3509 3464
0 3510 3614
0 3511 3713
0 3511 3809
0 3511 3904
0 3511 3987
0 3511 4069
0 3614 533
0 3614 656
0 3614 784
0 3614 968
0 3614 1203
0 3614 1504
0 3614 1877
0 3614 2304
0 3614 2748
0 3614 3170
0 3614 3487
0 3614 3614
0 3614 3713
0 3614 3809
0 3614 3904
0 3614 3987
0 3614 4069
0 3713 565
0 3713 687
0 3713 815
0 3713 999
0 3713 1235
0 3713 1535
0 3713 1908
0 3713 2335
0 3713 2780
0 3713 3198
0 3713 3492
0 3713 3614
0 3713 3713
0 3713 3809
0 3713 3904
0 3713 3987
0 3713 4069
0 3809 583
0 3809 706
0 3809 833
0 3809 1018
0 3809 1253
0 3809 1553
0 3809 1926
0 3809 2353
0 3809 2798
0 3809 3215
0 3809 3482
0 3809 3614
0 3809 3713
0 3809 3809
0 3809 3904
0 3809 3987
0 3809 4069
0 3904 591
0 3904 714
0 3904 841
0 3904 1025
0 3904 1261
0 3904 1561
0 3904 1934
0 3904 2361
0 3904 2806
0 3904 3222
0 3904 3484
0 3904 3614
0 3904 3713
0 3904 3809
0 3904 3904
0 3904 3987
0 3904 4069
0 3987 593
0 3987 716
0 3987 843
0 3987 1027
0 3987 1263
0 3987 1563
0 3987 1936
0 3987 2363
0 3987 2808
0 3987 3224
0 3987 3485
0 3987 3614
0 3987 3713
0 3987 3809
0 3987 3904
0 3987 3987
0 3987 4069
0 4069 594
0 4069 717
0 4069 844
0 4069 1029
0 4069 1264
0 4069 1564
0 4069 1937
0 4069 2365
0 4069 2809
0 4069 3225
0 4069 3485
0 4069 3614
0 4069 3713
0 4069 3809
0 4069 3904
0 4069 3987
0 4069 4069
170 23 29
170 24 152
169 25 279
169 27 463
167 30 699
165 34 999
163 40 1372
160 47 1799
157 55 2244
154 61 2666
152 67 3034
150 72 3335
149 75 3571
148 77 3747
147 78 3876
147 78 3968
147 78 4056
161 160 38
161 161 161
160 162 289
160 164 473
158 167 708
157 171 1009
154 177 1382
151 184 1809
148 191 2253
145 198 2675
143 204 3044
141 209 3345
140 212 3580
139 213 3757
139 214 3885
139 214 3978
138 215 4065
151 303 49
151 304 171
151 305 299
150 307 483
149 310 719
147 314 1019
144 320 1392
141 327 1819
138 334 2264
135 341 2686
133 347 3054
131 352 3355
130 355 3591
129 356 3767
129 357 3895
129 357 3986
129 358 4069
134 515 68
133 517 190
133 517 318
132 519 502
131 522 737
129 527 1038
126 532 1411
124 539 1838
121 547 2282
118 554 2705
115 560 3073
114 564 3374
112 567 3610
112 569 3785
111 570 3903
111 570 3987
111 570 4069
106 795 98
106 796 220
105 797 348
105 799 532
104 802 768
102 807 1068
100 812 1441
97 819 1868
95 827 2312
93 834 2735
91 839 3103
90 844 3404
89 847 3640
89 849 3803
89 850 3904
89 850 3987
88 850 4069
84 1161 142
84 1162 264
84 1163 392
83 1165 576
83 1168 812
83 1172 1112
83 1178 1485
83 1185 1912
82 1193 2357
82 1200 2779
82 1205 3147
82 1210 3449
82 1213 3678
82 1215 3809
82 1216 3904
82 1216 3987
82 1216 4069
82 1623 201
82 1624 324
82 1625 451
82 1626 636
82 1629 871
82 1634 1172
82 1640 1545
82 1647 1972
82 1654 2416
82 1661 2838
82 1667 3207
82 1671 3507
82 1674 3706
82 1676 3809
82 1677 3904
82 1677 3987
82 1677 4069
82 2155 272
82 2156 395
82 2157 523
82 2159 707
82 2162 942
82 2166 1243
82 2172 1616
82 2179 2043
82 2186 2487
82 2193 2909
82 2199 3278
82 2204 3566
82 2207 3712
82 2209 3809
82 2209 3904
82 2210 3987
82 2210 4069
82 2711 348
82 2712 470
82 2713 598
82 2715 782
82 2718 1017
82 2722 1318
82 2728 1691
82 2735 2118
82 2742 2562
82 2749 2985
82 2755 3352
82 2760 3602
82 2763 3713
82 2765 3809
82 2765 3904
82 2766 3987
82 2766 4069
82 3228 419
82 3229 541
82 3230 669
82 3232 853
82 3235 1088
82 3239 1389
82 3244 1762
82 3251 2189
82 3258 2633
82 3265 3056
82 3270 3416
82 3275 3612
82 3278 3713
82 3280 3809
82 3280 3904
82 3280 3987
82 3280 4069
82 3494 478
82 3494 601
82 3494 729
82 3495 913
82 3495 1148
82 3497 1449
82 3498 1822
82 3500 2249
82 3502 2693
82 3504 3115
82 3505 3460
82 3506 3614
82 3507 3713
82 3508 3809
82 3508 3904
82 3508 3987
82 3508 4069
82 3614 524
82 3614 647
82 3614 774
82 3614 958
82 3614 1194
82 3614 1494
82 3614 1867
82 3614 2295
82 3614 2739
82 3614 3161
82 3614 3483
82 3614 3614
82 3614 3713
82 3614 3809
82 3614 3904
82 3614 3987
82 3614 4069
82 3713 555
82 3713 678
82 3713 806
82 3713 990
82 3713 1225
82 3713 1526
82 3713 1899
82 3713 2326
82 3713 2770
82 3713 3189
82 3713 3488
82 3713 3614
82 3713 3713
82 3713 3809
82 3713 3904
82 3713 3987
82 3713 4069
82 3809 574
82 3809 696
82 3809 824
82 3809 1008
82 3809 1244
82 3809 1544
82 3809 1917
82 3809 2344
82 3809 2788
82 3809 3206
82 3809 3479
82 3809 3614
82 3809 3713
82 3809 3809
82 3809 3904
82 3809 3987
82 3809 4069
82 3904 582
82 3904 704
82 3904 832
82 3904 1016
82 3904 1251
82 3904 1552
82 3904 1925
82 3904 2352
82 3904 2796
82 3904 3213
82 3904 3482
82 3904 3614
82 3904 3713
82 3904 3809
82 3904 3904
82 3904 3987
82 3904 4069
82 3987 584
82 3987 706
82 3987 834
82 3987 1018
82 3987 1253
82 3987 1554
82 3987 1927
82 3987 2354
82 3987 2798
82 3987 3215
82 3987 3482
82 3987 3614
82 3987 3713
82 3987 3809
82 3987 3904
82 3987 3987
82 3987 4069
82 4069 585
82 4069 707
82 4069 835
82 4069 1019
82 4069 1255
82 4069 1555
82 4069 1928
82 4069 2355
82 4069 2800
82 4069 3217
82 4069 3483
82 4069 3614
82 4069 3713
82 4069 3809
82 4069 3904
82 4069 3987
82 4069 4069
308 8 18
308 8 141
307 9 269
306 11 453
305 14 688
303 18 989
301 24 1362
298 31 1789
295 38 2233
292 45 2656
290 51 3024
288 55 3325
286 58 3561
286 60 3737
285 61 3865
285 61 3958
285 61 4045
299 143 28
299 144 150
298 145 278
298 147 462
296 150 698
294 155 998
292 160 1371
289 167 1798
286 175 2243
283 182 2665
281 188 3033
279 192 3334
278 195 3570
277 197 3746
277 198 3875
276 198 3967
276 198 4055
289 287 38
289 288 161
289 289 289
288 290 473
287 293 708
285 298 1009
282 304 1382
279 310 1809
276 318 2253
273 325 2675
271 331 3044
269 335 3345
268 338 3581
267 340 3757
267 341 3885
267 341 3978
267 341 4065
272 499 57
271 500 180
271 501 308
270 503 492
269 506 727
267 510 1028
264 516 1401
262 523 1828
258 530 2272
256 537 2694
253 543 3063
251 548 3364
250 551 3600
249 553 3775
249 553 3900
249 554 3987
249 554 4069
243 779 87
243 780 210
242 781 337
242 783 522
241 786 757
239 790 1058
236 796 1431
233 803 1858
230 810 2302
227 817 2724
225 823 3093
223 827 3394
222 831 3630
221 832 3798
221 833 3903
220 833 3987
220 834 4069
202 1145 131
202 1146 254
202 1147 382
201 1149 566
200 1152 801
198 1156 1102
196 1162 1475
193 1169 1902
190 1176 2346
188 1183 2768
186 1189 3137
185 1193 3438
184 1196 3670
183 1198 3808
183 1199 3904
183 1199 3987
183 1199 4069
168 1606 191
168 1607 313
168 1608 441
168 1610 625
168 1613 861
167 1617 1161
167 1623 1534
166 1630 1961
166 1637 2406
166 1644 2828
165 1650 3196
165 1655 3497
165 1658 3703
165 1660 3809
165 1660 3904
165 1661 3987
165 1661 4069
164 2139 262
164 2140 385
164 2141 512
164 2143 696
164 2145 932
164 2150 1232
164 2156 1605
164 2163 2032
164 2170 2477
164 2177 2899
164 2183 3267
164 2187 3559
164 2190 3712
164 2192 3809
164 2193 3904
164 2193 3987
164 2193 4069
164 2695 337
164 2696 460
164 2697 587
164 2698 772
164 2701 1007
164 2706 1308
164 2712 1681
164 2719 2108
164 2726 2552
164 2733 2974
164 2739 3342
164 2743 3598
164 2746 3713
164 2748 3809
164 2749 3904
164 2749 3987
164 2749 4069
164 3212 408
164 3213 531
164 3214 658
164 3216 843
164 3219 1078
164 3223 1378
164 3229 1752
164 3235 2179
164 3242 2623
164 3249 3045
164 3255 3407
164 3259 3612
164 3262 3713
164 3264 3809
164 3264 3904
164 3265 3987
164 3265 4069
164 3489 468
164 3489 591
164 3490 718
164 3490 902
164 3491 1138
164 3492 1438
164 3494 1811
164 3495 2238
164 3497 2683
164 3499 3105
164 3501 3454
164 3502 3613
164 3503 3713
164 3503 3809
164 3504 3904
164 3504 3987
164 3504 4069
164 3614 514
164 3614 636
164 3614 764
164 3614 948
164 3614 1183
164 3614 1484
164 3614 1857
164 3614 2284
164 3614 2728
164 3614 3151
164 3614 3477
164 3614 3614
164 3614 3713
164 3614 3809
164 3614 3904
164 3614 3987
164 3614 4069
164 3713 545
164 3713 668
164 3713 795
164 3713 979
164 3713 1215
164 3713 1515
164 3713 1888
164 3713 2316
164 3713 2760
164 3713 3179
164 3713 3483
164 3713 3614
164 3713 3713
164 3713 3809
164 3713 3904
164 3713 3987
164 3713 4069
164 3809 563
164 3809 686
164 3809 814
164 3809 998
164 3809 1233
164 3809 1534
164 3809 1907
164 3809 2334
164 3809 2778
164 3809 3196
164 3809 3477
164 3809 3614
164 3809 3713
164 3809 3809
164 3809 3904
164 3809 3987
164 3809 4069
164 3904 571
164 3904 694
164 3904 821
164 3904 1006
164 3904 1241
164 3904 1542
164 3904 1915
164 3904 2342
164 3904 2786
164 3904 3204
164 3904 3479
164 3904 3614
164 3904 3713
164 3904 3809
164 3904 3904
164 3904 3987
164 3904 4069
164 3987 573
164 3987 696
164 3987 823
164 3987 1008
164 3987 1243
164 3987 1544
164 3987 1917
164 3987 2344
164 3987 2788
164 3987 3205
164 3987 3480
164 3987 3614
164 3987 3713
164 3987 3809
164 3987 3904
164 3987 3987
164 3987 4069
164 4069 574
164 4069 697
164 4069 825
164 4069 1009
164 4069 1244
164 4069 1545
164 4069 1918
164 4069 2345
164 4069 2789
164 4069 3206
164 4069 3480
164 4069 3614
164 4069 3713
164 4069 3809
164 4069 3904
164 4069 3987
164 4069 4069
511 0 3
510 0 122
510 0 250
509 0 434
508 0 669
506 1 970
504 2 1343
501 5 1770
498 10 2214
495 15 2637
492 21 3005
491 26 3306
489 29 3542
489 31 3718
488 31 3847
488 32 3939
488 32 4026
502 114 9
502 115 132
501 116 259
500 117 443
499 121 679
497 125 979
495 130 1352
492 137 1779
489 145 2224
486 152 2646
484 158 3014
482 162 3316
480 165 3551
480 167 3727
480 168 3856
480 168 3948
