Postproduction/IWLTBAP - Humble/LUTs by IWLTBAP (3DL)/UTILITY/Generic LOG to Rec.709/U-9993-LTR.3dl
# Copyright: (C) Copyright 2010-2018 by IWLTBAP SAS
# Cannot be resold, shared or otherwise redistributed
# Website: https://luts.iwltbap.com
0 256 512 768 1023
256 256 256
256 256 722
256 256 2608
256 256 3760
256 256 3760
256 765 256
256 694 685
256 256 2604
256 256 3760
256 256 3760
256 2754 256
256 2746 256
256 2530 2492
256 1910 3757
256 1882 3760
256 3760 256
256 3760 256
256 3760 2242
256 3751 3726
256 3750 3747
256 3760 256
256 3760 256
256 3760 2235
256 3760 3724
256 3760 3745
812 256 262
792 256 725
308 256 2609
256 256 3760
256 256 3760
701 757 256
675 683 689
281 256 2605
256 256 3760
256 256 3760
256 2753 256
256 2745 256
256 2529 2493
256 1908 3757
256 1881 3760
256 3760 256
256 3760 256
256 3760 2242
256 3751 3726
256 3750 3747
256 3760 256
256 3760 256
256 3760 2236
256 3760 3724
256 3760 3745
2911 256 413
2908 256 796
2846 256 2618
2716 256 3760
2713 256 3760
2899 472 345
2897 379 766
2833 256 2614
2702 256 3760
2699 256 3760
2570 2726 256
2566 2718 257
2487 2497 2503
2314 1862 3758
2309 1842 3760
1590 3760 256
1584 3760 256
1440 3760 2255
1040 3750 3731
1030 3748 3752
1570 3760 256
1564 3760 256
1416 3760 2249
995 3760 3729
984 3760 3750
3760 256 641
3760 256 912
3760 256 2637
3760 256 3760
3760 256 3760
3760 291 597
3760 271 887
3760 256 2632
3760 256 3760
3760 256 3760
3760 2671 256
3760 2663 275
3760 2432 2523
3760 1774 3759
3760 1765 3760
3756 3760 256
3756 3760 256
3753 3760 2279
3739 3740 3741
3737 3737 3760
3754 3760 256
3754 3760 256
3751 3760 2273
3734 3760 3739
3732 3760 3760
3760 256 645
3760 256 914
3760 256 2637
3760 256 3760
3760 256 3760
3760 290 601
3760 271 889
3760 256 2633
3760 256 3760
3760 256 3760
3760 2670 256
3760 2661 276
3760 2431 2523
3760 1773 3759
3760 1763 3760
3760 3760 256
3760 3760 256
3760 3760 2279
3760 3740 3741
3760 3736 3760
3760 3760 256
3760 3760 256
3760 3760 2273
3760 3760 3739
3760 3760 3760
