Postproduction/IWLTBAP - Humble/LUTs by IWLTBAP (3DL)/UTILITY/Generic LOG to Rec.709/U-9994-LTR.3dl
# Copyright: (C) Copyright 2010-2018 by IWLTBAP SAS
# Cannot be resold, shared or otherwise redistributed
# Website: https://luts.iwltbap.com
0 128 256 384 512 640 768 896 1023
38 38 38
37 40 288
35 45 708
31 55 1382
25 69 2253
20 82 3043
17 90 3580
16 92 3885
16 93 4065
19 318 58
19 320 308
17 325 728
12 335 1401
7 349 2273
3 362 3063
0 370 3601
0 372 3902
0 372 4069
0 810 107
0 812 357
0 817 777
0 827 1450
0 841 2322
0 854 3112
0 862 3649
0 865 3904
0 865 4069
0 1637 210
0 1639 461
0 1644 880
0 1654 1554
0 1669 2425
0 1681 3216
0 1689 3708
0 1692 3904
0 1692 4069
0 2726 357
0 2728 607
0 2733 1027
0 2743 1700
0 2757 2572
0 2770 3360
0 2778 3713
0 2780 3904
0 2781 4069
0 3497 488
0 3498 738
0 3499 1157
0 3502 1831
0 3505 2702
0 3509 3464
0 3511 3713
0 3511 3904
0 3511 4069
0 3713 565
0 3713 815
0 3713 1235
0 3713 1908
0 3713 2780
0 3713 3492
0 3713 3713
0 3713 3904
0 3713 4069
0 3904 591
0 3904 841
0 3904 1261
0 3904 1934
0 3904 2806
0 3904 3484
0 3904 3713
0 3904 3904
0 3904 4069
0 4069 594
0 4069 844
0 4069 1264
0 4069 1937
0 4069 2809
0 4069 3485
0 4069 3713
0 4069 3904
0 4069 4069
308 8 18
307 9 269
305 14 688
301 24 1362
295 38 2233
290 51 3024
286 58 3561
285 61 3865
285 61 4045
289 287 38
289 289 289
287 293 708
282 304 1382
276 318 2253
271 331 3044
268 338 3581
267 341 3885
267 341 4065
243 779 87
242 781 337
241 786 757
236 796 1431
230 810 2302
225 823 3093
222 831 3630
221 833 3903
220 834 4069
168 1606 191
168 1608 441
168 1613 861
167 1623 1534
166 1637 2406
165 1650 3196
165 1658 3703
165 1660 3904
165 1661 4069
164 2695 337
164 2697 587
164 2701 1007
164 2712 1681
164 2726 2552
164 2739 3342
164 2746 3713
164 2749 3904
164 2749 4069
164 3489 468
164 3490 718
164 3491 1138
164 3494 1811
164 3497 2683
164 3501 3454
164 3503 3713
164 3504 3904
164 3504 4069
164 3713 545
164 3713 795
164 3713 1215
164 3713 1888
164 3713 2760
164 3713 3483
164 3713 3713
164 3713 3904
164 3713 4069
164 3904 571
164 3904 821
164 3904 1241
164 3904 1915
164 3904 2786
164 3904 3479
164 3904 3713
164 3904 3904
164 3904 4069
164 4069 574
164 4069 825
164 4069 1244
164 4069 1918
164 4069 2789
164 4069 3480
164 4069 3713
164 4069 3904
164 4069 4069
776 0 0
775 0 220
773 0 639
769 0 1313
763 0 2185
758 1 2975
754 2 3512
753 2 3817
753 2 3996
757 210 1
756 212 240
754 216 659
750 226 1333
744 241 2204
739 253 2995
736 261 3532
735 264 3837
734 264 4016
711 702 39
710 704 289
708 708 708
704 719 1382
698 733 2253
693 746 3044
690 753 3581
689 756 3885
688 756 4062
614 1529 142
613 1531 392
611 1536 812
607 1546 1486
601 1560 2357
596 1573 3147
593 1581 3677
591 1583 3904
591 1583 4069
478 2617 288
477 2619 539
475 2624 958
471 2634 1632
466 2649 2503
461 2662 3294
458 2669 3713
457 2672 3904
457 2672 4069
391 3468 419
391 3470 669
390 3471 1089
388 3474 1763
386 3478 2634
384 3481 3417
383 3483 3713
382 3484 3904
382 3484 4069
372 3713 496
372 3713 746
372 3713 1166
372 3713 1840
372 3713 2711
372 3713 3459
372 3713 3713
372 3713 3904
372 3713 4069
372 3904 522
372 3904 773
372 3904 1192
372 3904 1866
372 3904 2737
372 3904 3466
372 3904 3713
372 3904 3904
372 3904 4069
372 4069 526
372 4069 776
372 4069 1195
372 4069 1869
372 4069 2740
372 4069 3467
372 4069 3713
371 4069 3904
371 4069 4069
1552 0 0
1551 0 164
1549 0 537
1544 0 1210
1538 0 2082
1533 0 2872
1530 0 3409
1529 0 3713
1529 0 3893
1533 164 0
1532 164 167
1530 164 556
1526 164 1230
1520 164 2101
1515 164 2892
1511 164 3429
1510 164 3733
1510 164 3913
1487 539 0
1486 540 189
1484 545 605
1480 555 1279
1474 570 2151
1468 583 2941
1465 590 3478
1464 593 3783
1464 593 3962
1390 1366 40
1389 1368 289
1387 1373 709
1383 1383 1383
1377 1397 2254
1371 1410 3044
1368 1417 3582
1367 1420 3881
1367 1420 4057
1252 2454 185
1251 2456 436
1249 2461 855
1245 2471 1529
1239 2486 2400
1234 2498 3191
1231 2506 3700
1230 2508 3904
1229 2509 4069
1129 3390 316
1129 3417 566
1127 3420 986
1122 3426 1660
1116 3432 2531
1111 3437 3322
1108 3440 3713
1107 3440 3904
1107 3441 4069
1057 3713 393
1056 3713 644
1054 3713 1063
1050 3713 1737
1044 3713 2608
1039 3713 3388
1035 3713 3713
1035 3713 3904
1034 3713 4069
1032 3904 419
1032 3904 670
1030 3904 1089
1025 3904 1763
1019 3904 2634
1014 3904 3416
1011 3904 3713
1010 3904 3904
1010 3904 4069
1030 4069 423
1029 4069 673
1027 4069 1092
1022 4069 1766
1016 4069 2638
1011 4069 3419
1008 4069 3713
1007 4069 3904
1007 4069 4069
2567 0 0
2566 0 164
2564 0 404
2560 0 1065
2554 0 1936
2549 0 2726
2546 0 3263
2545 0 3568
2544 0 3747
2549 164 0
2548 164 164
2546 164 418
2541 164 1085
2536 164 1956
2530 164 2746
2527 164 3283
2526 164 3587
2526 164 3767
2502 379 0
2502 380 164
2500 380 461
2496 382 1134
2489 387 2005
2484 392 2795
2481 396 3332
2480 397 3637
2480 397 3816
2405 1135 0
2404 1137 171
2403 1142 563
2398 1152 1237
2392 1166 2108
2387 1179 2899
2384 1187 3436
2383 1189 3740
2382 1190 3920
2268 2224 42
2267 2225 290
2265 2230 710
2261 2240 1383
2255 2255 2255
2249 2268 3045
2246 2275 3582
2245 2278 3880
2245 2278 4055
2145 3200 171
2144 3207 421
2142 3211 841
2138 3222 1514
2132 3236 2386
2127 3249 3176
2124 3256 3695
2122 3259 3904
2122 3259 4069
2073 3710 248
2072 3713 498
2070 3713 918
2066 3713 1591
2060 3713 2463
2054 3713 3251
2051 3713 3711
2050 3713 3904
2050 3713 4069
2048 3904 274
2047 3904 524
2045 3904 944
2041 3904 1617
2035 3904 2489
2030 3904 3277
2027 3904 3713
2026 3904 3904
2025 3904 4069
2045 4069 277
2044 4069 527
2042 4069 947
2038 4069 1621
2032 4069 2492
2027 4069 3280
2024 4069 3713
2023 4069 3904
2022 4069 4069
3434 0 0
3434 0 164
3432 0 371
3430 0 935
3426 0 1806
3422 0 2597
3420 0 3133
3419 0 3438
3419 0 3617
3422 164 0
3421 164 164
3420 164 372
3417 164 955
3413 164 1826
3409 164 2616
3407 164 3153
3406 164 3457
3406 164 3637
3388 371 0
3390 371 164
3388 371 380
3386 371 1004
3381 371 1875
3378 371 2665
3376 371 3202
3375 371 3506
3375 371 3686
3314 929 0
3319 931 164
3317 936 438
3314 946 1107
3308 960 1979
3303 973 2769
3300 981 3306
3299 983 3610
3299 984 3790
3183 2017 0
3183 2019 177
3181 2024 580
3177 2034 1253
3171 2049 2125
3166 2062 2915
3163 2069 3452
3162 2072 3757
3162 2072 3936
3060 2994 41
3061 3000 291
3058 3005 711
3054 3015 1384
3048 3030 2256
3043 3043 3046
3040 3050 3583
3039 3053 3884
3039 3053 4060
2988 3635 118
2988 3653 368
2986 3656 788
2982 3664 1461
2976 3676 2333
2971 3684 3121
2967 3688 3654
2966 3690 3904
2966 3690 4069
2963 3904 144
2964 3904 394
2962 3904 814
2957 3904 1487
2951 3904 2359
2946 3904 3147
2943 3904 3681
2942 3904 3904
2942 3904 4069
2960 4069 147
2961 4069 397
2959 4069 817
2955 4069 1491
2948 4069 2362
2943 4069 3150
2940 4069 3684
2939 4069 3904
2938 4069 4069
3713 0 0
3713 0 164
3713 0 371
3713 0 858
3713 0 1729
3713 0 2520
3713 0 3057
3713 0 3361
3713 0 3541
3713 164 0
3713 164 164
3713 164 371
3713 164 878
3713 164 1749
3713 164 2540
3713 164 3077
3713 164 3381
3713 164 3560
3713 371 0
3713 371 164
3713 371 371
3713 371 927
3713 371 1798
3713 371 2589
3713 371 3125
3713 371 3430
3713 371 3609
3713 811 0
3713 813 164
3713 817 391
3713 826 1030
3713 840 1902
3713 852 2692
3713 859 3229
3713 862 3533
3713 862 3713
3704 1896 0
3712 1898 164
3712 1903 503
3712 1913 1177
3712 1927 2048
3712 1940 2839
3712 1948 3375
3712 1950 3680
3712 1951 3859
3654 2873 0
3672 2879 215
3670 2884 634
3667 2894 1308
3662 2908 2179
3657 2921 2969
3655 2929 3506
3653 2931 3811
3653 2932 3991
3596 3522 41
3604 3534 291
3603 3539 711
3598 3549 1385
3592 3563 2256
3587 3576 3044
3584 3583 3581
3582 3586 3886
3582 3586 4065
3571 3870 67
3580 3877 317
3578 3882 737
3573 3891 1411
3567 3899 2282
3562 3903 3070
3559 3903 3610
3558 3903 3903
3558 3903 4069
3568 4057 70
3577 4060 321
3575 4063 740
3570 4067 1414
3564 4069 2285
3559 4069 3073
3556 4069 3613
3555 4069 3903
3555 4069 4069
3904 0 0
3904 0 164
3904 0 371
3904 0 832
3904 0 1703
3904 0 2494
3904 0 3031
3904 0 3335
3904 0 3515
3904 164 0
3904 164 164
3904 164 371
3904 164 852
3904 164 1723
3904 164 2514
3904 164 3050
3904 164 3355
3904 164 3534
3904 371 0
3904 371 164
3904 371 371
3904 371 901
3904 371 1772
3904 371 2563
3904 371 3100
3904 371 3404
3904 371 3584
3904 773 0
3904 775 164
3904 780 382
3904 789 1004
3904 802 1876
3904 814 2666
3904 821 3203
3904 823 3507
3904 824 3687
3904 1855 0
3904 1857 164
3904 1862 478
3904 1872 1151
3904 1886 2022
3904 1899 2813
3904 1906 3349
3904 1909 3654
3904 1909 3833
3904 2831 0
3904 2838 190
3904 2843 608
3904 2853 1282
3904 2867 2153
3904 2880 2943
3904 2888 3480
3904 2890 3785
3904 2890 3965
3903 3480 15
3904 3492 265
3904 3497 685
3904 3507 1359
3903 3522 2230
3903 3535 3018
3903 3542 3554
3903 3545 3861
3903 3545 4041
3898 3829 41
3903 3836 292
3903 3841 711
3902 3851 1385
3898 3865 2256
3893 3878 3044
3889 3886 3584
3888 3888 3888
3888 3889 4068
3897 4017 44
3903 4020 295
3902 4025 714
3900 4035 1388
3895 4050 2259
3890 4063 3047
3886 4069 3587
3885 4069 3892
3885 4069 4069
4069 0 0
4069 0 164
4069 0 371
4069 0 829
4069 0 1700
4069 0 2491
4069 0 3027
4069 0 3332
4069 0 3511
4069 164 0
4069 164 164
4069 164 371
4069 164 849
4069 164 1720
4069 164 2511
4069 164 3047
4069 164 3352
4069 164 3531
4069 371 0
4069 371 164
4069 371 371
4069 371 898
4069 371 1769
4069 371 2560
4069 371 3096
4069 371 3401
4069 371 3580
4069 769 0
4069 771 164
4069 775 381
4069 784 1001
4069 798 1873
4069 809 2663
4069 816 3200
4069 819 3504
4069 819 3684
4069 1850 0
4069 1852 164
4069 1857 475
4069 1867 1148
4069 1881 2019
4069 1894 2809
4069 1901 3346
4069 1904 3651
4069 1904 3830
4069 2826 0
4069 2833 188
4069 2838 605
4069 2848 1278
4069 2862 2150
4069 2875 2940
4069 2883 3477
4069 2885 3782
4069 2885 3961
4069 3475 12
4069 3487 262
4069 3492 682
4069 3502 1355
4069 3517 2227
4069 3530 3015
4069 3537 3551
4069 3540 3858
4069 3540 4038
4069 3824 38
4069 3831 288
4069 3836 708
4069 3846 1382
4069 3860 2253
4069 3873 3041
4069 3881 3580
4069 3883 3885
4069 3884 4065
4069 4012 41
4069 4015 292
4069 4020 711
4069 4030 1385
4069 4045 2256
4069 4058 3044
4069 4065 3584
4068 4068 3888
4068 4068 4068
