Postproduction/IWLTBAP - Humble/LUTs by IWLTBAP (3DL)/UTILITY/Generic LOG to Rec.709/U-9994-LTR.3dl
# Copyright: (C) Copyright 2010-2018 by IWLTBAP SAS
# Cannot be resold, shared or otherwise redistributed
# Website: https://luts.iwltbap.com
0 256 512 768 1023
38 38 38
35 45 708
25 69 2253
17 90 3580
16 93 4065
0 810 107
0 817 777
0 841 2322
0 862 3649
0 865 4069
0 2726 357
0 2733 1027
0 2757 2572
0 2778 3713
0 2781 4069
0 3713 565
0 3713 1235
0 3713 2780
0 3713 3713
0 3713 4069
0 4069 594
0 4069 1264
0 4069 2809
0 4069 3713
0 4069 4069
776 0 0
773 0 639
763 0 2185
754 2 3512
753 2 3996
711 702 39
708 708 708
698 733 2253
690 753 3581
688 756 4062
478 2617 288
475 2624 958
466 2649 2503
458 2669 3713
457 2672 4069
372 3713 496
372 3713 1166
372 3713 2711
372 3713 3713
372 3713 4069
372 4069 526
372 4069 1195
372 4069 2740
372 4069 3713
371 4069 4069
2567 0 0
2564 0 404
2554 0 1936
2546 0 3263
2544 0 3747
2502 379 0
2500 380 461
2489 387 2005
2481 396 3332
2480 397 3816
2268 2224 42
2265 2230 710
2255 2255 2255
2246 2275 3582
2245 2278 4055
2073 3710 248
2070 3713 918
2060 3713 2463
2051 3713 3711
2050 3713 4069
2045 4069 277
2042 4069 947
2032 4069 2492
2024 4069 3713
2022 4069 4069
3713 0 0
3713 0 371
3713 0 1729
3713 0 3057
3713 0 3541
3713 371 0
3713 371 371
3713 371 1798
3713 371 3125
3713 371 3609
3704 1896 0
3712 1903 503
3712 1927 2048
3712 1948 3375
3712 1951 3859
3596 3522 41
3603 3539 711
3592 3563 2256
3584 3583 3581
3582 3586 4065
3568 4057 70
3575 4063 740
3564 4069 2285
3556 4069 3613
3555 4069 4069
4069 0 0
4069 0 371
4069 0 1700
4069 0 3027
4069 0 3511
4069 371 0
4069 371 371
4069 371 1769
4069 371 3096
4069 371 3580
4069 1850 0
4069 1857 475
4069 1881 2019
4069 1901 3346
4069 1904 3830
4069 3475 12
4069 3492 682
4069 3517 2227
4069 3537 3551
4069 3540 4038
4069 4012 41
4069 4020 711
4069 4045 2256
4069 4065 3584
4068 4068 4068
