Postproduction/IWLTBAP - Humble/LUTs by IWLTBAP (3DL)/UTILITY/Generic LOG to Rec.709/U-9990-LTR.3dl
# Copyright: (C) Copyright 2010-2018 by IWLTBAP SAS
# Cannot be resold, shared or otherwise redistributed
# Website: https://luts.iwltbap.com
0 256 512 768 1023
0 0 0
0 0 903
0 0 2665
0 0 4087
0 0 4095
0 602 0
0 582 582
0 510 2341
0 442 4022
0 402 4095
0 1942 0
0 1960 184
0 1924 1924
0 1872 3827
0 1854 4095
0 3536 0
0 3565 6
0 3554 1499
0 3508 3506
0 3499 4095
0 4095 0
0 4095 24
0 4095 1442
0 4095 3449
0 4095 4095
867 0 0
827 0 827
724 0 2570
619 0 4077
520 0 4095
583 583 0
584 583 584
530 529 2350
475 474 4049
447 446 4095
249 2021 0
278 2043 278
259 2013 2013
227 1964 3916
236 1949 4095
33 3642 0
47 3672 44
45 3662 1614
33 3618 3615
37 3609 4095
71 4095 0
85 4095 85
85 4095 1557
54 4095 3548
32 4095 4095
2429 0 0
2366 0 519
2253 0 2253
2147 0 3934
2070 0 4095
2263 444 0
2271 456 457
2221 412 2221
2162 364 3997
2127 346 4095
1960 1960 0
1987 1987 249
1965 1965 1965
1921 1921 3903
1915 1915 4095
1591 3643 0
1624 3673 51
1617 3668 1617
1573 3627 3626
1565 3621 4095
1532 4095 0
1526 4095 67
1473 4095 1473
1370 4095 3428
1309 4095 4095
3907 0 0
3886 0 233
3822 0 1974
3759 0 3759
3730 0 4095
3973 314 0
3984 332 334
3964 293 2072
3926 241 3927
3916 226 4095
3846 1851 0
3875 1881 185
3867 1862 1863
3834 1817 3834
3837 1809 4095
3544 3544 0
3575 3575 23
3571 3572 1515
3529 3530 3529
3521 3521 4095
3323 4095 0
3321 4095 2
3289 4095 1229
3207 4095 3207
3148 4095 4095
4095 0 0
4095 0 110
4095 0 1832
4095 0 3710
4095 0 4095
4095 289 0
4095 313 313
4095 284 2010
4095 235 3923
4095 229 4095
4095 1857 0
4095 1888 249
4095 1876 1876
4095 1829 3863
4095 1820 4095
4095 3546 0
4095 3577 39
4095 3573 1515
4095 3522 3522
4095 3494 4095
4095 4095 0
4095 4095 0
4095 4095 1081
4095 4095 3056
4095 4095 4095
