Postproduction/IWLTBAP - Humble/LUTs by IWLTBAP (3DL)/UTILITY/Generic LOG to Rec.709/U-9993-LTR.3dl
# Copyright: (C) Copyright 2010-2018 by IWLTBAP SAS
# Cannot be resold, shared or otherwise redistributed
# Website: https://luts.iwltbap.com
0 64 128 192 256 320 384 448 512 576 640 704 768 832 896 960 1023
256 256 256
256 256 257
256 256 284
256 256 458
256 256 722
256 256 1082
256 256 1569
256 256 2092
256 256 2608
256 256 3097
256 256 3505
256 256 3735
256 256 3760
256 256 3760
256 256 3760
256 256 3760
256 256 3760
256 257 256
256 257 257
256 256 284
256 256 458
256 256 722
256 256 1082
256 256 1569
256 256 2092
256 256 2608
256 256 3097
256 256 3505
256 256 3735
256 256 3760
256 256 3760
256 256 3760
256 256 3760
256 256 3760
256 288 256
256 287 256
256 282 280
256 265 454
256 259 720
256 256 1081
256 256 1568
256 256 2092
256 256 2608
256 256 3097
256 256 3504
256 256 3735
256 256 3760
256 256 3760
256 256 3760
256 256 3760
256 256 3760
256 485 256
256 485 256
256 480 266
256 444 436
256 366 710
256 277 1076
256 256 1565
256 256 2091
256 256 2607
256 256 3096
256 256 3504
256 256 3735
256 256 3760
256 256 3760
256 256 3760
256 256 3760
256 256 3760
256 765 256
256 765 256
256 763 260
256 743 394
256 694 685
256 558 1063
256 315 1559
256 256 2087
256 256 2604
256 256 3093
256 256 3502
256 256 3735
256 256 3760
256 256 3760
256 256 3760
256 256 3760
256 256 3760
256 1146 256
256 1145 256
256 1144 257
256 1134 302
256 1109 610
256 1039 1028
256 829 1540
256 415 2075
256 305 2597
256 256 3088
256 256 3498
256 256 3735
256 256 3760
256 256 3760
256 256 3760
256 256 3760
256 256 3760
256 1658 256
256 1658 256
256 1657 256
256 1652 263
256 1639 422
256 1604 926
256 1511 1493
256 1299 2048
256 959 2578
256 469 3074
256 361 3488
256 304 3733
256 256 3760
256 256 3760
256 256 3760
256 256 3760
256 256 3760
256 2210 256
256 2210 256
256 2210 256
256 2207 256
256 2198 293
256 2178 723
256 2125 1400
256 2024 1997
256 1851 2544
256 1568 3049
256 1237 3468
256 878 3719
256 515 3759
256 484 3760
256 484 3760
256 484 3760
256 484 3760
256 2754 256
256 2754 256
256 2754 256
256 2752 256
256 2746 256
256 2732 402
256 2697 1231
256 2632 1916
256 2530 2492
256 2384 3011
256 2205 3438
256 2040 3696
256 1910 3757
256 1882 3760
256 1882 3760
256 1882 3760
256 1882 3760
256 3269 256
256 3269 256
256 3269 256
256 3267 256
256 3263 256
256 3253 323
256 3227 999
256 3179 1799
256 3107 2422
256 3008 2961
256 2896 3398
256 2807 3664
256 2755 3754
256 2747 3760
256 2747 3760
256 2747 3760
256 2747 3760
256 3673 256
256 3673 256
256 3673 256
256 3671 256
256 3668 256
256 3662 277
256 3644 651
256 3611 1642
256 3560 2342
256 3491 2907
256 3410 3356
256 3345 3630
256 3308 3750
256 3302 3760
256 3302 3760
256 3302 3760
256 3302 3760
256 3756 256
256 3756 256
256 3756 256
256 3756 256
256 3755 256
256 3755 256
256 3753 437
256 3750 1513
256 3745 2278
256 3735 2864
256 3704 3323
256 3657 3603
256 3628 3739
256 3624 3758
256 3624 3758
256 3624 3758
256 3624 3758
256 3760 256
256 3760 256
256 3760 256
256 3760 256
256 3760 256
256 3760 256
256 3760 412
256 3760 1453
256 3760 2242
256 3760 2840
256 3759 3305
256 3755 3588
256 3751 3726
256 3750 3746
256 3750 3747
256 3750 3747
256 3750 3747
256 3760 256
256 3760 256
256 3760 256
256 3760 256
256 3760 256
256 3760 256
256 3760 412
256 3760 1446
256 3760 2235
256 3760 2836
256 3760 3302
256 3760 3586
256 3760 3724
256 3760 3744
256 3760 3745
256 3760 3745
256 3760 3745
256 3760 256
256 3760 256
256 3760 256
256 3760 256
256 3760 256
256 3760 256
256 3760 412
256 3760 1446
256 3760 2235
256 3760 2836
256 3760 3302
256 3760 3586
256 3760 3724
256 3760 3744
256 3760 3745
256 3760 3745
256 3760 3745
256 3760 256
256 3760 256
256 3760 256
256 3760 256
256 3760 256
256 3760 256
256 3760 412
256 3760 1446
256 3760 2235
256 3760 2836
256 3760 3302
256 3760 3586
256 3760 3724
256 3760 3744
256 3760 3745
256 3760 3745
256 3760 3745
256 3760 256
256 3760 256
256 3760 256
256 3760 256
256 3760 256
256 3760 256
256 3760 412
256 3760 1446
256 3760 2235
256 3760 2836
256 3760 3302
256 3760 3586
256 3760 3724
256 3760 3744
256 3760 3745
256 3760 3745
256 3760 3745
257 256 256
257 256 257
257 256 284
256 256 458
256 256 722
256 256 1082
256 256 1569
256 256 2092
256 256 2608
256 256 3097
256 256 3505
256 256 3735
256 256 3760
256 256 3760
256 256 3760
256 256 3760
256 256 3760
257 257 256
257 257 257
256 256 284
256 256 458
256 256 722
256 256 1082
256 256 1569
256 256 2092
256 256 2608
256 256 3097
256 256 3505
256 256 3735
256 256 3760
256 256 3760
256 256 3760
256 256 3760
256 256 3760
256 288 256
256 287 256
256 282 280
256 265 454
256 259 720
256 256 1081
256 256 1568
256 256 2092
256 256 2608
256 256 3097
256 256 3504
256 256 3735
256 256 3760
256 256 3760
256 256 3760
256 256 3760
256 256 3760
256 485 256
256 485 256
256 480 266
256 444 436
256 366 710
256 277 1076
256 256 1565
256 256 2091
256 256 2607
256 256 3096
256 256 3504
256 256 3735
256 256 3760
256 256 3760
256 256 3760
256 256 3760
256 256 3760
256 765 256
256 765 256
256 763 260
256 743 394
256 694 685
256 558 1063
256 315 1559
256 256 2087
256 256 2604
256 256 3093
256 256 3502
256 256 3735
256 256 3760
256 256 3760
256 256 3760
256 256 3760
256 256 3760
256 1146 256
256 1145 256
256 1144 257
256 1134 302
256 1109 610
256 1039 1028
256 829 1540
256 415 2075
256 305 2597
256 256 3088
256 256 3498
256 256 3735
256 256 3760
256 256 3760
256 256 3760
256 256 3760
256 256 3760
256 1658 256
256 1658 256
256 1657 256
256 1652 263
256 1639 422
256 1604 926
256 1511 1493
256 1299 2048
256 959 2578
256 469 3074
256 361 3488
256 304 3733
256 256 3760
256 256 3760
256 256 3760
256 256 3760
256 256 3760
256 2210 256
256 2210 256
256 2210 256
256 2207 256
256 2198 293
256 2178 723
256 2125 1400
256 2024 1997
256 1851 2544
256 1568 3049
256 1237 3468
256 878 3719
256 515 3759
256 484 3760
256 484 3760
256 484 3760
256 484 3760
256 2754 256
256 2754 256
256 2754 256
256 2752 256
256 2746 256
256 2732 402
256 2697 1231
256 2632 1916
256 2530 2492
256 2384 3011
256 2205 3438
256 2040 3696
256 1910 3757
256 1882 3760
256 1882 3760
256 1882 3760
256 1882 3760
256 3269 256
256 3269 256
256 3269 256
256 3267 256
256 3263 256
256 3253 323
256 3227 999
256 3179 1799
256 3107 2422
256 3008 2961
256 2896 3398
256 2807 3664
256 2755 3754
256 2747 3760
256 2747 3760
256 2747 3760
256 2747 3760
256 3673 256
256 3673 256
256 3673 256
256 3671 256
256 3668 256
256 3662 277
256 3644 651
256 3611 1642
256 3560 2342
256 3491 2907
256 3410 3356
256 3345 3630
256 3308 3750
256 3302 3760
256 3302 3760
256 3302 3760
256 3302 3760
256 3756 256
256 3756 256
256 3756 256
256 3756 256
256 3755 256
256 3755 256
256 3753 437
256 3750 1513
256 3745 2278
256 3735 2864
256 3704 3323
256 3657 3603
256 3628 3739
256 3624 3758
256 3624 3758
256 3624 3758
256 3624 3758
256 3760 256
256 3760 256
256 3760 256
256 3760 256
256 3760 256
256 3760 256
256 3760 412
256 3760 1453
256 3760 2242
256 3760 2840
256 3759 3305
256 3755 3588
256 3751 3726
256 3750 3746
256 3750 3747
256 3750 3747
256 3750 3747
256 3760 256
256 3760 256
256 3760 256
256 3760 256
256 3760 256
256 3760 256
256 3760 412
256 3760 1446
256 3760 2235
256 3760 2836
256 3760 3302
256 3760 3586
256 3760 3724
256 3760 3744
256 3760 3745
256 3760 3745
256 3760 3745
256 3760 256
256 3760 256
256 3760 256
256 3760 256
256 3760 256
256 3760 256
256 3760 412
256 3760 1446
256 3760 2235
256 3760 2836
256 3760 3302
256 3760 3586
256 3760 3724
256 3760 3744
256 3760 3745
256 3760 3745
256 3760 3745
256 3760 256
256 3760 256
256 3760 256
256 3760 256
256 3760 256
256 3760 256
256 3760 412
256 3760 1446
256 3760 2235
256 3760 2836
256 3760 3302
256 3760 3586
256 3760 3724
256 3760 3744
256 3760 3745
256 3760 3745
256 3760 3745
256 3760 256
256 3760 256
256 3760 256
256 3760 256
256 3760 256
256 3760 256
256 3760 412
256 3760 1446
256 3760 2235
256 3760 2836
256 3760 3302
256 3760 3586
256 3760 3724
256 3760 3744
256 3760 3745
256 3760 3745
256 3760 3745
293 256 256
293 256 257
290 256 284
279 256 458
267 256 722
260 256 1082
256 256 1569
256 256 2092
256 256 2608
256 256 3097
256 256 3505
256 256 3735
256 256 3760
256 256 3760
256 256 3760
256 256 3760
256 256 3760
293 257 256
293 257 257
290 256 284
278 256 458
267 256 722
260 256 1082
256 256 1569
256 256 2092
256 256 2608
256 256 3097
256 256 3505
256 256 3735
256 256 3760
256 256 3760
256 256 3760
256 256 3760
256 256 3760
285 287 256
284 287 256
283 282 281
271 265 455
264 259 721
259 256 1081
256 256 1568
256 256 2092
256 256 2608
256 256 3097
256 256 3504
256 256 3735
256 256 3760
256 256 3760
256 256 3760
256 256 3760
256 256 3760
264 485 256
264 485 256
264 479 266
262 443 436
260 366 710
257 277 1076
256 256 1565
256 256 2091
256 256 2607
256 256 3096
256 256 3504
256 256 3735
256 256 3760
256 256 3760
256 256 3760
256 256 3760
256 256 3760
257 765 256
257 765 256
257 763 260
257 743 394
256 693 685
256 557 1063
256 315 1559
256 256 2087
256 256 2605
256 256 3093
256 256 3502
256 256 3735
256 256 3760
256 256 3760
256 256 3760
256 256 3760
256 256 3760
256 1145 256
256 1145 256
256 1144 257
256 1134 302
256 1109 610
256 1038 1028
256 829 1540
256 415 2075
256 305 2597
256 256 3088
256 256 3498
256 256 3735
256 256 3760
256 256 3760
256 256 3760
256 256 3760
256 256 3760
256 1658 256
256 1658 256
256 1657 256
256 1651 263
256 1639 422
256 1604 926
256 1511 1493
256 1299 2048
256 959 2578
256 469 3074
256 361 3488
256 304 3733
256 256 3760
256 256 3760
256 256 3760
256 256 3760
256 256 3760
256 2210 256
256 2210 256
256 2210 256
256 2206 256
256 2198 293
256 2178 723
256 2125 1400
256 2024 1997
256 1851 2544
256 1568 3049
256 1237 3468
256 877 3719
256 515 3759
256 484 3760
256 484 3760
256 484 3760
256 484 3760
256 2754 256
256 2754 256
256 2754 256
256 2752 256
256 2746 256
256 2732 402
256 2697 1231
256 2632 1916
256 2530 2492
256 2384 3011
256 2205 3438
256 2040 3696
256 1910 3757
256 1882 3760
256 1882 3760
256 1882 3760
256 1882 3760
256 3269 256
256 3269 256
256 3269 256
256 3267 256
256 3263 256
256 3253 323
256 3227 999
256 3179 1799
256 3107 2422
256 3008 2961
256 2896 3398
256 2807 3664
256 2755 3754
256 2747 3760
256 2747 3760
256 2747 3760
256 2747 3760
256 3673 256
256 3673 256
256 3673 256
256 3671 256
256 3668 256
256 3662 277
256 3644 651
256 3610 1642
256 3560 2342
256 3491 2907
256 3410 3356
256 3345 3630
256 3308 3750
256 3302 3760
256 3302 3760
256 3302 3760
256 3302 3760
256 3756 256
256 3756 256
256 3756 256
256 3756 256
256 3755 256
256 3755 256
256 3753 437
256 3750 1513
256 3745 2278
256 3735 2864
256 3704 3323
256 3657 3603
256 3628 3739
256 3624 3758
256 3624 3758
256 3624 3758
256 3624 3758
256 3760 256
256 3760 256
256 3760 256
256 3760 256
256 3760 256
256 3760 256
256 3760 412
256 3760 1453
256 3760 2242
256 3760 2840
256 3759 3305
256 3755 3588
256 3751 3726
256 3750 3746
256 3750 3747
256 3750 3747
256 3750 3747
256 3760 256
256 3760 256
256 3760 256
256 3760 256
256 3760 256
256 3760 256
256 3760 412
256 3760 1446
256 3760 2235
256 3760 2836
256 3760 3302
256 3760 3586
256 3760 3724
256 3760 3744
256 3760 3745
256 3760 3745
256 3760 3745
256 3760 256
256 3760 256
256 3760 256
256 3760 256
256 3760 256
256 3760 256
256 3760 412
256 3760 1446
256 3760 2235
256 3760 2836
256 3760 3302
256 3760 3586
256 3760 3724
256 3760 3744
256 3760 3745
256 3760 3745
256 3760 3745
256 3760 256
256 3760 256
256 3760 256
256 3760 256
256 3760 256
256 3760 256
256 3760 412
256 3760 1446
256 3760 2235
256 3760 2836
256 3760 3302
256 3760 3586
256 3760 3724
256 3760 3744
256 3760 3745
256 3760 3745
256 3760 3745
256 3760 256
256 3760 256
256 3760 256
256 3760 256
256 3760 256
256 3760 256
256 3760 412
256 3760 1446
256 3760 2235
256 3760 2836
256 3760 3302
256 3760 3586
256 3760 3724
256 3760 3744
256 3760 3745
256 3760 3745
256 3760 3745
515 256 258
515 256 259
514 256 285
502 256 459
476 256 723
407 256 1083
290 256 1569
260 256 2093
256 256 2609
256 256 3097
256 256 3505
256 256 3735
256 256 3760
256 256 3760
256 256 3760
256 256 3760
256 256 3760
515 256 258
515 256 259
513 256 285
502 256 459
476 256 723
407 256 1083
290 256 1569
260 256 2093
256 256 2609
256 256 3097
256 256 3505
256 256 3735
256 256 3760
256 256 3760
256 256 3760
256 256 3760
