Postproduction/IWLTBAP - Humble/LUTs by IWLTBAP (3DL)/UTILITY/REDLog to Rec.709/U-REDLOG-V2-LTR.3dl
# Copyright: (C) Copyright 2010-2018 by IWLTBAP SAS
# Cannot be resold, shared or otherwise redistributed
# Website: https://luts.iwltbap.com
0 256 512 768 1023
0 0 0
0 0 541
0 0 2140
0 0 3499
0 0 4015
0 541 0
0 541 541
0 541 2140
0 541 3499
0 541 4015
0 2140 0
0 2140 541
0 2140 2140
0 2140 3499
0 2140 4015
0 3499 0
0 3499 541
0 3499 2140
0 3499 3499
0 3499 4015
0 4015 0
0 4015 541
0 4015 2140
0 4015 3499
0 4015 4015
541 0 0
541 0 541
541 0 2140
541 0 3499
541 0 4015
541 541 0
541 541 541
541 541 2140
541 541 3499
541 541 4015
541 2140 0
541 2140 541
541 2140 2140
541 2140 3499
541 2140 4015
541 3499 0
541 3499 541
541 3499 2140
541 3499 3499
541 3499 4015
541 4015 0
541 4015 541
541 4015 2140
541 4015 3499
541 4015 4015
2140 0 0
2140 0 541
2140 0 2140
2140 0 3499
2140 0 4015
2140 541 0
2140 541 541
2140 541 2140
2140 541 3499
2140 541 4015
2140 2140 0
2140 2140 541
2140 2140 2140
2140 2140 3499
2140 2140 4015
2140 3499 0
2140 3499 541
2140 3499 2140
2140 3499 3499
2140 3499 4015
2140 4015 0
2140 4015 541
2140 4015 2140
2140 4015 3499
2140 4015 4015
3499 0 0
3499 0 541
3499 0 2140
3499 0 3499
3499 0 4015
3499 541 0
3499 541 541
3499 541 2140
3499 541 3499
3499 541 4015
3499 2140 0
3499 2140 541
3499 2140 2140
3499 2140 3499
3499 2140 4015
3499 3499 0
3499 3499 541
3499 3499 2140
3499 3499 3499
3499 3499 4015
3499 4015 0
3499 4015 541
3499 4015 2140
3499 4015 3499
3499 4015 4015
4015 0 0
4015 0 541
4015 0 2140
4015 0 3499
4015 0 4015
4015 541 0
4015 541 541
4015 541 2140
4015 541 3499
4015 541 4015
4015 2140 0
4015 2140 541
4015 2140 2140
4015 2140 3499
4015 2140 4015
4015 3499 0
4015 3499 541
4015 3499 2140
4015 3499 3499
4015 3499 4015
4015 4015 0
4015 4015 541
4015 4015 2140
4015 4015 3499
4015 4015 4015
