Postproduction/IWLTBAP - Humble/LUTs by IWLTBAP (3DL)/UTILITY/REDLog to Rec.709/U-REDLOG-V1-LTR.3dl
# Copyright: (C) Copyright 2010-2018 by IWLTBAP SAS
# Cannot be resold, shared or otherwise redistributed
# Website: https://luts.iwltbap.com
0 128 256 384 512 640 768 896 1023
0 0 0
0 0 224
0 0 760
0 0 1511
0 0 2370
0 0 3115
0 0 3631
0 0 3932
0 0 4095
0 224 0
0 224 224
0 224 760
0 224 1511
0 224 2370
0 224 3115
0 224 3631
0 224 3932
0 224 4095
0 760 0
0 760 224
0 760 760
0 760 1511
0 760 2370
0 760 3115
0 760 3631
0 760 3932
0 760 4095
0 1511 0
0 1511 224
0 1511 760
0 1511 1511
0 1511 2370
0 1511 3115
0 1511 3631
0 1511 3932
0 1511 4095
0 2370 0
0 2370 224
0 2370 760
0 2370 1511
0 2370 2370
0 2370 3115
0 2370 3631
0 2370 3932
0 2370 4095
0 3115 0
0 3115 224
0 3115 760
0 3115 1511
0 3115 2370
0 3115 3115
0 3115 3631
0 3115 3932
0 3115 4095
0 3631 0
0 3631 224
0 3631 760
0 3631 1511
0 3631 2370
0 3631 3115
0 3631 3631
0 3631 3932
0 3631 4095
0 3932 0
0 3932 224
0 3932 760
0 3932 1511
0 3932 2370
0 3932 3115
0 3932 3631
0 3932 3932
0 3932 4095
0 4095 0
0 4095 224
0 4095 760
0 4095 1511
0 4095 2370
0 4095 3115
0 4095 3631
0 4095 3932
0 4095 4095
224 0 0
224 0 224
224 0 760
224 0 1511
224 0 2370
224 0 3115
224 0 3631
224 0 3932
224 0 4095
224 224 0
224 224 224
224 224 760
224 224 1511
224 224 2370
224 224 3115
224 224 3631
224 224 3932
224 224 4095
224 760 0
224 760 224
224 760 760
224 760 1511
224 760 2370
224 760 3115
224 760 3631
224 760 3932
224 760 4095
224 1511 0
224 1511 224
224 1511 760
224 1511 1511
224 1511 2370
224 1511 3115
224 1511 3631
224 1511 3932
224 1511 4095
224 2370 0
224 2370 224
224 2370 760
224 2370 1511
224 2370 2370
224 2370 3115
224 2370 3631
224 2370 3932
224 2370 4095
224 3115 0
224 3115 224
224 3115 760
224 3115 1511
224 3115 2370
224 3115 3115
224 3115 3631
224 3115 3932
224 3115 4095
224 3631 0
224 3631 224
224 3631 760
224 3631 1511
224 3631 2370
224 3631 3115
224 3631 3631
224 3631 3932
224 3631 4095
224 3932 0
224 3932 224
224 3932 760
224 3932 1511
224 3932 2370
224 3932 3115
224 3932 3631
224 3932 3932
224 3932 4095
224 4095 0
224 4095 224
224 4095 760
224 4095 1511
224 4095 2370
224 4095 3115
224 4095 3631
224 4095 3932
224 4095 4095
760 0 0
760 0 224
760 0 760
760 0 1511
760 0 2370
760 0 3115
760 0 3631
760 0 3932
760 0 4095
760 224 0
760 224 224
760 224 760
760 224 1511
760 224 2370
760 224 3115
760 224 3631
760 224 3932
760 224 4095
760 760 0
760 760 224
760 760 760
760 760 1511
760 760 2370
760 760 3115
760 760 3631
760 760 3932
760 760 4095
760 1511 0
760 1511 224
760 1511 760
760 1511 1511
760 1511 2370
760 1511 3115
760 1511 3631
760 1511 3932
760 1511 4095
760 2370 0
760 2370 224
760 2370 760
760 2370 1511
760 2370 2370
760 2370 3115
760 2370 3631
760 2370 3932
760 2370 4095
760 3115 0
760 3115 224
760 3115 760
760 3115 1511
760 3115 2370
760 3115 3115
760 3115 3631
760 3115 3932
760 3115 4095
760 3631 0
760 3631 224
760 3631 760
760 3631 1511
760 3631 2370
760 3631 3115
760 3631 3631
760 3631 3932
760 3631 4095
760 3932 0
760 3932 224
760 3932 760
760 3932 1511
760 3932 2370
760 3932 3115
760 3932 3631
760 3932 3932
760 3932 4095
760 4095 0
760 4095 224
760 4095 760
760 4095 1511
760 4095 2370
760 4095 3115
760 4095 3631
760 4095 3932
760 4095 4095
1511 0 0
1511 0 224
1511 0 760
1511 0 1511
1511 0 2370
1511 0 3115
1511 0 3631
1511 0 3932
1511 0 4095
1511 224 0
1511 224 224
1511 224 760
1511 224 1511
1511 224 2370
1511 224 3115
1511 224 3631
1511 224 3932
1511 224 4095
1511 760 0
1511 760 224
1511 760 760
1511 760 1511
1511 760 2370
1511 760 3115
1511 760 3631
1511 760 3932
1511 760 4095
1511 1511 0
1511 1511 224
1511 1511 760
1511 1511 1511
1511 1511 2370
1511 1511 3115
1511 1511 3631
1511 1511 3932
1511 1511 4095
1511 2370 0
1511 2370 224
1511 2370 760
1511 2370 1511
1511 2370 2370
1511 2370 3115
1511 2370 3631
1511 2370 3932
1511 2370 4095
1511 3115 0
1511 3115 224
1511 3115 760
1511 3115 1511
1511 3115 2370
1511 3115 3115
1511 3115 3631
1511 3115 3932
1511 3115 4095
1511 3631 0
1511 3631 224
1511 3631 760
1511 3631 1511
1511 3631 2370
1511 3631 3115
1511 3631 3631
1511 3631 3932
1511 3631 4095
1511 3932 0
1511 3932 224
1511 3932 760
1511 3932 1511
1511 3932 2370
1511 3932 3115
1511 3932 3631
1511 3932 3932
1511 3932 4095
1511 4095 0
1511 4095 224
1511 4095 760
1511 4095 1511
1511 4095 2370
1511 4095 3115
1511 4095 3631
1511 4095 3932
1511 4095 4095
2370 0 0
2370 0 224
2370 0 760
2370 0 1511
2370 0 2370
2370 0 3115
2370 0 3631
2370 0 3932
2370 0 4095
2370 224 0
2370 224 224
2370 224 760
2370 224 1511
2370 224 2370
2370 224 3115
2370 224 3631
2370 224 3932
2370 224 4095
2370 760 0
2370 760 224
2370 760 760
2370 760 1511
2370 760 2370
2370 760 3115
2370 760 3631
2370 760 3932
2370 760 4095
2370 1511 0
2370 1511 224
2370 1511 760
2370 1511 1511
2370 1511 2370
2370 1511 3115
2370 1511 3631
2370 1511 3932
2370 1511 4095
2370 2370 0
2370 2370 224
2370 2370 760
2370 2370 1511
2370 2370 2370
2370 2370 3115
2370 2370 3631
2370 2370 3932
2370 2370 4095
2370 3115 0
2370 3115 224
2370 3115 760
2370 3115 1511
2370 3115 2370
2370 3115 3115
2370 3115 3631
2370 3115 3932
2370 3115 4095
2370 3631 0
2370 3631 224
2370 3631 760
2370 3631 1511
2370 3631 2370
2370 3631 3115
2370 3631 3631
2370 3631 3932
2370 3631 4095
2370 3932 0
2370 3932 224
2370 3932 760
2370 3932 1511
2370 3932 2370
2370 3932 3115
2370 3932 3631
2370 3932 3932
2370 3932 4095
2370 4095 0
2370 4095 224
2370 4095 760
2370 4095 1511
2370 4095 2370
2370 4095 3115
2370 4095 3631
2370 4095 3932
2370 4095 4095
3115 0 0
3115 0 224
3115 0 760
3115 0 1511
3115 0 2370
3115 0 3115
3115 0 3631
3115 0 3932
3115 0 4095
3115 224 0
3115 224 224
3115 224 760
3115 224 1511
3115 224 2370
3115 224 3115
3115 224 3631
3115 224 3932
3115 224 4095
3115 760 0
3115 760 224
3115 760 760
3115 760 1511
3115 760 2370
3115 760 3115
3115 760 3631
3115 760 3932
3115 760 4095
3115 1511 0
3115 1511 224
3115 1511 760
3115 1511 1511
3115 1511 2370
3115 1511 3115
3115 1511 3631
3115 1511 3932
3115 1511 4095
3115 2370 0
3115 2370 224
3115 2370 760
3115 2370 1511
3115 2370 2370
3115 2370 3115
3115 2370 3631
3115 2370 3932
3115 2370 4095
3115 3115 0
3115 3115 224
3115 3115 760
3115 3115 1511
3115 3115 2370
3115 3115 3115
3115 3115 3631
3115 3115 3932
3115 3115 4095
3115 3631 0
3115 3631 224
3115 3631 760
3115 3631 1511
3115 3631 2370
3115 3631 3115
3115 3631 3631
3115 3631 3932
3115 3631 4095
3115 3932 0
3115 3932 224
3115 3932 760
3115 3932 1511
3115 3932 2370
3115 3932 3115
3115 3932 3631
3115 3932 3932
3115 3932 4095
3115 4095 0
3115 4095 224
3115 4095 760
3115 4095 1511
3115 4095 2370
3115 4095 3115
3115 4095 3631
3115 4095 3932
3115 4095 4095
3631 0 0
3631 0 224
3631 0 760
3631 0 1511
3631 0 2370
3631 0 3115
3631 0 3631
3631 0 3932
3631 0 4095
3631 224 0
3631 224 224
3631 224 760
3631 224 1511
3631 224 2370
3631 224 3115
3631 224 3631
3631 224 3932
3631 224 4095
3631 760 0
3631 760 224
3631 760 760
3631 760 1511
3631 760 2370
3631 760 3115
3631 760 3631
3631 760 3932
3631 760 4095
3631 1511 0
3631 1511 224
3631 1511 760
3631 1511 1511
3631 1511 2370
3631 1511 3115
3631 1511 3631
3631 1511 3932
3631 1511 4095
3631 2370 0
3631 2370 224
3631 2370 760
3631 2370 1511
3631 2370 2370
3631 2370 3115
3631 2370 3631
3631 2370 3932
3631 2370 4095
3631 3115 0
3631 3115 224
3631 3115 760
3631 3115 1511
3631 3115 2370
3631 3115 3115
3631 3115 3631
3631 3115 3932
3631 3115 4095
3631 3631 0
3631 3631 224
3631 3631 760
3631 3631 1511
3631 3631 2370
3631 3631 3115
3631 3631 3631
3631 3631 3932
3631 3631 4095
3631 3932 0
3631 3932 224
3631 3932 760
3631 3932 1511
3631 3932 2370
3631 3932 3115
3631 3932 3631
3631 3932 3932
3631 3932 4095
3631 4095 0
3631 4095 224
3631 4095 760
3631 4095 1511
3631 4095 2370
3631 4095 3115
3631 4095 3631
3631 4095 3932
3631 4095 4095
3932 0 0
3932 0 224
3932 0 760
3932 0 1511
3932 0 2370
3932 0 3115
3932 0 3631
3932 0 3932
3932 0 4095
3932 224 0
3932 224 224
3932 224 760
3932 224 1511
3932 224 2370
3932 224 3115
3932 224 3631
3932 224 3932
3932 224 4095
3932 760 0
3932 760 224
3932 760 760
3932 760 1511
3932 760 2370
3932 760 3115
3932 760 3631
3932 760 3932
3932 760 4095
3932 1511 0
3932 1511 224
3932 1511 760
3932 1511 1511
3932 1511 2370
3932 1511 3115
3932 1511 3631
3932 1511 3932
3932 1511 4095
3932 2370 0
3932 2370 224
3932 2370 760
3932 2370 1511
3932 2370 2370
3932 2370 3115
3932 2370 3631
3932 2370 3932
3932 2370 4095
3932 3115 0
3932 3115 224
3932 3115 760
3932 3115 1511
3932 3115 2370
3932 3115 3115
3932 3115 3631
3932 3115 3932
3932 3115 4095
3932 3631 0
3932 3631 224
3932 3631 760
3932 3631 1511
3932 3631 2370
3932 3631 3115
3932 3631 3631
3932 3631 3932
3932 3631 4095
3932 3932 0
3932 3932 224
3932 3932 760
3932 3932 1511
3932 3932 2370
3932 3932 3115
3932 3932 3631
3932 3932 3932
3932 3932 4095
3932 4095 0
3932 4095 224
3932 4095 760
3932 4095 1511
3932 4095 2370
3932 4095 3115
3932 4095 3631
3932 4095 3932
3932 4095 4095
4095 0 0
4095 0 224
4095 0 760
4095 0 1511
4095 0 2370
4095 0 3115
4095 0 3631
4095 0 3932
4095 0 4095
4095 224 0
4095 224 224
4095 224 760
4095 224 1511
4095 224 2370
4095 224 3115
4095 224 3631
4095 224 3932
4095 224 4095
4095 760 0
4095 760 224
4095 760 760
4095 760 1511
4095 760 2370
4095 760 3115
4095 760 3631
4095 760 3932
4095 760 4095
4095 1511 0
4095 1511 224
4095 1511 760
4095 1511 1511
4095 1511 2370
4095 1511 3115
4095 1511 3631
4095 1511 3932
4095 1511 4095
4095 2370 0
4095 2370 224
4095 2370 760
4095 2370 1511
4095 2370 2370
4095 2370 3115
4095 2370 3631
4095 2370 3932
4095 2370 4095
4095 3115 0
4095 3115 224
4095 3115 760
4095 3115 1511
4095 3115 2370
4095 3115 3115
4095 3115 3631
4095 3115 3932
4095 3115 4095
4095 3631 0
4095 3631 224
4095 3631 760
4095 3631 1511
4095 3631 2370
4095 3631 3115
4095 3631 3631
4095 3631 3932
4095 3631 4095
4095 3932 0
4095 3932 224
4095 3932 760
4095 3932 1511
4095 3932 2370
4095 3932 3115
4095 3932 3631
4095 3932 3932
4095 3932 4095
4095 4095 0
4095 4095 224
4095 4095 760
4095 4095 1511
4095 4095 2370
4095 4095 3115
4095 4095 3631
4095 4095 3932
4095 4095 4095
