Postproduction/IWLTBAP - Humble/LUTs by IWLTBAP (3DL)/UTILITY/REDLog to Rec.709/U-REDLOG-V2-LTR.3dl
# Copyright: (C) Copyright 2010-2018 by IWLTBAP SAS
# Cannot be resold, shared or otherwise redistributed
# Website: https://luts.iwltbap.com
0 64 128 192 256 320 384 448 512 576 640 704 768 832 896 960 1023
0 0 0
0 0 0
0 0 78
0 0 279
0 0 541
0 0 871
0 0 1261
0 0 1699
0 0 2140
0 0 2568
0 0 2935
0 0 3245
0 0 3499
0 0 3684
0 0 3832
0 0 3939
0 0 4015
0 0 0
0 0 0
0 0 78
0 0 279
0 0 541
0 0 871
0 0 1261
0 0 1699
0 0 2140
0 0 2568
0 0 2935
0 0 3245
0 0 3499
0 0 3684
0 0 3832
0 0 3939
0 0 4015
0 78 0
0 78 0
0 78 78
0 78 279
0 78 541
0 78 871
0 78 1261
0 78 1699
0 78 2140
0 78 2568
0 78 2935
0 78 3245
0 78 3499
0 78 3684
0 78 3832
0 78 3939
0 78 4015
0 279 0
0 279 0
0 279 78
0 279 279
0 279 541
0 279 871
0 279 1261
0 279 1699
0 279 2140
0 279 2568
0 279 2935
0 279 3245
0 279 3499
0 279 3684
0 279 3832
0 279 3939
0 279 4015
0 541 0
0 541 0
0 541 78
0 541 279
0 541 541
0 541 871
0 541 1261
0 541 1699
0 541 2140
0 541 2568
0 541 2935
0 541 3245
0 541 3499
0 541 3684
0 541 3832
0 541 3939
0 541 4015
0 871 0
0 871 0
0 871 78
0 871 279
0 871 541
0 871 871
0 871 1261
0 871 1699
0 871 2140
0 871 2568
0 871 2935
0 871 3245
0 871 3499
0 871 3684
0 871 3832
0 871 3939
0 871 4015
0 1261 0
0 1261 0
0 1261 78
0 1261 279
0 1261 541
0 1261 871
0 1261 1261
0 1261 1699
0 1261 2140
0 1261 2568
0 1261 2935
0 1261 3245
0 1261 3499
0 1261 3684
0 1261 3832
0 1261 3939
0 1261 4015
0 1699 0
0 1699 0
0 1699 78
0 1699 279
0 1699 541
0 1699 871
0 1699 1261
0 1699 1699
0 1699 2140
0 1699 2568
0 1699 2935
0 1699 3245
0 1699 3499
0 1699 3684
0 1699 3832
0 1699 3939
0 1699 4015
0 2140 0
0 2140 0
0 2140 78
0 2140 279
0 2140 541
0 2140 871
0 2140 1261
0 2140 1699
0 2140 2140
0 2140 2568
0 2140 2935
0 2140 3245
0 2140 3499
0 2140 3684
0 2140 3832
0 2140 3939
0 2140 4015
0 2568 0
0 2568 0
0 2568 78
0 2568 279
0 2568 541
0 2568 871
0 2568 1261
0 2568 1699
0 2568 2140
0 2568 2568
0 2568 2935
0 2568 3245
0 2568 3499
0 2568 3684
0 2568 3832
0 2568 3939
0 2568 4015
0 2935 0
0 2935 0
0 2935 78
0 2935 279
0 2935 541
0 2935 871
0 2935 1261
0 2935 1699
0 2935 2140
0 2935 2568
0 2935 2935
0 2935 3245
0 2935 3499
0 2935 3684
0 2935 3832
0 2935 3939
0 2935 4015
0 3245 0
0 3245 0
0 3245 78
0 3245 279
0 3245 541
0 3245 871
0 3245 1261
0 3245 1699
0 3245 2140
0 3245 2568
0 3245 2935
0 3245 3245
0 3245 3499
0 3245 3684
0 3245 3832
0 3245 3939
0 3245 4015
0 3499 0
0 3499 0
0 3499 78
0 3499 279
0 3499 541
0 3499 871
0 3499 1261
0 3499 1699
0 3499 2140
0 3499 2568
0 3499 2935
0 3499 3245
0 3499 3499
0 3499 3684
0 3499 3832
0 3499 3939
0 3499 4015
0 3684 0
0 3684 0
0 3684 78
0 3684 279
0 3684 541
0 3684 871
0 3684 1261
0 3684 1699
0 3684 2140
0 3684 2568
0 3684 2935
0 3684 3245
0 3684 3499
0 3684 3684
0 3684 3832
0 3684 3939
0 3684 4015
0 3832 0
0 3832 0
0 3832 78
0 3832 279
0 3832 541
0 3832 871
0 3832 1261
0 3832 1699
0 3832 2140
0 3832 2568
0 3832 2935
0 3832 3245
0 3832 3499
0 3832 3684
0 3832 3832
0 3832 3939
0 3832 4015
0 3939 0
0 3939 0
0 3939 78
0 3939 279
0 3939 541
0 3939 871
0 3939 1261
0 3939 1699
0 3939 2140
0 3939 2568
0 3939 2935
0 3939 3245
0 3939 3499
0 3939 3684
0 3939 3832
0 3939 3939
0 3939 4015
0 4015 0
0 4015 0
0 4015 78
0 4015 279
0 4015 541
0 4015 871
0 4015 1261
0 4015 1699
0 4015 2140
0 4015 2568
0 4015 2935
0 4015 3245
0 4015 3499
0 4015 3684
0 4015 3832
0 4015 3939
0 4015 4015
0 0 0
0 0 0
0 0 78
0 0 279
0 0 541
0 0 871
0 0 1261
0 0 1699
0 0 2140
0 0 2568
0 0 2935
0 0 3245
0 0 3499
0 0 3684
0 0 3832
0 0 3939
0 0 4015
0 0 0
0 0 0
0 0 78
0 0 279
0 0 541
0 0 871
0 0 1261
0 0 1699
0 0 2140
0 0 2568
0 0 2935
0 0 3245
0 0 3499
0 0 3684
0 0 3832
0 0 3939
0 0 4015
0 78 0
0 78 0
0 78 78
0 78 279
0 78 541
0 78 871
0 78 1261
0 78 1699
0 78 2140
0 78 2568
0 78 2935
0 78 3245
0 78 3499
0 78 3684
0 78 3832
0 78 3939
0 78 4015
0 279 0
0 279 0
0 279 78
0 279 279
0 279 541
0 279 871
0 279 1261
0 279 1699
0 279 2140
0 279 2568
0 279 2935
0 279 3245
0 279 3499
0 279 3684
0 279 3832
0 279 3939
0 279 4015
0 541 0
0 541 0
0 541 78
0 541 279
0 541 541
0 541 871
0 541 1261
0 541 1699
0 541 2140
0 541 2568
0 541 2935
0 541 3245
0 541 3499
0 541 3684
0 541 3832
0 541 3939
0 541 4015
0 871 0
0 871 0
0 871 78
0 871 279
0 871 541
0 871 871
0 871 1261
0 871 1699
0 871 2140
0 871 2568
0 871 2935
0 871 3245
0 871 3499
0 871 3684
0 871 3832
0 871 3939
0 871 4015
0 1261 0
0 1261 0
0 1261 78
0 1261 279
0 1261 541
0 1261 871
0 1261 1261
0 1261 1699
0 1261 2140
0 1261 2568
0 1261 2935
0 1261 3245
0 1261 3499
0 1261 3684
0 1261 3832
0 1261 3939
0 1261 4015
0 1699 0
0 1699 0
0 1699 78
0 1699 279
0 1699 541
0 1699 871
0 1699 1261
0 1699 1699
0 1699 2140
0 1699 2568
0 1699 2935
0 1699 3245
0 1699 3499
0 1699 3684
0 1699 3832
0 1699 3939
0 1699 4015
0 2140 0
0 2140 0
0 2140 78
0 2140 279
0 2140 541
0 2140 871
0 2140 1261
0 2140 1699
0 2140 2140
0 2140 2568
0 2140 2935
0 2140 3245
0 2140 3499
0 2140 3684
0 2140 3832
0 2140 3939
0 2140 4015
0 2568 0
0 2568 0
0 2568 78
0 2568 279
0 2568 541
0 2568 871
0 2568 1261
0 2568 1699
0 2568 2140
0 2568 2568
0 2568 2935
0 2568 3245
0 2568 3499
0 2568 3684
0 2568 3832
0 2568 3939
0 2568 4015
0 2935 0
0 2935 0
0 2935 78
0 2935 279
0 2935 541
0 2935 871
0 2935 1261
0 2935 1699
0 2935 2140
0 2935 2568
0 2935 2935
0 2935 3245
0 2935 3499
0 2935 3684
0 2935 3832
0 2935 3939
0 2935 4015
0 3245 0
0 3245 0
0 3245 78
0 3245 279
0 3245 541
0 3245 871
0 3245 1261
0 3245 1699
0 3245 2140
0 3245 2568
0 3245 2935
0 3245 3245
0 3245 3499
0 3245 3684
0 3245 3832
0 3245 3939
0 3245 4015
0 3499 0
0 3499 0
0 3499 78
0 3499 279
0 3499 541
0 3499 871
0 3499 1261
0 3499 1699
0 3499 2140
0 3499 2568
0 3499 2935
0 3499 3245
0 3499 3499
0 3499 3684
0 3499 3832
0 3499 3939
0 3499 4015
0 3684 0
0 3684 0
0 3684 78
0 3684 279
0 3684 541
0 3684 871
0 3684 1261
0 3684 1699
0 3684 2140
0 3684 2568
0 3684 2935
0 3684 3245
0 3684 3499
0 3684 3684
0 3684 3832
0 3684 3939
0 3684 4015
0 3832 0
0 3832 0
0 3832 78
0 3832 279
0 3832 541
0 3832 871
0 3832 1261
0 3832 1699
0 3832 2140
0 3832 2568
0 3832 2935
0 3832 3245
0 3832 3499
0 3832 3684
0 3832 3832
0 3832 3939
0 3832 4015
0 3939 0
0 3939 0
0 3939 78
0 3939 279
0 3939 541
0 3939 871
0 3939 1261
0 3939 1699
0 3939 2140
0 3939 2568
0 3939 2935
0 3939 3245
0 3939 3499
0 3939 3684
0 3939 3832
0 3939 3939
0 3939 4015
0 4015 0
0 4015 0
0 4015 78
0 4015 279
0 4015 541
0 4015 871
0 4015 1261
0 4015 1699
0 4015 2140
0 4015 2568
0 4015 2935
0 4015 3245
0 4015 3499
0 4015 3684
0 4015 3832
0 4015 3939
0 4015 4015
78 0 0
78 0 0
78 0 78
78 0 279
78 0 541
78 0 871
78 0 1261
78 0 1699
78 0 2140
78 0 2568
78 0 2935
78 0 3245
78 0 3499
78 0 3684
78 0 3832
78 0 3939
78 0 4015
78 0 0
78 0 0
78 0 78
78 0 279
78 0 541
78 0 871
78 0 1261
78 0 1699
78 0 2140
78 0 2568
78 0 2935
78 0 3245
78 0 3499
78 0 3684
78 0 3832
78 0 3939
78 0 4015
78 78 0
78 78 0
78 78 78
78 78 279
78 78 541
78 78 871
78 78 1261
78 78 1699
78 78 2140
78 78 2568
78 78 2935
78 78 3245
78 78 3499
78 78 3684
78 78 3832
78 78 3939
78 78 4015
78 279 0
78 279 0
78 279 78
78 279 279
78 279 541
78 279 871
78 279 1261
78 279 1699
78 279 2140
78 279 2568
78 279 2935
78 279 3245
78 279 3499
78 279 3684
78 279 3832
78 279 3939
78 279 4015
78 541 0
78 541 0
78 541 78
78 541 279
78 541 541
78 541 871
78 541 1261
78 541 1699
78 541 2140
78 541 2568
78 541 2935
78 541 3245
78 541 3499
78 541 3684
78 541 3832
78 541 3939
78 541 4015
78 871 0
78 871 0
78 871 78
78 871 279
78 871 541
78 871 871
78 871 1261
78 871 1699
78 871 2140
78 871 2568
78 871 2935
78 871 3245
78 871 3499
78 871 3684
78 871 3832
78 871 3939
78 871 4015
78 1261 0
78 1261 0
78 1261 78
78 1261 279
78 1261 541
78 1261 871
78 1261 1261
78 1261 1699
78 1261 2140
78 1261 2568
78 1261 2935
78 1261 3245
78 1261 3499
78 1261 3684
78 1261 3832
78 1261 3939
78 1261 4015
78 1699 0
78 1699 0
78 1699 78
78 1699 279
78 1699 541
78 1699 871
78 1699 1261
78 1699 1699
78 1699 2140
78 1699 2568
78 1699 2935
78 1699 3245
78 1699 3499
78 1699 3684
78 1699 3832
78 1699 3939
78 1699 4015
78 2140 0
78 2140 0
78 2140 78
78 2140 279
78 2140 541
78 2140 871
78 2140 1261
78 2140 1699
78 2140 2140
78 2140 2568
78 2140 2935
78 2140 3245
78 2140 3499
78 2140 3684
78 2140 3832
78 2140 3939
78 2140 4015
78 2568 0
78 2568 0
78 2568 78
78 2568 279
78 2568 541
78 2568 871
78 2568 1261
78 2568 1699
78 2568 2140
78 2568 2568
78 2568 2935
78 2568 3245
78 2568 3499
78 2568 3684
78 2568 3832
78 2568 3939
78 2568 4015
78 2935 0
78 2935 0
78 2935 78
78 2935 279
78 2935 541
78 2935 871
78 2935 1261
78 2935 1699
78 2935 2140
78 2935 2568
78 2935 2935
78 2935 3245
78 2935 3499
78 2935 3684
78 2935 3832
78 2935 3939
78 2935 4015
78 3245 0
78 3245 0
78 3245 78
78 3245 279
78 3245 541
78 3245 871
78 3245 1261
78 3245 1699
78 3245 2140
78 3245 2568
78 3245 2935
78 3245 3245
78 3245 3499
78 3245 3684
78 3245 3832
78 3245 3939
78 3245 4015
78 3499 0
78 3499 0
78 3499 78
78 3499 279
78 3499 541
78 3499 871
78 3499 1261
78 3499 1699
78 3499 2140
78 3499 2568
78 3499 2935
78 3499 3245
78 3499 3499
78 3499 3684
78 3499 3832
78 3499 3939
78 3499 4015
78 3684 0
78 3684 0
78 3684 78
78 3684 279
78 3684 541
78 3684 871
78 3684 1261
78 3684 1699
78 3684 2140
78 3684 2568
78 3684 2935
78 3684 3245
78 3684 3499
78 3684 3684
78 3684 3832
78 3684 3939
78 3684 4015
78 3832 0
78 3832 0
78 3832 78
78 3832 279
78 3832 541
78 3832 871
78 3832 1261
78 3832 1699
78 3832 2140
78 3832 2568
78 3832 2935
78 3832 3245
78 3832 3499
78 3832 3684
78 3832 3832
78 3832 3939
78 3832 4015
78 3939 0
78 3939 0
78 3939 78
78 3939 279
78 3939 541
78 3939 871
78 3939 1261
78 3939 1699
78 3939 2140
78 3939 2568
78 3939 2935
78 3939 3245
78 3939 3499
78 3939 3684
78 3939 3832
78 3939 3939
78 3939 4015
78 4015 0
78 4015 0
78 4015 78
78 4015 279
78 4015 541
78 4015 871
78 4015 1261
78 4015 1699
78 4015 2140
78 4015 2568
78 4015 2935
78 4015 3245
78 4015 3499
78 4015 3684
78 4015 3832
78 4015 3939
78 4015 4015
279 0 0
279 0 0
279 0 78
279 0 279
279 0 541
279 0 871
279 0 1261
279 0 1699
279 0 2140
279 0 2568
279 0 2935
279 0 3245
279 0 3499
279 0 3684
279 0 3832
279 0 3939
279 0 4015
279 0 0
279 0 0
279 0 78
279 0 279
279 0 541
279 0 871
279 0 1261
279 0 1699
279 0 2140
279 0 2568
279 0 2935
279 0 3245
279 0 3499
279 0 3684
279 0 3832
279 0 3939
