Postproduction/IWLTBAP - Humble/LUTs by IWLTBAP (3DL)/UTILITY/REDLog to Rec.709/U-REDLOG-V1-LTR.3dl
# Copyright: (C) Copyright 2010-2018 by IWLTBAP SAS
# Cannot be resold, shared or otherwise redistributed
# Website: https://luts.iwltbap.com
0 64 128 192 256 320 384 448 512 576 640 704 768 832 896 960 1023
0 0 0
0 0 12
0 0 224
0 0 465
0 0 760
0 0 1112
0 0 1511
0 0 1945
0 0 2370
0 0 2774
0 0 3115
0 0 3400
0 0 3631
0 0 3798
0 0 3932
0 0 4027
0 0 4095
0 12 0
0 12 12
0 12 224
0 12 465
0 12 760
0 12 1112
0 12 1511
0 12 1945
0 12 2370
0 12 2774
0 12 3115
0 12 3400
0 12 3631
0 12 3798
0 12 3932
0 12 4027
0 12 4095
0 224 0
0 224 12
0 224 224
0 224 465
0 224 760
0 224 1112
0 224 1511
0 224 1945
0 224 2370
0 224 2774
0 224 3115
0 224 3400
0 224 3631
0 224 3798
0 224 3932
0 224 4027
0 224 4095
0 465 0
0 465 12
0 465 224
0 465 465
0 465 760
0 465 1112
0 465 1511
0 465 1945
0 465 2370
0 465 2774
0 465 3115
0 465 3400
0 465 3631
0 465 3798
0 465 3932
0 465 4027
0 465 4095
0 760 0
0 760 12
0 760 224
0 760 465
0 760 760
0 760 1112
0 760 1511
0 760 1945
0 760 2370
0 760 2774
0 760 3115
0 760 3400
0 760 3631
0 760 3798
0 760 3932
0 760 4027
0 760 4095
0 1112 0
0 1112 12
0 1112 224
0 1112 465
0 1112 760
0 1112 1112
0 1112 1511
0 1112 1945
0 1112 2370
0 1112 2774
0 1112 3115
0 1112 3400
0 1112 3631
0 1112 3798
0 1112 3932
0 1112 4027
0 1112 4095
0 1511 0
0 1511 12
0 1511 224
0 1511 465
0 1511 760
0 1511 1112
0 1511 1511
0 1511 1945
0 1511 2370
0 1511 2774
0 1511 3115
0 1511 3400
0 1511 3631
0 1511 3798
0 1511 3932
0 1511 4027
0 1511 4095
0 1945 0
0 1945 12
0 1945 224
0 1945 465
0 1945 760
0 1945 1112
0 1945 1511
0 1945 1945
0 1945 2370
0 1945 2774
0 1945 3115
0 1945 3400
0 1945 3631
0 1945 3798
0 1945 3932
0 1945 4027
0 1945 4095
0 2370 0
0 2370 12
0 2370 224
0 2370 465
0 2370 760
0 2370 1112
0 2370 1511
0 2370 1945
0 2370 2370
0 2370 2774
0 2370 3115
0 2370 3400
0 2370 3631
0 2370 3798
0 2370 3932
0 2370 4027
0 2370 4095
0 2774 0
0 2774 12
0 2774 224
0 2774 465
0 2774 760
0 2774 1112
0 2774 1511
0 2774 1945
0 2774 2370
0 2774 2774
0 2774 3115
0 2774 3400
0 2774 3631
0 2774 3798
0 2774 3932
0 2774 4027
0 2774 4095
0 3115 0
0 3115 12
0 3115 224
0 3115 465
0 3115 760
0 3115 1112
0 3115 1511
0 3115 1945
0 3115 2370
0 3115 2774
0 3115 3115
0 3115 3400
0 3115 3631
0 3115 3798
0 3115 3932
0 3115 4027
0 3115 4095
0 3400 0
0 3400 12
0 3400 224
0 3400 465
0 3400 760
0 3400 1112
0 3400 1511
0 3400 1945
0 3400 2370
0 3400 2774
0 3400 3115
0 3400 3400
0 3400 3631
0 3400 3798
0 3400 3932
0 3400 4027
0 3400 4095
0 3631 0
0 3631 12
0 3631 224
0 3631 465
0 3631 760
0 3631 1112
0 3631 1511
0 3631 1945
0 3631 2370
0 3631 2774
0 3631 3115
0 3631 3400
0 3631 3631
0 3631 3798
0 3631 3932
0 3631 4027
0 3631 4095
0 3798 0
0 3798 12
0 3798 224
0 3798 465
0 3798 760
0 3798 1112
0 3798 1511
0 3798 1945
0 3798 2370
0 3798 2774
0 3798 3115
0 3798 3400
0 3798 3631
0 3798 3798
0 3798 3932
0 3798 4027
0 3798 4095
0 3932 0
0 3932 12
0 3932 224
0 3932 465
0 3932 760
0 3932 1112
0 3932 1511
0 3932 1945
0 3932 2370
0 3932 2774
0 3932 3115
0 3932 3400
0 3932 3631
0 3932 3798
0 3932 3932
0 3932 4027
0 3932 4095
0 4027 0
0 4027 12
0 4027 224
0 4027 465
0 4027 760
0 4027 1112
0 4027 1511
0 4027 1945
0 4027 2370
0 4027 2774
0 4027 3115
0 4027 3400
0 4027 3631
0 4027 3798
0 4027 3932
0 4027 4027
0 4027 4095
0 4095 0
0 4095 12
0 4095 224
0 4095 465
0 4095 760
0 4095 1112
0 4095 1511
0 4095 1945
0 4095 2370
0 4095 2774
0 4095 3115
0 4095 3400
0 4095 3631
0 4095 3798
0 4095 3932
0 4095 4027
0 4095 4095
12 0 0
12 0 12
12 0 224
12 0 465
12 0 760
12 0 1112
12 0 1511
12 0 1945
12 0 2370
12 0 2774
12 0 3115
12 0 3400
12 0 3631
12 0 3798
12 0 3932
12 0 4027
12 0 4095
12 12 0
12 12 12
12 12 224
12 12 465
12 12 760
12 12 1112
12 12 1511
12 12 1945
12 12 2370
12 12 2774
12 12 3115
12 12 3400
12 12 3631
12 12 3798
12 12 3932
12 12 4027
12 12 4095
12 224 0
12 224 12
12 224 224
12 224 465
12 224 760
12 224 1112
12 224 1511
12 224 1945
12 224 2370
12 224 2774
12 224 3115
12 224 3400
12 224 3631
12 224 3798
12 224 3932
12 224 4027
12 224 4095
12 465 0
12 465 12
12 465 224
12 465 465
12 465 760
12 465 1112
12 465 1511
12 465 1945
12 465 2370
12 465 2774
12 465 3115
12 465 3400
12 465 3631
12 465 3798
12 465 3932
12 465 4027
12 465 4095
12 760 0
12 760 12
12 760 224
12 760 465
12 760 760
12 760 1112
12 760 1511
12 760 1945
12 760 2370
12 760 2774
12 760 3115
12 760 3400
12 760 3631
12 760 3798
12 760 3932
12 760 4027
12 760 4095
12 1112 0
12 1112 12
12 1112 224
12 1112 465
12 1112 760
12 1112 1112
12 1112 1511
12 1112 1945
12 1112 2370
12 1112 2774
12 1112 3115
12 1112 3400
12 1112 3631
12 1112 3798
12 1112 3932
12 1112 4027
12 1112 4095
12 1511 0
12 1511 12
12 1511 224
12 1511 465
12 1511 760
12 1511 1112
12 1511 1511
12 1511 1945
12 1511 2370
12 1511 2774
12 1511 3115
12 1511 3400
12 1511 3631
12 1511 3798
12 1511 3932
12 1511 4027
12 1511 4095
12 1945 0
12 1945 12
12 1945 224
12 1945 465
12 1945 760
12 1945 1112
12 1945 1511
12 1945 1945
12 1945 2370
12 1945 2774
12 1945 3115
12 1945 3400
12 1945 3631
12 1945 3798
12 1945 3932
12 1945 4027
12 1945 4095
12 2370 0
12 2370 12
12 2370 224
12 2370 465
12 2370 760
12 2370 1112
12 2370 1511
12 2370 1945
12 2370 2370
12 2370 2774
12 2370 3115
12 2370 3400
12 2370 3631
12 2370 3798
12 2370 3932
12 2370 4027
12 2370 4095
12 2774 0
12 2774 12
12 2774 224
12 2774 465
12 2774 760
12 2774 1112
12 2774 1511
12 2774 1945
12 2774 2370
12 2774 2774
12 2774 3115
12 2774 3400
12 2774 3631
12 2774 3798
12 2774 3932
12 2774 4027
12 2774 4095
12 3115 0
12 3115 12
12 3115 224
12 3115 465
12 3115 760
12 3115 1112
12 3115 1511
12 3115 1945
12 3115 2370
12 3115 2774
12 3115 3115
12 3115 3400
12 3115 3631
12 3115 3798
12 3115 3932
12 3115 4027
12 3115 4095
12 3400 0
12 3400 12
12 3400 224
12 3400 465
12 3400 760
12 3400 1112
12 3400 1511
12 3400 1945
12 3400 2370
12 3400 2774
12 3400 3115
12 3400 3400
12 3400 3631
12 3400 3798
12 3400 3932
12 3400 4027
12 3400 4095
12 3631 0
12 3631 12
12 3631 224
12 3631 465
12 3631 760
12 3631 1112
12 3631 1511
12 3631 1945
12 3631 2370
12 3631 2774
12 3631 3115
12 3631 3400
12 3631 3631
12 3631 3798
12 3631 3932
12 3631 4027
12 3631 4095
12 3798 0
12 3798 12
12 3798 224
12 3798 465
12 3798 760
12 3798 1112
12 3798 1511
12 3798 1945
12 3798 2370
12 3798 2774
12 3798 3115
12 3798 3400
12 3798 3631
12 3798 3798
12 3798 3932
12 3798 4027
12 3798 4095
12 3932 0
12 3932 12
12 3932 224
12 3932 465
12 3932 760
12 3932 1112
12 3932 1511
12 3932 1945
12 3932 2370
12 3932 2774
12 3932 3115
12 3932 3400
12 3932 3631
12 3932 3798
12 3932 3932
12 3932 4027
12 3932 4095
12 4027 0
12 4027 12
12 4027 224
12 4027 465
12 4027 760
12 4027 1112
12 4027 1511
12 4027 1945
12 4027 2370
12 4027 2774
12 4027 3115
12 4027 3400
12 4027 3631
12 4027 3798
12 4027 3932
12 4027 4027
12 4027 4095
12 4095 0
12 4095 12
12 4095 224
12 4095 465
12 4095 760
12 4095 1112
12 4095 1511
12 4095 1945
12 4095 2370
12 4095 2774
12 4095 3115
12 4095 3400
12 4095 3631
12 4095 3798
12 4095 3932
12 4095 4027
12 4095 4095
224 0 0
224 0 12
224 0 224
224 0 465
224 0 760
224 0 1112
224 0 1511
224 0 1945
224 0 2370
224 0 2774
224 0 3115
224 0 3400
224 0 3631
224 0 3798
224 0 3932
224 0 4027
224 0 4095
224 12 0
224 12 12
224 12 224
224 12 465
224 12 760
224 12 1112
224 12 1511
224 12 1945
224 12 2370
224 12 2774
224 12 3115
224 12 3400
224 12 3631
224 12 3798
224 12 3932
224 12 4027
224 12 4095
224 224 0
224 224 12
224 224 224
224 224 465
224 224 760
224 224 1112
224 224 1511
224 224 1945
224 224 2370
224 224 2774
224 224 3115
224 224 3400
224 224 3631
224 224 3798
224 224 3932
224 224 4027
224 224 4095
224 465 0
224 465 12
224 465 224
224 465 465
224 465 760
224 465 1112
224 465 1511
224 465 1945
224 465 2370
224 465 2774
224 465 3115
224 465 3400
224 465 3631
224 465 3798
224 465 3932
224 465 4027
224 465 4095
224 760 0
224 760 12
224 760 224
224 760 465
224 760 760
224 760 1112
224 760 1511
224 760 1945
224 760 2370
224 760 2774
224 760 3115
224 760 3400
224 760 3631
224 760 3798
224 760 3932
224 760 4027
224 760 4095
224 1112 0
224 1112 12
224 1112 224
224 1112 465
224 1112 760
224 1112 1112
224 1112 1511
224 1112 1945
224 1112 2370
224 1112 2774
224 1112 3115
224 1112 3400
224 1112 3631
224 1112 3798
224 1112 3932
224 1112 4027
224 1112 4095
224 1511 0
224 1511 12
224 1511 224
224 1511 465
224 1511 760
224 1511 1112
224 1511 1511
224 1511 1945
224 1511 2370
224 1511 2774
224 1511 3115
224 1511 3400
224 1511 3631
224 1511 3798
224 1511 3932
224 1511 4027
224 1511 4095
224 1945 0
224 1945 12
224 1945 224
224 1945 465
224 1945 760
224 1945 1112
224 1945 1511
224 1945 1945
224 1945 2370
224 1945 2774
224 1945 3115
224 1945 3400
224 1945 3631
224 1945 3798
224 1945 3932
224 1945 4027
224 1945 4095
224 2370 0
224 2370 12
224 2370 224
224 2370 465
224 2370 760
224 2370 1112
224 2370 1511
224 2370 1945
224 2370 2370
224 2370 2774
224 2370 3115
224 2370 3400
224 2370 3631
224 2370 3798
224 2370 3932
224 2370 4027
224 2370 4095
224 2774 0
224 2774 12
224 2774 224
224 2774 465
224 2774 760
224 2774 1112
224 2774 1511
224 2774 1945
224 2774 2370
224 2774 2774
224 2774 3115
224 2774 3400
224 2774 3631
224 2774 3798
224 2774 3932
224 2774 4027
224 2774 4095
224 3115 0
224 3115 12
224 3115 224
224 3115 465
224 3115 760
224 3115 1112
224 3115 1511
224 3115 1945
224 3115 2370
224 3115 2774
224 3115 3115
224 3115 3400
224 3115 3631
224 3115 3798
224 3115 3932
224 3115 4027
224 3115 4095
224 3400 0
224 3400 12
224 3400 224
224 3400 465
224 3400 760
224 3400 1112
224 3400 1511
224 3400 1945
224 3400 2370
224 3400 2774
224 3400 3115
224 3400 3400
224 3400 3631
224 3400 3798
224 3400 3932
224 3400 4027
224 3400 4095
224 3631 0
224 3631 12
224 3631 224
224 3631 465
224 3631 760
224 3631 1112
224 3631 1511
224 3631 1945
224 3631 2370
224 3631 2774
224 3631 3115
224 3631 3400
224 3631 3631
224 3631 3798
224 3631 3932
224 3631 4027
224 3631 4095
224 3798 0
224 3798 12
224 3798 224
224 3798 465
224 3798 760
224 3798 1112
224 3798 1511
224 3798 1945
224 3798 2370
224 3798 2774
224 3798 3115
224 3798 3400
224 3798 3631
224 3798 3798
224 3798 3932
224 3798 4027
224 3798 4095
224 3932 0
224 3932 12
224 3932 224
224 3932 465
224 3932 760
224 3932 1112
224 3932 1511
224 3932 1945
224 3932 2370
224 3932 2774
224 3932 3115
224 3932 3400
224 3932 3631
224 3932 3798
224 3932 3932
224 3932 4027
224 3932 4095
224 4027 0
224 4027 12
224 4027 224
224 4027 465
224 4027 760
224 4027 1112
224 4027 1511
224 4027 1945
224 4027 2370
224 4027 2774
224 4027 3115
224 4027 3400
224 4027 3631
224 4027 3798
224 4027 3932
224 4027 4027
224 4027 4095
224 4095 0
224 4095 12
224 4095 224
224 4095 465
224 4095 760
224 4095 1112
224 4095 1511
224 4095 1945
224 4095 2370
224 4095 2774
224 4095 3115
224 4095 3400
224 4095 3631
224 4095 3798
224 4095 3932
224 4095 4027
224 4095 4095
465 0 0
465 0 12
465 0 224
465 0 465
465 0 760
465 0 1112
465 0 1511
465 0 1945
465 0 2370
465 0 2774
465 0 3115
465 0 3400
465 0 3631
465 0 3798
465 0 3932
465 0 4027
465 0 4095
465 12 0
465 12 12
465 12 224
465 12 465
465 12 760
465 12 1112
465 12 1511
465 12 1945
465 12 2370
465 12 2774
465 12 3115
465 12 3400
465 12 3631
465 12 3798
465 12 3932
465 12 4027
