Postproduction/IWLTBAP - Humble/LUTs by IWLTBAP (3DL)/UTILITY/REDLog to Rec.709/U-REDLOG-V2-LTR.3dl
# Copyright: (C) Copyright 2010-2018 by IWLTBAP SAS
# Cannot be resold, shared or otherwise redistributed
# Website: https://luts.iwltbap.com
0 128 256 384 512 640 768 896 1023
0 0 0
0 0 78
0 0 541
0 0 1261
0 0 2140
0 0 2935
0 0 3499
0 0 3832
0 0 4015
0 78 0
0 78 78
0 78 541
0 78 1261
0 78 2140
0 78 2935
0 78 3499
0 78 3832
0 78 4015
0 541 0
0 541 78
0 541 541
0 541 1261
0 541 2140
0 541 2935
0 541 3499
0 541 3832
0 541 4015
0 1261 0
0 1261 78
0 1261 541
0 1261 1261
0 1261 2140
0 1261 2935
0 1261 3499
0 1261 3832
0 1261 4015
0 2140 0
0 2140 78
0 2140 541
0 2140 1261
0 2140 2140
0 2140 2935
0 2140 3499
0 2140 3832
0 2140 4015
0 2935 0
0 2935 78
0 2935 541
0 2935 1261
0 2935 2140
0 2935 2935
0 2935 3499
0 2935 3832
0 2935 4015
0 3499 0
0 3499 78
0 3499 541
0 3499 1261
0 3499 2140
0 3499 2935
0 3499 3499
0 3499 3832
0 3499 4015
0 3832 0
0 3832 78
0 3832 541
0 3832 1261
0 3832 2140
0 3832 2935
0 3832 3499
0 3832 3832
0 3832 4015
0 4015 0
0 4015 78
0 4015 541
0 4015 1261
0 4015 2140
0 4015 2935
0 4015 3499
0 4015 3832
0 4015 4015
78 0 0
78 0 78
78 0 541
78 0 1261
78 0 2140
78 0 2935
78 0 3499
78 0 3832
78 0 4015
78 78 0
78 78 78
78 78 541
78 78 1261
78 78 2140
78 78 2935
78 78 3499
78 78 3832
78 78 4015
78 541 0
78 541 78
78 541 541
78 541 1261
78 541 2140
78 541 2935
78 541 3499
78 541 3832
78 541 4015
78 1261 0
78 1261 78
78 1261 541
78 1261 1261
78 1261 2140
78 1261 2935
78 1261 3499
78 1261 3832
78 1261 4015
78 2140 0
78 2140 78
78 2140 541
78 2140 1261
78 2140 2140
78 2140 2935
78 2140 3499
78 2140 3832
78 2140 4015
78 2935 0
78 2935 78
78 2935 541
78 2935 1261
78 2935 2140
78 2935 2935
78 2935 3499
78 2935 3832
78 2935 4015
78 3499 0
78 3499 78
78 3499 541
78 3499 1261
78 3499 2140
78 3499 2935
78 3499 3499
78 3499 3832
78 3499 4015
78 3832 0
78 3832 78
78 3832 541
78 3832 1261
78 3832 2140
78 3832 2935
78 3832 3499
78 3832 3832
78 3832 4015
78 4015 0
78 4015 78
78 4015 541
78 4015 1261
78 4015 2140
78 4015 2935
78 4015 3499
78 4015 3832
78 4015 4015
541 0 0
541 0 78
541 0 541
541 0 1261
541 0 2140
541 0 2935
541 0 3499
541 0 3832
541 0 4015
541 78 0
541 78 78
541 78 541
541 78 1261
541 78 2140
541 78 2935
541 78 3499
541 78 3832
541 78 4015
541 541 0
541 541 78
541 541 541
541 541 1261
541 541 2140
541 541 2935
541 541 3499
541 541 3832
541 541 4015
541 1261 0
541 1261 78
541 1261 541
541 1261 1261
541 1261 2140
541 1261 2935
541 1261 3499
541 1261 3832
541 1261 4015
541 2140 0
541 2140 78
541 2140 541
541 2140 1261
541 2140 2140
541 2140 2935
541 2140 3499
541 2140 3832
541 2140 4015
541 2935 0
541 2935 78
541 2935 541
541 2935 1261
541 2935 2140
541 2935 2935
541 2935 3499
541 2935 3832
541 2935 4015
541 3499 0
541 3499 78
541 3499 541
541 3499 1261
541 3499 2140
541 3499 2935
541 3499 3499
541 3499 3832
541 3499 4015
541 3832 0
541 3832 78
541 3832 541
541 3832 1261
541 3832 2140
541 3832 2935
541 3832 3499
541 3832 3832
541 3832 4015
541 4015 0
541 4015 78
541 4015 541
541 4015 1261
541 4015 2140
541 4015 2935
541 4015 3499
541 4015 3832
541 4015 4015
1261 0 0
1261 0 78
1261 0 541
1261 0 1261
1261 0 2140
1261 0 2935
1261 0 3499
1261 0 3832
1261 0 4015
1261 78 0
1261 78 78
1261 78 541
1261 78 1261
1261 78 2140
1261 78 2935
1261 78 3499
1261 78 3832
1261 78 4015
1261 541 0
1261 541 78
1261 541 541
1261 541 1261
1261 541 2140
1261 541 2935
1261 541 3499
1261 541 3832
1261 541 4015
1261 1261 0
1261 1261 78
1261 1261 541
1261 1261 1261
1261 1261 2140
1261 1261 2935
1261 1261 3499
1261 1261 3832
1261 1261 4015
1261 2140 0
1261 2140 78
1261 2140 541
1261 2140 1261
1261 2140 2140
1261 2140 2935
1261 2140 3499
1261 2140 3832
1261 2140 4015
1261 2935 0
1261 2935 78
1261 2935 541
1261 2935 1261
1261 2935 2140
1261 2935 2935
1261 2935 3499
1261 2935 3832
1261 2935 4015
1261 3499 0
1261 3499 78
1261 3499 541
1261 3499 1261
1261 3499 2140
1261 3499 2935
1261 3499 3499
1261 3499 3832
1261 3499 4015
1261 3832 0
1261 3832 78
1261 3832 541
1261 3832 1261
1261 3832 2140
1261 3832 2935
1261 3832 3499
1261 3832 3832
1261 3832 4015
1261 4015 0
1261 4015 78
1261 4015 541
1261 4015 1261
1261 4015 2140
1261 4015 2935
1261 4015 3499
1261 4015 3832
1261 4015 4015
2140 0 0
2140 0 78
2140 0 541
2140 0 1261
2140 0 2140
2140 0 2935
2140 0 3499
2140 0 3832
2140 0 4015
2140 78 0
2140 78 78
2140 78 541
2140 78 1261
2140 78 2140
2140 78 2935
2140 78 3499
2140 78 3832
2140 78 4015
2140 541 0
2140 541 78
2140 541 541
2140 541 1261
2140 541 2140
2140 541 2935
2140 541 3499
2140 541 3832
2140 541 4015
2140 1261 0
2140 1261 78
2140 1261 541
2140 1261 1261
2140 1261 2140
2140 1261 2935
2140 1261 3499
2140 1261 3832
2140 1261 4015
2140 2140 0
2140 2140 78
2140 2140 541
2140 2140 1261
2140 2140 2140
2140 2140 2935
2140 2140 3499
2140 2140 3832
2140 2140 4015
2140 2935 0
2140 2935 78
2140 2935 541
2140 2935 1261
2140 2935 2140
2140 2935 2935
2140 2935 3499
2140 2935 3832
2140 2935 4015
2140 3499 0
2140 3499 78
2140 3499 541
2140 3499 1261
2140 3499 2140
2140 3499 2935
2140 3499 3499
2140 3499 3832
2140 3499 4015
2140 3832 0
2140 3832 78
2140 3832 541
2140 3832 1261
2140 3832 2140
2140 3832 2935
2140 3832 3499
2140 3832 3832
2140 3832 4015
2140 4015 0
2140 4015 78
2140 4015 541
2140 4015 1261
2140 4015 2140
2140 4015 2935
2140 4015 3499
2140 4015 3832
2140 4015 4015
2935 0 0
2935 0 78
2935 0 541
2935 0 1261
2935 0 2140
2935 0 2935
2935 0 3499
2935 0 3832
2935 0 4015
2935 78 0
2935 78 78
2935 78 541
2935 78 1261
2935 78 2140
2935 78 2935
2935 78 3499
2935 78 3832
2935 78 4015
2935 541 0
2935 541 78
2935 541 541
2935 541 1261
2935 541 2140
2935 541 2935
2935 541 3499
2935 541 3832
2935 541 4015
2935 1261 0
2935 1261 78
2935 1261 541
2935 1261 1261
2935 1261 2140
2935 1261 2935
2935 1261 3499
2935 1261 3832
2935 1261 4015
2935 2140 0
2935 2140 78
2935 2140 541
2935 2140 1261
2935 2140 2140
2935 2140 2935
2935 2140 3499
2935 2140 3832
2935 2140 4015
2935 2935 0
2935 2935 78
2935 2935 541
2935 2935 1261
2935 2935 2140
2935 2935 2935
2935 2935 3499
2935 2935 3832
2935 2935 4015
2935 3499 0
2935 3499 78
2935 3499 541
2935 3499 1261
2935 3499 2140
2935 3499 2935
2935 3499 3499
2935 3499 3832
2935 3499 4015
2935 3832 0
2935 3832 78
2935 3832 541
2935 3832 1261
2935 3832 2140
2935 3832 2935
2935 3832 3499
2935 3832 3832
2935 3832 4015
2935 4015 0
2935 4015 78
2935 4015 541
2935 4015 1261
2935 4015 2140
2935 4015 2935
2935 4015 3499
2935 4015 3832
2935 4015 4015
3499 0 0
3499 0 78
3499 0 541
3499 0 1261
3499 0 2140
3499 0 2935
3499 0 3499
3499 0 3832
3499 0 4015
3499 78 0
3499 78 78
3499 78 541
3499 78 1261
3499 78 2140
3499 78 2935
3499 78 3499
3499 78 3832
3499 78 4015
3499 541 0
3499 541 78
3499 541 541
3499 541 1261
3499 541 2140
3499 541 2935
3499 541 3499
3499 541 3832
3499 541 4015
3499 1261 0
3499 1261 78
3499 1261 541
3499 1261 1261
3499 1261 2140
3499 1261 2935
3499 1261 3499
3499 1261 3832
3499 1261 4015
3499 2140 0
3499 2140 78
3499 2140 541
3499 2140 1261
3499 2140 2140
3499 2140 2935
3499 2140 3499
3499 2140 3832
3499 2140 4015
3499 2935 0
3499 2935 78
3499 2935 541
3499 2935 1261
3499 2935 2140
3499 2935 2935
3499 2935 3499
3499 2935 3832
3499 2935 4015
3499 3499 0
3499 3499 78
3499 3499 541
3499 3499 1261
3499 3499 2140
3499 3499 2935
3499 3499 3499
3499 3499 3832
3499 3499 4015
3499 3832 0
3499 3832 78
3499 3832 541
3499 3832 1261
3499 3832 2140
3499 3832 2935
3499 3832 3499
3499 3832 3832
3499 3832 4015
3499 4015 0
3499 4015 78
3499 4015 541
3499 4015 1261
3499 4015 2140
3499 4015 2935
3499 4015 3499
3499 4015 3832
3499 4015 4015
3832 0 0
3832 0 78
3832 0 541
3832 0 1261
3832 0 2140
3832 0 2935
3832 0 3499
3832 0 3832
3832 0 4015
3832 78 0
3832 78 78
3832 78 541
3832 78 1261
3832 78 2140
3832 78 2935
3832 78 3499
3832 78 3832
3832 78 4015
3832 541 0
3832 541 78
3832 541 541
3832 541 1261
3832 541 2140
3832 541 2935
3832 541 3499
3832 541 3832
3832 541 4015
3832 1261 0
3832 1261 78
3832 1261 541
3832 1261 1261
3832 1261 2140
3832 1261 2935
3832 1261 3499
3832 1261 3832
3832 1261 4015
3832 2140 0
3832 2140 78
3832 2140 541
3832 2140 1261
3832 2140 2140
3832 2140 2935
3832 2140 3499
3832 2140 3832
3832 2140 4015
3832 2935 0
3832 2935 78
3832 2935 541
3832 2935 1261
3832 2935 2140
3832 2935 2935
3832 2935 3499
3832 2935 3832
3832 2935 4015
3832 3499 0
3832 3499 78
3832 3499 541
3832 3499 1261
3832 3499 2140
3832 3499 2935
3832 3499 3499
3832 3499 3832
3832 3499 4015
3832 3832 0
3832 3832 78
3832 3832 541
3832 3832 1261
3832 3832 2140
3832 3832 2935
3832 3832 3499
3832 3832 3832
3832 3832 4015
3832 4015 0
3832 4015 78
3832 4015 541
3832 4015 1261
3832 4015 2140
3832 4015 2935
3832 4015 3499
3832 4015 3832
3832 4015 4015
4015 0 0
4015 0 78
4015 0 541
4015 0 1261
4015 0 2140
4015 0 2935
4015 0 3499
4015 0 3832
4015 0 4015
4015 78 0
4015 78 78
4015 78 541
4015 78 1261
4015 78 2140
4015 78 2935
4015 78 3499
4015 78 3832
4015 78 4015
4015 541 0
4015 541 78
4015 541 541
4015 541 1261
4015 541 2140
4015 541 2935
4015 541 3499
4015 541 3832
4015 541 4015
4015 1261 0
4015 1261 78
4015 1261 541
4015 1261 1261
4015 1261 2140
4015 1261 2935
4015 1261 3499
4015 1261 3832
4015 1261 4015
4015 2140 0
4015 2140 78
4015 2140 541
4015 2140 1261
4015 2140 2140
4015 2140 2935
4015 2140 3499
4015 2140 3832
4015 2140 4015
4015 2935 0
4015 2935 78
4015 2935 541
4015 2935 1261
4015 2935 2140
4015 2935 2935
4015 2935 3499
4015 2935 3832
4015 2935 4015
4015 3499 0
4015 3499 78
4015 3499 541
4015 3499 1261
4015 3499 2140
4015 3499 2935
4015 3499 3499
4015 3499 3832
4015 3499 4015
4015 3832 0
4015 3832 78
4015 3832 541
4015 3832 1261
4015 3832 2140
4015 3832 2935
4015 3832 3499
4015 3832 3832
4015 3832 4015
4015 4015 0
4015 4015 78
4015 4015 541
4015 4015 1261
4015 4015 2140
4015 4015 2935
4015 4015 3499
4015 4015 3832
4015 4015 4015
