Postproduction/IWLTBAP - Humble/LUTs by IWLTBAP (3DL)/UTILITY/REDLog to Rec.709/U-REDLOG-V1-LTR.3dl
# Copyright: (C) Copyright 2010-2018 by IWLTBAP SAS
# Cannot be resold, shared or otherwise redistributed
# Website: https://luts.iwltbap.com
0 256 512 768 1023
0 0 0
0 0 760
0 0 2370
0 0 3631
0 0 4095
0 760 0
0 760 760
0 760 2370
0 760 3631
0 760 4095
0 2370 0
0 2370 760
0 2370 2370
0 2370 3631
0 2370 4095
0 3631 0
0 3631 760
0 3631 2370
0 3631 3631
0 3631 4095
0 4095 0
0 4095 760
0 4095 2370
0 4095 3631
0 4095 4095
760 0 0
760 0 760
760 0 2370
760 0 3631
760 0 4095
760 760 0
760 760 760
760 760 2370
760 760 3631
760 760 4095
760 2370 0
760 2370 760
760 2370 2370
760 2370 3631
760 2370 4095
760 3631 0
760 3631 760
760 3631 2370
760 3631 3631
760 3631 4095
760 4095 0
760 4095 760
760 4095 2370
760 4095 3631
760 4095 4095
2370 0 0
2370 0 760
2370 0 2370
2370 0 3631
2370 0 4095
2370 760 0
2370 760 760
2370 760 2370
2370 760 3631
2370 760 4095
2370 2370 0
2370 2370 760
2370 2370 2370
2370 2370 3631
2370 2370 4095
2370 3631 0
2370 3631 760
2370 3631 2370
2370 3631 3631
2370 3631 4095
2370 4095 0
2370 4095 760
2370 4095 2370
2370 4095 3631
2370 4095 4095
3631 0 0
3631 0 760
3631 0 2370
3631 0 3631
3631 0 4095
3631 760 0
3631 760 760
3631 760 2370
3631 760 3631
3631 760 4095
3631 2370 0
3631 2370 760
3631 2370 2370
3631 2370 3631
3631 2370 4095
3631 3631 0
3631 3631 760
3631 3631 2370
3631 3631 3631
3631 3631 4095
3631 4095 0
3631 4095 760
3631 4095 2370
3631 4095 3631
3631 4095 4095
4095 0 0
4095 0 760
4095 0 2370
4095 0 3631
4095 0 4095
4095 760 0
4095 760 760
4095 760 2370
4095 760 3631
4095 760 4095
4095 2370 0
4095 2370 760
4095 2370 2370
4095 2370 3631
4095 2370 4095
4095 3631 0
4095 3631 760
4095 3631 2370
4095 3631 3631
4095 3631 4095
4095 4095 0
4095 4095 760
4095 4095 2370
4095 4095 3631
4095 4095 4095
