Postproduction/IWLTBAP - Humble/LUTs by IWLTBAP (CUBE)/UTILITY/Generic LOG to Rec.709/U-9990-LTR.cube
# Copyright: (C) Copyright 2010-2018 by IWLTBAP SAS
# Cannot be resold, shared or otherwise redistributed
# Website: https://luts.iwltbap.com
TITLE "IWLTBAP 9990 (Utility LOG to Rec.709)"
LUT_3D_SIZE 5
DOMAIN_MIN 0.000000 0.000000 0.000000
DOMAIN_MAX 0.903226 0.903226 0.903226
0.000000 0.000000 0.000000
0.178619 0.000000 0.000000
0.515900 0.000000 0.000000
0.870148 0.000000 0.000000
1.000000 0.000000 0.000000
0.000000 0.123444 0.000000
0.115814 0.115723 0.000000
0.471924 0.084930 0.000000
0.869690 0.047913 0.000000
1.000000 0.040497 0.000000
0.000000 0.403503 0.000000
0.045593 0.419678 0.000000
0.407684 0.407654 0.000000
0.826477 0.380524 0.000000
1.000000 0.376221 0.000000
0.000000 0.747681 0.000000
0.001770 0.770172 0.000000
0.325012 0.772491 0.000000
0.751221 0.751251 0.000000
1.000000 0.745514 0.000000
0.000000 1.000000 0.000000
0.001740 1.000000 0.000000
0.296234 1.000000 0.000000
0.715851 1.000000 0.000000
1.000000 1.000000 0.000000
0.000000 0.000000 0.184143
0.171417 0.000000 0.171448
0.504395 0.000000 0.109375
0.863525 0.000000 0.034668
1.000000 0.000000 0.010345
0.000000 0.118011 0.118103
0.115295 0.115356 0.115326
0.473175 0.087280 0.087463
0.872192 0.051910 0.051910
1.000000 0.045319 0.045471
0.000000 0.407074 0.031342
0.051575 0.424164 0.051575
0.413269 0.413239 0.047119
0.832306 0.386932 0.029907
1.000000 0.382629 0.037933
0.000000 0.753540 0.000305
0.003204 0.776428 0.002808
0.332153 0.779358 0.005920
0.758392 0.758392 0.001587
1.000000 0.752533 0.002045
0.000000 1.000000 0.000061
0.002075 1.000000 0.002045
0.303772 1.000000 0.005646
0.722015 1.000000 0.001068
1.000000 1.000000 0.000000
0.000000 0.000000 0.562439
0.149902 0.000000 0.545135
0.478516 0.000000 0.478516
0.846527 0.000000 0.405762
1.000000 0.000000 0.368622
0.000000 0.101257 0.492004
0.103088 0.102997 0.491150
0.461792 0.078125 0.461792
0.863190 0.044434 0.420502
1.000000 0.039764 0.403107
0.000000 0.399811 0.399811
0.048065 0.417908 0.417877
0.408997 0.408966 0.408997
0.829651 0.383911 0.383972
1.000000 0.380829 0.380890
0.000000 0.751709 0.303040
0.003540 0.775055 0.327728
0.332184 0.779022 0.332153
0.758881 0.759003 0.311829
1.000000 0.753326 0.306946
0.000000 1.000000 0.268036
0.002106 1.000000 0.295898
0.304565 1.000000 0.304535
0.718872 1.000000 0.274994
1.000000 1.000000 0.225922
0.000000 0.000000 0.948517
0.125275 0.000000 0.934448
0.451202 0.000000 0.883331
0.824951 0.000000 0.824799
1.000000 0.000000 0.795929
0.000000 0.082031 0.904358
0.087524 0.087372 0.909058
0.445496 0.064514 0.885559
0.848328 0.031738 0.848267
1.000000 0.027344 0.832672
0.000000 0.386505 0.831818
0.039459 0.405365 0.849945
0.398285 0.398285 0.843353
0.819855 0.373901 0.819855
1.000000 0.370605 0.816895
0.000000 0.741394 0.741333
0.001862 0.765289 0.765106
0.323059 0.770111 0.770142
0.750244 0.750244 0.750214
1.000000 0.743835 0.744019
0.000000 1.000000 0.703461
0.001587 1.000000 0.730011
0.293640 1.000000 0.737946
0.701050 1.000000 0.701050
1.000000 1.000000 0.650482
0.000000 0.000000 1.000000
0.105591 0.000000 1.000000
0.433075 0.000000 1.000000
0.812408 0.000000 1.000000
1.000000 0.000000 1.000000
0.000000 0.072845 1.000000
0.081146 0.080994 1.000000
0.436737 0.060455 1.000000
0.840637 0.028015 1.000000
1.000000 0.023682 1.000000
0.000000 0.381165 1.000000
0.040039 0.400848 1.000000
0.394989 0.395081 1.000000
0.816925 0.370636 1.000000
1.000000 0.366150 1.000000
0.000000 0.736816 1.000000
0.001862 0.761078 1.000000
0.319641 0.766632 1.000000
0.746216 0.746216 1.000000
1.000000 0.738678 1.000000
0.000000 1.000000 1.000000
0.001312 1.000000 1.000000
0.284637 1.000000 1.000000
0.682251 1.000000 1.000000
1.000000 1.000000 1.000000
