Postproduction/IWLTBAP - Humble/LUTs by IWLTBAP (CUBE)/UTILITY/Generic LOG to Rec.709/U-9993-LTR.cube
# Copyright: (C) Copyright 2010-2018 by IWLTBAP SAS
# Cannot be resold, shared or otherwise redistributed
# Website: https://luts.iwltbap.com
TITLE "IWLTBAP 9993 (Utility LOG to Rec.709)"
LUT_3D_SIZE 32
0.062531 0.062531 0.062531
0.062531 0.062531 0.062531
0.062722 0.062531 0.062531
0.065883 0.062531 0.062531
0.072323 0.062531 0.062547
0.101095 0.062531 0.062795
0.131438 0.062531 0.063096
0.168271 0.062531 0.063600
0.208318 0.062531 0.064267
0.257624 0.062531 0.065406
0.313666 0.062531 0.067183
0.383655 0.062531 0.070346
0.455291 0.062531 0.074524
0.529466 0.062531 0.080322
0.602948 0.062531 0.087382
0.675480 0.062531 0.095971
0.746369 0.062531 0.105785
0.815738 0.062531 0.116762
0.866888 0.062531 0.127001
0.904720 0.062531 0.136707
0.918182 0.062531 0.143910
0.918182 0.062531 0.149710
0.918182 0.062531 0.153453
0.918182 0.062531 0.156368
0.918182 0.062531 0.157199
0.918182 0.062531 0.157472
0.918182 0.062531 0.157501
0.918182 0.062531 0.157501
0.918182 0.062531 0.157501
0.918182 0.062531 0.157501
0.918182 0.062531 0.157501
0.918182 0.062531 0.157501
0.062531 0.062531 0.062531
0.062531 0.062531 0.062531
0.062722 0.062531 0.062531
0.065883 0.062531 0.062531
0.072323 0.062531 0.062547
0.101095 0.062531 0.062795
0.131438 0.062531 0.063096
0.168271 0.062531 0.063600
0.208318 0.062531 0.064267
0.257624 0.062531 0.065406
0.313666 0.062531 0.067183
0.383655 0.062531 0.070346
0.455291 0.062531 0.074524
0.529466 0.062531 0.080322
0.602948 0.062531 0.087382
0.675480 0.062531 0.095971
0.746369 0.062531 0.105785
0.815738 0.062531 0.116762
0.866888 0.062531 0.127001
0.904720 0.062531 0.136707
0.918182 0.062531 0.143910
0.918182 0.062531 0.149710
0.918182 0.062531 0.153453
0.918182 0.062531 0.156368
0.918182 0.062531 0.157199
0.918182 0.062531 0.157472
0.918182 0.062531 0.157501
0.918182 0.062531 0.157501
0.918182 0.062531 0.157501
0.918182 0.062531 0.157501
0.918182 0.062531 0.157501
0.918182 0.062531 0.157501
0.062531 0.062677 0.062531
0.062531 0.062677 0.062531
0.062691 0.062677 0.062531
0.065822 0.062677 0.062531
0.072266 0.062670 0.062546
0.101049 0.062651 0.062787
0.131421 0.062578 0.063088
0.168239 0.062547 0.063585
0.208311 0.062540 0.064251
0.257620 0.062531 0.065399
0.313662 0.062531 0.067175
0.383651 0.062531 0.070338
0.455286 0.062531 0.074515
0.529432 0.062531 0.080314
0.602944 0.062531 0.087374
0.675475 0.062531 0.095962
0.746368 0.062531 0.105780
0.815738 0.062531 0.116741
0.866888 0.062531 0.126985
0.904720 0.062531 0.136703
0.918182 0.062531 0.143886
0.918182 0.062531 0.149706
0.918182 0.062531 0.153449
0.918182 0.062531 0.156342
0.918182 0.062531 0.157195
0.918182 0.062531 0.157443
0.918182 0.062531 0.157497
0.918182 0.062531 0.157497
0.918182 0.062531 0.157497
0.918182 0.062531 0.157497
0.918182 0.062531 0.157497
0.918182 0.062531 0.157497
0.062531 0.065343 0.062531
0.062531 0.065343 0.062531
0.062665 0.065343 0.062531
0.064966 0.065343 0.062531
0.071412 0.065235 0.062531
0.100415 0.064569 0.062549
0.130834 0.064262 0.062840
0.167980 0.063088 0.063337
0.208078 0.062919 0.064003
0.257491 0.062544 0.065150
0.313537 0.062531 0.066927
0.383527 0.062531 0.070089
0.455133 0.062531 0.074249
0.529308 0.062531 0.080048
0.602819 0.062531 0.087124
0.675337 0.062531 0.095697
0.746303 0.062531 0.105560
0.815735 0.062531 0.116615
0.866888 0.062531 0.126861
0.904720 0.062531 0.136579
0.918182 0.062531 0.143762
0.918182 0.062531 0.149561
0.918182 0.062531 0.153325
0.918182 0.062531 0.156218
0.918182 0.062531 0.157071
0.918182 0.062531 0.157319
0.918182 0.062531 0.157373
0.918182 0.062531 0.157373
0.918182 0.062531 0.157373
0.918182 0.062531 0.157373
0.918182 0.062531 0.157373
0.918182 0.062531 0.157373
0.062531 0.070916 0.062531
0.062531 0.070916 0.062531
0.062589 0.070916 0.062531
0.064634 0.070916 0.062531
0.069984 0.070808 0.062531
0.098694 0.070071 0.062531
0.129658 0.069198 0.062572
0.167030 0.067811 0.063043
0.207567 0.066361 0.063621
0.257070 0.065731 0.064701
0.313269 0.064444 0.066416
0.383287 0.064100 0.069552
0.454937 0.062878 0.073731
0.529122 0.062531 0.079529
0.602659 0.062531 0.086587
0.675181 0.062531 0.095163
0.746147 0.062531 0.105058
0.815626 0.062531 0.116162
0.866882 0.062531 0.126517
0.904720 0.062531 0.136247
0.918182 0.062531 0.143458
0.918182 0.062531 0.149259
0.918182 0.062531 0.153030
0.918182 0.062531 0.155942
0.918182 0.062531 0.156769
0.918182 0.062531 0.157017
0.918182 0.062531 0.157068
0.918182 0.062531 0.157068
0.918182 0.062531 0.157068
0.918182 0.062531 0.157068
0.918182 0.062531 0.157068
0.918182 0.062531 0.157068
0.062531 0.096251 0.062531
0.062531 0.096251 0.062531
0.062531 0.096251 0.062531
0.062615 0.096251 0.062531
0.067431 0.096182 0.062531
0.091599 0.095552 0.062531
0.122649 0.094666 0.062531
0.163297 0.093292 0.062577
0.204318 0.091290 0.062919
0.255219 0.088082 0.063132
0.311662 0.084375 0.064616
0.382252 0.076727 0.067195
0.454032 0.071600 0.071326
0.528487 0.062943 0.077125
0.602116 0.062531 0.084199
0.674802 0.062531 0.092760
0.745761 0.062531 0.102701
0.815253 0.062531 0.113895
0.866660 0.062531 0.124481
0.904714 0.062531 0.134470
0.918182 0.062531 0.141834
0.918182 0.062531 0.147754
0.918182 0.062531 0.151585
0.918182 0.062531 0.154546
0.918182 0.062531 0.155304
0.918182 0.062531 0.155499
0.918182 0.062531 0.155552
0.918182 0.062531 0.155552
0.918182 0.062531 0.155552
0.918182 0.062531 0.155552
0.918182 0.062531 0.155552
0.918182 0.062531 0.155552
0.062531 0.123504 0.062531
0.062531 0.123504 0.062531
0.062531 0.123504 0.062531
0.062531 0.123504 0.062531
0.064169 0.123437 0.062531
0.086055 0.122837 0.062531
0.114332 0.122155 0.062531
0.156151 0.120822 0.062531
0.200388 0.119063 0.062531
0.251879 0.115415 0.062531
0.309711 0.110320 0.062965
0.380588 0.100620 0.065225
0.452942 0.090018 0.068510
0.527533 0.077861 0.074171
0.601426 0.067764 0.081230
0.674205 0.066932 0.089805
0.745326 0.063234 0.099767
0.814825 0.062531 0.110998
0.866339 0.062531 0.121836
0.904588 0.062531 0.132093
0.918182 0.062531 0.139707
0.918182 0.062531 0.145773
0.918182 0.062531 0.149721
0.918182 0.062531 0.152731
0.918182 0.062531 0.153542
0.918182 0.062531 0.153667
0.918182 0.062531 0.153685
0.918182 0.062531 0.153685
0.918182 0.062531 0.153685
0.918182 0.062531 0.153685
0.918182 0.062531 0.153685
0.918182 0.062531 0.153685
0.062531 0.158452 0.062531
0.062531 0.158452 0.062531
0.062531 0.158452 0.062531
0.062531 0.158452 0.062531
0.063337 0.158397 0.062531
0.070780 0.158010 0.062531
0.097610 0.157389 0.062531
0.147031 0.156704 0.062531
0.192602 0.155283 0.062531
0.247415 0.153244 0.062531
0.305926 0.149194 0.062531
0.378323 0.143215 0.062980
0.451014 0.133303 0.065416
0.526214 0.122307 0.069030
0.600259 0.105867 0.075931
0.673304 0.090700 0.084514
0.744536 0.078008 0.094521
0.814180 0.063297 0.105817
0.865974 0.062531 0.117142
0.904569 0.062531 0.128017
0.918182 0.062531 0.135916
0.918182 0.062531 0.142226
0.918182 0.062531 0.146250
0.918182 0.062531 0.149326
0.918182 0.062531 0.150228
0.918182 0.062531 0.150385
0.918182 0.062531 0.150422
0.918182 0.062531 0.150422
0.918182 0.062531 0.150422
0.918182 0.062531 0.150422
0.918182 0.062531 0.150422
0.918182 0.062531 0.150422
0.062531 0.196429 0.062531
0.062531 0.196429 0.062531
0.062531 0.196429 0.062531
0.062531 0.196429 0.062531
0.062791 0.196387 0.062531
0.068113 0.196046 0.062531
0.079946 0.195637 0.062531
0.126996 0.195041 0.062531
0.181674 0.194264 0.062531
0.238846 0.192584 0.062531
0.300919 0.190208 0.062531
0.374161 0.185359 0.062531
0.448383 0.179278 0.063097
0.523966 0.169064 0.065788
0.598641 0.156287 0.069524
0.671872 0.135362 0.077622
0.743405 0.115481 0.087172
0.813158 0.093164 0.098437
0.865448 0.080179 0.110046
0.904348 0.079640 0.121438
0.918182 0.076563 0.130146
0.918182 0.076199 0.136740
0.918182 0.074095 0.141074
0.918182 0.073921 0.144251
0.918182 0.073744 0.145188
0.918182 0.073736 0.145438
0.918182 0.073736 0.145469
0.918182 0.073736 0.145469
0.918182 0.073736 0.145469
0.918182 0.073736 0.145469
0.918182 0.073736 0.145469
0.918182 0.073736 0.145469
0.062531 0.243222 0.062531
0.062531 0.243222 0.062531
0.062531 0.243222 0.062531
0.062531 0.243222 0.062531
0.062531 0.243185 0.062531
0.062842 0.242930 0.062531
0.071905 0.242573 0.062531
0.099677 0.242181 0.062531
0.152825 0.241524 0.062531
0.225430 0.240554 0.062531
0.290283 0.238620 0.062531
0.367988 0.235719 0.062531
0.443161 0.230991 0.062531
0.520403 0.225026 0.063110
0.595494 0.216153 0.064495
0.669414 0.204927 0.066652
0.741195 0.189266 0.075049
0.811362 0.174219 0.084902
0.864316 0.156384 0.096827
0.904283 0.146684 0.108901
0.918182 0.137508 0.118434
0.918182 0.129660 0.126099
0.918182 0.123039 0.130831
0.918182 0.118377 0.134388
0.918182 0.117615 0.135421
0.918182 0.117251 0.135730
0.918182 0.117243 0.135764
0.918182 0.117243 0.135764
0.918182 0.117243 0.135764
0.918182 0.117243 0.135764
0.918182 0.117243 0.135764
0.918182 0.117243 0.135764
0.062531 0.296332 0.062531
0.062531 0.296332 0.062531
0.062531 0.296332 0.062531
0.062531 0.296332 0.062531
0.062531 0.296300 0.062531
0.062531 0.296087 0.062531
0.063983 0.295845 0.062531
0.085158 0.295505 0.062531
0.120676 0.295075 0.062531
0.192791 0.294230 0.062531
0.274401 0.293071 0.062531
0.355827 0.290673 0.062531
0.435640 0.287799 0.062531
0.513955 0.283216 0.062531
0.590905 0.278107 0.062531
0.665318 0.270724 0.062531
0.737956 0.262691 0.064857
0.808427 0.251477 0.073495
0.862881 0.240325 0.081193
0.903731 0.225642 0.093075
0.918182 0.214237 0.100567
0.918182 0.201207 0.108684
0.918182 0.192946 0.112768
0.918182 0.184288 0.116566
0.918182 0.181856 0.117640
0.918182 0.181099 0.118006
0.918182 0.180988 0.118071
0.918182 0.180988 0.118071
0.918182 0.180988 0.118071
0.918182 0.180988 0.118071
0.918182 0.180988 0.118071
0.918182 0.180988 0.118071
0.062531 0.362548 0.062531
0.062531 0.362548 0.062531
0.062531 0.362548 0.062531
0.062531 0.362548 0.062531
0.062531 0.362540 0.062531
0.062531 0.362408 0.062531
0.062531 0.362191 0.062531
0.064145 0.362054 0.062531
0.093344 0.361695 0.062531
0.152561 0.361165 0.062531
0.234489 0.360172 0.062531
0.336574 0.358652 0.062531
0.420426 0.356259 0.062531
0.503850 0.353377 0.062531
0.582094 0.349307 0.062531
0.658766 0.344824 0.062531
0.732056 0.338744 0.062531
0.803641 0.331930 0.064872
0.859639 0.324004 0.068161
0.903500 0.315238 0.072001
0.918182 0.307547 0.075830
0.918182 0.300010 0.078860
0.918182 0.294744 0.081010
0.918182 0.289686 0.082624
0.918182 0.287654 0.083410
0.918182 0.287165 0.083591
0.918182 0.287052 0.083651
0.918182 0.287052 0.083651
0.918182 0.287052 0.083651
0.918182 0.287052 0.083651
0.918182 0.287052 0.083651
0.918182 0.287052 0.083651
0.062531 0.430335 0.062531
0.062531 0.430335 0.062531
0.062531 0.430335 0.062531
0.062531 0.430335 0.062531
0.062531 0.430330 0.062531
0.062531 0.430238 0.062531
0.062531 0.430114 0.062531
0.062531 0.429989 0.062531
0.066426 0.429791 0.062531
0.112843 0.429312 0.062531
0.190659 0.428659 0.062531
0.298891 0.427374 0.062531
0.401120 0.425817 0.062531
0.487834 0.423406 0.062531
0.571036 0.420776 0.062531
0.648977 0.417253 0.062531
0.724561 0.413476 0.062531
0.796829 0.408475 0.062531
0.856217 0.403680 0.062531
0.902051 0.397897 0.062531
0.918182 0.393664 0.062531
0.918182 0.389477 0.062531
0.918182 0.386880 0.062531
0.918182 0.384516 0.062531
0.918182 0.383868 0.062531
0.918182 0.383626 0.062531
0.918182 0.383572 0.062531
0.918182 0.383572 0.062531
0.918182 0.383572 0.062531
0.918182 0.383572 0.062531
0.918182 0.383572 0.062531
0.918182 0.383572 0.062531
0.062531 0.500584 0.062531
0.062531 0.500584 0.062531
0.062531 0.500584 0.062531
0.062531 0.500584 0.062531
0.062531 0.500584 0.062531
0.062531 0.500581 0.062531
0.062531 0.500493 0.062531
0.062531 0.500365 0.062531
0.062531 0.500165 0.062531
0.066682 0.499783 0.062531
0.134746 0.499231 0.062531
0.258322 0.498404 0.062531
0.365997 0.497080 0.062531
0.467156 0.495441 0.062531
0.553668 0.493154 0.062531
0.636360 0.490657 0.062531
0.713277 0.487459 0.062531
0.787868 0.483991 0.062531
0.849755 0.480001 0.062531
0.901496 0.475940 0.062531
0.918182 0.472462 0.062531
0.918182 0.469481 0.062531
0.918182 0.467340 0.062531
0.918182 0.465588 0.062531
0.918182 0.465073 0.062531
0.918182 0.464978 0.062531
0.918182 0.464942 0.062531
0.918182 0.464942 0.062531
0.918182 0.464942 0.062531
0.918182 0.464942 0.062531
0.918182 0.464942 0.062531
0.918182 0.464942 0.062531
0.062531 0.570233 0.062531
0.062531 0.570233 0.062531
0.062531 0.570233 0.062531
0.062531 0.570233 0.062531
0.062531 0.570233 0.062531
0.062531 0.570233 0.062531
0.062531 0.570205 0.062531
0.062531 0.570067 0.062531
0.062531 0.569906 0.062531
0.062531 0.569566 0.062531
0.072000 0.569122 0.062531
0.171848 0.568416 0.062531
0.315742 0.567511 0.062531
0.434274 0.566083 0.062531
0.533283 0.564430 0.062531
0.618642 0.562242 0.062531
0.700029 0.559940 0.062531
0.775871 0.557008 0.062531
0.843048 0.554185 0.062531
0.897943 0.550866 0.062531
0.918040 0.548405 0.062531
0.918182 0.546061 0.062531
0.918182 0.544580 0.062531
0.918182 0.543219 0.062531
0.918182 0.542893 0.062531
0.918182 0.542893 0.062531
0.918182 0.542893 0.062531
0.918182 0.542893 0.062531
0.918182 0.542893 0.062531
0.918182 0.542893 0.062531
0.918182 0.542893 0.062531
0.918182 0.542893 0.062531
0.062531 0.638965 0.062531
0.062531 0.638965 0.062531
0.062531 0.638965 0.062531
0.062531 0.638965 0.062531
0.062531 0.638965 0.062531
0.062531 0.638965 0.062531
0.062531 0.638939 0.062531
0.062531 0.638815 0.062531
0.062531 0.638659 0.062531
0.062531 0.638397 0.062531
0.062531 0.638016 0.062531
0.072334 0.637487 0.062531
0.199300 0.636683 0.062531
0.386577 0.635629 0.062531
0.502480 0.634138 0.062531
0.597847 0.632418 0.062531
0.681779 0.630355 0.062531
0.761809 0.628168 0.062531
0.831896 0.625686 0.062531
0.894767 0.623183 0.062531
0.916355 0.621004 0.062531
0.918044 0.619171 0.062531
0.918182 0.617891 0.062531
0.918182 0.616853 0.062531
0.918182 0.616572 0.062531
0.918182 0.616572 0.062531
0.918182 0.616572 0.062531
0.918182 0.616572 0.062531
0.918182 0.616572 0.062531
0.918182 0.616572 0.062531
0.918182 0.616572 0.062531
0.918182 0.616572 0.062531
0.062531 0.706211 0.062531
0.062531 0.706211 0.062531
0.062531 0.706211 0.062531
0.062531 0.706211 0.062531
0.062531 0.706211 0.062531
0.062531 0.706211 0.062531
0.062531 0.706184 0.062531
0.062531 0.706060 0.062531
0.062531 0.705928 0.062531
0.062531 0.705703 0.062531
0.062531 0.705381 0.062531
0.062531 0.704874 0.062531
0.120018 0.704253 0.062531
0.303994 0.703294 0.062531
0.466792 0.702174 0.062531
0.568941 0.700623 0.062531
0.661434 0.698981 0.062531
0.743566 0.697026 0.062531
0.817362 0.695129 0.062531
0.883025 0.692919 0.062531
0.914114 0.691224 0.062531
0.917544 0.689610 0.062531
0.918182 0.688611 0.062531
0.918182 0.687757 0.062531
0.918182 0.687555 0.062531
0.918182 0.687555 0.062531
0.918182 0.687555 0.062531
0.918182 0.687555 0.062531
0.918182 0.687555 0.062531
0.918182 0.687555 0.062531
0.918182 0.687555 0.062531
0.918182 0.687555 0.062531
0.062531 0.772029 0.062531
0.062531 0.772029 0.062531
0.062531 0.772029 0.062531
0.062531 0.772029 0.062531
0.062531 0.772029 0.062531
0.062531 0.772029 0.062531
0.062531 0.772014 0.062531
0.062531 0.771879 0.062531
0.062531 0.771755 0.062531
0.062531 0.771627 0.062531
0.062531 0.771329 0.062531
0.062531 0.770816 0.062531
0.115211 0.770221 0.062531
0.256428 0.769444 0.062531
0.409794 0.768433 0.062531
0.535044 0.767241 0.062531
0.633861 0.765759 0.062531
0.723230 0.764179 0.062531
0.798943 0.762437 0.062531
0.867953 0.760700 0.062531
0.902518 0.759137 0.062531
0.916437 0.757804 0.062531
0.918182 0.756901 0.062531
0.918182 0.756214 0.062531
0.918182 0.756025 0.062531
0.918182 0.756025 0.062531
0.918182 0.756025 0.062531
0.918182 0.756025 0.062531
0.918182 0.756025 0.062531
0.918182 0.756025 0.062531
0.918182 0.756025 0.062531
0.918182 0.756025 0.062531
0.062531 0.832224 0.062531
0.062531 0.832224 0.062531
0.062531 0.832224 0.062531
0.062531 0.832224 0.062531
0.062531 0.832224 0.062531
0.062531 0.832224 0.062531
0.062531 0.832213 0.062531
0.062531 0.832088 0.062531
0.062531 0.831964 0.062531
0.062531 0.831822 0.062531
0.062531 0.831608 0.062531
0.062531 0.831136 0.062531
0.071250 0.830625 0.062531
0.172520 0.829929 0.062531
0.341865 0.829047 0.062531
0.490853 0.827950 0.062531
0.606042 0.826715 0.062531
0.699065 0.825244 0.062531
0.780301 0.823829 0.062531
0.850740 0.822230 0.062531
0.894731 0.820964 0.062531
0.913246 0.819719 0.062531
0.918182 0.818970 0.062531
0.918182 0.818354 0.062531
0.918182 0.818214 0.062531
0.918182 0.818214 0.062531
0.918182 0.818214 0.062531
0.918182 0.818214 0.062531
0.918182 0.818214 0.062531
0.918182 0.818214 0.062531
0.918182 0.818214 0.062531
0.918182 0.818214 0.062531
0.062531 0.888228 0.062531
0.062531 0.888228 0.062531
0.062531 0.888228 0.062531
0.062531 0.888228 0.062531
0.062531 0.888228 0.062531
0.062531 0.888228 0.062531
0.062531 0.888216 0.062531
0.062531 0.888092 0.062531
0.062531 0.887968 0.062531
0.062531 0.887844 0.062531
0.062531 0.887620 0.062531
0.062531 0.887239 0.062531
0.062531 0.886767 0.062531
0.071250 0.886256 0.062531
0.213474 0.885444 0.062531
0.432393 0.884430 0.062531
0.569592 0.883250 0.062531
0.673778 0.881975 0.062531
0.758169 0.880634 0.062531
0.833035 0.879318 0.062531
0.880412 0.878141 0.062531
0.911696 0.877085 0.062531
0.918182 0.876381 0.062531
0.918182 0.875855 0.062531
0.918182 0.875725 0.062531
0.918182 0.875725 0.062531
0.918182 0.875725 0.062531
0.918182 0.875725 0.062531
0.918182 0.875725 0.062531
0.918182 0.875725 0.062531
0.918182 0.875725 0.062531
0.918182 0.875725 0.062531
0.062531 0.911516 0.062531
0.062531 0.911516 0.062531
0.062531 0.911516 0.062531
0.062531 0.911516 0.062531
0.062531 0.911516 0.062531
0.062531 0.911516 0.062531
0.062531 0.911514 0.062531
0.062531 0.911450 0.062531
0.062531 0.911339 0.062531
0.062531 0.911271 0.062531
0.062531 0.911173 0.062531
0.062531 0.910935 0.062531
0.062531 0.910670 0.062531
0.062531 0.910323 0.062531
0.151826 0.909995 0.062531
0.370001 0.909228 0.062531
0.541309 0.908656 0.062531
0.650277 0.907650 0.062531
0.741028 0.906986 0.062531
0.817390 0.905928 0.062531
0.871648 0.905362 0.062531
0.906739 0.904461 0.062531
0.917976 0.904086 0.062531
0.918182 0.903629 0.062531
0.918182 0.903505 0.062531
0.918182 0.903505 0.062531
0.918182 0.903505 0.062531
0.918182 0.903505 0.062531
0.918182 0.903505 0.062531
0.918182 0.903505 0.062531
0.918182 0.903505 0.062531
0.918182 0.903505 0.062531
0.062531 0.916684 0.062531
0.062531 0.916684 0.062531
0.062531 0.916684 0.062531
0.062531 0.916684 0.062531
0.062531 0.916684 0.062531
0.062531 0.916684 0.062531
0.062531 0.916684 0.062531
0.062531 0.916682 0.062531
0.062531 0.916643 0.062531
0.062531 0.916640 0.062531
0.062531 0.916614 0.062531
0.062531 0.916600 0.062531
0.062531 0.916504 0.062531
0.062531 0.916479 0.062531
0.149699 0.916354 0.062531
0.344874 0.916292 0.062531
0.508874 0.916054 0.062531
0.629234 0.915957 0.062531
0.723719 0.915695 0.062531
0.803855 0.915580 0.062531
0.860070 0.915315 0.062531
0.903217 0.915201 0.062531
0.915956 0.915025 0.062531
0.917990 0.914942 0.062531
0.918182 0.914885 0.062531
0.918182 0.914885 0.062531
0.918182 0.914885 0.062531
0.918182 0.914885 0.062531
0.918182 0.914885 0.062531
0.918182 0.914885 0.062531
0.918182 0.914885 0.062531
0.918182 0.914885 0.062531
0.062531 0.918182 0.062531
0.062531 0.918182 0.062531
0.062531 0.918182 0.062531
0.062531 0.918182 0.062531
0.062531 0.918182 0.062531
0.062531 0.918182 0.062531
0.062531 0.918182 0.062531
0.062531 0.918182 0.062531
0.062531 0.918182 0.062531
0.062531 0.918182 0.062531
0.062531 0.918182 0.062531
0.062531 0.918182 0.062531
0.062531 0.918182 0.062531
0.062531 0.918182 0.062531
0.140670 0.918182 0.062531
0.326974 0.918182 0.062531
0.488693 0.918182 0.062531
0.613260 0.918182 0.062531
0.712797 0.918182 0.062531
0.794020 0.918182 0.062531
0.851874 0.918182 0.062531
0.896327 0.918182 0.062531
0.914635 0.918182 0.062531
0.917662 0.918182 0.062531
0.918182 0.918182 0.062531
0.918182 0.918182 0.062531
0.918182 0.918182 0.062531
0.918182 0.918182 0.062531
0.918182 0.918182 0.062531
0.918182 0.918182 0.062531
0.918182 0.918182 0.062531
0.918182 0.918182 0.062531
0.062531 0.918182 0.062531
0.062531 0.918182 0.062531
0.062531 0.918182 0.062531
0.062531 0.918182 0.062531
0.062531 0.918182 0.062531
0.062531 0.918182 0.062531
0.062531 0.918182 0.062531
0.062531 0.918182 0.062531
0.062531 0.918182 0.062531
0.062531 0.918182 0.062531
0.062531 0.918182 0.062531
0.062531 0.918182 0.062531
0.062531 0.918182 0.062531
0.062531 0.918182 0.062531
0.139610 0.918182 0.062531
0.311407 0.918182 0.062531
0.467075 0.918182 0.062531
0.599938 0.918182 0.062531
0.702679 0.918182 0.062531
0.786211 0.918182 0.062531
0.844791 0.918182 0.062531
0.890101 0.918182 0.062531
0.909202 0.918182 0.062531
0.917089 0.918182 0.062531
0.918182 0.918182 0.062531
0.918182 0.918182 0.062531
0.918182 0.918182 0.062531
0.918182 0.918182 0.062531
0.918182 0.918182 0.062531
0.918182 0.918182 0.062531
0.918182 0.918182 0.062531
0.918182 0.918182 0.062531
0.062531 0.918182 0.062531
0.062531 0.918182 0.062531
0.062531 0.918182 0.062531
0.062531 0.918182 0.062531
0.062531 0.918182 0.062531
0.062531 0.918182 0.062531
0.062531 0.918182 0.062531
0.062531 0.918182 0.062531
0.062531 0.918182 0.062531
0.062531 0.918182 0.062531
0.062531 0.918182 0.062531
0.062531 0.918182 0.062531
0.062531 0.918182 0.062531
0.062531 0.918182 0.062531
0.138821 0.918182 0.062531
0.308940 0.918182 0.062531
0.461072 0.918182 0.062531
0.594952 0.918182 0.062531
0.699817 0.918182 0.062531
0.783590 0.918182 0.062531
0.842812 0.918182 0.062531
0.888274 0.918182 0.062531
0.907774 0.918182 0.062531
0.916279 0.918182 0.062531
0.918182 0.918182 0.062531
0.918182 0.918182 0.062531
0.918182 0.918182 0.062531
0.918182 0.918182 0.062531
0.918182 0.918182 0.062531
0.918182 0.918182 0.062531
0.918182 0.918182 0.062531
0.918182 0.918182 0.062531
0.062531 0.918182 0.062531
0.062531 0.918182 0.062531
0.062531 0.918182 0.062531
0.062531 0.918182 0.062531
0.062531 0.918182 0.062531
0.062531 0.918182 0.062531
0.062531 0.918182 0.062531
0.062531 0.918182 0.062531
0.062531 0.918182 0.062531
0.062531 0.918182 0.062531
0.062531 0.918182 0.062531
0.062531 0.918182 0.062531
0.062531 0.918182 0.062531
0.062531 0.918182 0.062531
0.138756 0.918182 0.062531
0.307707 0.918182 0.062531
0.459226 0.918182 0.062531
0.593860 0.918182 0.062531
0.699064 0.918182 0.062531
0.782924 0.918182 0.062531
0.842191 0.918182 0.062531
0.887852 0.918182 0.062531
0.907429 0.918182 0.062531
0.916223 0.918182 0.062531
0.918182 0.918182 0.062531
0.918182 0.918182 0.062531
0.918182 0.918182 0.062531
0.918182 0.918182 0.062531
0.918182 0.918182 0.062531
0.918182 0.918182 0.062531
0.918182 0.918182 0.062531
0.918182 0.918182 0.062531
0.062531 0.918182 0.062531
0.062531 0.918182 0.062531
0.062531 0.918182 0.062531
0.062531 0.918182 0.062531
0.062531 0.918182 0.062531
0.062531 0.918182 0.062531
0.062531 0.918182 0.062531
0.062531 0.918182 0.062531
0.062531 0.918182 0.062531
0.062531 0.918182 0.062531
0.062531 0.918182 0.062531
0.062531 0.918182 0.062531
0.062531 0.918182 0.062531
0.062531 0.918182 0.062531
0.138756 0.918182 0.062531
0.307650 0.918182 0.062531
0.458909 0.918182 0.062531
0.593584 0.918182 0.062531
0.698945 0.918182 0.062531
0.782814 0.918182 0.062531
0.842097 0.918182 0.062531
0.887765 0.918182 0.062531
0.907363 0.918182 0.062531
0.916179 0.918182 0.062531
0.918182 0.918182 0.062531
0.918182 0.918182 0.062531
0.918182 0.918182 0.062531
0.918182 0.918182 0.062531
0.918182 0.918182 0.062531
0.918182 0.918182 0.062531
0.918182 0.918182 0.062531
0.918182 0.918182 0.062531
0.062531 0.918182 0.062531
0.062531 0.918182 0.062531
0.062531 0.918182 0.062531
0.062531 0.918182 0.062531
0.062531 0.918182 0.062531
0.062531 0.918182 0.062531
0.062531 0.918182 0.062531
0.062531 0.918182 0.062531
0.062531 0.918182 0.062531
0.062531 0.918182 0.062531
0.062531 0.918182 0.062531
0.062531 0.918182 0.062531
0.062531 0.918182 0.062531
0.062531 0.918182 0.062531
0.138756 0.918182 0.062531
0.307650 0.918182 0.062531
0.458909 0.918182 0.062531
