Postproduction/IWLTBAP - Humble/LUTs by IWLTBAP (CUBE)/UTILITY/Generic LOG to Rec.709/U-9997-LTR.cube
# Copyright: (C) Copyright 2010-2018 by IWLTBAP SAS
# Cannot be resold, shared or otherwise redistributed
# Website: https://luts.iwltbap.com
TITLE "IWLTBAP 9997 (Utility LOG to Rec.709)"
LUT_3D_SIZE 32
0.000000 0.000000 0.000000
0.012567 0.000000 0.000000
0.025659 0.000000 0.000000
0.039944 0.000000 0.000000
0.056143 0.000000 0.000000
0.074547 0.000000 0.000000
0.095192 0.000000 0.000000
0.118109 0.000000 0.000000
0.143119 0.000000 0.000000
0.170752 0.000000 0.000000
0.201957 0.000000 0.000000
0.237792 0.000000 0.000000
0.279159 0.000000 0.000000
0.325914 0.000000 0.000000
0.376659 0.000000 0.000000
0.429644 0.000000 0.000000
0.483349 0.000000 0.000000
0.536136 0.000000 0.000000
0.586973 0.000000 0.000000
0.634595 0.000000 0.000000
0.678063 0.000000 0.000000
0.717395 0.000000 0.000000
0.753325 0.000000 0.000000
0.786515 0.000000 0.000000
0.817718 0.000000 0.000000
0.847224 0.000000 0.000000
0.875267 0.000000 0.000000
0.901971 0.000000 0.000000
0.927500 0.000000 0.000000
0.952190 0.000000 0.000000
0.976272 0.000000 0.000000
1.000000 0.000000 0.000000
0.000000 0.012567 0.000000
0.012567 0.012567 0.000000
0.025659 0.012567 0.000000
0.039944 0.012567 0.000000
0.056143 0.012567 0.000000
0.074547 0.012567 0.000000
0.095192 0.012567 0.000000
0.118109 0.012567 0.000000
0.143119 0.012567 0.000000
0.170752 0.012567 0.000000
0.201957 0.012567 0.000000
0.237792 0.012567 0.000000
0.279159 0.012567 0.000000
0.325914 0.012567 0.000000
0.376659 0.012567 0.000000
0.429644 0.012567 0.000000
0.483349 0.012507 0.000000
0.536136 0.012566 0.000000
0.586973 0.012567 0.000000
0.634595 0.012567 0.000000
0.678063 0.012567 0.000000
0.717395 0.012507 0.000000
0.753325 0.012558 0.000000
0.786515 0.012507 0.000000
0.817718 0.012508 0.000000
0.847224 0.012561 0.000000
0.875267 0.012512 0.000000
0.901971 0.012565 0.000000
0.927500 0.012511 0.000000
0.952190 0.012565 0.000000
0.976272 0.012508 0.000000
1.000000 0.012566 0.000000
0.000000 0.025659 0.000000
0.012567 0.025659 0.000000
0.025659 0.025659 0.000000
0.039944 0.025659 0.000000
0.056143 0.025659 0.000000
0.074547 0.025659 0.000000
0.095192 0.025659 0.000000
0.118109 0.025659 0.000000
0.143119 0.025659 0.000000
0.170752 0.025659 0.000000
0.201957 0.025659 0.000000
0.237792 0.025659 0.000000
0.279159 0.025659 0.000000
0.325914 0.025659 0.000000
0.376659 0.025659 0.000000
0.429644 0.025659 0.000000
0.483349 0.025659 0.000000
0.536136 0.025659 0.000000
0.586973 0.025659 0.000000
0.634595 0.025659 0.000000
0.678063 0.025676 0.000000
0.717395 0.025706 0.000000
0.753325 0.025667 0.000000
0.786515 0.025659 0.000000
0.817718 0.025709 0.000000
0.847224 0.025661 0.000000
0.875267 0.025659 0.000000
0.901971 0.025714 0.000000
0.927500 0.025720 0.000000
0.952190 0.025661 0.000000
0.976272 0.025659 0.000000
1.000000 0.025595 0.000000
0.000000 0.039944 0.000000
0.012567 0.039944 0.000000
0.025659 0.039944 0.000000
0.039944 0.039944 0.000000
0.056143 0.039944 0.000000
0.074547 0.039944 0.000000
0.095192 0.039944 0.000000
0.118109 0.039944 0.000000
0.143119 0.039944 0.000000
0.170752 0.039944 0.000000
0.201957 0.039944 0.000000
0.237792 0.039944 0.000000
0.279159 0.039944 0.000000
0.325914 0.039944 0.000000
0.376659 0.039944 0.000000
0.429644 0.039944 0.000000
0.483349 0.039944 0.000000
0.536136 0.039944 0.000000
0.586973 0.039944 0.000000
0.634595 0.039944 0.000000
0.678063 0.039944 0.000000
0.717395 0.039913 0.000000
0.753325 0.039938 0.000000
0.786515 0.039944 0.000000
0.817718 0.039944 0.000000
0.847224 0.039889 0.000000
0.875267 0.039939 0.000000
0.901971 0.039968 0.000000
0.927500 0.040002 0.000000
0.952190 0.039949 0.000000
0.976272 0.039998 0.000000
1.000000 0.039883 0.000000
0.000000 0.056143 0.000000
0.012567 0.056143 0.000000
0.025659 0.056143 0.000000
0.039944 0.056143 0.000000
0.056143 0.056143 0.000000
0.074547 0.056143 0.000000
0.095192 0.056143 0.000000
0.118109 0.056143 0.000000
0.143119 0.056143 0.000000
0.170752 0.056143 0.000000
0.201957 0.056143 0.000000
0.237792 0.056143 0.000000
0.279159 0.056143 0.000000
0.325914 0.056143 0.000000
0.376659 0.056143 0.000000
0.429644 0.056143 0.000000
0.483349 0.056143 0.000000
0.536136 0.056128 0.000000
0.586973 0.056081 0.000000
0.634595 0.056125 0.000000
0.678063 0.056125 0.000000
0.717395 0.056083 0.000000
0.753325 0.056163 0.000000
0.786515 0.056124 0.000000
0.817718 0.056087 0.000000
0.847224 0.056086 0.000000
0.875267 0.056126 0.000000
0.901971 0.056143 0.000000
0.927500 0.056143 0.000000
0.952190 0.056198 0.000000
0.976272 0.056088 0.000000
1.000000 0.056086 0.000000
0.000000 0.074547 0.000000
0.012567 0.074547 0.000000
0.025659 0.074547 0.000000
0.039944 0.074547 0.000000
0.056143 0.074547 0.000000
0.074547 0.074547 0.000000
0.095192 0.074547 0.000000
0.118109 0.074547 0.000000
0.143119 0.074547 0.000000
0.170752 0.074547 0.000000
0.201957 0.074547 0.000000
0.237792 0.074547 0.000000
0.279159 0.074547 0.000000
0.325914 0.074547 0.000000
0.376659 0.074547 0.000000
0.429644 0.074547 0.000000
0.483349 0.074547 0.000000
0.536136 0.074547 0.000000
0.586973 0.074531 0.000000
0.634595 0.074491 0.000000
0.678063 0.074547 0.000000
0.717395 0.074542 0.000000
0.753325 0.074547 0.000000
0.786515 0.074596 0.000000
0.817718 0.074598 0.000000
0.847224 0.074582 0.000000
0.875267 0.074496 0.000000
0.901971 0.074542 0.000000
0.927500 0.074595 0.000000
0.952190 0.074548 0.000000
0.976272 0.074597 0.000000
1.000000 0.074603 0.000000
0.000000 0.095192 0.000000
0.012567 0.095192 0.000000
0.025659 0.095192 0.000000
0.039944 0.095192 0.000000
0.056143 0.095192 0.000000
0.074547 0.095192 0.000000
0.095192 0.095192 0.000000
0.118109 0.095192 0.000000
0.143119 0.095192 0.000000
0.170752 0.095192 0.000000
0.201957 0.095192 0.000000
0.237792 0.095192 0.000000
0.279159 0.095192 0.000000
0.325914 0.095192 0.000000
0.376659 0.095192 0.000000
0.429644 0.095192 0.000000
0.483349 0.095192 0.000000
0.536136 0.095192 0.000000
0.586973 0.095192 0.000000
0.634595 0.095207 0.000000
0.678063 0.095245 0.000000
0.717395 0.095168 0.000000
0.753325 0.095184 0.000000
0.786515 0.095152 0.000000
0.817718 0.095156 0.000000
0.847224 0.095205 0.000000
0.875267 0.095271 0.000000
0.901971 0.095197 0.000000
0.927500 0.095160 0.000000
0.952190 0.095192 0.000000
0.976272 0.095151 0.000000
1.000000 0.095211 0.000000
0.000000 0.118109 0.000000
0.012567 0.118109 0.000000
0.025659 0.118109 0.000000
0.039944 0.118109 0.000000
0.056143 0.118109 0.000000
0.074547 0.118109 0.000000
0.095192 0.118109 0.000000
0.118109 0.118109 0.000000
0.143119 0.118109 0.000000
0.170752 0.118109 0.000000
0.201957 0.118109 0.000000
0.237792 0.118109 0.000000
0.279159 0.118109 0.000000
0.325914 0.118109 0.000000
0.376659 0.118109 0.000000
0.429644 0.118109 0.000000
0.483349 0.118109 0.000000
0.536136 0.118109 0.000000
0.586973 0.118105 0.000000
0.634595 0.118102 0.000000
0.678063 0.118109 0.000000
0.717395 0.118093 0.000000
0.753325 0.118040 0.000000
0.786515 0.118024 0.000000
0.817718 0.118077 0.000000
0.847224 0.118029 0.000000
0.875267 0.118044 0.000000
0.901971 0.118162 0.000000
0.927500 0.118081 0.000000
0.952190 0.118101 0.000000
0.976272 0.118025 0.000000
1.000000 0.118024 0.000000
0.000000 0.143119 0.000000
0.012567 0.143119 0.000000
0.025659 0.143119 0.000000
0.039944 0.143119 0.000000
0.056143 0.143119 0.000000
0.074547 0.143119 0.000000
0.095192 0.143119 0.000000
0.118109 0.143119 0.000000
0.143119 0.143119 0.000000
0.170752 0.143119 0.000000
0.201957 0.143119 0.000000
0.237792 0.143119 0.000000
0.279159 0.143119 0.000000
0.325914 0.143119 0.000000
0.376659 0.143119 0.000000
0.429644 0.143119 0.000000
0.483349 0.143131 0.000000
0.536136 0.143177 0.000000
0.586973 0.143119 0.000000
0.634595 0.143084 0.000000
0.678063 0.143116 0.000000
0.717395 0.143119 0.000000
0.753325 0.143179 0.000000
0.786515 0.143119 0.000000
0.817718 0.143065 0.000000
0.847224 0.143066 0.000000
0.875267 0.143118 0.000000
0.901971 0.143199 0.000000
0.927500 0.143072 0.000000
0.952190 0.143058 0.000000
0.976272 0.143119 0.000000
1.000000 0.143119 0.000000
0.000000 0.170752 0.000000
0.012567 0.170752 0.000000
0.025659 0.170752 0.000000
0.039944 0.170752 0.000000
0.056143 0.170752 0.000000
0.074547 0.170752 0.000000
0.095192 0.170752 0.000000
0.118109 0.170752 0.000000
0.143119 0.170752 0.000000
0.170752 0.170752 0.000000
0.201957 0.170752 0.000000
0.237792 0.170752 0.000000
0.279159 0.170752 0.000000
0.325914 0.170752 0.000000
0.376659 0.170756 0.000000
0.429644 0.170747 0.000000
0.483349 0.170700 0.000000
0.536136 0.170752 0.000000
0.586973 0.170704 0.000000
0.634595 0.170700 0.000000
0.678063 0.170700 0.000000
0.717395 0.170752 0.000000
0.753325 0.170761 0.000000
0.786515 0.170717 0.000000
0.817718 0.170709 0.000000
0.847224 0.170729 0.000000
0.875267 0.170711 0.000000
0.901971 0.170748 0.000000
0.927500 0.170733 0.000000
0.952190 0.170692 0.000000
0.976272 0.170700 0.000000
1.000000 0.170691 0.000000
0.000000 0.201957 0.000000
0.012567 0.201957 0.000000
0.025659 0.201957 0.000000
0.039944 0.201957 0.000000
0.056143 0.201957 0.000000
0.074547 0.201957 0.000000
0.095192 0.201957 0.000000
0.118109 0.201957 0.000000
0.143119 0.201957 0.000000
0.170752 0.201957 0.000000
0.201957 0.201957 0.000000
0.237792 0.201957 0.000000
0.279159 0.201957 0.000000
0.325914 0.201957 0.000000
0.376659 0.201957 0.000000
0.429644 0.201993 0.000000
0.483349 0.201911 0.000000
0.536136 0.201948 0.000000
0.586973 0.201951 0.000000
0.634595 0.201941 0.000000
0.678063 0.201937 0.000000
0.717395 0.201951 0.000000
0.753325 0.202009 0.000000
0.786515 0.202003 0.000000
0.817718 0.201998 0.000000
0.847224 0.201920 0.000000
0.875267 0.201993 0.000000
0.901971 0.201921 0.000000
0.927500 0.201964 0.000000
0.952190 0.201897 0.000000
0.976272 0.201936 0.000000
1.000000 0.201916 0.000000
0.000000 0.237792 0.000000
0.012567 0.237792 0.000000
0.025659 0.237792 0.000000
0.039944 0.237792 0.000000
0.056143 0.237792 0.000000
0.074547 0.237792 0.000000
0.095192 0.237792 0.000000
0.118109 0.237792 0.000000
0.143119 0.237792 0.000000
0.170752 0.237792 0.000000
0.201957 0.237792 0.000000
0.237792 0.237792 0.000000
0.279159 0.237792 0.000000
0.325914 0.237792 0.000000
0.376659 0.237792 0.000000
0.429644 0.237792 0.000000
0.483349 0.237792 0.000000
0.536136 0.237787 0.000000
0.586973 0.237792 0.000000
0.634595 0.237853 0.000000
0.678063 0.237796 0.000000
0.717395 0.237741 0.000000
0.753325 0.237814 0.000000
0.786515 0.237865 0.000000
0.817718 0.237873 0.000000
0.847224 0.237857 0.000000
0.875267 0.237870 0.000000
0.901971 0.237856 0.000000
0.927500 0.237853 0.000000
0.952190 0.237735 0.000000
0.976272 0.237731 0.000000
1.000000 0.237853 0.000000
0.000000 0.279159 0.000000
0.012567 0.279159 0.000000
0.025659 0.279159 0.000000
0.039944 0.279159 0.000000
0.056143 0.279159 0.000000
0.074547 0.279159 0.000000
0.095192 0.279159 0.000000
0.118109 0.279159 0.000000
0.143119 0.279159 0.000000
0.170752 0.279159 0.000000
0.201957 0.279159 0.000000
0.237792 0.279159 0.000000
0.279159 0.279159 0.000000
0.325914 0.279159 0.000000
0.376659 0.279159 0.000000
0.429644 0.279159 0.000000
0.483349 0.279149 0.000000
0.536136 0.279110 0.000000
0.586973 0.279154 0.000000
0.634595 0.279171 0.000000
0.678063 0.279166 0.000000
0.717395 0.279159 0.000000
0.753325 0.279189 0.000000
0.786515 0.279131 0.000000
0.817718 0.279171 0.000000
0.847224 0.279163 0.000000
0.875267 0.279113 0.000000
0.901971 0.279163 0.000000
0.927500 0.279149 0.000000
0.952190 0.279100 0.000000
0.976272 0.279110 0.000000
1.000000 0.279178 0.000000
0.000000 0.325914 0.000000
0.012567 0.325914 0.000000
0.025659 0.325914 0.000000
0.039944 0.325914 0.000000
0.056143 0.325914 0.000000
0.074547 0.325914 0.000000
0.095192 0.325914 0.000000
0.118109 0.325914 0.000000
0.143119 0.325914 0.000000
0.170752 0.325914 0.000000
0.201957 0.325914 0.000000
0.237792 0.325914 0.000000
0.279159 0.325914 0.000000
0.325914 0.325914 0.000000
0.376659 0.325914 0.000000
0.429644 0.325914 0.000000
0.483349 0.325914 0.000000
0.536136 0.325914 0.000000
0.586973 0.325914 0.000000
0.634595 0.325914 0.000000
0.678063 0.325914 0.000000
0.717395 0.325914 0.000000
0.753325 0.325926 0.000000
0.786515 0.325917 0.000000
0.817718 0.325952 0.000000
0.847224 0.325916 0.000000
0.875267 0.325914 0.000000
0.901971 0.325914 0.000000
0.927500 0.325867 0.000000
0.952190 0.325853 0.000000
0.976272 0.325913 0.000000
1.000000 0.325926 0.000000
0.000000 0.376659 0.000000
0.012567 0.376659 0.000000
0.025659 0.376659 0.000000
0.039944 0.376659 0.000000
0.056143 0.376659 0.000000
0.074547 0.376659 0.000000
0.095192 0.376659 0.000000
0.118109 0.376659 0.000000
0.143119 0.376659 0.000000
0.170756 0.376659 0.000000
0.201957 0.376659 0.000000
0.237792 0.376659 0.000000
0.279159 0.376659 0.000000
0.325914 0.376659 0.000000
0.376651 0.376651 0.000000
0.429644 0.376612 0.000000
0.483349 0.376659 0.000000
0.536136 0.376659 0.000000
0.586973 0.376659 0.000000
0.634595 0.376649 0.000000
0.678063 0.376603 0.000000
0.717395 0.376609 0.000000
0.753325 0.376707 0.000000
0.786515 0.376707 0.000000
0.817718 0.376622 0.000000
0.847224 0.376598 0.000000
0.875267 0.376600 0.000000
0.901971 0.376598 0.000000
0.927500 0.376641 0.000000
0.952190 0.376581 0.000000
0.976272 0.376611 0.000000
1.000000 0.376720 0.000000
0.000000 0.429644 0.000000
0.012567 0.429644 0.000000
0.025659 0.429644 0.000000
0.039944 0.429644 0.000000
0.056143 0.429644 0.000000
0.074547 0.429644 0.000000
0.095192 0.429644 0.000000
0.118109 0.429644 0.000000
0.143119 0.429644 0.000000
0.170747 0.429644 0.000000
0.201993 0.429644 0.000000
0.237792 0.429644 0.000000
0.279159 0.429644 0.000000
0.325914 0.429644 0.000000
0.376612 0.429644 0.000000
0.429636 0.429636 0.000000
0.483349 0.429628 0.000000
0.536136 0.429613 0.000000
0.586973 0.429635 0.000000
0.634595 0.429601 0.000000
0.678063 0.429593 0.000000
0.717395 0.429598 0.000000
0.753325 0.429640 0.000000
0.786515 0.429606 0.000000
0.817718 0.429686 0.000000
0.847224 0.429592 0.000000
0.875267 0.429628 0.000000
0.901971 0.429587 0.000000
0.927500 0.429598 0.000000
0.952190 0.429539 0.000000
0.976272 0.429627 0.000000
1.000000 0.429660 0.000000
0.000000 0.483349 0.000000
0.012507 0.483349 0.000000
0.025659 0.483349 0.000000
0.039944 0.483349 0.000000
0.056143 0.483349 0.000000
0.074547 0.483349 0.000000
0.095192 0.483349 0.000000
0.118109 0.483349 0.000000
0.143131 0.483349 0.000000
0.170700 0.483349 0.000000
0.201911 0.483349 0.000000
0.237792 0.483349 0.000000
0.279149 0.483349 0.000000
0.325914 0.483349 0.000000
0.376659 0.483349 0.000000
0.429628 0.483349 0.000000
0.483349 0.483349 0.000000
0.536136 0.483341 0.000000
0.586973 0.483343 0.000000
0.634595 0.483347 0.000000
0.678063 0.483304 0.000000
0.717395 0.483325 0.000000
0.753325 0.483345 0.000000
0.786515 0.483327 0.000000
0.817718 0.483304 0.000000
0.847224 0.483304 0.000000
0.875267 0.483329 0.000000
0.901971 0.483290 0.000000
0.927500 0.483317 0.000000
0.952190 0.483322 0.000000
0.976272 0.483334 0.000000
1.000000 0.483288 0.000000
0.000000 0.536136 0.000000
0.012566 0.536136 0.000000
0.025659 0.536136 0.000000
0.039944 0.536136 0.000000
0.056128 0.536136 0.000000
0.074547 0.536136 0.000000
0.095192 0.536136 0.000000
0.118109 0.536136 0.000000
0.143177 0.536136 0.000000
0.170752 0.536136 0.000000
0.201948 0.536136 0.000000
0.237787 0.536136 0.000000
0.279110 0.536136 0.000000
0.325914 0.536136 0.000000
0.376659 0.536136 0.000000
0.429613 0.536136 0.000000
0.483341 0.536136 0.000000
0.536136 0.536136 0.000000
0.586973 0.536136 0.000000
0.634595 0.536180 0.000000
0.678063 0.536173 0.000000
0.717395 0.536152 0.000000
0.753325 0.536152 0.000000
0.786515 0.536152 0.000000
0.817718 0.536152 0.000000
0.847224 0.536180 0.000000
0.875267 0.536183 0.000000
0.901971 0.536152 0.000000
0.927500 0.536091 0.000000
0.952190 0.536176 0.000000
0.976272 0.536136 0.000000
1.000000 0.536091 0.000000
0.000000 0.586973 0.000000
0.012567 0.586973 0.000000
0.025659 0.586973 0.000000
0.039944 0.586973 0.000000
0.056081 0.586973 0.000000
0.074531 0.586973 0.000000
0.095192 0.586973 0.000000
0.118105 0.586973 0.000000
0.143119 0.586973 0.000000
0.170704 0.586973 0.000000
0.201951 0.586973 0.000000
0.237792 0.586973 0.000000
0.279154 0.586973 0.000000
0.325914 0.586973 0.000000
0.376659 0.586973 0.000000
0.429635 0.586973 0.000000
0.483343 0.586973 0.000000
0.536136 0.586973 0.000000
0.586973 0.586973 0.000000
0.634595 0.586981 0.000000
0.678063 0.586985 0.000000
0.717395 0.587026 0.000000
0.753325 0.587027 0.000000
0.786515 0.587021 0.000000
0.817718 0.587021 0.000000
0.847224 0.587032 0.000000
0.875267 0.587034 0.000000
0.901971 0.587023 0.000000
0.927500 0.587023 0.000000
0.952190 0.586987 0.000000
0.976272 0.586973 0.000000
1.000000 0.587021 0.000000
0.000000 0.634595 0.000000
0.012567 0.634595 0.000000
0.025659 0.634595 0.000000
0.039944 0.634595 0.000000
0.056125 0.634595 0.000000
0.074491 0.634595 0.000000
0.095207 0.634595 0.000000
0.118102 0.634595 0.000000
0.143084 0.634595 0.000000
0.170700 0.634595 0.000000
0.201941 0.634595 0.000000
0.237853 0.634595 0.000000
0.279171 0.634595 0.000000
0.325914 0.634595 0.000000
0.376649 0.634595 0.000000
0.429601 0.634595 0.000000
0.483347 0.634595 0.000000
0.536180 0.634595 0.000000
0.586981 0.634595 0.000000
0.634595 0.634595 0.000000
0.678063 0.634595 0.000000
0.717395 0.634603 0.000000
0.753325 0.634645 0.000000
0.786515 0.634558 0.000000
0.817718 0.634555 0.000000
0.847224 0.634591 0.000000
0.875267 0.634595 0.000000
0.901971 0.634560 0.000000
0.927500 0.634652 0.000000
0.952190 0.634597 0.000000
0.976272 0.634595 0.000000
1.000000 0.634576 0.000000
0.000000 0.678063 0.000000
0.012567 0.678063 0.000000
0.025676 0.678063 0.000000
0.039944 0.678063 0.000000
0.056125 0.678063 0.000000
0.074547 0.678063 0.000000
0.095245 0.678063 0.000000
0.118109 0.678063 0.000000
0.143116 0.678063 0.000000
0.170700 0.678063 0.000000
0.201937 0.678063 0.000000
0.237796 0.678063 0.000000
0.279166 0.678063 0.000000
0.325914 0.678063 0.000000
0.376603 0.678063 0.000000
0.429593 0.678063 0.000000
0.483304 0.678063 0.000000
0.536173 0.678063 0.000000
0.586985 0.678063 0.000000
0.634595 0.678063 0.000000
0.678063 0.678063 0.000000
0.717395 0.678063 0.000000
0.753325 0.678071 0.000000
0.786515 0.678083 0.000000
0.817718 0.678011 0.000000
0.847224 0.678053 0.000000
0.875267 0.678063 0.000000
0.901971 0.678053 0.000000
0.927500 0.678072 0.000000
0.952190 0.678121 0.000000
0.976272 0.678124 0.000000
1.000000 0.677993 0.000000
0.000000 0.717395 0.000000
0.012507 0.717395 0.000000
0.025706 0.717395 0.000000
0.039913 0.717395 0.000000
0.056083 0.717395 0.000000
0.074542 0.717395 0.000000
0.095168 0.717395 0.000000
0.118093 0.717395 0.000000
0.143119 0.717395 0.000000
0.170752 0.717395 0.000000
0.201951 0.717395 0.000000
0.237741 0.717395 0.000000
0.279159 0.717395 0.000000
0.325914 0.717395 0.000000
0.376609 0.717395 0.000000
0.429598 0.717395 0.000000
0.483325 0.717395 0.000000
0.536152 0.717395 0.000000
0.587026 0.717395 0.000000
0.634603 0.717395 0.000000
0.678063 0.717395 0.000000
0.717395 0.717395 0.000000
0.753325 0.717395 0.000000
0.786515 0.717403 0.000000
0.817718 0.717390 0.000000
0.847224 0.717394 0.000000
0.875267 0.717423 0.000000
0.901971 0.717395 0.000000
0.927500 0.717424 0.000000
0.952190 0.717435 0.000000
0.976272 0.717435 0.000000
1.000000 0.717334 0.000000
0.000000 0.753325 0.000000
0.012558 0.753325 0.000000
0.025667 0.753325 0.000000
0.039938 0.753325 0.000000
0.056163 0.753325 0.000000
0.074547 0.753325 0.000000
0.095184 0.753325 0.000000
0.118040 0.753325 0.000000
0.143179 0.753325 0.000000
0.170761 0.753325 0.000000
0.202009 0.753325 0.000000
0.237814 0.753325 0.000000
0.279189 0.753325 0.000000
0.325926 0.753325 0.000000
0.376707 0.753325 0.000000
0.429640 0.753325 0.000000
0.483345 0.753325 0.000000
0.536152 0.753325 0.000000
0.587027 0.753325 0.000000
0.634645 0.753325 0.000000
0.678071 0.753325 0.000000
0.717395 0.753325 0.000000
0.753325 0.753325 0.000000
0.786515 0.753366 0.000000
0.817718 0.753377 0.000000
0.847224 0.753308 0.000000
0.875267 0.753304 0.000000
0.901971 0.753325 0.000000
0.927500 0.753255 0.000000
0.952190 0.753322 0.000000
0.976272 0.753325 0.000000
1.000000 0.753295 0.000000
0.000000 0.786515 0.000000
0.012507 0.786515 0.000000
0.025659 0.786515 0.000000
0.039944 0.786515 0.000000
0.056124 0.786515 0.000000
0.074596 0.786515 0.000000
0.095152 0.786515 0.000000
0.118024 0.786515 0.000000
0.143119 0.786515 0.000000
0.170717 0.786515 0.000000
0.202003 0.786515 0.000000
0.237865 0.786515 0.000000
0.279131 0.786515 0.000000
0.325917 0.786515 0.000000
0.376707 0.786515 0.000000
0.429606 0.786515 0.000000
0.483327 0.786515 0.000000
0.536152 0.786515 0.000000
0.587021 0.786515 0.000000
0.634558 0.786515 0.000000
0.678083 0.786515 0.000000
0.717403 0.786515 0.000000
0.753366 0.786515 0.000000
0.786515 0.786515 0.000000
0.817718 0.786576 0.000000
0.847224 0.786563 0.000000
0.875267 0.786457 0.000000
0.901971 0.786511 0.000000
0.927500 0.786560 0.000000
0.952190 0.786517 0.000000
0.976272 0.786567 0.000000
1.000000 0.786446 0.000000
0.000000 0.817718 0.000000
0.012508 0.817718 0.000000
0.025709 0.817718 0.000000
0.039944 0.817718 0.000000
0.056087 0.817718 0.000000
0.074598 0.817718 0.000000
0.095156 0.817718 0.000000
0.118077 0.817718 0.000000
0.143065 0.817718 0.000000
0.170709 0.817718 0.000000
0.201998 0.817718 0.000000
0.237873 0.817718 0.000000
0.279171 0.817718 0.000000
0.325952 0.817718 0.000000
0.376622 0.817718 0.000000
0.429686 0.817718 0.000000
0.483304 0.817718 0.000000
0.536152 0.817718 0.000000
0.587021 0.817718 0.000000
0.634555 0.817718 0.000000
0.678011 0.817718 0.000000
0.717390 0.817718 0.000000
0.753377 0.817718 0.000000
0.786576 0.817718 0.000000
0.817718 0.817718 0.000000
0.847224 0.817718 0.000000
0.875267 0.817662 0.000000
0.901971 0.817657 0.000000
0.927500 0.817775 0.000000
0.952190 0.817718 0.000000
0.976272 0.817695 0.000000
1.000000 0.817704 0.000000
0.000000 0.847224 0.000000
0.012561 0.847224 0.000000
0.025661 0.847224 0.000000
0.039889 0.847224 0.000000
0.056086 0.847224 0.000000
0.074582 0.847224 0.000000
0.095205 0.847224 0.000000
0.118029 0.847224 0.000000
0.143066 0.847224 0.000000
0.170729 0.847224 0.000000
0.201920 0.847224 0.000000
0.237857 0.847224 0.000000
0.279163 0.847224 0.000000
0.325916 0.847224 0.000000
0.376598 0.847224 0.000000
0.429592 0.847224 0.000000
0.483304 0.847224 0.000000
0.536180 0.847224 0.000000
0.587032 0.847224 0.000000
0.634591 0.847224 0.000000
0.678053 0.847224 0.000000
0.717394 0.847224 0.000000
0.753308 0.847224 0.000000
0.786563 0.847224 0.000000
0.817718 0.847224 0.000000
0.847224 0.847224 0.000000
0.875267 0.847275 0.000000
0.901971 0.847218 0.000000
0.927500 0.847176 0.000000
0.952190 0.847221 0.000000
0.976272 0.847164 0.000000
1.000000 0.847224 0.000000
0.000000 0.875267 0.000000
0.012512 0.875267 0.000000
0.025659 0.875267 0.000000
0.039939 0.875267 0.000000
0.056126 0.875267 0.000000
0.074496 0.875267 0.000000
0.095271 0.875267 0.000000
0.118044 0.875267 0.000000
0.143118 0.875267 0.000000
0.170711 0.875267 0.000000
0.201993 0.875267 0.000000
0.237870 0.875267 0.000000
0.279113 0.875267 0.000000
0.325914 0.875267 0.000000
0.376600 0.875267 0.000000
0.429628 0.875267 0.000000
0.483329 0.875267 0.000000
0.536183 0.875267 0.000000
0.587034 0.875267 0.000000
0.634595 0.875267 0.000000
0.678063 0.875267 0.000000
0.717423 0.875267 0.000000
0.753304 0.875267 0.000000
0.786457 0.875267 0.000000
0.817662 0.875267 0.000000
0.847275 0.875267 0.000000
0.875271 0.875271 0.000000
0.901971 0.875267 0.000000
0.927500 0.875320 0.000000
0.952190 0.875268 0.000000
0.976272 0.875262 0.000000
1.000000 0.875211 0.000000
0.000000 0.901971 0.000000
0.012565 0.901971 0.000000
0.025714 0.901971 0.000000
0.039968 0.901971 0.000000
0.056143 0.901971 0.000000
0.074542 0.901971 0.000000
0.095197 0.901971 0.000000
0.118162 0.901971 0.000000
0.143199 0.901971 0.000000
0.170748 0.901971 0.000000
0.201921 0.901971 0.000000
0.237856 0.901971 0.000000
0.279163 0.901971 0.000000
0.325914 0.901971 0.000000
0.376598 0.901971 0.000000
0.429587 0.901971 0.000000
0.483290 0.901971 0.000000
