Postproduction/IWLTBAP - Humble/LUTs by IWLTBAP (CUBE)/UTILITY/Generic LOG to Rec.709/U-9994-LTR.cube
# Copyright: (C) Copyright 2010-2018 by IWLTBAP SAS
# Cannot be resold, shared or otherwise redistributed
# Website: https://luts.iwltbap.com
TITLE "IWLTBAP 9994 (Utility LOG to Rec.709)"
LUT_3D_SIZE 8
DOMAIN_MIN 0.000000 0.000000 0.000000
DOMAIN_MAX 0.903226 0.903226 0.903226
0.009369 0.009369 0.009369
0.077454 0.001632 0.004334
0.198637 0.000000 0.000000
0.401015 0.000000 0.000000
0.659273 0.000000 0.000000
0.856198 0.000000 0.000000
0.915824 0.000000 0.000000
0.962764 0.000000 0.000000
0.004594 0.079920 0.014366
0.072753 0.072053 0.009372
0.193907 0.051698 0.000006
0.396238 0.041397 0.000000
0.654581 0.041397 0.000000
0.854529 0.041397 0.000000
0.915824 0.041397 0.000000
0.962764 0.041397 0.000000
0.000000 0.207550 0.027249
0.060643 0.199624 0.022216
0.181811 0.179314 0.009387
0.384140 0.136324 0.000000
0.642505 0.094485 0.000000
0.848719 0.093911 0.000000
0.915824 0.093911 0.000000
0.962764 0.093911 0.000000
0.000000 0.423479 0.054480
0.041615 0.415571 0.049491
0.156180 0.395242 0.036684
0.358523 0.352241 0.009549
0.616826 0.293368 0.000000
0.834190 0.244042 0.000000
0.915824 0.217412 0.000000
0.962764 0.210292 0.000000
0.000000 0.700402 0.091825
0.041397 0.692462 0.086828
0.121137 0.672166 0.074041
0.323437 0.629176 0.046876
0.581812 0.570319 0.009774
0.802163 0.520942 0.000000
0.915687 0.494312 0.000000
0.962764 0.487196 0.000000
0.000000 0.865249 0.123207
0.041397 0.865075 0.118193
0.098473 0.864130 0.105368
0.294001 0.848355 0.078237
0.552390 0.805948 0.041095
0.772790 0.756584 0.009956
0.907553 0.730057 0.000000
0.962764 0.722852 0.000000
0.000000 0.915824 0.140051
0.041397 0.915824 0.135075
0.094280 0.915824 0.122260
0.278162 0.915824 0.095093
0.536530 0.915796 0.058001
0.756935 0.902715 0.026813
0.896894 0.878417 0.010090
0.962764 0.871224 0.005545
0.000000 0.962764 0.144577
0.041397 0.962764 0.139580
0.094218 0.962764 0.126774
0.273893 0.962764 0.099622
0.532284 0.962764 0.062520
0.752676 0.962764 0.031326
0.892623 0.953686 0.014606
0.962650 0.946565 0.010098
0.009094 0.009755 0.072458
0.077253 0.001928 0.067461
0.198407 0.000000 0.054727
0.400759 0.000000 0.041397
0.659098 0.000000 0.041397
0.856161 0.000000 0.041397
0.915824 0.000000 0.041397
0.962764 0.000000 0.041397
0.004395 0.080445 0.077546
0.072560 0.072563 0.072566
0.193714 0.052226 0.059727
0.396047 0.041397 0.041402
0.654422 0.041397 0.041397
0.854409 0.041397 0.041397
0.915824 0.041397 0.041397
0.962764 0.041397 0.041397
0.000000 0.208023 0.090421
0.060409 0.200156 0.085417
0.181602 0.179791 0.072610
0.383928 0.136793 0.045844
0.642289 0.094517 0.041397
0.850038 0.093911 0.041397
0.915824 0.093911 0.041397
0.962764 0.093911 0.041397
0.000000 0.423946 0.117695
0.041577 0.416084 0.112674
0.155979 0.395744 0.099864
0.358306 0.352733 0.072749
0.616665 0.293866 0.042021
0.837573 0.244522 0.041397
0.915824 0.217909 0.041397
0.962764 0.210787 0.041397
0.000000 0.700887 0.155016
0.041397 0.692977 0.150020
0.120902 0.672662 0.137216
0.323248 0.629661 0.110087
0.581580 0.570811 0.072956
0.802573 0.521450 0.044075
0.915824 0.494820 0.041407
0.962764 0.487677 0.041403
0.000000 0.865271 0.186379
0.041397 0.865085 0.181379
0.098372 0.864610 0.168562
0.293834 0.859885 0.141419
0.552199 0.808504 0.104285
0.773195 0.759097 0.073146
0.912803 0.732475 0.056336
0.962764 0.725311 0.051839
0.000000 0.915824 0.203227
0.041397 0.915824 0.198250
0.094274 0.915824 0.185429
0.277995 0.915824 0.158300
0.536352 0.915824 0.121169
0.757271 0.907445 0.090001
0.898779 0.881312 0.073270
0.962764 0.874100 0.068746
0.000000 0.962764 0.207774
0.041397 0.962764 0.202759
0.094218 0.962764 0.189960
0.273698 0.962764 0.162838
0.532091 0.962764 0.125696
0.753008 0.962764 0.094539
0.894521 0.954761 0.077803
0.962764 0.947567 0.073296
0.008552 0.011072 0.181017
0.076725 0.003125 0.175964
0.197904 0.000000 0.163133
0.400228 0.000000 0.136036
0.658609 0.000000 0.100704
0.855932 0.000000 0.093960
0.915824 0.000000 0.093911
0.962764 0.000000 0.093911
0.003861 0.081747 0.185990
0.072004 0.073760 0.181016
0.193195 0.053519 0.168169
0.395536 0.041397 0.141083
0.653853 0.041397 0.104498
0.854259 0.041397 0.094075
0.915824 0.041397 0.093911
0.962764 0.041397 0.093911
0.000000 0.209306 0.198928
0.059898 0.201385 0.193899
0.181091 0.181082 0.181091
0.383396 0.138087 0.153965
0.641773 0.094588 0.116816
0.849819 0.093911 0.095367
0.915824 0.093911 0.094078
0.962764 0.093911 0.094016
0.000000 0.425247 0.226181
0.041490 0.417295 0.221191
0.155470 0.397028 0.208375
0.357782 0.354042 0.181235
0.616158 0.295141 0.144124
0.837101 0.245789 0.112933
0.915824 0.219137 0.100855
0.962764 0.212018 0.098836
0.000000 0.702143 0.263511
0.041397 0.694239 0.258528
0.120364 0.673916 0.245733
0.322715 0.630925 0.218571
0.581028 0.572032 0.181469
0.802025 0.522711 0.150282
0.915824 0.496137 0.133537
0.962764 0.488985 0.129005
0.000000 0.865295 0.294843
0.041397 0.865118 0.289844
0.098116 0.864643 0.277010
0.293336 0.860590 0.249884
0.551636 0.809718 0.212756
0.772596 0.760394 0.181651
0.912408 0.733775 0.164853
0.962764 0.726667 0.160315
0.000000 0.915824 0.311745
0.041397 0.915824 0.306768
0.094264 0.915824 0.293937
0.277495 0.915824 0.266790
0.535756 0.915824 0.229660
0.756750 0.908467 0.198494
0.898287 0.882644 0.181738
0.962764 0.875338 0.177190
0.000000 0.962764 0.316271
0.041397 0.962764 0.311279
0.094208 0.962764 0.298480
0.273200 0.962764 0.271316
0.531519 0.962764 0.234202
0.752480 0.962764 0.203025
0.894009 0.956000 0.186257
0.962764 0.948861 0.181746
0.007448 0.013704 0.356404
0.075620 0.005822 0.351407
0.196780 0.000000 0.338603
0.399113 0.000000 0.311460
0.657493 0.000000 0.274352
0.855538 0.000000 0.243226
0.915824 0.000000 0.226438
0.962764 0.000000 0.221910
0.002759 0.084361 0.361410
0.070823 0.076513 0.356414
0.192090 0.056125 0.343589
0.394409 0.041397 0.316536
0.652707 0.041397 0.279362
0.853860 0.041397 0.248252
0.915824 0.041397 0.231437
0.962764 0.041397 0.226924
0.000000 0.212007 0.374319
0.058787 0.204066 0.369323
0.179957 0.183768 0.356521
0.382275 0.140762 0.329367
0.640667 0.094747 0.292264
0.849432 0.093911 0.261118
0.915824 0.093911 0.244323
0.962764 0.093911 0.239846
0.000000 0.427909 0.401630
0.041409 0.420028 0.396639
0.154358 0.399680 0.383815
0.356667 0.356684 0.356676
0.615065 0.297805 0.319559
0.836065 0.248485 0.288398
0.915824 0.221844 0.271653
0.962764 0.214666 0.267128
0.000000 0.704859 0.438988
0.041397 0.696916 0.433983
0.119252 0.676622 0.421161
0.321585 0.633635 0.394032
0.579910 0.574765 0.356911
0.800910 0.525392 0.325760
0.915824 0.498752 0.308963
0.962764 0.491643 0.304423
0.000000 0.865355 0.470261
0.041397 0.865176 0.465262
0.097554 0.864705 0.452458
0.292234 0.862184 0.425315
0.550523 0.812463 0.388186
0.771473 0.763069 0.357080
0.911693 0.736406 0.340274
0.962764 0.729278 0.335754
0.000000 0.915824 0.487173
0.041397 0.915824 0.482159
0.094242 0.915824 0.469347
0.276378 0.915824 0.442224
0.534661 0.915824 0.405060
0.755630 0.910771 0.373966
0.897182 0.885252 0.357138
0.962764 0.878046 0.352610
0.000000 0.962764 0.491699
0.041397 0.962764 0.486692
0.094187 0.962764 0.473888
0.272108 0.962764 0.446758
0.530364 0.962764 0.409646
0.751368 0.962764 0.378492
0.892913 0.958702 0.361689
0.962734 0.951510 0.357225
0.005918 0.017403 0.577978
0.074076 0.009465 0.572980
0.195258 0.000000 0.560149
0.397582 0.000000 0.532999
0.655967 0.000000 0.495913
0.855005 0.000000 0.464740
0.915824 0.000000 0.447946
0.962764 0.000000 0.443469
0.001275 0.088094 0.582949
0.069330 0.080139 0.577975
0.190570 0.059851 0.565172
0.392874 0.041397 0.538018
0.651204 0.041397 0.500932
0.853273 0.041397 0.469752
0.915824 0.041397 0.453001
0.962764 0.041397 0.448470
0.000000 0.215653 0.595874
0.057269 0.207763 0.590878
0.178414 0.187420 0.578059
0.380755 0.144446 0.550917
0.639114 0.095702 0.513791
0.848858 0.093911 0.482677
0.915824 0.093911 0.465895
0.962764 0.093911 0.461371
0.000000 0.431601 0.623172
0.041405 0.423679 0.618153
0.152813 0.403366 0.605318
0.355132 0.360318 0.578218
0.613521 0.301504 0.541042
0.834558 0.252149 0.509974
0.915824 0.225511 0.493143
0.962764 0.218375 0.488625
0.000000 0.708497 0.660471
0.041397 0.700619 0.655478
0.117760 0.680258 0.642662
0.320105 0.637292 0.615575
0.578394 0.578406 0.578414
0.799407 0.529084 0.547308
0.915824 0.502460 0.530480
0.962764 0.495275 0.525958
0.000000 0.865450 0.691811
0.041397 0.865274 0.686818
0.096789 0.864799 0.674007
0.290684 0.863068 0.646862
0.549025 0.816101 0.609735
0.769986 0.766743 0.578569
0.910692 0.740151 0.561819
0.962764 0.732976 0.557300
0.000000 0.915824 0.708654
0.041397 0.915824 0.703662
0.094214 0.915824 0.690864
0.274839 0.915824 0.663721
0.533154 0.915824 0.626605
0.754108 0.913243 0.595472
0.895662 0.888927 0.578705
0.962764 0.881693 0.574176
0.000000 0.962764 0.713267
0.041397 0.962764 0.708248
0.094151 0.962764 0.695425
0.270567 0.962764 0.668313
0.528879 0.962764 0.631138
0.749834 0.962764 0.600052
0.891399 0.961879 0.583235
0.962430 0.955198 0.578711
0.004651 0.020511 0.769193
0.072823 0.012539 0.764206
0.193996 0.000000 0.751405
0.396317 0.000000 0.724326
0.654663 0.000000 0.687140
0.854506 0.000000 0.656062
0.915824 0.000000 0.639243
0.962764 0.000000 0.634716
0.000382 0.091145 0.774333
0.068053 0.083199 0.769335
0.189276 0.062944 0.756477
0.391613 0.041397 0.729355
0.649946 0.041397 0.692201
0.852762 0.041397 0.661070
0.915824 0.041397 0.644246
0.962764 0.041397 0.639731
0.000000 0.218748 0.787136
0.056000 0.210810 0.782146
0.177158 0.190512 0.769353
0.379492 0.147500 0.742231
0.637856 0.096969 0.705079
0.848365 0.093911 0.673933
0.915824 0.093911 0.657176
0.962764 0.093911 0.652670
0.000000 0.434668 0.814477
0.041401 0.426729 0.809466
0.151553 0.406459 0.796651
0.353869 0.363449 0.769489
0.612219 0.304581 0.732385
0.833279 0.255204 0.701197
0.915824 0.228578 0.684492
0.962764 0.221442 0.679959
0.000000 0.711585 0.849601
0.041397 0.703672 0.846158
0.116476 0.683351 0.834075
0.318820 0.640357 0.806845
0.577137 0.581475 0.769746
0.798118 0.532153 0.738585
0.915824 0.505561 0.721821
0.962764 0.498381 0.717317
0.000000 0.865527 0.864582
0.041397 0.865358 0.864343
0.096166 0.864877 0.859573
0.289387 0.863380 0.838305
0.547728 0.819163 0.801056
0.768682 0.769828 0.769923
0.909665 0.743211 0.753095
0.962764 0.736052 0.748579
0.000000 0.915824 0.864923
0.041397 0.915824 0.863726
0.094194 0.915824 0.860162
0.273538 0.915824 0.849038
0.531853 0.915824 0.816953
0.752840 0.914599 0.785785
0.894359 0.892063 0.768942
0.962764 0.884841 0.764422
0.000000 0.962764 0.864946
0.041397 0.962764 0.864835
0.094127 0.962764 0.864531
0.269275 0.962764 0.856582
0.527575 0.962764 0.822461
0.748566 0.962764 0.791235
0.890102 0.962733 0.774504
0.961293 0.958305 0.769997
0.003967 0.022165 0.892911
0.072095 0.014212 0.887914
0.193287 0.000000 0.875011
0.395613 0.000000 0.847836
0.653973 0.000000 0.810719
0.854198 0.000000 0.779597
0.915824 0.000000 0.762810
0.962764 0.000000 0.758310
0.000000 0.092834 0.898040
0.067424 0.084892 0.893005
0.188607 0.064603 0.880128
0.390918 0.041397 0.852910
0.649253 0.041397 0.815737
0.852526 0.041397 0.784637
0.915824 0.041397 0.767818
0.962764 0.041397 0.763291
0.000000 0.220422 0.909709
0.055297 0.212493 0.905790
0.176485 0.192187 0.893058
0.378811 0.149176 0.865774
0.637158 0.097655 0.828644
0.848076 0.093911 0.797492
0.915824 0.093911 0.780756
0.962764 0.093911 0.776238
0.000000 0.436347 0.915803
0.041401 0.428407 0.915745
0.150861 0.408131 0.914830
0.353173 0.365052 0.893193
0.611525 0.306234 0.855965
0.832585 0.256876 0.824769
0.915824 0.230258 0.808050
0.962764 0.223097 0.803505
0.000000 0.713267 0.915824
0.041397 0.705347 0.915824
0.115786 0.685030 0.915824
0.318132 0.642008 0.915746
0.576423 0.583146 0.893424
0.797413 0.533819 0.862154
0.915824 0.507177 0.845349
0.962764 0.500026 0.840864
0.000000 0.865574 0.915824
0.041397 0.865399 0.915824
0.095857 0.864924 0.915824
0.288693 0.863566 0.915824
0.547070 0.820841 0.915570
0.768001 0.771507 0.893624
0.909109 0.744858 0.876706
0.962764 0.737664 0.872165
0.000000 0.915824 0.915824
0.041397 0.915824 0.915824
0.094180 0.915824 0.915824
0.272835 0.915824 0.915824
0.531203 0.915824 0.915777
0.752149 0.914812 0.907774
0.893658 0.893650 0.892452
0.962764 0.886523 0.887947
0.000000 0.962764 0.915824
0.041397 0.962764 0.915824
0.094117 0.962764 0.915824
0.268577 0.962764 0.915824
0.526928 0.962764 0.915824
0.747875 0.962764 0.913469
0.889385 0.962764 0.898287
0.960607 0.959967 0.893735
0.003815 0.022552 0.959626
0.071880 0.014705 0.954628
0.193158 0.000000 0.941819
0.395460 0.000000 0.914530
0.653722 0.000000 0.877428
0.854083 0.000000 0.846248
0.915824 0.000000 0.829434
0.962764 0.000000 0.825019
0.000000 0.093253 0.962727
0.067188 0.085301 0.959632
0.188353 0.065013 0.946832
0.390769 0.041397 0.919547
0.649064 0.041397 0.882415
0.852434 0.041397 0.851252
0.915824 0.041397 0.834536
0.962764 0.041397 0.829994
0.000000 0.220885 0.962764
0.055061 0.212956 0.962764
0.176263 0.192629 0.959605
0.378632 0.149606 0.932587
0.636941 0.097849 0.895332
0.847984 0.093911 0.864184
0.915824 0.093911 0.847398
0.962764 0.093911 0.842878
0.000000 0.436752 0.962764
0.041401 0.428830 0.962764
0.150675 0.408530 0.962764
0.353015 0.365532 0.959281
0.611290 0.306676 0.922638
0.832338 0.257301 0.891476
0.915824 0.230739 0.874651
0.962764 0.223522 0.870122
0.000000 0.713735 0.962764
0.041397 0.705784 0.962764
0.115567 0.685496 0.962764
0.317922 0.642437 0.962764
0.576273 0.583616 0.959336
0.797276 0.534255 0.928931
0.915824 0.507634 0.911998
0.962764 0.500501 0.907484
0.000000 0.865574 0.962764
0.041397 0.865410 0.962764
0.095810 0.864945 0.962764
0.288546 0.863613 0.962764
0.546836 0.821362 0.962764
0.767825 0.771913 0.959857
0.908905 0.745252 0.943510
0.962764 0.738156 0.938983
0.000000 0.915824 0.962764
0.041397 0.915824 0.962764
0.094173 0.915824 0.962764
0.272663 0.915824 0.962764
0.530988 0.915824 0.962764
0.751967 0.914866 0.962764
0.893521 0.894136 0.960034
0.962764 0.886943 0.955522
0.000000 0.962764 0.962764
0.041397 0.962764 0.962764
0.094116 0.962764 0.962764
0.268353 0.962764 0.962764
0.526717 0.962764 0.962764
0.747718 0.962764 0.962764
0.889212 0.962764 0.962764
0.960363 0.960363 0.960365
