Postproduction/IWLTBAP - Humble/LUTs by IWLTBAP (CUBE)/UTILITY/Generic LOG to Rec.709/U-9996-LTR.cube
# Copyright: (C) Copyright 2010-2018 by IWLTBAP SAS
# Cannot be resold, shared or otherwise redistributed
# Website: https://luts.iwltbap.com
TITLE "IWLTBAP 9996 (Utility LOG to Rec.709)"
LUT_3D_SIZE 5
DOMAIN_MIN 0.000000 0.000000 0.000000
DOMAIN_MAX 0.903226 0.903226 0.903226
0.015625 0.015625 0.015625
0.163040 0.000000 0.000000
0.579706 0.000000 0.000000
0.993298 0.000000 0.000000
1.000000 0.000000 0.000000
0.000000 0.176826 0.043226
0.137031 0.133155 0.015646
0.553735 0.013128 0.000000
0.985275 0.000000 0.000000
1.000000 0.000000 0.000000
0.000000 0.632364 0.121440
0.063605 0.588692 0.093898
0.480313 0.465511 0.016113
0.943510 0.326883 0.000000
1.000000 0.277135 0.000000
0.000000 1.000000 0.209412
0.002167 0.999940 0.181871
0.397609 0.960190 0.104064
0.863053 0.835641 0.016602
1.000000 0.785970 0.000000
0.000000 1.000000 0.240901
0.000000 1.000000 0.213357
0.367987 1.000000 0.135595
0.833401 1.000000 0.048123
0.999734 0.972719 0.016835
0.014346 0.018241 0.135771
0.161954 0.000000 0.108190
0.578543 0.000000 0.030514
0.993131 0.000000 0.000000
1.000000 0.000000 0.000000
0.000000 0.179605 0.163512
0.135962 0.135957 0.135962
0.552561 0.015039 0.058168
0.989131 0.000000 0.000040
1.000000 0.000000 0.000000
0.000000 0.635223 0.241642
0.062491 0.591552 0.214099
0.479100 0.468274 0.136412
0.946979 0.329620 0.048900
1.000000 0.279863 0.017573
0.000000 1.000000 0.329657
0.001926 1.000000 0.302100
0.396542 0.978635 0.224392
0.864116 0.842046 0.136904
1.000000 0.792411 0.105481
0.000000 1.000000 0.361230
0.000000 1.000000 0.333689
0.366921 1.000000 0.255893
0.834465 1.000000 0.168434
1.000000 0.976449 0.136998
0.011242 0.025941 0.475369
0.158804 0.000000 0.447834
0.575376 0.000000 0.370026
0.992664 0.000000 0.282580
1.000000 0.000000 0.251183
0.000000 0.187329 0.503027
0.132796 0.143657 0.475482
0.549380 0.020554 0.397707
0.988635 0.000000 0.310226
1.000000 0.000000 0.278879
0.000000 0.642893 0.581257
0.059256 0.599222 0.553716
0.475960 0.475960 0.475948
0.943745 0.337301 0.388477
1.000000 0.287563 0.357114
0.000000 1.000000 0.669238
0.001146 1.000000 0.641668
0.393358 0.984148 0.563843
0.860993 0.849741 0.476449
1.000000 0.800002 0.445031
0.000000 1.000000 0.700769
0.000000 1.000000 0.673184
0.363711 1.000000 0.595441
0.831353 1.000000 0.507970
0.999827 0.984156 0.476586
0.007638 0.034602 0.857186
0.155149 0.000000 0.829664
0.571746 0.000000 0.751997
0.992091 0.000000 0.664487
1.000000 0.000000 0.633132
0.000000 0.195980 0.884972
0.129146 0.152318 0.857434
0.545790 0.029012 0.779653
0.988064 0.000000 0.692168
1.000000 0.000000 0.660899
0.000000 0.651482 0.963292
0.055704 0.607810 0.935790
0.472354 0.484555 0.857892
0.940202 0.345937 0.770393
1.000000 0.296224 0.739057
0.000000 1.000000 1.000000
0.000367 1.000000 0.998108
0.389709 0.988934 0.946035
0.857396 0.858389 0.858392
1.000000 0.808602 0.826949
0.000000 1.000000 1.000000
0.000000 1.000000 1.000000
0.360068 1.000000 0.977642
0.827751 1.000000 0.889916
0.997182 0.992823 0.858641
0.006348 0.037598 0.994578
0.153948 0.000000 0.967056
0.570433 0.000000 0.889044
0.991808 0.000000 0.801549
1.000000 0.000000 0.770272
0.000000 0.199042 1.000000
0.127804 0.155371 0.994596
0.544461 0.032063 0.916739
0.987785 0.000000 0.829311
1.000000 0.000000 0.797888
0.000000 0.654581 1.000000
0.054374 0.610909 1.000000
0.471044 0.487624 0.994127
0.938844 0.349071 0.907479
1.000000 0.299228 0.876104
0.000000 1.000000 1.000000
0.000178 1.000000 1.000000
0.388475 0.990038 1.000000
0.856083 0.861428 0.995044
1.000000 0.811768 0.964303
0.000000 1.000000 1.000000
0.000000 1.000000 1.000000
0.358817 1.000000 1.000000
0.826461 1.000000 1.000000
0.995838 0.995838 0.995838
