Postproduction/IWLTBAP - Humble/LUTs by IWLTBAP (CUBE)/UTILITY/Generic LOG to Rec.709/U-9990-LTR.cube
# Copyright: (C) Copyright 2010-2018 by IWLTBAP SAS
# Cannot be resold, shared or otherwise redistributed
# Website: https://luts.iwltbap.com
TITLE "IWLTBAP 9990 (Utility LOG to Rec.709)"
LUT_3D_SIZE 32
0.000000 0.000000 0.000000
0.000214 0.000000 0.000000
0.011414 0.000000 0.000000
0.041534 0.000000 0.000000
0.067108 0.000000 0.000000
0.097839 0.000000 0.000000
0.136444 0.000000 0.000000
0.178619 0.000000 0.000000
0.222900 0.000000 0.000000
0.268707 0.000000 0.000000
0.315887 0.000000 0.000000
0.364502 0.000000 0.000000
0.414124 0.000000 0.000000
0.464661 0.000000 0.000000
0.515900 0.000000 0.000000
0.567322 0.000000 0.000000
0.618805 0.000000 0.000000
0.669800 0.000000 0.000000
0.720612 0.000000 0.000000
0.771942 0.000000 0.000000
0.823395 0.000000 0.000000
0.870148 0.000000 0.000000
0.908539 0.000000 0.000000
0.945343 0.000000 0.000000
0.980011 0.000000 0.000000
0.997559 0.000000 0.000000
1.000000 0.000000 0.000000
1.000000 0.000000 0.000000
1.000000 0.000000 0.000000
1.000000 0.000000 0.000000
1.000000 0.000000 0.000000
1.000000 0.000000 0.000000
0.000000 0.000092 0.000000
0.000000 0.000000 0.000000
0.005432 0.000000 0.000000
0.034515 0.000000 0.000000
0.058807 0.000000 0.000000
0.087555 0.000000 0.000000
0.124115 0.000000 0.000000
0.164429 0.000000 0.000000
0.207520 0.000000 0.000000
0.252350 0.000000 0.000000
0.298798 0.000000 0.000000
0.346375 0.000000 0.000000
0.394958 0.000000 0.000000
0.444061 0.000000 0.000000
0.493317 0.000000 0.000000
0.543060 0.000000 0.000000
0.593903 0.000000 0.000000
0.645813 0.000000 0.000000
0.698303 0.000000 0.000000
0.751099 0.000000 0.000000
0.803864 0.000000 0.000000
0.853973 0.000000 0.000000
0.895966 0.000000 0.000000
0.933075 0.000000 0.000000
0.971558 0.000000 0.000000
0.996155 0.000000 0.000000
1.000000 0.000000 0.000000
1.000000 0.000000 0.000000
1.000000 0.000000 0.000000
1.000000 0.000000 0.000000
1.000000 0.000000 0.000000
1.000000 0.000000 0.000000
0.000000 0.004547 0.000000
0.000000 0.002319 0.000000
0.001068 0.001038 0.000000
0.027740 0.000946 0.000000
0.050415 0.000885 0.000000
0.077454 0.000732 0.000000
0.112091 0.000488 0.000000
0.151855 0.000214 0.000000
0.193817 0.000061 0.000000
0.237671 0.000031 0.000000
0.282654 0.000000 0.000000
0.328552 0.000000 0.000000
0.375702 0.000000 0.000000
0.424591 0.000000 0.000000
0.475006 0.000000 0.000000
0.526459 0.000000 0.000000
0.578796 0.000000 0.000000
0.631866 0.000000 0.000000
0.685425 0.000000 0.000000
0.739258 0.000000 0.000000
0.793243 0.000000 0.000000
0.845398 0.000000 0.000000
0.890167 0.000000 0.000000
0.928375 0.000000 0.000000
0.967926 0.000000 0.000000
0.995514 0.000000 0.000000
1.000000 0.000000 0.000000
1.000000 0.000000 0.000000
1.000000 0.000000 0.000000
1.000000 0.000000 0.000000
1.000000 0.000000 0.000000
1.000000 0.000000 0.000000
0.000000 0.030884 0.000000
0.000000 0.027344 0.000000
0.000854 0.024475 0.000000
0.022949 0.022949 0.000000
0.045502 0.022339 0.000000
0.071381 0.020538 0.000000
0.104309 0.016235 0.000000
0.142426 0.010101 0.000000
0.182800 0.003693 0.000000
0.225250 0.001129 0.000000
0.270020 0.000488 0.000000
0.316925 0.000183 0.000000
0.365570 0.000092 0.000000
0.415710 0.000031 0.000000
0.467041 0.000000 0.000000
0.519562 0.000000 0.000000
0.572937 0.000000 0.000000
0.626923 0.000000 0.000000
0.681366 0.000000 0.000000
0.736267 0.000000 0.000000
0.791351 0.000000 0.000000
0.844971 0.000000 0.000000
0.891663 0.000000 0.000000
0.930756 0.000000 0.000000
0.969452 0.000000 0.000000
0.995697 0.000000 0.000000
1.000000 0.000000 0.000000
1.000000 0.000000 0.000000
1.000000 0.000000 0.000000
1.000000 0.000000 0.000000
1.000000 0.000000 0.000000
1.000000 0.000000 0.000000
0.000000 0.052979 0.000000
0.000000 0.049011 0.000000
0.000580 0.045410 0.000000
0.020172 0.043274 0.000000
0.042145 0.042114 0.000000
0.066406 0.039429 0.000000
0.098145 0.034851 0.000000
0.136444 0.029144 0.000000
0.178436 0.022827 0.000000
0.222656 0.016052 0.000000
0.268921 0.009247 0.000000
0.316864 0.004364 0.000000
0.366455 0.002441 0.000000
0.417389 0.001373 0.000000
0.469482 0.000671 0.000000
0.522583 0.000397 0.000000
0.576782 0.000305 0.000000
0.631744 0.000214 0.000000
0.687073 0.000061 0.000000
0.742645 0.000000 0.000000
0.798340 0.000000 0.000000
0.852417 0.000000 0.000000
0.899200 0.000000 0.000000
0.938446 0.000000 0.000000
0.975372 0.000000 0.000000
0.996674 0.000000 0.000000
1.000000 0.000000 0.000000
1.000000 0.000000 0.000000
1.000000 0.000000 0.000000
1.000000 0.000000 0.000000
1.000000 0.000000 0.000000
1.000000 0.000000 0.000000
0.000000 0.073914 0.000000
0.000000 0.069366 0.000000
0.000214 0.064667 0.000000
0.012604 0.062347 0.000000
0.034912 0.061646 0.000000
0.060577 0.060425 0.000000
0.093079 0.057373 0.000000
0.132233 0.052917 0.000000
0.175262 0.047699 0.000000
0.220520 0.041931 0.000000
0.267792 0.035828 0.000000
0.316833 0.029572 0.000000
0.367554 0.023071 0.000000
0.419678 0.016724 0.000000
0.472961 0.011536 0.000000
0.527344 0.008453 0.000000
0.582367 0.006439 0.000000
0.637878 0.004364 0.000000
0.693878 0.002411 0.000000
0.749969 0.001312 0.000000
0.805939 0.000946 0.000000
0.860291 0.000793 0.000000
0.907318 0.000763 0.000000
0.946564 0.000763 0.000000
0.981567 0.000763 0.000000
0.997742 0.000732 0.000000
1.000000 0.000702 0.000000
1.000000 0.000671 0.000000
1.000000 0.000641 0.000000
1.000000 0.000580 0.000000
1.000000 0.000549 0.000000
1.000000 0.000488 0.000000
0.000000 0.095978 0.000000
0.000000 0.091736 0.000000
0.000031 0.088226 0.000000
0.004211 0.086975 0.000000
0.025909 0.087311 0.000000
0.052460 0.087006 0.000000
0.085358 0.085205 0.000000
0.125061 0.081848 0.000000
0.169067 0.077393 0.000000
0.215607 0.072662 0.000000
0.264099 0.067627 0.000000
0.314484 0.062469 0.000000
0.366547 0.057129 0.000000
0.419830 0.051666 0.000000
0.473969 0.046021 0.000000
0.529022 0.040222 0.000000
0.584808 0.034363 0.000000
0.641174 0.028503 0.000000
0.697876 0.022919 0.000000
0.754639 0.017914 0.000000
0.811188 0.014771 0.000000
0.866302 0.012787 0.000000
0.914490 0.011719 0.000000
0.954041 0.011810 0.000000
0.987305 0.011658 0.000000
0.998749 0.011230 0.000000
1.000000 0.010864 0.000000
1.000000 0.010315 0.000000
1.000000 0.009857 0.000000
1.000000 0.009308 0.000000
1.000000 0.008728 0.000000
1.000000 0.008301 0.000000
0.000000 0.123444 0.000000
0.000000 0.119873 0.000000
0.000000 0.117157 0.000000
0.000793 0.116455 0.000000
0.015137 0.117859 0.000000
0.042267 0.118652 0.000000
0.075714 0.117889 0.000000
0.115814 0.115723 0.000000
0.160797 0.112457 0.000000
0.208710 0.108551 0.000000
0.258484 0.104401 0.000000
0.309875 0.099854 0.000000
0.362793 0.095123 0.000000
0.416931 0.090088 0.000000
0.471924 0.084930 0.000000
0.527924 0.079559 0.000000
0.584473 0.074127 0.000000
0.641571 0.068695 0.000000
0.699066 0.063354 0.000000
0.756439 0.058075 0.000000
0.813629 0.052826 0.000000
0.869690 0.047913 0.000000
0.919556 0.045044 0.000000
0.960022 0.044800 0.000000
0.991730 0.044464 0.000000
0.999603 0.043549 0.000000
1.000000 0.042542 0.000000
1.000000 0.041412 0.000000
1.000000 0.040497 0.000000
1.000000 0.039459 0.000000
1.000000 0.038452 0.000000
1.000000 0.037659 0.000000
0.000000 0.154846 0.000000
0.000000 0.151947 0.000000
0.000000 0.150269 0.000000
0.000214 0.150360 0.000000
0.005737 0.152679 0.000000
0.032257 0.154602 0.000000
0.066010 0.155060 0.000000
0.105927 0.153961 0.000000
0.151459 0.151398 0.000000
0.199799 0.148193 0.000000
0.250336 0.144562 0.000000
0.302399 0.140656 0.000000
0.355835 0.136292 0.000000
0.410492 0.131653 0.000000
0.466309 0.126709 0.000000
0.522919 0.121613 0.000000
0.580261 0.116425 0.000000
0.638031 0.111176 0.000000
0.696136 0.105927 0.000000
0.754272 0.100708 0.000000
0.812378 0.095673 0.000000
0.869598 0.090851 0.000000
0.921387 0.087738 0.000000
0.963165 0.087463 0.000000
0.993835 0.087372 0.000000
1.000000 0.086578 0.000000
1.000000 0.085754 0.000000
1.000000 0.084900 0.000000
1.000000 0.083984 0.000000
1.000000 0.083038 0.000000
1.000000 0.082184 0.000000
1.000000 0.081512 0.000000
0.000000 0.190277 0.000000
0.000000 0.187988 0.000000
0.000000 0.187286 0.000000
0.000061 0.188293 0.000000
0.002136 0.191223 0.000000
0.022675 0.193817 0.000000
0.056580 0.194946 0.000000
0.095917 0.194733 0.000000
0.141357 0.192871 0.000000
0.190247 0.190216 0.000000
0.240967 0.187073 0.000000
0.293396 0.183350 0.000000
0.347107 0.179413 0.000000
0.402191 0.175079 0.000000
0.458313 0.170502 0.000000
0.515411 0.165619 0.000000
0.573181 0.160706 0.000000
0.631439 0.155823 0.000000
0.690094 0.150726 0.000000
0.748810 0.145721 0.000000
0.807495 0.140869 0.000000
0.865570 0.136139 0.000000
0.919189 0.132751 0.000000
0.962799 0.132263 0.000000
0.993835 0.132446 0.000000
1.000000 0.131775 0.000000
1.000000 0.130981 0.000000
1.000000 0.130188 0.000000
1.000000 0.129242 0.000000
1.000000 0.128448 0.000000
1.000000 0.127686 0.000000
1.000000 0.126984 0.000000
0.000000 0.229126 0.000000
0.000000 0.227417 0.000000
0.000000 0.227356 0.000000
0.000000 0.228851 0.000000
0.000854 0.232147 0.000000
0.013611 0.235168 0.000000
0.047363 0.236847 0.000000
0.086029 0.237244 0.000000
0.130920 0.236023 0.000000
0.179810 0.233673 0.000000
0.230957 0.230927 0.000000
0.283508 0.227570 0.000000
0.337646 0.223846 0.000000
0.392975 0.219910 0.000000
0.449463 0.215546 0.000000
0.506836 0.211090 0.000000
0.565033 0.206512 0.000000
0.623657 0.201813 0.000000
0.682587 0.197021 0.000000
0.741760 0.192261 0.000000
0.800873 0.187622 0.000000
0.859619 0.183105 0.000000
0.914764 0.179596 0.000000
0.960327 0.178833 0.000000
0.992584 0.179260 0.000000
0.999908 0.178833 0.000000
1.000000 0.178101 0.000000
1.000000 0.177490 0.000000
1.000000 0.176636 0.000000
1.000000 0.175903 0.000000
1.000000 0.175232 0.000000
1.000000 0.174469 0.000000
0.000000 0.270416 0.000000
0.000000 0.269257 0.000000
0.000000 0.269531 0.000000
0.000000 0.271240 0.000000
0.000305 0.274750 0.000000
0.007172 0.277924 0.000000
0.037933 0.280090 0.000000
0.076050 0.281036 0.000000
0.120117 0.280457 0.000000
0.169067 0.278503 0.000000
0.220123 0.275879 0.000000
0.273132 0.273071 0.000000
0.327423 0.269714 0.000000
0.383026 0.265961 0.000000
0.439728 0.262054 0.000000
0.497375 0.257751 0.000000
0.555939 0.253418 0.000000
0.614929 0.248993 0.000000
0.674347 0.244415 0.000000
0.733704 0.239868 0.000000
0.793274 0.235382 0.000000
0.852478 0.231018 0.000000
0.908997 0.227356 0.000000
0.956482 0.226379 0.000000
0.989899 0.227081 0.000000
0.999542 0.226898 0.000000
1.000000 0.226349 0.000000
1.000000 0.225922 0.000000
1.000000 0.225250 0.000000
1.000000 0.224609 0.000000
1.000000 0.224091 0.000000
1.000000 0.223419 0.000000
0.000000 0.313507 0.000000
0.000000 0.312531 0.000000
0.000000 0.313110 0.000000
0.000000 0.315094 0.000000
0.000122 0.318817 0.000000
0.003815 0.322205 0.000000
0.028107 0.324799 0.000000
0.065918 0.326263 0.000000
0.109192 0.326172 0.000000
0.157806 0.324738 0.000000
0.209229 0.322449 0.000000
0.262177 0.319672 0.000000
0.316772 0.316742 0.000000
0.372498 0.313293 0.000000
0.429504 0.309479 0.000000
0.487366 0.305603 0.000000
0.546143 0.301392 0.000000
0.605499 0.297180 0.000000
0.665100 0.292755 0.000000
0.724976 0.288361 0.000000
0.784760 0.284088 0.000000
0.844391 0.279907 0.000000
0.902069 0.276276 0.000000
0.951721 0.274963 0.000000
0.986298 0.275940 0.000000
0.998871 0.275909 0.000000
1.000000 0.275604 0.000000
1.000000 0.275269 0.000000
1.000000 0.274780 0.000000
1.000000 0.274261 0.000000
1.000000 0.273895 0.000000
1.000000 0.273346 0.000000
0.000000 0.357910 0.000000
0.000000 0.357086 0.000000
0.000000 0.357941 0.000000
0.000000 0.360168 0.000000
0.000031 0.364136 0.000000
0.001587 0.367676 0.000000
0.018616 0.370575 0.000000
0.055847 0.372528 0.000000
0.098083 0.373047 0.000000
0.146362 0.371948 0.000000
0.197815 0.370087 0.000000
0.251007 0.367706 0.000000
0.305573 0.364777 0.000000
0.361694 0.361694 0.000000
0.418823 0.358124 0.000000
0.476990 0.354248 0.000000
0.535889 0.350403 0.000000
0.595367 0.346283 0.000000
0.655334 0.342194 0.000000
0.715515 0.338013 0.000000
0.775696 0.333832 0.000000
0.835663 0.329803 0.000000
0.894226 0.326202 0.000000
0.946075 0.324493 0.000000
0.982483 0.325439 0.000000
0.998230 0.325775 0.000000
1.000000 0.325653 0.000000
1.000000 0.325409 0.000000
1.000000 0.325104 0.000000
1.000000 0.324707 0.000000
1.000000 0.324371 0.000000
1.000000 0.323944 0.000000
0.000000 0.403503 0.000000
0.000000 0.402832 0.000000
0.000000 0.403839 0.000000
0.000000 0.406433 0.000000
0.000000 0.410553 0.000000
0.000671 0.414185 0.000000
0.011444 0.417206 0.000000
0.045593 0.419678 0.000000
0.087128 0.420746 0.000000
0.134583 0.420197 0.000000
0.186066 0.418579 0.000000
0.239410 0.416412 0.000000
0.294189 0.413757 0.000000
0.350250 0.410828 0.000000
0.407684 0.407654 0.000000
0.466003 0.404053 0.000000
0.525269 0.400269 0.000000
0.584991 0.396423 0.000000
0.645172 0.392487 0.000000
0.705658 0.388489 0.000000
0.766083 0.384491 0.000000
0.826477 0.380524 0.000000
0.885742 0.376892 0.000000
0.939545 0.374756 0.000000
0.978546 0.375549 0.000000
0.997559 0.376343 0.000000
1.000000 0.376343 0.000000
1.000000 0.376251 0.000000
1.000000 0.376221 0.000000
1.000000 0.375946 0.000000
1.000000 0.375580 0.000000
1.000000 0.375214 0.000000
0.000000 0.450287 0.000000
0.000000 0.449799 0.000000
0.000000 0.451080 0.000000
0.000000 0.453796 0.000000
0.000000 0.458069 0.000000
0.000336 0.461853 0.000000
0.007019 0.464874 0.000000
0.035339 0.467590 0.000000
0.076294 0.469208 0.000000
0.122772 0.469269 0.000000
0.174133 0.467926 0.000000
0.227478 0.466125 0.000000
0.282379 0.463715 0.000000
0.338623 0.460907 0.000000
0.396149 0.457825 0.000000
0.454651 0.454620 0.000000
0.514008 0.451141 0.000000
0.574127 0.447357 0.000000
0.634460 0.443542 0.000000
0.695251 0.439789 0.000000
0.756073 0.435791 0.000000
0.816589 0.432068 0.000000
0.876740 0.428467 0.000000
0.932343 0.425964 0.000000
0.974335 0.426331 0.000000
0.996918 0.427490 0.000000
1.000000 0.427734 0.000000
1.000000 0.427765 0.000000
1.000000 0.427795 0.000000
1.000000 0.427734 0.000000
1.000000 0.427490 0.000000
1.000000 0.427155 0.000000
0.000000 0.498047 0.000000
0.000000 0.497681 0.000000
0.000000 0.499146 0.000000
0.000000 0.502167 0.000000
0.000000 0.506592 0.000000
0.000122 0.510468 0.000000
0.003082 0.513580 0.000000
0.025543 0.516571 0.000000
0.065613 0.518524 0.000000
0.111176 0.519073 0.000000
0.161957 0.518250 0.000000
0.215485 0.516571 0.000000
0.270508 0.514496 0.000000
0.326813 0.511963 0.000000
0.384399 0.509155 0.000000
0.443054 0.506042 0.000000
0.502625 0.502625 0.000000
0.562775 0.499084 0.000000
0.623505 0.495361 0.000000
0.684326 0.491669 0.000000
0.745453 0.487915 0.000000
0.806305 0.484253 0.000000
0.867004 0.480682 0.000000
0.924194 0.477966 0.000000
0.969635 0.477875 0.000000
0.996216 0.479248 0.000000
1.000000 0.479675 0.000000
1.000000 0.479828 0.000000
1.000000 0.479950 0.000000
1.000000 0.479950 0.000000
1.000000 0.479889 0.000000
1.000000 0.479645 0.000000
0.000000 0.546509 0.000000
0.000000 0.546448 0.000000
0.000000 0.548096 0.000000
0.000000 0.551300 0.000000
0.000000 0.555969 0.000000
0.000000 0.559906 0.000000
0.001404 0.563080 0.000000
0.017426 0.566132 0.000000
0.055359 0.568542 0.000000
0.099701 0.569611 0.000000
0.149902 0.569092 0.000000
0.203339 0.567688 0.000000
0.258453 0.565765 0.000000
0.314880 0.563568 0.000000
0.372559 0.560883 0.000000
0.431396 0.557983 0.000000
0.490997 0.554779 0.000000
0.551361 0.551361 0.000000
0.612213 0.547852 0.000000
0.673248 0.544159 0.000000
0.734497 0.540405 0.000000
0.795746 0.536865 0.000000
0.856659 0.533325 0.000000
0.915192 0.530518 0.000000
0.964233 0.529999 0.000000
0.994904 0.531586 0.000000
1.000000 0.532074 0.000000
1.000000 0.532288 0.000000
1.000000 0.532532 0.000000
1.000000 0.532562 0.000000
1.000000 0.532562 0.000000
1.000000 0.532501 0.000000
0.000000 0.595764 0.000000
0.000000 0.596039 0.000000
0.000000 0.597778 0.000000
0.000000 0.601074 0.000000
0.000000 0.605896 0.000000
0.000000 0.610016 0.000000
0.000763 0.613220 0.000000
0.011871 0.616272 0.000000
0.045349 0.619110 0.000000
0.088776 0.620758 0.000000
0.138062 0.620697 0.000000
0.191284 0.619507 0.000000
0.246399 0.617706 0.000000
0.302826 0.615601 0.000000
0.360443 0.613190 0.000000
0.419373 0.610382 0.000000
0.479187 0.607300 0.000000
0.539673 0.604034 0.000000
0.600708 0.600708 0.000000
0.661987 0.597198 0.000000
0.723297 0.593475 0.000000
0.784821 0.589874 0.000000
0.846008 0.586578 0.000000
0.905548 0.583496 0.000000
0.957703 0.582581 0.000000
0.991913 0.584259 0.000000
0.999847 0.584869 0.000000
1.000000 0.585144 0.000000
1.000000 0.585480 0.000000
1.000000 0.585480 0.000000
1.000000 0.585602 0.000000
1.000000 0.585602 0.000000
0.000000 0.645782 0.000000
0.000000 0.646240 0.000000
0.000000 0.648102 0.000000
0.000000 0.651581 0.000000
0.000000 0.656525 0.000000
0.000000 0.660706 0.000000
0.000397 0.663971 0.000000
0.007324 0.667053 0.000000
0.035431 0.670013 0.000000
0.078156 0.672119 0.000000
0.126404 0.672668 0.000000
0.179382 0.671783 0.000000
0.234497 0.670227 0.000000
0.290863 0.668274 0.000000
0.348419 0.665955 0.000000
0.407288 0.663208 0.000000
0.467224 0.660339 0.000000
0.527924 0.657166 0.000000
0.589081 0.653870 0.000000
0.650574 0.650574 0.000000
0.712219 0.647003 0.000000
0.773590 0.643494 0.000000
0.835144 0.640045 0.000000
0.895538 0.636932 0.000000
0.950073 0.635376 0.000000
0.987335 0.636902 0.000000
0.999329 0.637970 0.000000
1.000000 0.638336 0.000000
1.000000 0.638580 0.000000
1.000000 0.638824 0.000000
1.000000 0.639008 0.000000
1.000000 0.638977 0.000000
0.000000 0.696442 0.000000
0.000000 0.696869 0.000000
0.000000 0.699066 0.000000
0.000000 0.702667 0.000000
0.000000 0.707642 0.000000
0.000000 0.712067 0.000000
0.000092 0.715332 0.000000
0.003326 0.718414 0.000000
0.026550 0.721405 0.000000
0.068207 0.723816 0.000000
0.115112 0.724823 0.000000
0.167542 0.724335 0.000000
0.222504 0.722992 0.000000
0.279053 0.721161 0.000000
0.336700 0.719055 0.000000
0.395447 0.716583 0.000000
0.455505 0.713623 0.000000
0.516113 0.710632 0.000000
0.577454 0.707458 0.000000
0.639038 0.704193 0.000000
0.700775 0.700775 0.000000
0.762573 0.697327 0.000000
0.824005 0.693939 0.000000
0.885132 0.690704 0.000000
0.941620 0.688812 0.000000
0.982269 0.689728 0.000000
0.998627 0.691193 0.000000
1.000000 0.691620 0.000000
1.000000 0.691986 0.000000
1.000000 0.692200 0.000000
1.000000 0.692444 0.000000
1.000000 0.692413 0.000000
0.000000 0.747681 0.000000
0.000000 0.748138 0.000000
0.000000 0.750427 0.000000
0.000000 0.754150 0.000000
0.000000 0.759125 0.000000
0.000000 0.763641 0.000000
0.000000 0.767090 0.000000
0.001770 0.770172 0.000000
0.019775 0.773285 0.000000
0.058807 0.775940 0.000000
0.104553 0.777283 0.000000
0.155914 0.777161 0.000000
0.210754 0.776062 0.000000
0.267273 0.774506 0.000000
0.325012 0.772491 0.000000
0.383820 0.770172 0.000000
0.443634 0.767334 0.000000
0.504364 0.764374 0.000000
0.565765 0.761322 0.000000
0.627441 0.758118 0.000000
0.689453 0.754730 0.000000
0.751221 0.751251 0.000000
0.813141 0.747894 0.000000
0.874420 0.744781 0.000000
0.932556 0.742432 0.000000
0.976959 0.742767 0.000000
0.997925 0.744446 0.000000
1.000000 0.745026 0.000000
1.000000 0.745514 0.000000
1.000000 0.745728 0.000000
1.000000 0.745911 0.000000
1.000000 0.746002 0.000000
0.000000 0.799194 0.000000
0.000000 0.799927 0.000000
0.000000 0.802246 0.000000
0.000000 0.805969 0.000000
0.000000 0.811096 0.000000
0.000000 0.815552 0.000000
0.000000 0.819061 0.000000
0.001129 0.822174 0.000000
0.014923 0.825287 0.000000
0.049988 0.828278 0.000000
0.094543 0.829956 0.000000
0.144897 0.830231 0.000000
0.199402 0.829376 0.000000
0.255768 0.827911 0.000000
0.313477 0.826111 0.000000
0.372284 0.823822 0.000000
0.432129 0.821167 0.000000
0.492828 0.818176 0.000000
0.554169 0.815216 0.000000
0.616028 0.812103 0.000000
0.678070 0.808777 0.000000
0.740143 0.805328 0.000000
0.801971 0.801971 0.000000
0.863739 0.798706 0.000000
0.923004 0.796265 0.000000
0.971313 0.795868 0.000000
0.997223 0.797668 0.000000
1.000000 0.798492 0.000000
1.000000 0.798859 0.000000
1.000000 0.799194 0.000000
1.000000 0.799225 0.000000
1.000000 0.799469 0.000000
0.000000 0.850861 0.000000
0.000000 0.851715 0.000000
0.000000 0.854218 0.000000
0.000000 0.858124 0.000000
0.000000 0.863281 0.000000
0.000000 0.867676 0.000000
0.000000 0.871155 0.000000
0.000763 0.874298 0.000000
0.010925 0.877411 0.000000
0.041962 0.880493 0.000000
0.085449 0.882721 0.000000
0.134491 0.883331 0.000000
0.188599 0.882660 0.000000
0.244720 0.881470 0.000000
0.302338 0.879730 0.000000
0.361023 0.877533 0.000000
0.420746 0.874969 0.000000
0.481506 0.872131 0.000000
0.542938 0.869141 0.000000
0.604706 0.866089 0.000000
0.666718 0.862762 0.000000
0.728912 0.859436 0.000000
0.791046 0.856110 0.000000
0.852814 0.852844 0.000000
0.913086 0.849884 0.000000
0.965149 0.849060 0.000000
0.996216 0.850922 0.000000
1.000000 0.851715 0.000000
1.000000 0.852264 0.000000
1.000000 0.852386 0.000000
1.000000 0.852661 0.000000
1.000000 0.852783 0.000000
0.000000 0.901550 0.000000
0.000000 0.902679 0.000000
0.000000 0.905304 0.000000
0.000000 0.909424 0.000000
0.000000 0.914520 0.000000
0.000000 0.918854 0.000000
0.000000 0.922363 0.000000
0.000610 0.925568 0.000000
0.008942 0.928619 0.000000
0.037506 0.931702 0.000000
0.079926 0.934296 0.000000
0.127350 0.935547 0.000000
0.180298 0.935242 0.000000
0.236145 0.934143 0.000000
0.293304 0.932648 0.000000
0.351624 0.930573 0.000000
0.411072 0.928223 0.000000
0.471497 0.925598 0.000000
0.532776 0.922729 0.000000
0.594482 0.919739 0.000000
0.656372 0.916351 0.000000
0.718506 0.913116 0.000000
0.780518 0.909851 0.000000
0.842499 0.906494 0.000000
0.903107 0.903381 0.000000
0.958313 0.901978 0.000000
0.994141 0.903534 0.000000
0.999969 0.904694 0.000000
1.000000 0.905273 0.000000
1.000000 0.905457 0.000000
1.000000 0.905640 0.000000
1.000000 0.905853 0.000000
0.000000 0.949677 0.000000
0.000000 0.951050 0.000000
0.000000 0.953796 0.000000
0.000000 0.957672 0.000000
0.000000 0.962097 0.000000
0.000000 0.965240 0.000000
0.000000 0.967834 0.000000
0.000946 0.970337 0.000000
0.011475 0.972717 0.000000
0.041351 0.975159 0.000000
0.082855 0.977448 0.000000
0.128632 0.978821 0.000000
0.180115 0.979004 0.000000
0.235138 0.978333 0.000000
0.291718 0.977356 0.000000
0.349426 0.975983 0.000000
0.408264 0.974335 0.000000
0.468048 0.972473 0.000000
0.528595 0.970367 0.000000
0.589630 0.967987 0.000000
0.651093 0.965576 0.000000
0.712799 0.962982 0.000000
0.774414 0.960419 0.000000
0.835693 0.957855 0.000000
0.896545 0.955322 0.000000
0.953125 0.953705 0.000000
0.991913 0.954803 0.000000
0.999756 0.955994 0.000000
1.000000 0.956451 0.000000
1.000000 0.956848 0.000000
1.000000 0.956970 0.000000
1.000000 0.956970 0.000000
0.000000 0.985657 0.000000
0.000000 0.987091 0.000000
0.000000 0.989441 0.000000
0.000000 0.992554 0.000000
0.000000 0.995270 0.000000
0.000000 0.995728 0.000000
0.000000 0.996094 0.000000
0.001404 0.996460 0.000000
0.015717 0.996796 0.000000
0.049194 0.997162 0.000000
0.090546 0.997498 0.000000
0.134949 0.997803 0.000000
0.185211 0.997894 0.000000
0.239838 0.997833 0.000000
0.296143 0.997681 0.000000
0.353790 0.997528 0.000000
0.412537 0.997314 0.000000
0.471985 0.997070 0.000000
0.532135 0.996796 0.000000
0.592865 0.996460 0.000000
0.653992 0.996094 0.000000
0.715210 0.995789 0.000000
0.776489 0.995392 0.000000
0.837463 0.994995 0.000000
0.898102 0.994537 0.000000
0.955170 0.993927 0.000000
0.993958 0.994080 0.000000
0.999603 0.994354 0.000000
1.000000 0.994507 0.000000
1.000000 0.994598 0.000000
1.000000 0.994629 0.000000
1.000000 0.994629 0.000000
0.000000 0.998810 0.000000
0.000000 0.998993 0.000000
0.000000 0.999298 0.000000
0.000000 0.999664 0.000000
0.000000 1.000000 0.000000
0.000000 1.000000 0.000000
0.000000 1.000000 0.000000
0.001587 1.000000 0.000000
0.017761 1.000000 0.000000
0.053375 1.000000 0.000000
0.094727 1.000000 0.000000
0.137970 1.000000 0.000000
0.186768 1.000000 0.000000
0.240631 1.000000 0.000000
0.296753 1.000000 0.000000
0.354248 1.000000 0.000000
0.413086 1.000000 0.000000
