Postproduction/IWLTBAP - Humble/LUTs by IWLTBAP (CUBE)/UTILITY/Generic LOG to Rec.709/U-9996-LTR.cube
# Copyright: (C) Copyright 2010-2018 by IWLTBAP SAS
# Cannot be resold, shared or otherwise redistributed
# Website: https://luts.iwltbap.com
TITLE "IWLTBAP 9996 (Utility LOG to Rec.709)"
LUT_3D_SIZE 32
0.015625 0.015625 0.015625
0.028708 0.011598 0.013113
0.041684 0.007799 0.010572
0.056365 0.003531 0.007980
0.074820 0.000000 0.004383
0.098106 0.000000 0.000806
0.127290 0.000000 0.000000
0.163040 0.000000 0.000000
0.205694 0.000000 0.000000
0.254826 0.000000 0.000000
0.310365 0.000000 0.000000
0.371553 0.000000 0.000000
0.437553 0.000000 0.000000
0.507322 0.000000 0.000000
0.579706 0.000000 0.000000
0.653388 0.000000 0.000000
0.727083 0.000000 0.000000
0.799336 0.000000 0.000000
0.868997 0.000000 0.000000
0.934584 0.000000 0.000000
0.971869 0.000000 0.000000
0.993298 0.000000 0.000000
1.000000 0.000000 0.000000
1.000000 0.000000 0.000000
1.000000 0.000000 0.000000
1.000000 0.000000 0.000000
1.000000 0.000000 0.000000
1.000000 0.000000 0.000000
1.000000 0.000000 0.000000
1.000000 0.000000 0.000000
1.000000 0.000000 0.000000
1.000000 0.000000 0.000000
0.013117 0.029979 0.017893
0.026444 0.026191 0.015621
0.039419 0.022390 0.013077
0.054086 0.018004 0.010260
0.072313 0.012558 0.006894
0.095648 0.005928 0.002896
0.125026 0.000176 0.000006
0.160718 0.000023 0.000000
0.203187 0.000000 0.000000
0.252386 0.000000 0.000000
0.308013 0.000000 0.000000
0.369047 0.000000 0.000000
0.435046 0.000000 0.000000
0.504815 0.000000 0.000000
0.577314 0.000000 0.000000
0.651124 0.000000 0.000000
0.724819 0.000000 0.000000
0.797072 0.000000 0.000000
0.866600 0.000000 0.000000
0.932212 0.000000 0.000000
0.970421 0.000000 0.000000
0.992986 0.000000 0.000000
1.000000 0.000000 0.000000
1.000000 0.000000 0.000000
1.000000 0.000000 0.000000
1.000000 0.000000 0.000000
1.000000 0.000000 0.000000
1.000000 0.000000 0.000000
1.000000 0.000000 0.000000
1.000000 0.000000 0.000000
1.000000 0.000000 0.000000
1.000000 0.000000 0.000000
0.010816 0.044197 0.020444
0.024171 0.040178 0.017933
0.037121 0.036379 0.015618
0.051788 0.031991 0.012810
0.070036 0.026546 0.009400
0.093348 0.019711 0.004974
0.122748 0.011051 0.000443
0.158445 0.002269 0.000000
0.200943 0.000111 0.000000
0.250265 0.000000 0.000000
0.305804 0.000000 0.000000
0.366910 0.000000 0.000000
0.432773 0.000000 0.000000
0.502530 0.000000 0.000000
0.575026 0.000000 0.000000
0.648838 0.000000 0.000000
0.722533 0.000000 0.000000
0.794784 0.000000 0.000000
0.864300 0.000000 0.000000
0.929929 0.000000 0.000000
0.968810 0.000000 0.000000
0.992572 0.000000 0.000000
1.000000 0.000000 0.000000
1.000000 0.000000 0.000000
1.000000 0.000000 0.000000
1.000000 0.000000 0.000000
1.000000 0.000000 0.000000
1.000000 0.000000 0.000000
1.000000 0.000000 0.000000
1.000000 0.000000 0.000000
1.000000 0.000000 0.000000
1.000000 0.000000 0.000000
0.008250 0.060186 0.023258
0.021604 0.056403 0.020747
0.034539 0.052577 0.018242
0.049209 0.048189 0.015625
0.067470 0.042747 0.012214
0.090777 0.035937 0.007790
0.120171 0.027226 0.002681
0.155879 0.016518 0.000009
0.198318 0.005471 0.000000
0.247520 0.000312 0.000000
0.303166 0.000000 0.000000
0.364206 0.000000 0.000000
0.430206 0.000000 0.000000
0.499963 0.000000 0.000000
0.572438 0.000000 0.000000
0.646243 0.000000 0.000000
0.719938 0.000000 0.000000
0.792212 0.000000 0.000000
0.861735 0.000000 0.000000
0.927352 0.000000 0.000000
0.967088 0.000000 0.000000
0.992187 0.000000 0.000000
1.000000 0.000000 0.000000
1.000000 0.000000 0.000000
1.000000 0.000000 0.000000
1.000000 0.000000 0.000000
1.000000 0.000000 0.000000
1.000000 0.000000 0.000000
1.000000 0.000000 0.000000
1.000000 0.000000 0.000000
1.000000 0.000000 0.000000
1.000000 0.000000 0.000000
0.005115 0.080241 0.026670
0.018439 0.076413 0.024130
0.031192 0.072613 0.021835
0.045870 0.068225 0.019004
0.064310 0.062780 0.015611
0.087629 0.055946 0.011175
0.116841 0.047269 0.005690
0.152716 0.036570 0.000378
0.195184 0.024007 0.000000
0.244316 0.010464 0.000000
0.299855 0.000911 0.000000
0.361043 0.000074 0.000000
0.427044 0.000000 0.000000
0.496812 0.000000 0.000000
0.569236 0.000000 0.000000
0.642910 0.000000 0.000000
0.716605 0.000000 0.000000
0.788959 0.000000 0.000000
0.858599 0.000000 0.000000
0.924106 0.000000 0.000000
0.964910 0.000000 0.000000
0.991697 0.000000 0.000000
1.000000 0.000000 0.000000
1.000000 0.000000 0.000000
1.000000 0.000000 0.000000
1.000000 0.000000 0.000000
1.000000 0.000000 0.000000
1.000000 0.000000 0.000000
1.000000 0.000000 0.000000
1.000000 0.000000 0.000000
1.000000 0.000000 0.000000
1.000000 0.000000 0.000000
0.001444 0.105841 0.031093
0.014265 0.101838 0.028576
0.027219 0.098039 0.026064
0.041911 0.093651 0.023443
0.060159 0.088206 0.019846
0.083461 0.081372 0.015625
0.112843 0.072699 0.010137
0.148549 0.062169 0.003904
0.191032 0.049588 0.000106
0.240165 0.034994 0.000000
0.295700 0.018565 0.000000
0.356891 0.004282 0.000000
0.422918 0.000525 0.000000
0.492661 0.000000 0.000000
0.565130 0.000000 0.000000
0.638934 0.000000 0.000000
0.712616 0.000000 0.000000
0.784869 0.000000 0.000000
0.854442 0.000000 0.000000
0.920031 0.000000 0.000000
0.962187 0.000000 0.000000
0.990769 0.000000 0.000000
0.999979 0.000000 0.000000
1.000000 0.000000 0.000000
1.000000 0.000000 0.000000
1.000000 0.000000 0.000000
1.000000 0.000000 0.000000
1.000000 0.000000 0.000000
1.000000 0.000000 0.000000
1.000000 0.000000 0.000000
1.000000 0.000000 0.000000
1.000000 0.000000 0.000000
0.000000 0.137667 0.036583
0.009030 0.133890 0.034072
0.021978 0.130086 0.031580
0.036679 0.125698 0.028942
0.055134 0.120253 0.025361
0.078423 0.113424 0.021123
0.107602 0.104729 0.015644
0.143322 0.094002 0.009017
0.185987 0.081473 0.001883
0.235145 0.067046 0.000000
0.290667 0.050613 0.000000
0.351831 0.032454 0.000000
0.417862 0.014404 0.000000
0.487629 0.002819 0.000000
0.560023 0.000395 0.000000
0.633693 0.000000 0.000000
0.707400 0.000000 0.000000
0.779640 0.000000 0.000000
0.849314 0.000000 0.000000
0.914846 0.000000 0.000000
0.958680 0.000000 0.000000
0.988403 0.000000 0.000000
0.999392 0.000000 0.000000
1.000000 0.000000 0.000000
1.000000 0.000000 0.000000
1.000000 0.000000 0.000000
1.000000 0.000000 0.000000
1.000000 0.000000 0.000000
1.000000 0.000000 0.000000
1.000000 0.000000 0.000000
1.000000 0.000000 0.000000
1.000000 0.000000 0.000000
0.000000 0.176826 0.043226
0.003368 0.172986 0.040687
0.015667 0.169156 0.038353
0.030397 0.164796 0.035560
0.048806 0.159353 0.032152
0.072093 0.152519 0.027748
0.101305 0.143841 0.022431
0.137031 0.133155 0.015646
0.179511 0.120582 0.007773
0.228814 0.106141 0.000543
0.284354 0.089704 0.000000
0.345503 0.071580 0.000000
0.411416 0.052031 0.000000
0.481305 0.031444 0.000000
0.553735 0.013128 0.000000
0.627382 0.003366 0.000000
0.701111 0.000430 0.000000
0.773374 0.000000 0.000000
0.842989 0.000000 0.000000
0.908419 0.000000 0.000000
0.954388 0.000000 0.000000
0.985275 0.000000 0.000000
0.998520 0.000000 0.000000
1.000000 0.000000 0.000000
1.000000 0.000000 0.000000
1.000000 0.000000 0.000000
1.000000 0.000000 0.000000
1.000000 0.000000 0.000000
1.000000 0.000000 0.000000
1.000000 0.000000 0.000000
1.000000 0.000000 0.000000
1.000000 0.000000 0.000000
0.000000 0.223419 0.051289
0.000127 0.219392 0.048756
0.008104 0.215593 0.046293
0.022981 0.211206 0.043647
0.041260 0.205759 0.040072
0.064550 0.198925 0.035795
0.093745 0.190291 0.030313
0.129645 0.179770 0.023725
0.172123 0.167158 0.015649
0.221264 0.152548 0.006818
0.276787 0.136120 0.000507
0.337996 0.118004 0.000000
0.403996 0.098572 0.000000
0.473756 0.077878 0.000000
0.546204 0.056470 0.000000
0.619929 0.034674 0.000000
0.693585 0.016009 0.000000
0.765996 0.005906 0.000000
0.835522 0.000736 0.000000
0.900875 0.000000 0.000000
0.949339 0.000000 0.000000
0.981608 0.000000 0.000000
0.997505 0.000000 0.000000
1.000000 0.000000 0.000000
1.000000 0.000000 0.000000
1.000000 0.000000 0.000000
1.000000 0.000000 0.000000
1.000000 0.000000 0.000000
1.000000 0.000000 0.000000
1.000000 0.000000 0.000000
1.000000 0.000000 0.000000
1.000000 0.000000 0.000000
0.000000 0.277241 0.060456
0.000010 0.273223 0.057948
0.001407 0.269413 0.055638
0.014187 0.265028 0.052823
0.032581 0.259582 0.049420
0.055906 0.252757 0.044971
0.085122 0.244096 0.039499
0.120840 0.233579 0.032915
0.163451 0.220981 0.024981
0.212592 0.206378 0.015698
0.268117 0.189935 0.006068
0.329316 0.171783 0.000457
0.395325 0.152256 0.000000
0.465091 0.131682 0.000000
0.537525 0.110282 0.000000
0.611212 0.088500 0.000000
0.684917 0.066701 0.000000
0.757244 0.045296 0.000000
0.826873 0.024687 0.000000
0.892265 0.011898 0.000000
0.943545 0.006946 0.000000
0.977306 0.002553 0.000000
0.996343 0.000185 0.000000
1.000000 0.000000 0.000000
1.000000 0.000000 0.000000
1.000000 0.000000 0.000000
1.000000 0.000000 0.000000
1.000000 0.000000 0.000000
1.000000 0.000000 0.000000
1.000000 0.000000 0.000000
1.000000 0.000000 0.000000
1.000000 0.000000 0.000000
0.000000 0.337984 0.070854
0.000000 0.333957 0.068346
0.000101 0.330127 0.066037
0.005514 0.325767 0.063221
0.022761 0.320306 0.059810
0.046057 0.313490 0.055400
0.075401 0.304831 0.049930
0.111136 0.294312 0.043311
0.153634 0.281714 0.035433
0.202770 0.267113 0.026138
0.258295 0.250675 0.015869
0.319493 0.232513 0.005321
0.385504 0.212990 0.000392
0.455269 0.192415 0.000000
0.527703 0.171009 0.000000
0.601494 0.149224 0.000000
0.675189 0.127439 0.000000
0.747440 0.106024 0.000000
0.817038 0.085409 0.000000
0.882459 0.066014 0.000000
0.937084 0.048218 0.000000
0.972424 0.032332 0.000000
0.994957 0.020805 0.000000
1.000000 0.015417 0.000000
1.000000 0.012627 0.000000
1.000000 0.010586 0.000000
1.000000 0.009276 0.000000
1.000000 0.008457 0.000000
1.000000 0.008129 0.000000
1.000000 0.007975 0.000000
1.000000 0.007803 0.000000
1.000000 0.007663 0.000000
0.000000 0.404797 0.082282
0.000000 0.400863 0.079773
0.000000 0.397044 0.077464
0.000462 0.392675 0.074648
0.012078 0.387231 0.071263
0.035373 0.380397 0.066863
0.064548 0.371704 0.061520
0.100268 0.361145 0.054745
0.142919 0.348574 0.046883
0.192087 0.334019 0.037716
0.247626 0.317585 0.027296
0.308765 0.299420 0.015869
0.374815 0.279896 0.004648
0.444586 0.259328 0.000333
0.516995 0.237860 0.000000
0.590646 0.216046 0.000000
0.664341 0.194262 0.000000
0.736594 0.172931 0.000000
0.806255 0.152336 0.000000
0.871699 0.132920 0.000000
0.929005 0.115124 0.000000
0.966859 0.099145 0.000000
0.992649 0.085321 0.000000
0.999930 0.073849 0.000000
1.000000 0.064719 0.000000
1.000000 0.057924 0.000000
1.000000 0.053374 0.000000
1.000000 0.050707 0.000000
1.000000 0.049510 0.000000
1.000000 0.048960 0.000000
1.000000 0.048453 0.000000
1.000000 0.047957 0.000000
0.000000 0.476891 0.094669
0.000000 0.473019 0.092161
0.000000 0.469201 0.089851
0.000047 0.464830 0.087036
0.003213 0.459370 0.083625
0.023750 0.452552 0.079226
0.052934 0.443878 0.073902
0.088672 0.433220 0.067126
0.131191 0.420641 0.059249
0.180470 0.406174 0.050082
0.236009 0.389741 0.039685
0.297171 0.371640 0.028258
0.363090 0.352081 0.015941
0.432967 0.331484 0.004192
0.505351 0.310038 0.000298
0.579018 0.288140 0.000000
0.652728 0.266347 0.000000
0.724981 0.245007 0.000000
0.794641 0.224473 0.000000
0.860081 0.205075 0.000000
0.918291 0.187280 0.000000
0.960006 0.171387 0.000000
0.987998 0.157569 0.000000
0.999177 0.146014 0.000000
1.000000 0.136874 0.000000
1.000000 0.130080 0.000000
1.000000 0.125500 0.000000
1.000000 0.122835 0.000000
1.000000 0.121667 0.000000
1.000000 0.121116 0.000000
1.000000 0.120609 0.000000
1.000000 0.120112 0.000000
0.000000 0.553191 0.107814
0.000000 0.549276 0.105303
0.000000 0.545459 0.102920
0.000000 0.541088 0.100174
0.000334 0.535643 0.096710
0.011463 0.528810 0.092359
0.040641 0.520106 0.086994
0.076350 0.509532 0.080241
0.118982 0.496973 0.072312
0.168173 0.482432 0.063140
0.223701 0.465995 0.052735
0.284830 0.447859 0.041369
0.350878 0.428419 0.029054
0.420679 0.407747 0.016084
0.493063 0.386269 0.003918
0.566730 0.364538 0.000277
0.640425 0.342684 0.000000
0.712676 0.321343 0.000000
0.782258 0.300749 0.000000
0.847766 0.281340 0.000000
0.905929 0.263542 0.000000
0.951849 0.247647 0.000000
0.981847 0.233881 0.000000
0.997617 0.222318 0.000000
1.000000 0.213142 0.000000
1.000000 0.206338 0.000000
1.000000 0.201782 0.000000
1.000000 0.199119 0.000000
1.000000 0.197927 0.000000
1.000000 0.197375 0.000000
1.000000 0.196866 0.000000
1.000000 0.196370 0.000000
0.000000 0.632364 0.121440
0.000000 0.628464 0.118918
0.000000 0.624671 0.116497
0.000000 0.620394 0.113803
0.000000 0.614910 0.110274
0.002760 0.607998 0.106003
0.027910 0.599343 0.100557
0.063605 0.588692 0.093898
0.106082 0.576115 0.085892
0.155335 0.561620 0.076721
0.210878 0.545241 0.066318
0.272049 0.527150 0.054910
0.337986 0.507557 0.042709
0.407836 0.486947 0.029703
0.480313 0.465511 0.016113
0.554008 0.443667 0.003841
0.627703 0.421927 0.000280
0.699956 0.400474 0.000000
0.769485 0.379937 0.000000
0.834970 0.360640 0.000000
0.893199 0.342852 0.000000
0.943510 0.326883 0.000000
0.975434 0.313066 0.000000
0.996009 0.301588 0.000000
1.000000 0.292464 0.000000
1.000000 0.285645 0.000000
1.000000 0.280988 0.000000
1.000000 0.278410 0.000000
1.000000 0.277135 0.000000
1.000000 0.276581 0.000000
1.000000 0.276085 0.000000
1.000000 0.275674 0.000000
0.000000 0.712982 0.135159
0.000000 0.709074 0.132768
0.000000 0.705248 0.130355
0.000000 0.701009 0.127528
0.000000 0.695559 0.124155
0.000684 0.688607 0.119821
0.014949 0.679903 0.114395
0.050644 0.669310 0.107631
0.093107 0.656765 0.099754
0.142296 0.642230 0.090583
0.197827 0.625802 0.080179
0.258970 0.607757 0.068747
0.324971 0.588207 0.056467
0.394740 0.567532 0.043555
0.467240 0.546129 0.029967
0.541036 0.524356 0.016113
0.614745 0.502465 0.003938
0.686990 0.481133 0.000307
0.756518 0.460547 0.000000
0.821996 0.441188 0.000000
0.880234 0.423464 0.000000
0.932646 0.407500 0.000000
0.968631 0.393662 0.000000
0.991893 0.382202 0.000000
0.999777 0.373054 0.000000
1.000000 0.366263 0.000000
1.000000 0.361719 0.000000
1.000000 0.359033 0.000000
1.000000 0.357750 0.000000
1.000000 0.357176 0.000000
1.000000 0.356664 0.000000
1.000000 0.356292 0.000000
0.000000 0.793606 0.149020
0.000000 0.789699 0.146631
0.000000 0.785870 0.144203
0.000000 0.781510 0.141387
0.000000 0.776067 0.137997
0.000050 0.769233 0.133662
0.005688 0.760565 0.128174
0.037681 0.749935 0.121493
0.080118 0.737348 0.113612
0.129272 0.722855 0.104444
0.184901 0.706418 0.094036
0.245992 0.688327 0.082608
0.312009 0.668771 0.070237
0.381771 0.648158 0.057287
0.454278 0.626755 0.043794
0.527981 0.604967 0.029967
0.601722 0.583152 0.016237
0.674005 0.561697 0.004244
0.743534 0.541157 0.000350
0.808922 0.521756 0.000000
0.867128 0.503960 0.000000
0.919739 0.488095 0.000000
0.960492 0.474298 0.000000
0.985690 0.462720 0.000000
0.998472 0.453556 0.000000
1.000000 0.446764 0.000000
1.000000 0.442301 0.000000
1.000000 0.439549 0.000000
1.000000 0.438366 0.000000
1.000000 0.437816 0.000000
1.000000 0.437290 0.000000
1.000000 0.436793 0.000000
0.000000 0.872644 0.162611
0.000000 0.868744 0.160103
0.000000 0.864928 0.157806
0.000000 0.860556 0.154980
0.000000 0.855113 0.151581
0.000000 0.848277 0.147175
0.002395 0.839583 0.141749
0.024944 0.828972 0.135081
0.067409 0.816428 0.127205
0.116545 0.801904 0.118034
0.172084 0.785467 0.107631
0.233268 0.767322 0.096199
0.299298 0.747877 0.083819
0.369045 0.727216 0.070762
0.441558 0.705805 0.057282
0.515336 0.684018 0.043557
0.588955 0.662129 0.029835
0.661295 0.640791 0.016357
0.730824 0.620217 0.004705
0.796266 0.600801 0.000421
0.854426 0.583010 0.000000
0.906925 0.567078 0.000000
0.952151 0.553329 0.000000
0.979378 0.541784 0.000000
0.997046 0.532611 0.000000
1.000000 0.525806 0.000000
1.000000 0.521223 0.000000
1.000000 0.518598 0.000000
1.000000 0.517394 0.000000
1.000000 0.516844 0.000000
1.000000 0.516347 0.000000
1.000000 0.515851 0.000000
0.000000 0.948860 0.175696
0.000000 0.944945 0.173188
0.000000 0.941132 0.170877
0.000000 0.936744 0.168062
0.000000 0.931286 0.164651
0.000000 0.924466 0.160233
0.000270 0.915812 0.154833
0.013103 0.905143 0.148152
0.055134 0.892473 0.140275
0.104355 0.877956 0.131109
0.159895 0.861523 0.120711
0.221013 0.843430 0.109283
0.286972 0.823903 0.096895
0.356807 0.803266 0.083843
0.429280 0.781860 0.070369
0.503037 0.760074 0.056643
0.576716 0.738257 0.042913
0.648969 0.716810 0.029436
0.718498 0.696256 0.016387
0.783992 0.676970 0.005257
0.842216 0.659087 0.000478
0.894673 0.643212 0.000000
0.941168 0.629401 0.000000
0.972790 0.617801 0.000000
0.992573 0.608786 0.000000
0.999739 0.601998 0.000000
1.000000 0.597340 0.000000
1.000000 0.594621 0.000000
1.000000 0.593450 0.000000
1.000000 0.592899 0.000000
1.000000 0.592390 0.000000
1.000000 0.591894 0.000000
0.000000 0.985677 0.187941
0.000000 0.982900 0.185422
0.000000 0.980227 0.183141
0.000000 0.977271 0.180326
0.000000 0.973468 0.176928
0.000000 0.968823 0.172627
0.000000 0.962956 0.167090
0.006541 0.955738 0.160416
0.043599 0.947020 0.152539
0.092825 0.936966 0.143364
0.148352 0.925641 0.132954
0.209536 0.911766 0.121517
0.275471 0.893667 0.109224
0.345237 0.872956 0.096250
0.417814 0.851555 0.082682
0.491439 0.829759 0.068899
0.565176 0.807974 0.055161
0.637480 0.786569 0.041692
0.707009 0.765959 0.028726
0.772365 0.746690 0.016493
0.830573 0.728832 0.006079
0.883139 0.712940 0.000573
0.929679 0.699189 0.000000
0.965530 0.687538 0.000000
0.986814 0.678537 0.000000
0.998608 0.671791 0.000000
1.000000 0.667119 0.000000
1.000000 0.664333 0.000000
1.000000 0.663134 0.000000
1.000000 0.662584 0.000000
1.000000 0.662076 0.000000
1.000000 0.661580 0.000000
0.000000 0.996358 0.199325
0.000000 0.995661 0.196794
0.000000 0.994963 0.194355
0.000000 0.994268 0.191651
0.000000 0.993288 0.188157
0.000000 0.992141 0.183932
0.000000 0.990719 0.178437
0.004214 0.988340 0.171731
0.033025 0.983339 0.163746
0.082266 0.975999 0.154575
0.137730 0.967686 0.144170
0.198831 0.958478 0.132816
0.264851 0.946759 0.120537
0.334612 0.932754 0.107558
0.407120 0.915228 0.093970
0.480900 0.894080 0.080208
0.554543 0.872285 0.066425
0.626859 0.850880 0.052907
0.696387 0.830265 0.039960
0.761848 0.811005 0.027807
0.820014 0.793147 0.016602
0.872494 0.777252 0.007026
0.918933 0.763511 0.000652
0.957475 0.752002 0.000000
0.981291 0.742865 0.000000
0.996241 0.736099 0.000000
0.999905 0.731434 0.000000
1.000000 0.728640 0.000000
1.000000 0.727448 0.000000
1.000000 0.726899 0.000000
1.000000 0.726402 0.000000
1.000000 0.725886 0.000000
0.000000 1.000000 0.209412
0.000000 1.000000 0.206903
0.000000 1.000000 0.204524
0.000000 1.000000 0.201777
0.000000 1.000000 0.198300
0.000000 1.000000 0.193927
0.000000 1.000000 0.188456
0.002167 0.999940 0.181871
0.023481 0.998887 0.173922
0.072751 0.996615 0.164749
0.128301 0.994019 0.154343
0.189335 0.989818 0.142919
0.255346 0.981787 0.130617
0.325105 0.971357 0.117558
0.397609 0.960190 0.104064
0.471420 0.946512 0.090300
0.545110 0.929669 0.076618
0.617363 0.909416 0.063078
0.686892 0.888795 0.050014
0.752365 0.869403 0.037819
0.810603 0.851638 0.026607
0.863053 0.835641 0.016602
0.909384 0.821878 0.007979
0.948396 0.810400 0.001873
0.975833 0.801260 0.000135
0.992092 0.794457 0.000000
0.999433 0.789800 0.000000
1.000000 0.787161 0.000000
1.000000 0.785970 0.000000
1.000000 0.785411 0.000000
1.000000 0.784912 0.000000
1.000000 0.784416 0.000000
0.000000 1.000000 0.218112
0.000000 1.000000 0.215604
0.000000 1.000000 0.213324
0.000000 1.000000 0.210482
0.000000 1.000000 0.207098
0.000000 1.000000 0.202696
0.000000 1.000000 0.197288
0.000401 1.000000 0.190599
0.015251 1.000000 0.182723
0.064397 1.000000 0.173547
0.119990 1.000000 0.163137
0.181110 0.999849 0.151700
0.247141 0.998321 0.139339
0.316897 0.995375 0.126280
0.389410 0.989186 0.112799
0.463206 0.979174 0.099082
0.536895 0.967993 0.085344
0.609138 0.955298 0.071875
0.678667 0.938905 0.058787
0.744160 0.920246 0.046540
0.802385 0.902313 0.035329
0.854842 0.886439 0.025323
0.901189 0.872651 0.016602
0.940202 0.861189 0.009376
0.970670 0.852042 0.004144
0.987890 0.845254 0.000930
0.998577 0.840597 0.000049
0.999992 0.837852 0.000000
1.000000 0.836678 0.000000
1.000000 0.836127 0.000000
1.000000 0.835601 0.000000
1.000000 0.835105 0.000000
0.000000 1.000000 0.225361
0.000000 1.000000 0.223009
0.000000 1.000000 0.220542
0.000000 1.000000 0.217727
0.000000 1.000000 0.214361
0.000000 1.000000 0.210058
0.000000 1.000000 0.204593
0.000018 1.000000 0.197817
0.010989 1.000000 0.189940
0.057668 1.000000 0.180773
0.113208 1.000000 0.170376
0.174320 1.000000 0.159017
0.240238 1.000000 0.146742
0.310078 1.000000 0.133684
0.382579 0.999666 0.120110
0.456302 0.997496 0.106304
0.529993 0.992231 0.092577
0.602234 0.982958 0.079096
0.671763 0.972254 0.066141
0.737252 0.960794 0.053941
0.795479 0.944966 0.042737
0.847933 0.928861 0.032725
0.894277 0.915056 0.024004
0.933289 0.903578 0.016625
0.964285 0.894454 0.010932
0.984191 0.887660 0.006628
0.995754 0.882978 0.004040
0.999819 0.880375 0.002785
1.000000 0.879175 0.002199
1.000000 0.878625 0.002000
1.000000 0.878129 0.001815
1.000000 0.877602 0.001449
0.000000 1.000000 0.231222
0.000000 1.000000 0.228748
0.000000 1.000000 0.226404
0.000000 1.000000 0.223588
0.000000 1.000000 0.220185
0.000000 1.000000 0.215792
0.000000 1.000000 0.210302
0.000000 1.000000 0.203680
0.009325 1.000000 0.195807
0.052196 1.000000 0.186628
0.107773 1.000000 0.176221
0.168856 1.000000 0.164791
0.234810 1.000000 0.152471
0.304581 1.000000 0.139421
0.377124 1.000000 0.125934
0.450874 1.000000 0.112164
0.524577 0.999762 0.098427
0.596830 0.998274 0.084957
0.666359 0.992860 0.071896
0.731829 0.984182 0.059685
0.790067 0.974682 0.048459
0.842514 0.962355 0.038462
0.888851 0.949059 0.029746
0.927703 0.937581 0.022494
0.958836 0.928291 0.016787
0.980900 0.921478 0.012490
0.993036 0.916824 0.009508
0.999449 0.914043 0.007813
1.000000 0.912868 0.007157
1.000000 0.912317 0.006683
1.000000 0.911821 0.006407
1.000000 0.911325 0.006101
0.000000 1.000000 0.235578
0.000000 1.000000 0.233066
0.000000 1.000000 0.230577
0.000000 1.000000 0.227945
0.000000 1.000000 0.224533
0.000000 1.000000 0.220110
0.000000 1.000000 0.214620
0.000000 1.000000 0.208034
0.008414 1.000000 0.200099
0.048226 1.000000 0.190863
0.103791 1.000000 0.180593
0.164851 1.000000 0.169166
0.230760 1.000000 0.156778
0.300527 1.000000 0.143715
0.373029 1.000000 0.130251
0.446825 1.000000 0.116532
0.520516 1.000000 0.102795
0.592757 1.000000 0.089324
0.662286 0.999739 0.076240
0.727779 0.998430 0.063976
0.786020 0.991887 0.052781
0.838461 0.983759 0.042768
0.884808 0.973865 0.034037
0.923638 0.962891 0.026819
0.954756 0.953748 0.020976
0.977990 0.946919 0.016827
0.991068 0.942242 0.013840
0.998600 0.939641 0.012131
0.999974 0.938450 0.011300
1.000000 0.937897 0.010980
1.000000 0.937395 0.010728
1.000000 0.936898 0.010480
0.000000 1.000000 0.238384
0.000000 1.000000 0.236066
0.000000 1.000000 0.233523
0.000000 1.000000 0.230751
0.000000 1.000000 0.227386
0.000000 1.000000 0.223115
0.000000 1.000000 0.217577
0.000000 1.000000 0.210842
0.007774 1.000000 0.202967
0.045501 1.000000 0.193772
0.101041 1.000000 0.183400
0.162147 1.000000 0.171973
0.228003 1.000000 0.159679
0.297852 1.000000 0.146735
0.370361 1.000000 0.133156
0.444072 1.000000 0.119326
0.517764 1.000000 0.105602
0.590004 1.000000 0.092119
0.659533 1.000000 0.079172
0.725024 1.000000 0.067007
0.783250 0.999654 0.055785
0.835705 0.995750 0.045625
0.882051 0.989378 0.037013
0.920886 0.980229 0.029653
0.951999 0.971286 0.023939
0.975312 0.964472 0.019623
0.989563 0.959992 0.016829
0.997361 0.957249 0.015132
0.999887 0.956073 0.014284
1.000000 0.955495 0.013982
1.000000 0.954996 0.013729
1.000000 0.954500 0.013287
0.000000 1.000000 0.240048
0.000000 1.000000 0.237776
0.000000 1.000000 0.235232
0.000000 1.000000 0.232415
0.000000 1.000000 0.229050
0.000000 1.000000 0.224821
0.000000 1.000000 0.219286
0.000000 1.000000 0.212505
0.007383 1.000000 0.204648
0.043831 1.000000 0.195461
0.099371 1.000000 0.185064
0.160554 1.000000 0.173707
0.226542 1.000000 0.161476
0.296314 1.000000 0.148445
0.368741 1.000000 0.134862
0.442409 1.000000 0.121000
0.516091 1.000000 0.107265
