Postproduction/IWLTBAP - Humble/LUTs by IWLTBAP (CUBE)/UTILITY/Generic LOG to Rec.709/U-9997-LTR.cube
# Copyright: (C) Copyright 2010-2018 by IWLTBAP SAS
# Cannot be resold, shared or otherwise redistributed
# Website: https://luts.iwltbap.com
TITLE "IWLTBAP 9997 (Utility LOG to Rec.709)"
LUT_3D_SIZE 8
DOMAIN_MIN 0.000000 0.000000 0.000000
DOMAIN_MAX 0.903226 0.903226 0.903226
0.000000 0.000000 0.000000
0.056143 0.000000 0.000000
0.143119 0.000000 0.000000
0.279159 0.000000 0.000000
0.483349 0.000000 0.000000
0.678063 0.000000 0.000000
0.817718 0.000000 0.000000
0.927500 0.000000 0.000000
0.000000 0.056143 0.000000
0.056143 0.056143 0.000000
0.143119 0.056143 0.000000
0.279159 0.056143 0.000000
0.483349 0.056143 0.000000
0.678063 0.056125 0.000000
0.817718 0.056087 0.000000
0.927500 0.056143 0.000000
0.000000 0.143119 0.000000
0.056143 0.143119 0.000000
0.143119 0.143119 0.000000
0.279159 0.143119 0.000000
0.483349 0.143131 0.000000
0.678063 0.143116 0.000000
0.817718 0.143065 0.000000
0.927500 0.143072 0.000000
0.000000 0.279159 0.000000
0.056143 0.279159 0.000000
0.143119 0.279159 0.000000
0.279159 0.279159 0.000000
0.483349 0.279149 0.000000
0.678063 0.279166 0.000000
0.817718 0.279171 0.000000
0.927500 0.279149 0.000000
0.000000 0.483349 0.000000
0.056143 0.483349 0.000000
0.143131 0.483349 0.000000
0.279149 0.483349 0.000000
0.483349 0.483349 0.000000
0.678063 0.483304 0.000000
0.817718 0.483304 0.000000
0.927500 0.483317 0.000000
0.000000 0.678063 0.000000
0.056125 0.678063 0.000000
0.143116 0.678063 0.000000
0.279166 0.678063 0.000000
0.483304 0.678063 0.000000
0.678063 0.678063 0.000000
0.817718 0.678011 0.000000
0.927500 0.678072 0.000000
0.000000 0.817718 0.000000
0.056087 0.817718 0.000000
0.143065 0.817718 0.000000
0.279171 0.817718 0.000000
0.483304 0.817718 0.000000
0.678011 0.817718 0.000000
0.817718 0.817718 0.000000
0.927500 0.817775 0.000000
0.000000 0.927500 0.000000
0.056143 0.927500 0.000000
0.143072 0.927500 0.000000
0.279149 0.927500 0.000000
0.483317 0.927500 0.000000
0.678072 0.927500 0.000000
0.817775 0.927500 0.000000
0.927503 0.927503 0.000000
0.000000 0.000000 0.056143
0.056143 0.000000 0.056143
0.143119 0.000000 0.056143
0.279159 0.000000 0.056143
0.483349 0.000000 0.056143
0.678063 0.000000 0.056125
0.817718 0.000000 0.056087
0.927500 0.000000 0.056143
0.000000 0.056143 0.056143
0.056081 0.056105 0.056105
0.147613 0.051674 0.051674
0.292515 0.042852 0.042852
0.500478 0.038970 0.038970
0.695264 0.038958 0.038958
0.834909 0.038946 0.038946
0.944721 0.038946 0.038946
0.000000 0.143119 0.056143
0.050290 0.149085 0.050290
0.148810 0.148828 0.050049
0.293041 0.138472 0.042201
0.500948 0.130988 0.038452
0.695732 0.129096 0.038452
0.835378 0.128444 0.038452
0.945190 0.128188 0.038452
0.000000 0.279159 0.056143
0.039387 0.296016 0.039387
0.137527 0.296058 0.039239
0.295381 0.295381 0.039075
0.500948 0.278088 0.038452
0.695732 0.272523 0.038452
0.835378 0.270583 0.038452
0.945190 0.269629 0.038452
0.000000 0.483349 0.056143
0.038970 0.500478 0.038970
0.130988 0.500948 0.038452
0.278088 0.500948 0.038452
0.500385 0.500385 0.038452
0.695732 0.489226 0.038452
0.835378 0.485013 0.038452
0.945190 0.482926 0.038452
0.000000 0.678063 0.056125
0.038958 0.695264 0.038958
0.129096 0.695732 0.038452
0.272523 0.695732 0.038452
0.489226 0.695732 0.038452
0.695465 0.695465 0.038452
0.835378 0.689472 0.038452
0.945190 0.686239 0.038452
0.000000 0.817718 0.056087
0.038946 0.834909 0.038946
0.128444 0.835378 0.038452
0.270583 0.835378 0.038452
0.485013 0.835378 0.038452
0.689472 0.835378 0.038452
0.835270 0.835270 0.038452
0.945190 0.831492 0.038452
0.000000 0.927500 0.056143
0.038946 0.944721 0.038946
0.128188 0.945190 0.038452
0.269629 0.945190 0.038452
0.482926 0.945190 0.038452
0.686239 0.945190 0.038452
0.831492 0.945190 0.038452
0.945153 0.945153 0.038452
0.000000 0.000000 0.143119
0.056143 0.000000 0.143119
0.143119 0.000000 0.143119
0.279159 0.000000 0.143119
0.483349 0.000000 0.143131
0.678063 0.000000 0.143116
0.817718 0.000000 0.143065
0.927500 0.000000 0.143072
0.000000 0.056143 0.143119
0.050290 0.050290 0.149085
0.148821 0.050042 0.148828
0.293285 0.041939 0.138416
0.500948 0.038452 0.130988
0.695732 0.038452 0.129096
0.835378 0.038452 0.128444
0.945190 0.038452 0.128188
0.000000 0.143119 0.143119
0.050036 0.148828 0.148828
0.142999 0.143064 0.143064
0.288264 0.134314 0.134314
0.507635 0.119099 0.119099
0.716736 0.104744 0.104744
0.865640 0.095468 0.095468
0.970850 0.100058 0.100058
0.000000 0.279159 0.143119
0.039239 0.296058 0.137527
0.131490 0.291137 0.131490
0.290409 0.290433 0.130835
0.509195 0.272534 0.117224
0.716765 0.258500 0.104421
0.865489 0.249315 0.095320
0.970856 0.250088 0.099822
0.000000 0.483349 0.143131
0.038452 0.500948 0.130988
0.111436 0.515382 0.111436
0.270892 0.515183 0.111240
0.514529 0.514529 0.110585
0.725680 0.495545 0.095501
0.872909 0.484029 0.087886
0.971064 0.478495 0.099614
0.000000 0.678063 0.143116
0.038452 0.695732 0.129096
0.092685 0.728875 0.092685
0.252033 0.728712 0.092458
0.496250 0.728712 0.092458
0.728230 0.728230 0.092070
0.879465 0.715804 0.081374
0.971080 0.696219 0.099598
0.000000 0.817718 0.143065
0.038452 0.835378 0.128444
0.081882 0.879327 0.081882
0.240595 0.879465 0.081374
0.484059 0.879465 0.081374
0.715804 0.879465 0.081374
0.879221 0.879221 0.081198
0.971080 0.850761 0.099598
0.000000 0.927500 0.143072
0.038452 0.945190 0.128188
0.099849 0.971059 0.099849
0.249935 0.971080 0.099598
0.478492 0.971080 0.099598
0.696219 0.971080 0.099598
0.850761 0.971080 0.099598
0.970377 0.970377 0.100208
0.000000 0.000000 0.279159
0.056143 0.000000 0.279159
0.143119 0.000000 0.279159
0.279159 0.000000 0.279159
0.483349 0.000000 0.279149
0.678063 0.000000 0.279166
0.817718 0.000000 0.279171
0.927500 0.000000 0.279149
0.000000 0.056143 0.279159
0.039387 0.039387 0.296016
0.137527 0.039239 0.296058
0.295381 0.039075 0.295381
0.500948 0.038452 0.278088
0.695732 0.038452 0.272523
0.835378 0.038452 0.270583
0.945190 0.038452 0.269629
0.000000 0.143119 0.279159
0.039239 0.137527 0.296058
0.131490 0.131490 0.291137
0.290431 0.130814 0.290444
0.509550 0.116895 0.272427
0.716848 0.104343 0.258468
0.865558 0.095253 0.249284
0.970856 0.099822 0.250088
0.000000 0.279159 0.279159
0.039075 0.295381 0.295381
0.130795 0.290447 0.290447
0.278977 0.279115 0.279115
0.498891 0.264317 0.264317
0.708006 0.249961 0.249961
0.856904 0.240654 0.240654
0.970478 0.236897 0.236897
0.000000 0.483349 0.279149
0.038452 0.500948 0.278088
0.111240 0.515183 0.270892
0.259594 0.503876 0.259594
0.502726 0.502721 0.258453
0.712630 0.484431 0.244560
0.859924 0.474223 0.236898
0.970591 0.469079 0.236092
0.000000 0.678063 0.279166
0.038452 0.695732 0.272523
0.092458 0.728712 0.252033
0.240637 0.717532 0.240637
0.484445 0.717032 0.240140
0.716595 0.716595 0.239693
0.868740 0.704743 0.228088
0.971035 0.691261 0.235653
0.000000 0.817718 0.279171
0.038452 0.835378 0.270583
0.081374 0.879465 0.240595
0.228393 0.869429 0.228393
0.472174 0.868931 0.227895
0.704825 0.868931 0.227895
0.868707 0.868707 0.227671
0.971113 0.848778 0.235575
0.000000 0.927500 0.279149
0.038452 0.945190 0.269629
0.099598 0.971080 0.249935
0.236261 0.971119 0.236261
0.468895 0.971113 0.235575
0.691284 0.971113 0.235575
0.848778 0.971113 0.235575
0.970361 0.970361 0.236213
0.000000 0.000000 0.483349
0.056143 0.000000 0.483349
0.143131 0.000000 0.483349
0.279149 0.000000 0.483349
0.483349 0.000000 0.483349
0.678063 0.000000 0.483304
0.817718 0.000000 0.483304
0.927500 0.000000 0.483317
0.000000 0.056143 0.483349
0.038970 0.038970 0.500478
0.130988 0.038452 0.500948
0.278088 0.038452 0.500948
0.500385 0.038452 0.500385
0.695732 0.038452 0.489226
0.835378 0.038452 0.485013
0.945190 0.038452 0.482926
0.000000 0.143131 0.483349
0.038452 0.130988 0.500948
0.111436 0.111436 0.515382
0.270892 0.111240 0.515183
0.514529 0.110585 0.514529
0.726328 0.094843 0.495716
0.873215 0.087605 0.484026
0.971064 0.099614 0.478495
0.000000 0.279149 0.483349
0.038452 0.278088 0.500948
0.111240 0.270892 0.515183
0.259594 0.259594 0.503876
0.502735 0.258448 0.502735
0.712757 0.244440 0.484429
0.860550 0.236309 0.474076
0.970603 0.236080 0.469074
0.000000 0.483349 0.483349
0.038452 0.500385 0.500385
0.110585 0.514529 0.514529
0.258448 0.502735 0.502735
0.483274 0.483429 0.483429
0.692926 0.469414 0.469417
0.841848 0.460188 0.460188
0.958110 0.453720 0.453720
0.000000 0.678063 0.483304
0.038452 0.695732 0.489226
0.092458 0.728712 0.496250
0.240140 0.717032 0.484445
0.465023 0.697625 0.465023
0.696536 0.696536 0.463935
0.846784 0.684354 0.454262
0.961892 0.676424 0.448918
0.000000 0.817718 0.483304
0.038452 0.835378 0.485013
0.081374 0.879465 0.484059
0.227895 0.868931 0.472174
0.452774 0.849541 0.452774
0.684762 0.848884 0.452119
0.848663 0.848663 0.451900
0.966684 0.839872 0.444125
0.000000 0.927500 0.483317
0.038452 0.945190 0.482926
0.099598 0.971080 0.478492
0.235575 0.971113 0.468895
0.444831 0.967222 0.444831
0.676125 0.966718 0.444087
0.839885 0.966718 0.444087
0.966583 0.966583 0.444062
0.000000 0.000000 0.678063
0.056125 0.000000 0.678063
0.143116 0.000000 0.678063
0.279166 0.000000 0.678063
0.483304 0.000000 0.678063
0.678063 0.000000 0.678063
0.817718 0.000000 0.678011
0.927500 0.000000 0.678072
0.000000 0.056125 0.678063
0.038958 0.038958 0.695264
0.129096 0.038452 0.695732
0.272523 0.038452 0.695732
0.489226 0.038452 0.695732
0.695465 0.038452 0.695465
0.835378 0.038452 0.689472
0.945190 0.038452 0.686239
0.000000 0.143116 0.678063
0.038452 0.129096 0.695732
0.092685 0.092685 0.728875
0.252033 0.092458 0.728712
0.496250 0.092458 0.728712
0.728230 0.092070 0.728230
0.879465 0.081374 0.715804
0.971080 0.099598 0.696219
0.000000 0.279166 0.678063
0.038452 0.272523 0.695732
0.092458 0.252033 0.728712
0.240637 0.240637 0.717532
0.484445 0.240140 0.717032
0.716595 0.239693 0.716595
0.868807 0.228022 0.704774
0.971040 0.235649 0.691262
0.000000 0.483304 0.678063
0.038452 0.489226 0.695732
0.092458 0.496250 0.728712
0.240140 0.484445 0.717032
0.465023 0.465023 0.697625
0.696536 0.463935 0.696536
0.846935 0.454107 0.684387
0.961992 0.448820 0.676421
0.000000 0.678063 0.678063
0.038452 0.695465 0.695465
0.092070 0.728230 0.728230
0.239693 0.716595 0.716595
0.463935 0.696536 0.696536
0.678133 0.678210 0.678210
0.827370 0.669078 0.669082
0.943696 0.662559 0.662559
0.000000 0.817718 0.678011
0.038452 0.835378 0.689472
0.081374 0.879465 0.715804
0.227895 0.868931 0.704825
0.452119 0.848884 0.684762
0.666235 0.830399 0.666235
0.829740 0.829740 0.665574
0.946735 0.821085 0.658837
0.000000 0.927500 0.678072
0.038452 0.945190 0.686239
0.099598 0.971080 0.696219
0.235575 0.971113 0.691284
0.444087 0.966718 0.676125
0.657589 0.948867 0.657589
0.821310 0.948433 0.657148
0.948350 0.948350 0.657066
0.000000 0.000000 0.817718
0.056087 0.000000 0.817718
0.143065 0.000000 0.817718
0.279171 0.000000 0.817718
0.483304 0.000000 0.817718
0.678011 0.000000 0.817718
0.817718 0.000000 0.817718
0.927500 0.000000 0.817775
0.000000 0.056087 0.817718
0.038946 0.038946 0.834909
0.128444 0.038452 0.835378
0.270583 0.038452 0.835378
0.485013 0.038452 0.835378
0.689472 0.038452 0.835378
0.835270 0.038452 0.835270
0.945190 0.038452 0.831492
0.000000 0.143065 0.817718
0.038452 0.128444 0.835378
0.081882 0.081882 0.879327
0.240595 0.081374 0.879465
0.484059 0.081374 0.879465
0.715804 0.081374 0.879465
0.879221 0.081198 0.879221
0.971080 0.099598 0.850761
0.000000 0.279171 0.817718
0.038452 0.270583 0.835378
0.081374 0.240595 0.879465
0.228393 0.228393 0.869429
0.472174 0.227895 0.868931
0.704825 0.227895 0.868931
0.868707 0.227671 0.868707
0.971113 0.235575 0.848778
0.000000 0.483304 0.817718
0.038452 0.485013 0.835378
0.081374 0.484059 0.879465
0.227895 0.472174 0.868931
0.452774 0.452774 0.849541
0.684762 0.452119 0.848884
0.848663 0.451900 0.848663
0.966718 0.444087 0.839885
0.000000 0.678011 0.817718
0.038452 0.689472 0.835378
0.081374 0.715804 0.879465
0.227895 0.704825 0.868931
0.452119 0.684762 0.848884
0.666235 0.666235 0.830399
0.829740 0.665574 0.829740
0.947033 0.658530 0.821134
0.000000 0.817718 0.817718
0.038452 0.835270 0.835270
0.081198 0.879221 0.879221
0.227671 0.868707 0.868707
0.451900 0.848663 0.848663
0.665574 0.829740 0.829740
0.817811 0.817834 0.817834
0.934232 0.811346 0.811346
0.000000 0.927500 0.817775
0.038452 0.945190 0.831492
0.099598 0.971080 0.850761
0.235575 0.971113 0.848778
0.444087 0.966718 0.839885
0.657148 0.948433 0.821310
0.809284 0.936392 0.809284
0.936092 0.936092 0.808984
0.000000 0.000000 0.927500
0.056143 0.000000 0.927500
0.143072 0.000000 0.927500
0.279149 0.000000 0.927500
0.483317 0.000000 0.927500
0.678072 0.000000 0.927500
0.817775 0.000000 0.927500
0.927503 0.000000 0.927503
0.000000 0.056143 0.927500
0.038946 0.038946 0.944721
0.128188 0.038452 0.945190
0.269629 0.038452 0.945190
0.482926 0.038452 0.945190
0.686239 0.038452 0.945190
0.831492 0.038452 0.945190
0.945153 0.038452 0.945153
0.000000 0.143072 0.927500
0.038452 0.128188 0.945190
0.099849 0.099849 0.971059
0.249935 0.099598 0.971080
0.478492 0.099598 0.971080
0.696219 0.099598 0.971080
0.850761 0.099598 0.971080
0.970377 0.100208 0.970377
0.000000 0.279149 0.927500
0.038452 0.269629 0.945190
0.099598 0.249935 0.971080
0.236261 0.236261 0.971119
0.468895 0.235575 0.971113
0.691284 0.235575 0.971113
0.848778 0.235575 0.971113
0.970361 0.236213 0.970361
0.000000 0.483317 0.927500
0.038452 0.482926 0.945190
0.099598 0.478492 0.971080
0.235575 0.468895 0.971113
0.444831 0.444831 0.967222
0.676125 0.444087 0.966718
0.839885 0.444087 0.966718
0.966583 0.444062 0.966583
0.000000 0.678072 0.927500
0.038452 0.686239 0.945190
0.099598 0.696219 0.971080
0.235575 0.691284 0.971113
0.444087 0.676125 0.966718
0.657589 0.657589 0.948867
0.821310 0.657148 0.948433
0.948350 0.657066 0.948350
0.000000 0.817775 0.927500
0.038452 0.831492 0.945190
0.099598 0.850761 0.971080
0.235575 0.848778 0.971113
0.444087 0.839885 0.966718
0.657148 0.821310 0.948433
0.809284 0.809284 0.936392
0.936092 0.808984 0.936092
0.000000 0.927503 0.927503
0.038452 0.945153 0.945153
0.100208 0.970377 0.970377
0.236213 0.970361 0.970361
0.444062 0.966583 0.966583
0.657066 0.948350 0.948350
0.808984 0.936092 0.936092
0.927568 0.927572 0.927572
