Postproduction/IWLTBAP - Humble/LUTs by IWLTBAP (CUBE)/UTILITY/Generic LOG to Rec.709/U-9992-LTR.cube
# Copyright: (C) Copyright 2010-2018 by IWLTBAP SAS
# Cannot be resold, shared or otherwise redistributed
# Website: https://luts.iwltbap.com
TITLE "IWLTBAP 9992 (Utility LOG to Rec.709)"
LUT_3D_SIZE 8
DOMAIN_MIN 0.000000 0.000000 0.000000
DOMAIN_MAX 0.903226 0.903226 0.903226
0.000000 0.000000 0.000000
0.124756 0.000000 0.000000
0.322205 0.000000 0.000000
0.540100 0.000000 0.000000
0.774475 0.000000 0.000000
0.989716 0.000000 0.000000
1.000000 0.000000 0.000000
1.000000 0.000000 0.000000
0.000000 0.091248 0.000000
0.078003 0.078003 0.000000
0.278748 0.056396 0.000000
0.500061 0.028778 0.000000
0.736115 0.000000 0.000000
0.970551 0.000000 0.000000
1.000000 0.000000 0.000000
1.000000 0.000000 0.000000
0.000000 0.244629 0.000000
0.000000 0.233856 0.000000
0.214752 0.214752 0.000000
0.438324 0.191711 0.000000
0.675934 0.165619 0.000000
0.925415 0.136719 0.000000
1.000000 0.105469 0.000000
1.000000 0.092163 0.000000
0.000000 0.414276 0.000000
0.000000 0.404877 0.000000
0.136200 0.387177 0.000000
0.365540 0.365540 0.000000
0.605804 0.341309 0.000000
0.856842 0.314819 0.000000
1.000000 0.286255 0.000000
1.000000 0.270874 0.000000
0.000000 0.596252 0.000000
0.000000 0.588257 0.000000
0.042145 0.571411 0.000000
0.283508 0.550537 0.000000
0.527100 0.527100 0.000000
0.780273 0.501770 0.000000
1.000000 0.474609 0.000000
1.000000 0.457214 0.000000
0.000000 0.787781 0.000000
0.000000 0.780060 0.000000
0.000000 0.764893 0.000000
0.191772 0.744781 0.000000
0.441467 0.722198 0.000000
0.697571 0.697571 0.000000
0.960449 0.671173 0.000000
1.000000 0.651276 0.000000
0.000000 0.987396 0.000000
0.000000 0.979767 0.000000
0.000000 0.966400 0.000000
0.087128 0.946838 0.000000
0.348206 0.924744 0.000000
0.608276 0.900665 0.000000
0.874908 0.874908 0.000000
1.000000 0.852997 0.000000
0.000000 1.000000 0.000000
0.000000 1.000000 0.000000
0.000000 1.000000 0.000000
0.007751 1.000000 0.000000
0.267181 1.000000 0.000000
0.528534 1.000000 0.000000
0.794708 1.000000 0.000000
1.000000 1.000000 0.000000
0.000000 0.000000 0.134827
0.119843 0.000000 0.119843
0.317352 0.000000 0.097931
0.535828 0.000000 0.071106
0.770203 0.000000 0.039490
0.988037 0.000000 0.000427
1.000000 0.000000 0.000000
1.000000 0.000000 0.000000
0.000000 0.086792 0.086792
0.073730 0.073730 0.073730
0.274963 0.052124 0.052124
0.496490 0.024292 0.024292
0.732758 0.000000 0.000000
0.968628 0.000000 0.000000
1.000000 0.000000 0.000000
1.000000 0.000000 0.000000
0.000000 0.240967 0.007446
0.000000 0.230377 0.000000
0.211212 0.211212 0.000000
0.435150 0.188538 0.000000
0.672943 0.162567 0.000000
0.922607 0.133698 0.000000
1.000000 0.102478 0.000000
1.000000 0.089264 0.000000
0.000000 0.411133 0.000000
0.000000 0.401947 0.000000
0.133209 0.384399 0.000000
0.362885 0.362885 0.000000
0.603210 0.338776 0.000000
0.854370 0.312378 0.000000
1.000000 0.283783 0.000000
1.000000 0.268219 0.000000
0.000000 0.593597 0.000000
0.000000 0.585724 0.000000
0.039459 0.569000 0.000000
0.281097 0.548126 0.000000
0.524689 0.524689 0.000000
0.777924 0.499390 0.000000
1.000000 0.472260 0.000000
1.000000 0.454437 0.000000
0.000000 0.785217 0.000000
0.000000 0.777527 0.000000
0.000000 0.762543 0.000000
0.189362 0.742432 0.000000
0.439117 0.719818 0.000000
0.695160 0.695160 0.000000
0.958069 0.668579 0.000000
1.000000 0.648712 0.000000
0.000000 0.984894 0.000000
0.000000 0.977295 0.000000
0.000000 0.963959 0.000000
0.084473 0.944489 0.000000
0.345856 0.922394 0.000000
0.605957 0.898285 0.000000
0.872314 0.872314 0.000000
1.000000 0.850220 0.000000
0.000000 1.000000 0.000000
0.000000 1.000000 0.000000
0.000000 1.000000 0.000000
0.005127 1.000000 0.000000
0.263824 1.000000 0.000000
0.525574 1.000000 0.000000
0.791809 1.000000 0.000000
1.000000 1.000000 0.000000
0.000000 0.000000 0.345520
0.112274 0.000000 0.331024
0.310425 0.000000 0.310425
0.529022 0.000000 0.286072
0.763794 0.000000 0.259064
0.985382 0.000000 0.229950
1.000000 0.000000 0.202667
1.000000 0.000000 0.187836
0.000000 0.079376 0.299744
0.066559 0.066559 0.287598
0.268707 0.044312 0.268707
0.490143 0.015839 0.246216
0.726562 0.000000 0.220978
0.965210 0.000000 0.192902
1.000000 0.000000 0.164581
1.000000 0.000000 0.150970
0.000000 0.234283 0.234283
0.000000 0.223785 0.223785
0.204865 0.204865 0.204865
0.428894 0.181915 0.181915
0.666962 0.155853 0.155853
0.916779 0.126892 0.126892
1.000000 0.095581 0.095581
1.000000 0.082397 0.082397
0.000000 0.404755 0.155304
0.000000 0.396057 0.146149
0.126404 0.378326 0.126404
0.356873 0.356873 0.103027
0.597412 0.332977 0.075623
0.848724 0.306610 0.043945
1.000000 0.277832 0.007904
1.000000 0.262238 0.000000
0.000000 0.587585 0.061584
0.000000 0.580078 0.053436
0.032257 0.563202 0.032257
0.275208 0.542755 0.005707
0.519501 0.519501 0.000000
0.772858 0.494354 0.000000
0.999817 0.467194 0.000000
1.000000 0.449554 0.000000
0.000000 0.779755 0.000000
0.000000 0.772186 0.000000
0.000000 0.757477 0.000000
0.184021 0.737488 0.000000
0.434448 0.715027 0.000000
0.690552 0.690552 0.000000
0.954163 0.664337 0.000000
1.000000 0.644226 0.000000
0.000000 0.980042 0.000000
0.000000 0.972534 0.000000
0.000000 0.959473 0.000000
0.079254 0.940338 0.000000
0.341583 0.918396 0.000000
0.602112 0.894257 0.000000
0.868683 0.868683 0.000000
1.000000 0.846466 0.000000
0.000000 1.000000 0.000000
0.000000 1.000000 0.000000
0.000000 1.000000 0.000000
0.000610 1.000000 0.000000
0.259430 1.000000 0.000000
0.521484 1.000000 0.000000
0.787872 1.000000 0.000000
1.000000 1.000000 0.000000
0.000000 0.000000 0.578308
0.103638 0.000000 0.564240
0.302124 0.000000 0.544373
0.521332 0.000000 0.521332
0.756042 0.000000 0.495789
0.981842 0.000000 0.467926
1.000000 0.000000 0.441803
1.000000 0.000000 0.427124
0.000000 0.070740 0.534363
0.057678 0.057678 0.522766
0.261017 0.035187 0.504364
0.482971 0.003967 0.482971
0.719543 0.000000 0.458893
0.960358 0.000000 0.432190
1.000000 0.000000 0.405579
1.000000 0.000000 0.392456
0.000000 0.226501 0.471558
0.000000 0.216278 0.461395
0.196991 0.196991 0.443085
0.421753 0.174194 0.421753
0.660126 0.147980 0.397736
0.910034 0.118958 0.371765
1.000000 0.087433 0.343536
1.000000 0.073578 0.330383
0.000000 0.397400 0.397400
0.000000 0.388641 0.388641
0.118622 0.371185 0.371185
0.349701 0.349701 0.349701
0.590515 0.325562 0.325562
0.842041 0.299133 0.299133
1.000000 0.270630 0.270630
1.000000 0.254730 0.254730
0.000000 0.580536 0.314545
0.000000 0.572906 0.307068
0.022308 0.556366 0.289551
0.267944 0.535645 0.267944
0.512482 0.512482 0.243225
0.766174 0.487335 0.216339
0.997803 0.460327 0.187134
1.000000 0.442230 0.167816
0.000000 0.772675 0.221954
0.000000 0.765381 0.214722
0.000000 0.750824 0.198669
0.176605 0.730896 0.176605
0.427399 0.708435 0.150940
0.683990 0.683990 0.122162
0.948181 0.657532 0.090302
1.000000 0.637421 0.066498
0.000000 0.973480 0.118591
0.000000 0.965942 0.110504
0.000000 0.953033 0.095276
0.070984 0.933716 0.070984
0.334778 0.911774 0.044403
0.595428 0.887909 0.019867
0.862152 0.862152 0.000000
1.000000 0.839874 0.000000
0.000000 1.000000 0.035339
0.000000 1.000000 0.027893
0.000000 1.000000 0.015900
0.000000 1.000000 0.000000
0.251465 1.000000 0.000000
0.514130 1.000000 0.000000
0.780823 1.000000 0.000000
1.000000 1.000000 0.000000
0.000000 0.000000 0.827820
0.093628 0.000000 0.814392
0.293121 0.000000 0.794891
0.512634 0.000000 0.772400
0.747528 0.000000 0.747528
0.977661 0.000000 0.720734
1.000000 0.000000 0.695038
1.000000 0.000000 0.680206
0.000000 0.060699 0.785339
0.047455 0.047455 0.774048
0.252411 0.024170 0.756012
0.474731 0.000000 0.734894
0.711456 0.000000 0.711456
0.954834 0.000000 0.685822
1.000000 0.000000 0.659851
1.000000 0.000000 0.646545
0.000000 0.217743 0.723694
0.000000 0.207520 0.713776
0.188477 0.188477 0.696198
0.413483 0.165283 0.675232
0.652191 0.138855 0.652191
0.902252 0.109772 0.627136
1.000000 0.077881 0.600067
1.000000 0.063385 0.586609
0.000000 0.389038 0.652008
0.000000 0.380402 0.643402
0.109467 0.362946 0.626465
0.341461 0.341461 0.605774
0.582611 0.317261 0.582611
0.834290 0.290710 0.557404
1.000000 0.262115 0.530487
1.000000 0.246063 0.514709
0.000000 0.572418 0.572418
0.000000 0.564850 0.564850
0.011139 0.548370 0.548370
0.259460 0.527679 0.527679
0.504547 0.504547 0.504547
0.758484 0.479401 0.479401
0.995300 0.452362 0.452362
1.000000 0.434235 0.434235
0.000000 0.764984 0.485565
0.000000 0.757538 0.478149
0.000000 0.743103 0.463318
0.167847 0.723175 0.442719
0.419342 0.700775 0.419342
0.676331 0.676331 0.393768
0.941040 0.650085 0.366241
1.000000 0.629517 0.345215
0.000000 0.965759 0.391571
0.000000 0.958221 0.384308
0.000000 0.945496 0.370941
0.061218 0.926239 0.350189
0.326691 0.904266 0.326691
0.587769 0.880402 0.300720
0.854950 0.854950 0.272552
1.000000 0.832397 0.247589
0.000000 1.000000 0.315582
0.000000 1.000000 0.306549
0.000000 1.000000 0.292358
0.000000 1.000000 0.269379
0.242462 1.000000 0.242462
0.505798 1.000000 0.212311
0.772583 1.000000 0.179932
1.000000 1.000000 0.147461
0.000000 0.000000 1.000000
0.082947 0.000000 1.000000
0.283203 0.000000 0.999359
0.503204 0.000000 0.994690
0.738342 0.000000 0.985931
0.972717 0.000000 0.972717
1.000000 0.000000 0.954773
1.000000 0.000000 0.942657
0.000000 0.049805 0.997223
0.036469 0.036469 0.994476
0.243347 0.011261 0.988739
0.465851 0.000000 0.979370
0.702667 0.000000 0.966003
0.948334 0.000000 0.948334
1.000000 0.000000 0.925598
1.000000 0.000000 0.912537
0.000000 0.208099 0.974640
0.000000 0.197968 0.968872
0.178894 0.178894 0.957428
0.404572 0.155548 0.940430
0.643616 0.129211 0.918579
0.893829 0.099976 0.893829
1.000000 0.067566 0.867676
1.000000 0.052399 0.854004
0.000000 0.379944 0.918518
0.000000 0.371735 0.909973
0.099731 0.354004 0.893127
0.332703 0.332703 0.872894
0.574005 0.308441 0.850372
0.825928 0.281860 0.825928
1.000000 0.252838 0.799805
1.000000 0.236603 0.783844
0.000000 0.563599 0.840881
0.000000 0.556244 0.833282
0.002197 0.539734 0.817078
0.250244 0.519257 0.797211
0.496185 0.496185 0.774719
0.750122 0.470978 0.750122
0.992035 0.443695 0.724091
1.000000 0.425201 0.706116
0.000000 0.756470 0.756470
0.000000 0.748993 0.748993
0.000000 0.734711 0.734711
0.158447 0.714813 0.714813
0.410889 0.692383 0.692383
0.667908 0.667908 0.667908
0.932861 0.641693 0.641693
1.000000 0.620880 0.620880
0.000000 0.957367 0.666351
0.000000 0.949860 0.659088
0.000000 0.937286 0.646057
0.051758 0.918274 0.626495
0.317780 0.896301 0.604095
0.579559 0.872253 0.579559
0.846802 0.846802 0.552979
1.000000 0.824005 0.529663
0.000000 1.000000 0.592712
0.000000 1.000000 0.583618
0.000000 1.000000 0.570374
0.000000 1.000000 0.548706
0.232300 1.000000 0.523773
0.496399 1.000000 0.496399
0.763824 1.000000 0.466766
1.000000 1.000000 0.437500
0.000000 0.000000 1.000000
0.073853 0.000000 1.000000
0.274597 0.000000 1.000000
0.495087 0.000000 1.000000
0.730133 0.000000 1.000000
0.967133 0.000000 1.000000
1.000000 0.000000 1.000000
1.000000 0.000000 1.000000
0.000000 0.039978 1.000000
0.026123 0.026123 1.000000
0.234863 0.000000 1.000000
0.457672 0.000000 1.000000
0.694336 0.000000 1.000000
0.941254 0.000000 1.000000
1.000000 0.000000 1.000000
1.000000 0.000000 1.000000
0.000000 0.199005 1.000000
0.000000 0.188965 1.000000
0.169281 0.169281 1.000000
0.395721 0.145782 1.000000
0.634644 0.118683 1.000000
0.885132 0.089081 1.000000
1.000000 0.056030 1.000000
1.000000 0.039886 1.000000
0.000000 0.370758 1.000000
0.000000 0.362213 1.000000
0.088898 0.344543 1.000000
0.323090 0.323090 1.000000
0.564819 0.298737 1.000000
0.816986 0.272034 1.000000
1.000000 0.243195 1.000000
1.000000 0.226654 1.000000
0.000000 0.554413 1.000000
0.000000 0.546844 1.000000
0.000000 0.530670 1.000000
0.240692 0.510071 1.000000
0.486969 0.486969 1.000000
0.741486 0.461731 0.997986
0.988373 0.434601 0.988373
1.000000 0.415588 0.975677
0.000000 0.747375 1.000000
0.000000 0.740112 0.999939
0.000000 0.725739 0.993469
0.148132 0.706116 0.983978
0.401489 0.683655 0.969574
0.659149 0.659149 0.948730
0.924164 0.632660 0.924164
1.000000 0.611694 0.903442
0.000000 0.948456 0.948456
0.000000 0.941193 0.941193
0.000000 0.928528 0.928528
0.041718 0.909485 0.909485
0.308502 0.887573 0.887573
0.570587 0.863739 0.863739
0.838074 0.838074 0.838074
1.000000 0.815002 0.815002
0.000000 1.000000 0.875519
0.000000 1.000000 0.866577
0.000000 1.000000 0.853729
0.000000 1.000000 0.832794
0.221344 1.000000 0.808777
0.486328 1.000000 0.782318
0.754211 1.000000 0.754211
1.000000 1.000000 0.725555
0.000000 0.000000 1.000000
0.069122 0.000000 1.000000
0.269897 0.000000 1.000000
0.490204 0.000000 1.000000
0.725250 0.000000 1.000000
0.963623 0.000000 1.000000
1.000000 0.000000 1.000000
1.000000 0.000000 1.000000
0.000000 0.035431 1.000000
0.021515 0.021515 1.000000
0.230896 0.000000 1.000000
0.453278 0.000000 1.000000
0.689850 0.000000 1.000000
0.937469 0.000000 1.000000
1.000000 0.000000 1.000000
1.000000 0.000000 1.000000
0.000000 0.194733 1.000000
0.000000 0.184631 1.000000
0.165283 0.165283 1.000000
0.391571 0.141388 1.000000
0.630554 0.114746 1.000000
0.880676 0.084778 1.000000
1.000000 0.050995 1.000000
1.000000 0.033752 1.000000
0.000000 0.366364 1.000000
0.000000 0.358154 1.000000
0.084564 0.340271 1.000000
0.318390 0.318390 1.000000
0.560120 0.293976 1.000000
0.812042 0.266968 1.000000
1.000000 0.237640 1.000000
1.000000 0.220398 1.000000
0.000000 0.549347 1.000000
0.000000 0.541840 1.000000
0.000000 0.525391 1.000000
0.235046 0.504639 1.000000
0.481476 0.481476 1.000000
0.735535 0.455750 1.000000
0.984497 0.428284 1.000000
1.000000 0.408875 1.000000
0.000000 0.741699 1.000000
0.000000 0.734100 1.000000
0.000000 0.719940 1.000000
0.141052 0.699829 1.000000
0.394745 0.677124 1.000000
0.652374 0.652374 1.000000
0.917236 0.625854 1.000000
1.000000 0.604309 1.000000
0.000000 0.942017 1.000000
0.000000 0.934357 1.000000
0.000000 0.921875 1.000000
0.034973 0.902435 1.000000
0.300690 0.880310 1.000000
0.562897 0.856262 1.000000
0.830566 0.830566 1.000000
1.000000 0.806946 1.000000
0.000000 1.000000 1.000000
0.000000 1.000000 1.000000
0.000000 1.000000 1.000000
0.000000 1.000000 1.000000
0.211121 1.000000 1.000000
0.476685 1.000000 1.000000
0.744690 1.000000 1.000000
0.997467 0.997467 0.997467
