Postproduction/IWLTBAP - Humble/LUTs by IWLTBAP (CUBE)/UTILITY/Generic LOG to Rec.709/U-9991-LTR.cube
# Copyright: (C) Copyright 2010-2018 by IWLTBAP SAS
# Cannot be resold, shared or otherwise redistributed
# Website: https://luts.iwltbap.com
TITLE "IWLTBAP 9991 (Utility LOG to Rec.709)"
LUT_3D_SIZE 5
DOMAIN_MIN 0.000000 0.000000 0.000000
DOMAIN_MAX 0.903226 0.903226 0.903226
0.000000 0.000000 0.000000
0.182007 0.000000 0.000000
0.496307 0.000000 0.000000
0.802155 0.000000 0.000000
0.802155 0.000000 0.000000
0.000000 0.132385 0.000000
0.113556 0.113556 0.000000
0.424805 0.084167 0.000000
0.793976 0.043884 0.000000
0.802155 0.012817 0.000000
0.000000 0.368011 0.000000
0.008057 0.350494 0.000000
0.319733 0.319733 0.000000
0.696899 0.283447 0.000000
0.802155 0.253510 0.000000
0.000000 0.654968 0.000000
0.000000 0.639191 0.000000
0.198425 0.607788 0.000000
0.570557 0.570557 0.000000
0.802155 0.535400 0.000000
0.000000 0.802155 0.000000
0.000000 0.802155 0.000000
0.081879 0.802155 0.000000
0.443970 0.802155 0.000000
0.802155 0.802155 0.000000
0.000000 0.000000 0.196930
0.174408 0.000000 0.174408
0.488342 0.000000 0.141876
0.802155 0.000000 0.103729
0.802155 0.000000 0.078552
0.000000 0.125793 0.125793
0.107391 0.107391 0.107391
0.418335 0.078033 0.078033
0.790009 0.035309 0.035309
0.802155 0.010162 0.010162
0.000000 0.362000 0.013214
0.005524 0.344696 0.005524
0.314301 0.314301 0.000000
0.691498 0.278320 0.000000
0.802155 0.248352 0.000000
0.000000 0.649567 0.000000
0.000000 0.633911 0.000000
0.194244 0.602936 0.000000
0.565765 0.565765 0.000000
0.802155 0.530792 0.000000
0.000000 0.802155 0.000000
0.000000 0.802155 0.000000
0.076843 0.802155 0.000000
0.438904 0.802155 0.000000
0.802155 0.802155 0.000000
0.000000 0.000000 0.535706
0.163300 0.000000 0.511505
0.476593 0.000000 0.476593
0.802155 0.000000 0.436188
0.802155 0.000000 0.408173
0.000000 0.115417 0.459045
0.097534 0.097534 0.439392
0.407623 0.066895 0.407623
0.783478 0.020477 0.370728
0.802155 0.004974 0.342896
0.000000 0.351288 0.351288
0.000397 0.334290 0.334290
0.304138 0.304138 0.304138
0.680756 0.268158 0.268158
0.802155 0.238007 0.238007
0.000000 0.638733 0.227234
0.000000 0.623413 0.213440
0.184540 0.592529 0.184540
0.555511 0.555511 0.149841
0.802155 0.520508 0.116547
0.000000 0.802155 0.112152
0.000000 0.802155 0.097870
0.065155 0.802155 0.065155
0.428314 0.802155 0.015045
0.802155 0.802155 0.000000
0.000000 0.000000 0.802155
0.150391 0.000000 0.802155
0.462921 0.000000 0.802155
0.802155 0.000000 0.802155
0.802155 0.000000 0.800873
0.000000 0.103210 0.802155
0.085846 0.085846 0.802155
0.395111 0.053711 0.796143
0.773956 0.011597 0.773956
0.802155 0.000000 0.745880
0.000000 0.338409 0.755585
0.000000 0.322113 0.737793
0.291992 0.291992 0.705597
0.667877 0.256104 0.667877
0.802155 0.225586 0.635468
0.000000 0.625610 0.625610
0.000000 0.610779 0.610779
0.172760 0.580017 0.580017
0.543152 0.543152 0.543152
0.802155 0.507599 0.507599
0.000000 0.802155 0.502380
0.000000 0.802155 0.486694
0.050873 0.802155 0.454620
0.415009 0.802155 0.415009
0.802155 0.802155 0.372437
0.000000 0.000000 0.802155
0.142456 0.000000 0.802155
0.453735 0.000000 0.802155
0.802155 0.000000 0.802155
0.802155 0.000000 0.802155
0.000000 0.095673 0.802155
0.077942 0.077942 0.802155
0.386108 0.043427 0.802155
0.764954 0.007385 0.802155
0.802155 0.000000 0.802155
0.000000 0.328796 0.802155
0.000000 0.312531 0.802155
0.282196 0.282196 0.802155
0.657166 0.246002 0.802155
0.802155 0.214722 0.802155
0.000000 0.614349 0.802155
0.000000 0.599457 0.802155
0.162018 0.568268 0.802155
0.531403 0.531403 0.802155
0.802155 0.495117 0.802155
0.000000 0.802155 0.802155
0.000000 0.802155 0.802155
0.030273 0.802155 0.802155
0.400879 0.802155 0.802155
0.799805 0.799805 0.799805
