Postproduction/IWLTBAP - Humble/LUTs by IWLTBAP (CUBE)/UTILITY/Generic LOG to Rec.709/U-9995-LTR.cube
# Copyright: (C) Copyright 2010-2018 by IWLTBAP SAS
# Cannot be resold, shared or otherwise redistributed
# Website: https://luts.iwltbap.com
TITLE "IWLTBAP 9995 (Utility LOG to Rec.709)"
LUT_3D_SIZE 5
DOMAIN_MIN 0.000000 0.000000 0.000000
DOMAIN_MAX 0.903226 0.903226 0.903226
0.000000 0.000000 0.000000
0.103506 0.000000 0.000000
0.452487 0.000000 0.000000
0.771669 0.000000 0.000000
0.921570 0.000000 0.000000
0.000000 0.103506 0.000000
0.103506 0.103506 0.000000
0.452487 0.103506 0.000000
0.771669 0.103506 0.000000
0.921570 0.103506 0.000000
0.000000 0.452487 0.000000
0.103506 0.452487 0.000000
0.452487 0.452487 0.000000
0.771669 0.452487 0.000000
0.921570 0.452487 0.000000
0.000000 0.771669 0.000000
0.103506 0.771669 0.000000
0.452487 0.771669 0.000000
0.771669 0.771669 0.000000
0.921570 0.771669 0.000000
0.000000 0.921570 0.000000
0.103506 0.921570 0.000000
0.452487 0.921570 0.000000
0.771669 0.921570 0.000000
0.921570 0.921570 0.000000
0.000000 0.000000 0.103506
0.103506 0.000000 0.103506
0.452487 0.000000 0.103506
0.771669 0.000000 0.103506
0.921570 0.000000 0.103506
0.000000 0.103506 0.103506
0.103506 0.103506 0.103506
0.452487 0.103506 0.103506
0.771669 0.103506 0.103506
0.921570 0.103506 0.103506
0.000000 0.452487 0.103506
0.103506 0.452487 0.103506
0.452487 0.452487 0.103506
0.771669 0.452487 0.103506
0.921570 0.452487 0.103506
0.000000 0.771669 0.103506
0.103506 0.771669 0.103506
0.452487 0.771669 0.103506
0.771669 0.771669 0.103506
0.921570 0.771669 0.103506
0.000000 0.921570 0.103506
0.103506 0.921570 0.103506
0.452487 0.921570 0.103506
0.771669 0.921570 0.103506
0.921570 0.921570 0.103506
0.000000 0.000000 0.452487
0.103506 0.000000 0.452487
0.452487 0.000000 0.452487
0.771669 0.000000 0.452487
0.921570 0.000000 0.452487
0.000000 0.103506 0.452487
0.103506 0.103506 0.452487
0.452487 0.103506 0.452487
0.771669 0.103506 0.452487
0.921570 0.103506 0.452487
0.000000 0.452487 0.452487
0.103506 0.452487 0.452487
0.452487 0.452487 0.452487
0.771669 0.452487 0.452487
0.921570 0.452487 0.452487
0.000000 0.771669 0.452487
0.103506 0.771669 0.452487
0.452487 0.771669 0.452487
0.771669 0.771669 0.452487
0.921570 0.771669 0.452487
0.000000 0.921570 0.452487
0.103506 0.921570 0.452487
0.452487 0.921570 0.452487
0.771669 0.921570 0.452487
0.921570 0.921570 0.452487
0.000000 0.000000 0.771669
0.103506 0.000000 0.771669
0.452487 0.000000 0.771669
0.771669 0.000000 0.771669
0.921570 0.000000 0.771669
0.000000 0.103506 0.771669
0.103506 0.103506 0.771669
0.452487 0.103506 0.771669
0.771669 0.103506 0.771669
0.921570 0.103506 0.771669
0.000000 0.452487 0.771669
0.103506 0.452487 0.771669
0.452487 0.452487 0.771669
0.771669 0.452487 0.771669
0.921570 0.452487 0.771669
0.000000 0.771669 0.771669
0.103506 0.771669 0.771669
0.452487 0.771669 0.771669
0.771669 0.771669 0.771669
0.921570 0.771669 0.771669
0.000000 0.921570 0.771669
0.103506 0.921570 0.771669
0.452487 0.921570 0.771669
0.771669 0.921570 0.771669
0.921570 0.921570 0.771669
0.000000 0.000000 0.921570
0.103506 0.000000 0.921570
0.452487 0.000000 0.921570
0.771669 0.000000 0.921570
0.921570 0.000000 0.921570
0.000000 0.103506 0.921570
0.103506 0.103506 0.921570
0.452487 0.103506 0.921570
0.771669 0.103506 0.921570
0.921570 0.103506 0.921570
0.000000 0.452487 0.921570
0.103506 0.452487 0.921570
0.452487 0.452487 0.921570
0.771669 0.452487 0.921570
0.921570 0.452487 0.921570
0.000000 0.771669 0.921570
0.103506 0.771669 0.921570
0.452487 0.771669 0.921570
0.771669 0.771669 0.921570
0.921570 0.771669 0.921570
0.000000 0.921570 0.921570
0.103506 0.921570 0.921570
0.452487 0.921570 0.921570
0.771669 0.921570 0.921570
0.921570 0.921570 0.921570
