Postproduction/IWLTBAP - Humble/LUTs by IWLTBAP (CUBE)/UTILITY/Generic LOG to Rec.709/U-9994-LTR.cube
# Copyright: (C) Copyright 2010-2018 by IWLTBAP SAS
# Cannot be resold, shared or otherwise redistributed
# Website: https://luts.iwltbap.com
TITLE "IWLTBAP 9994 (Utility LOG to Rec.709)"
LUT_3D_SIZE 32
0.009369 0.009369 0.009369
0.025988 0.007447 0.008160
0.042518 0.005589 0.006950
0.059421 0.003657 0.005739
0.077454 0.001632 0.004334
0.101918 0.000000 0.002132
0.130061 0.000000 0.000344
0.161924 0.000000 0.000000
0.198637 0.000000 0.000000
0.240629 0.000000 0.000000
0.288416 0.000000 0.000000
0.342101 0.000000 0.000000
0.401015 0.000000 0.000000
0.463698 0.000000 0.000000
0.528800 0.000000 0.000000
0.594466 0.000000 0.000000
0.659273 0.000000 0.000000
0.721506 0.000000 0.000000
0.780057 0.000000 0.000000
0.828105 0.000000 0.000000
0.856198 0.000000 0.000000
0.877984 0.000000 0.000000
0.891154 0.000000 0.000000
0.903584 0.000000 0.000000
0.915824 0.000000 0.000000
0.927925 0.000000 0.000000
0.939937 0.000000 0.000000
0.951881 0.000000 0.000000
0.962764 0.000000 0.000000
0.973062 0.000000 0.000000
0.983418 0.000000 0.000000
0.993713 0.000000 0.000000
0.008161 0.026609 0.010486
0.024874 0.024777 0.009367
0.041433 0.022919 0.008158
0.058362 0.020957 0.006882
0.076304 0.018733 0.005459
0.100710 0.015439 0.003336
0.128901 0.012125 0.000994
0.160838 0.010335 0.000000
0.197475 0.010325 0.000000
0.239431 0.010325 0.000000
0.287300 0.010325 0.000000
0.340914 0.010325 0.000000
0.399818 0.010325 0.000000
0.462489 0.010325 0.000000
0.527663 0.010325 0.000000
0.593396 0.010325 0.000000
0.658187 0.010325 0.000000
0.720388 0.010325 0.000000
0.778866 0.010325 0.000000
0.827220 0.010325 0.000000
0.855862 0.010325 0.000000
0.877974 0.010325 0.000000
0.891154 0.010325 0.000000
0.903584 0.010325 0.000000
0.915824 0.010325 0.000000
0.927925 0.010325 0.000000
0.939937 0.010325 0.000000
0.951881 0.010325 0.000000
0.962764 0.010325 0.000000
0.973062 0.010325 0.000000
0.983418 0.010325 0.000000
0.993713 0.010325 0.000000
0.007045 0.043727 0.011636
0.023759 0.041833 0.010486
0.040346 0.040002 0.009365
0.057248 0.038042 0.008092
0.075218 0.035787 0.006665
0.099594 0.032382 0.004501
0.127785 0.027996 0.001763
0.159753 0.023098 0.000077
0.196391 0.020977 0.000000
0.238377 0.020652 0.000000
0.286226 0.020652 0.000000
0.339870 0.020652 0.000000
0.398704 0.020652 0.000000
0.461375 0.020652 0.000000
0.526547 0.020652 0.000000
0.592310 0.020652 0.000000
0.657087 0.020652 0.000000
0.719301 0.020652 0.000000
0.777734 0.020652 0.000000
0.826264 0.020652 0.000000
0.855483 0.020652 0.000000
0.877962 0.020652 0.000000
0.891154 0.020652 0.000000
0.903584 0.020652 0.000000
0.915824 0.020652 0.000000
0.927925 0.020652 0.000000
0.939937 0.020652 0.000000
0.951881 0.020652 0.000000
0.962764 0.020652 0.000000
0.973062 0.020652 0.000000
0.983418 0.020652 0.000000
0.993713 0.020652 0.000000
0.005892 0.061250 0.012940
0.022605 0.059393 0.011704
0.039167 0.057534 0.010526
0.056096 0.055599 0.009366
0.074062 0.053320 0.007946
0.098441 0.049912 0.005773
0.126632 0.045499 0.002940
0.158593 0.039912 0.000387
0.195236 0.033854 0.000000
0.237188 0.031234 0.000000
0.285081 0.030977 0.000000
0.338684 0.030977 0.000000
0.397558 0.030977 0.000000
0.460209 0.030977 0.000000
0.525382 0.030977 0.000000
0.591128 0.030977 0.000000
0.655949 0.030977 0.000000
0.718149 0.030977 0.000000
0.776611 0.030977 0.000000
0.825231 0.030977 0.000000
0.855016 0.030977 0.000000
0.877924 0.030977 0.000000
0.891154 0.030977 0.000000
0.903584 0.030977 0.000000
0.915824 0.030977 0.000000
0.927925 0.030977 0.000000
0.939937 0.030977 0.000000
0.951881 0.030977 0.000000
0.962764 0.030977 0.000000
0.973062 0.030977 0.000000
0.983418 0.030977 0.000000
0.993713 0.030977 0.000000
0.004594 0.079920 0.014366
0.021305 0.078092 0.013158
0.037830 0.076291 0.011985
0.054728 0.074327 0.010740
0.072753 0.072053 0.009372
0.097138 0.068644 0.007205
0.125296 0.064232 0.004357
0.157266 0.058635 0.001193
0.193907 0.051698 0.000006
0.235852 0.044853 0.000000
0.283685 0.041529 0.000000
0.337332 0.041397 0.000000
0.396238 0.041397 0.000000
0.458909 0.041397 0.000000
0.524046 0.041397 0.000000
0.589774 0.041397 0.000000
0.654581 0.041397 0.000000
0.716835 0.041397 0.000000
0.775264 0.041397 0.000000
0.824083 0.041397 0.000000
0.854529 0.041397 0.000000
0.877894 0.041397 0.000000
0.891154 0.041397 0.000000
0.903584 0.041397 0.000000
0.915824 0.041397 0.000000
0.927925 0.041397 0.000000
0.939937 0.041397 0.000000
0.951881 0.041397 0.000000
0.962764 0.041397 0.000000
0.973062 0.041397 0.000000
0.983418 0.041397 0.000000
0.993713 0.041397 0.000000
0.002585 0.105469 0.016539
0.019293 0.103575 0.015324
0.035822 0.101774 0.014145
0.052695 0.099810 0.012955
0.070648 0.097559 0.011502
0.095124 0.094149 0.009361
0.123304 0.089721 0.006521
0.155186 0.084151 0.003054
0.191893 0.077208 0.000193
0.233839 0.068869 0.000000
0.281627 0.060047 0.000000
0.335282 0.054798 0.000000
0.394226 0.054275 0.000000
0.456896 0.054266 0.000000
0.522041 0.054266 0.000000
0.587718 0.054266 0.000000
0.652520 0.054266 0.000000
0.714809 0.054266 0.000000
0.773268 0.054266 0.000000
0.822300 0.054266 0.000000
0.853786 0.054266 0.000000
0.877854 0.054266 0.000000
0.891154 0.054266 0.000000
0.903584 0.054266 0.000000
0.915824 0.054266 0.000000
0.927925 0.054266 0.000000
0.939937 0.054266 0.000000
0.951881 0.054266 0.000000
0.962764 0.054266 0.000000
0.973062 0.054266 0.000000
0.983418 0.054266 0.000000
0.993713 0.054266 0.000000
0.000638 0.135061 0.019380
0.016612 0.133157 0.018171
0.033159 0.131300 0.016961
0.050067 0.129363 0.015751
0.068084 0.127112 0.014350
0.092474 0.123676 0.012130
0.120631 0.119268 0.009369
0.152583 0.113681 0.005878
0.189259 0.106798 0.001891
0.231190 0.098437 0.000055
0.278977 0.088463 0.000000
0.332651 0.077038 0.000000
0.391586 0.069589 0.000000
0.454256 0.067455 0.000000
0.519383 0.067408 0.000000
0.585122 0.067408 0.000000
0.649914 0.067408 0.000000
0.712130 0.067408 0.000000
0.770625 0.067408 0.000000
0.820032 0.067408 0.000000
0.852574 0.067408 0.000000
0.877609 0.067408 0.000000
0.891153 0.067408 0.000000
0.903584 0.067408 0.000000
0.915824 0.067408 0.000000
0.927925 0.067408 0.000000
0.939937 0.067408 0.000000
0.951881 0.067408 0.000000
0.962764 0.067408 0.000000
0.973062 0.067408 0.000000
0.983418 0.067408 0.000000
0.993713 0.067408 0.000000
0.000000 0.168651 0.022878
0.013671 0.166822 0.021686
0.029828 0.165021 0.020520
0.046732 0.163058 0.019254
0.064739 0.160796 0.017875
0.089225 0.157370 0.015662
0.117367 0.152963 0.012919
0.149233 0.147359 0.009385
0.185890 0.140415 0.005064
0.227929 0.132092 0.000745
0.275743 0.122149 0.000000
0.329395 0.110536 0.000000
0.388294 0.097556 0.000000
0.450997 0.086450 0.000000
0.516098 0.081691 0.000000
0.581777 0.080592 0.000000
0.646578 0.080546 0.000000
0.708798 0.080546 0.000000
0.767316 0.080546 0.000000
0.817112 0.080546 0.000000
0.850854 0.080546 0.000000
0.876641 0.080546 0.000000
0.891113 0.080546 0.000000
0.903584 0.080546 0.000000
0.915824 0.080546 0.000000
0.927925 0.080546 0.000000
0.939937 0.080546 0.000000
0.951881 0.080546 0.000000
0.962764 0.080546 0.000000
0.973062 0.080546 0.000000
0.983418 0.080546 0.000000
0.993713 0.080546 0.000000
0.000000 0.207550 0.027249
0.011176 0.205644 0.026032
0.025830 0.203843 0.024855
0.042647 0.201882 0.023663
0.060643 0.199624 0.022216
0.085091 0.196193 0.020060
0.113228 0.191785 0.017241
0.145154 0.186247 0.013804
0.181811 0.179314 0.009387
0.223757 0.170925 0.004200
0.271605 0.160981 0.000267
0.325267 0.149369 0.000000
0.384140 0.136324 0.000000
0.446859 0.122191 0.000000
0.512005 0.108389 0.000000
0.577664 0.098672 0.000000
0.642505 0.094485 0.000000
0.704716 0.094007 0.000000
0.763178 0.093911 0.000000
0.813468 0.093911 0.000000
0.848719 0.093911 0.000000
0.875293 0.093911 0.000000
0.891046 0.093911 0.000000
0.903584 0.093911 0.000000
0.915824 0.093911 0.000000
0.927925 0.093911 0.000000
0.939937 0.093911 0.000000
0.951881 0.093911 0.000000
0.962764 0.093911 0.000000
0.973062 0.093911 0.000000
0.983418 0.093911 0.000000
0.993713 0.093911 0.000000
0.000000 0.252193 0.032571
0.010331 0.250272 0.031363
0.022008 0.248413 0.030222
0.037607 0.246470 0.028958
0.055672 0.244218 0.027571
0.080080 0.240790 0.025362
0.108229 0.236383 0.022567
0.140111 0.230830 0.019069
0.176854 0.223957 0.014759
0.218790 0.215571 0.009397
0.266590 0.205572 0.003529
0.320255 0.193950 0.000211
0.379200 0.180909 0.000000
0.441857 0.166780 0.000000
0.506994 0.151961 0.000000
0.572678 0.136921 0.000000
0.637480 0.123450 0.000000
0.699781 0.114261 0.000000
0.758194 0.108606 0.000000
0.809114 0.108053 0.000000
0.846119 0.107769 0.000000
0.873666 0.107604 0.000000
0.890971 0.107576 0.000000
0.903584 0.107576 0.000000
0.915824 0.107576 0.000000
0.927925 0.107576 0.000000
0.939937 0.107576 0.000000
0.951881 0.107576 0.000000
0.962764 0.107576 0.000000
0.973062 0.107576 0.000000
0.983418 0.107576 0.000000
0.993713 0.107576 0.000000
0.000000 0.303178 0.038874
0.010325 0.301257 0.037666
0.020750 0.299418 0.036549
0.032903 0.297452 0.035330
0.049718 0.295189 0.033876
0.074115 0.291775 0.031734
0.102293 0.287368 0.028888
0.134207 0.281815 0.025371
0.170854 0.274957 0.021093
0.212822 0.266555 0.015755
0.260618 0.256558 0.009480
0.314273 0.244931 0.002991
0.373217 0.231846 0.000163
0.435888 0.217761 0.000000
0.501030 0.202924 0.000000
0.566755 0.187896 0.000000
0.631556 0.173063 0.000000
0.693800 0.158895 0.000000
0.752224 0.145915 0.000000
0.804005 0.137165 0.000000
0.843023 0.130223 0.000000
0.871688 0.125134 0.000000
0.890878 0.123059 0.000000
0.903584 0.122764 0.000000
0.915824 0.122571 0.000000
0.927925 0.122454 0.000000
0.939937 0.122384 0.000000
0.951881 0.122348 0.000000
0.962764 0.122327 0.000000
0.973062 0.122317 0.000000
0.983418 0.122298 0.000000
0.993713 0.122298 0.000000
0.000000 0.360503 0.046195
0.010325 0.358592 0.044997
0.020652 0.356732 0.043871
0.031035 0.354780 0.042652
0.044206 0.352517 0.041224
0.067223 0.349111 0.039065
0.095370 0.344700 0.036261
0.127298 0.339140 0.032761
0.163969 0.332267 0.028410
0.205956 0.323876 0.023164
0.253752 0.313877 0.016841
0.307415 0.302264 0.009528
0.366344 0.289178 0.002492
0.429021 0.275083 0.000120
0.494130 0.260244 0.000000
0.559826 0.245205 0.000000
0.624623 0.230398 0.000000
0.686851 0.216226 0.000000
0.745342 0.203087 0.000000
0.797898 0.191291 0.000000
0.839381 0.180970 0.000000
0.869285 0.172166 0.000000
0.890734 0.165443 0.000000
0.903584 0.160780 0.000000
0.915824 0.157302 0.000000
0.927925 0.154862 0.000000
0.939937 0.153265 0.000000
0.951881 0.152348 0.000000
0.962764 0.151947 0.000000
0.973062 0.151751 0.000000
0.983418 0.151546 0.000000
0.993713 0.151338 0.000000
0.000000 0.423479 0.054480
0.010325 0.421625 0.053271
0.020652 0.419778 0.052138
0.030979 0.417843 0.050919
0.041615 0.415571 0.049491
0.059811 0.412156 0.047327
0.087639 0.407745 0.044535
0.119501 0.402165 0.041064
0.156180 0.395242 0.036684
0.198154 0.386877 0.031430
0.245993 0.376938 0.025128
0.299648 0.365325 0.017796
0.358523 0.352241 0.009549
0.421263 0.338135 0.002145
0.486377 0.323269 0.000091
0.552043 0.308171 0.000000
0.616826 0.293368 0.000000
0.679067 0.279260 0.000000
0.737579 0.266127 0.000000
0.790471 0.254347 0.000000
0.834190 0.244042 0.000000
0.865825 0.235182 0.000000
0.889626 0.227822 0.000000
0.903564 0.221919 0.000000
0.915824 0.217412 0.000000
0.927925 0.214151 0.000000
0.939937 0.212023 0.000000
0.951881 0.210829 0.000000
0.962764 0.210292 0.000000
0.973062 0.210034 0.000000
0.983418 0.209787 0.000000
0.993713 0.209539 0.000000
0.000000 0.490620 0.063474
0.010325 0.488725 0.062265
0.020652 0.486895 0.061106
0.030977 0.484933 0.059928
0.041397 0.482690 0.058445
0.055521 0.479274 0.056309
0.079203 0.474849 0.053496
0.111083 0.469291 0.050035
0.147757 0.462384 0.045641
0.189765 0.454039 0.040368
0.237577 0.444040 0.034066
0.291226 0.432419 0.026749
0.350135 0.419404 0.018522
0.412841 0.405254 0.009634
0.477958 0.390398 0.001972
0.543618 0.375376 0.000086
0.608418 0.360526 0.000000
0.670626 0.346396 0.000000
0.729119 0.333245 0.000000
0.782036 0.321466 0.000000
0.827111 0.311164 0.000000
0.861450 0.302360 0.000000
0.886980 0.295005 0.000000
0.903465 0.289050 0.000000
0.915824 0.284517 0.000000
0.927925 0.281275 0.000000
0.939937 0.279173 0.000000
0.951881 0.277949 0.000000
0.962764 0.277411 0.000000
0.973062 0.277163 0.000000
0.983418 0.276905 0.000000
0.993713 0.276657 0.000000
0.000000 0.560423 0.072910
0.010325 0.558549 0.071717
0.020652 0.556706 0.070550
0.030977 0.554817 0.069308
0.041397 0.552578 0.067908
0.054306 0.549109 0.065712
0.071958 0.544676 0.062931
0.102260 0.539099 0.059445
0.138897 0.532174 0.055097
0.180854 0.523825 0.049792
0.228695 0.513873 0.043480
0.282359 0.502297 0.036152
0.341230 0.489212 0.027960
0.403956 0.475074 0.019072
0.469125 0.460236 0.009681
0.534803 0.445171 0.001946
0.599610 0.430356 0.000093
0.661810 0.416203 0.000000
0.720229 0.403094 0.000000
0.773202 0.391366 0.000000
0.819580 0.381034 0.000000
0.856851 0.372172 0.000000
0.883986 0.364826 0.000000
0.903336 0.358936 0.000000
0.915824 0.354416 0.000000
0.927925 0.351160 0.000000
0.939937 0.348993 0.000000
0.951881 0.347807 0.000000
0.962764 0.347250 0.000000
0.973062 0.346980 0.000000
0.983418 0.346745 0.000000
0.993713 0.346556 0.000000
0.000000 0.630882 0.082398
0.010325 0.629021 0.081250
0.020652 0.627176 0.080088
0.030977 0.625230 0.078839
0.041397 0.623020 0.077401
0.054269 0.619598 0.075269
0.068438 0.615132 0.072493
0.093315 0.609538 0.068973
0.129952 0.602642 0.064599
0.171868 0.594294 0.059349
0.219725 0.584323 0.053041
0.273334 0.572727 0.045705
0.332259 0.559668 0.037458
0.394930 0.545531 0.028624
0.460111 0.530707 0.019234
0.525850 0.515666 0.009674
0.590649 0.500784 0.002055
0.652857 0.486673 0.000120
0.711278 0.473533 0.000000
0.764250 0.461800 0.000000
0.811066 0.451500 0.000000
0.851152 0.442627 0.000000
0.879951 0.435275 0.000000
0.902095 0.429395 0.000000
0.915808 0.424858 0.000000
0.927925 0.421633 0.000000
0.939937 0.419504 0.000000
0.951881 0.418293 0.000000
0.962764 0.417707 0.000000
0.973062 0.417433 0.000000
0.983418 0.417186 0.000000
0.993713 0.416968 0.000000
0.000000 0.700402 0.091825
0.010325 0.698496 0.090631
0.020652 0.696666 0.089529
0.030977 0.694718 0.088279
0.041397 0.692462 0.086828
0.054266 0.689045 0.084688
0.067513 0.684634 0.081883
0.086651 0.679077 0.078364
0.121137 0.672166 0.074041
0.163052 0.663789 0.068786
0.210868 0.653828 0.062472
0.264532 0.642206 0.055146
0.323437 0.629176 0.046876
0.386117 0.615027 0.037949
0.451305 0.600188 0.028619
0.516975 0.585156 0.019108
0.581812 0.570319 0.009774
0.644035 0.556148 0.002315
0.702445 0.543016 0.000165
0.755347 0.531230 0.000000
0.802163 0.520942 0.000000
0.843815 0.512142 0.000000
0.875446 0.504774 0.000000
0.899236 0.498826 0.000000
0.915687 0.494312 0.000000
0.927925 0.491073 0.000000
0.939937 0.488986 0.000000
0.951881 0.487726 0.000000
0.962764 0.487196 0.000000
0.973062 0.486938 0.000000
0.983418 0.486705 0.000000
0.993713 0.486458 0.000000
0.000000 0.767112 0.100810
0.010325 0.765251 0.099615
0.020652 0.763421 0.098485
0.030977 0.761458 0.097250
0.041397 0.759205 0.095824
0.054266 0.755800 0.093656
0.067430 0.751362 0.090848
0.083025 0.745785 0.087361
0.112715 0.738854 0.083009
0.154631 0.730510 0.077760
0.202422 0.720536 0.071457
0.256088 0.708924 0.064119
0.315004 0.695856 0.055860
0.377698 0.681759 0.046907
0.442870 0.666927 0.037557
0.508609 0.651880 0.028085
0.573378 0.636981 0.018758
0.635608 0.622869 0.009834
0.694034 0.609755 0.002690
0.746978 0.597960 0.000220
0.793779 0.587642 0.000000
0.836263 0.578804 0.000000
0.870916 0.571450 0.000000
0.895981 0.565559 0.000000
0.915471 0.561026 0.000000
0.927925 0.557760 0.000000
0.939937 0.555618 0.000000
0.951881 0.554446 0.000000
0.962764 0.553917 0.000000
0.973062 0.553632 0.000000
0.983418 0.553398 0.000000
0.993713 0.553167 0.000000
0.000000 0.823403 0.109171
0.010325 0.821710 0.107945
0.020652 0.820074 0.106830
0.030977 0.818310 0.105598
0.041397 0.816248 0.104156
0.054266 0.813169 0.102006
0.067408 0.809217 0.099174
0.080844 0.804244 0.095679
0.105431 0.797999 0.091354
0.146824 0.790381 0.086104
0.194666 0.781352 0.079802
0.248315 0.770769 0.072461
0.307163 0.758135 0.064202
0.369854 0.743967 0.055286
0.435077 0.729134 0.045911
0.500724 0.714104 0.036429
0.565533 0.699273 0.027104
0.627751 0.685100 0.018167
0.686174 0.671982 0.009859
0.739131 0.660258 0.003174
0.785926 0.649907 0.000289
0.828457 0.641109 0.000000
0.864824 0.633713 0.000000
0.892026 0.627796 0.000000
0.913170 0.623348 0.000000
0.927831 0.620099 0.000000
0.939937 0.617919 0.000000
0.951881 0.616648 0.000000
0.962764 0.616117 0.000000
0.973062 0.615849 0.000000
0.983418 0.615613 0.000000
0.993713 0.615365 0.000000
0.000000 0.847308 0.116603
0.010325 0.846595 0.115395
0.020652 0.845885 0.114242
0.030977 0.845087 0.113041
0.041397 0.844192 0.111596
0.054266 0.842792 0.109457
0.067408 0.841074 0.106693
0.080694 0.838894 0.103153
0.101491 0.835783 0.098785
0.139827 0.831423 0.093530
0.187638 0.826073 0.087210
0.241253 0.819814 0.079896
0.300186 0.810775 0.071655
0.362861 0.798637 0.062803
0.428041 0.784740 0.053392
0.493733 0.769782 0.043879
0.558549 0.754966 0.034517
0.620783 0.740793 0.025605
0.679203 0.727672 0.017366
0.732090 0.715954 0.009951
0.778878 0.705576 0.003842
0.821441 0.696816 0.000374
0.858744 0.689456 0.000000
0.888329 0.683499 0.000000
0.910482 0.679056 0.000000
0.927534 0.675792 0.000000
0.939937 0.673610 0.000000
0.951881 0.672342 0.000000
0.962764 0.671797 0.000000
0.973062 0.671556 0.000000
0.983418 0.671308 0.000000
0.993713 0.671073 0.000000
0.000000 0.865249 0.123207
0.010325 0.865216 0.121998
0.020652 0.865192 0.120826
0.030977 0.865138 0.119577
0.041397 0.865075 0.118193
0.054266 0.864986 0.115973
0.067408 0.864886 0.113220
0.080622 0.864764 0.109712
0.098473 0.864130 0.105368
0.133663 0.861910 0.100054
0.181529 0.858392 0.093752
0.235092 0.854213 0.086431
0.294001 0.848355 0.078237
0.356673 0.840939 0.069310
0.421863 0.831949 0.059935
0.487609 0.819864 0.050435
0.552390 0.805948 0.041095
0.614601 0.791833 0.032122
0.673034 0.778684 0.023860
0.726003 0.766966 0.016455
0.772790 0.756584 0.009956
0.815258 0.747803 0.004512
0.852711 0.740473 0.000750
0.884130 0.734567 0.000108
0.907553 0.730057 0.000000
0.926356 0.726786 0.000000
0.939884 0.724629 0.000000
0.951881 0.723383 0.000000
0.962764 0.722852 0.000000
0.973062 0.722578 0.000000
0.983418 0.722329 0.000000
0.993713 0.722101 0.000000
0.000000 0.878496 0.128761
0.010325 0.878496 0.127552
0.020652 0.878496 0.126438
0.030977 0.878496 0.125217
0.041397 0.878496 0.123790
0.054266 0.878496 0.121613
0.067408 0.878496 0.118798
0.080564 0.878496 0.115287
0.095936 0.878488 0.110972
0.128367 0.878396 0.105711
0.176206 0.878203 0.099399
0.229844 0.877926 0.092077
0.288746 0.875903 0.083802
0.351420 0.871353 0.074865
0.416602 0.865182 0.065513
0.482349 0.857600 0.056036
0.547146 0.848413 0.046718
0.609342 0.836725 0.037774
0.667770 0.824128 0.029421
0.720742 0.812324 0.022021
0.767534 0.801994 0.015509
0.810011 0.793145 0.009956
0.847459 0.785822 0.005330
0.879729 0.779930 0.001975
0.904823 0.775413 0.000494
0.924439 0.772133 0.000067
0.939731 0.769974 0.000000
0.951881 0.768774 0.000000
0.962764 0.768242 0.000000
0.973062 0.767985 0.000000
0.983418 0.767737 0.000000
0.993713 0.767498 0.000000
0.000000 0.891154 0.133409
0.010325 0.891154 0.132244
0.020652 0.891154 0.131085
0.030977 0.891154 0.129864
0.041397 0.891154 0.128412
0.054266 0.891154 0.126295
0.067408 0.891154 0.123482
0.080546 0.891154 0.119994
0.094575 0.891154 0.115613
0.124184 0.891154 0.110359
0.171817 0.891154 0.104048
0.225467 0.891154 0.096740
0.284367 0.891109 0.088494
0.347056 0.890910 0.079553
0.412228 0.889611 0.070181
0.477973 0.885313 0.060695
0.542749 0.878969 0.051351
0.604965 0.871652 0.042424
0.663388 0.862659 0.034117
0.716363 0.852112 0.026707
0.763138 0.841717 0.020209
0.805618 0.832905 0.014641
0.843062 0.825569 0.009961
0.875539 0.819674 0.006279
0.902278 0.815158 0.003514
0.922408 0.811891 0.001611
0.939213 0.809738 0.000881
0.951874 0.808494 0.000653
0.962764 0.807946 0.000569
0.973062 0.807689 0.000525
0.983418 0.807441 0.000482
0.993713 0.807215 0.000386
0.000000 0.903584 0.137148
0.010325 0.903584 0.136009
0.020652 0.903584 0.134852
0.030977 0.903584 0.133577
0.041397 0.903584 0.132151
0.054266 0.903584 0.130023
0.067408 0.903584 0.127231
0.080546 0.903584 0.123706
0.094327 0.903584 0.119350
0.121890 0.903584 0.114091
0.168349 0.903584 0.107771
0.221991 0.903584 0.100447
0.280848 0.903584 0.092261
0.343524 0.903584 0.083339
0.408751 0.903584 0.073960
0.474433 0.903393 0.064424
0.539214 0.901715 0.055090
0.601426 0.897171 0.046139
0.659854 0.891092 0.037880
0.712830 0.884742 0.030478
0.759602 0.875862 0.023982
0.802078 0.867138 0.018428
0.839503 0.859809 0.013766
0.871992 0.853896 0.010006
0.899304 0.849347 0.007198
0.920572 0.846097 0.005113
0.937922 0.843910 0.003809
0.951776 0.842727 0.003082
0.962764 0.842176 0.002734
0.973062 0.841944 0.002564
0.983418 0.841697 0.002440
0.993713 0.841450 0.002278
0.000000 0.915824 0.140051
0.010325 0.915824 0.138842
0.020652 0.915824 0.137703
0.030977 0.915824 0.136479
0.041397 0.915824 0.135075
0.054266 0.915824 0.132905
0.067408 0.915824 0.130058
0.080546 0.915824 0.126567
0.094280 0.915824 0.122260
0.120388 0.915824 0.116976
0.165662 0.915824 0.110692
0.219298 0.915824 0.103371
0.278162 0.915824 0.095093
0.340818 0.915824 0.086155
0.406012 0.915824 0.076822
0.471751 0.915824 0.067350
0.536530 0.915796 0.058001
0.598745 0.915537 0.049065
0.657182 0.913059 0.040706
0.710143 0.908308 0.033311
0.756935 0.902715 0.026813
0.799407 0.895993 0.021239
0.836802 0.888929 0.016600
0.869242 0.883024 0.012905
0.896894 0.878417 0.010090
0.919170 0.875147 0.008014
0.936818 0.872996 0.006624
0.951616 0.871733 0.005843
0.962764 0.871224 0.005545
0.973062 0.870945 0.005324
0.983418 0.870698 0.005189
0.993713 0.870450 0.005072
0.000000 0.927925 0.142089
0.010325 0.927925 0.140929
0.020652 0.927925 0.139720
0.030977 0.927925 0.138489
0.041397 0.927925 0.137113
0.054266 0.927925 0.134978
0.067408 0.927925 0.132151
0.080546 0.927925 0.128605
0.094248 0.927925 0.124318
0.119342 0.927925 0.119010
0.163747 0.927925 0.112703
0.217394 0.927925 0.105431
0.276217 0.927925 0.097165
0.338906 0.927925 0.088240
0.404072 0.927925 0.078878
0.469818 0.927925 0.069389
0.534582 0.927925 0.060062
0.596809 0.927925 0.051130
0.655223 0.927831 0.042811
0.708195 0.927106 0.035396
0.754998 0.923289 0.028868
0.797448 0.918761 0.023319
0.834870 0.913068 0.018673
0.867306 0.907293 0.014963
0.894984 0.902751 0.012071
0.917905 0.899540 0.010096
0.935908 0.897343 0.008708
0.951218 0.896183 0.007930
0.962728 0.895652 0.007562
0.973062 0.895373 0.007407
0.983418 0.895125 0.007277
0.993713 0.894907 0.007110
0.000000 0.939937 0.143410
0.010325 0.939937 0.142319
0.020652 0.939937 0.141109
0.030977 0.939937 0.139862
0.041397 0.939937 0.138435
0.054266 0.939937 0.136311
0.067408 0.939937 0.133544
0.080546 0.939937 0.129981
0.094235 0.939937 0.125613
0.118647 0.939937 0.120360
0.162453 0.939937 0.114053
0.216109 0.939937 0.106732
0.274962 0.939937 0.098491
0.337635 0.939937 0.089634
0.402841 0.939937 0.080236
0.468525 0.939937 0.070686
0.533317 0.939937 0.061365
0.595542 0.939937 0.052430
0.653969 0.939937 0.044193
0.706905 0.939937 0.036788
0.753722 0.939387 0.030266
0.796182 0.936945 0.024656
0.833579 0.932837 0.020054
0.866003 0.927592 0.016287
0.893692 0.923075 0.013437
0.916754 0.919824 0.011401
0.935264 0.917761 0.010097
0.950700 0.916479 0.009320
0.962679 0.915930 0.008929
0.973062 0.915667 0.008796
0.983418 0.915418 0.008672
0.993713 0.915175 0.008486
0.000000 0.951881 0.144187
0.010325 0.951881 0.143074
0.020652 0.951881 0.141895
0.030977 0.951881 0.140639
0.041397 0.951881 0.139189
0.054266 0.951881 0.137067
0.067408 0.951881 0.134322
0.080546 0.951881 0.130762
0.094220 0.951881 0.126391
0.118266 0.951881 0.121136
0.161711 0.951881 0.114835
0.215340 0.951881 0.107513
0.274264 0.951881 0.099320
0.336948 0.951881 0.090413
0.402096 0.951881 0.081001
0.467777 0.951881 0.071462
0.532541 0.951881 0.062131
