Postproduction/IWLTBAP - Humble/LUTs by IWLTBAP (CUBE)/UTILITY/Generic LOG to Rec.709/U-9997-LTR.cube
# Copyright: (C) Copyright 2010-2018 by IWLTBAP SAS
# Cannot be resold, shared or otherwise redistributed
# Website: https://luts.iwltbap.com
TITLE "IWLTBAP 9997 (Utility LOG to Rec.709)"
LUT_3D_SIZE 5
DOMAIN_MIN 0.000000 0.000000 0.000000
DOMAIN_MAX 0.903226 0.903226 0.903226
0.000000 0.000000 0.000000
0.118109 0.000000 0.000000
0.376659 0.000000 0.000000
0.717395 0.000000 0.000000
0.927500 0.000000 0.000000
0.000000 0.118109 0.000000
0.118109 0.118109 0.000000
0.376659 0.118109 0.000000
0.717395 0.118093 0.000000
0.927500 0.118081 0.000000
0.000000 0.376659 0.000000
0.118109 0.376659 0.000000
0.376651 0.376651 0.000000
0.717395 0.376609 0.000000
0.927500 0.376641 0.000000
0.000000 0.717395 0.000000
0.118093 0.717395 0.000000
0.376609 0.717395 0.000000
0.717395 0.717395 0.000000
0.927500 0.717424 0.000000
0.000000 0.927500 0.000000
0.118081 0.927500 0.000000
0.376641 0.927500 0.000000
0.717424 0.927500 0.000000
0.927503 0.927503 0.000000
0.000000 0.000000 0.118109
0.118109 0.000000 0.118109
0.376659 0.000000 0.118109
0.717395 0.000000 0.118093
0.927500 0.000000 0.118081
0.000000 0.118109 0.118109
0.117981 0.118048 0.118048
0.394322 0.100666 0.100666
0.759590 0.076110 0.076110
0.970041 0.075745 0.075745
0.000000 0.376659 0.118109
0.095073 0.399927 0.095073
0.399145 0.399145 0.094295
0.763682 0.368576 0.071785
0.970177 0.360822 0.075433
0.000000 0.717395 0.118093
0.069035 0.766695 0.069035
0.367891 0.767265 0.068204
0.766660 0.766660 0.068178
0.970177 0.740029 0.075433
0.000000 0.927500 0.118081
0.075745 0.970041 0.075745
0.360822 0.970177 0.075433
0.740029 0.970177 0.075433
0.969806 0.969806 0.075714
0.000000 0.000000 0.376659
0.118109 0.000000 0.376659
0.376651 0.000000 0.376651
0.717395 0.000000 0.376609
0.927500 0.000000 0.376641
0.000000 0.118109 0.376659
0.095073 0.095073 0.399927
0.399145 0.094295 0.399145
0.763844 0.071642 0.368541
0.970177 0.075433 0.360822
0.000000 0.376651 0.376651
0.094295 0.399145 0.399145
0.376504 0.376669 0.376669
0.742987 0.352002 0.352002
0.965787 0.339316 0.339316
0.000000 0.717395 0.376609
0.068204 0.767265 0.367891
0.344147 0.751128 0.344147
0.750127 0.750127 0.343143
0.970579 0.730872 0.333593
0.000000 0.927500 0.376641
0.075433 0.970177 0.360822
0.334423 0.970773 0.334423
0.730923 0.970746 0.333437
0.970308 0.970308 0.333746
0.000000 0.000000 0.717395
0.118093 0.000000 0.717395
0.376609 0.000000 0.717395
0.717395 0.000000 0.717395
0.927500 0.000000 0.717424
0.000000 0.118093 0.717395
0.069035 0.069035 0.766695
0.367891 0.068204 0.767265
0.766660 0.068178 0.766660
0.970177 0.075433 0.740029
0.000000 0.376609 0.717395
0.068204 0.367891 0.767265
0.344147 0.344147 0.751128
0.750127 0.343143 0.750127
0.970579 0.333593 0.730872
0.000000 0.717395 0.717395
0.068178 0.766660 0.766660
0.343143 0.750127 0.750127
0.717498 0.717554 0.717554
0.940897 0.704573 0.704573
0.000000 0.927500 0.717424
0.075433 0.970177 0.740029
0.333437 0.970746 0.730923
0.700445 0.945192 0.700445
0.944743 0.944743 0.699987
0.000000 0.000000 0.927500
0.118081 0.000000 0.927500
0.376641 0.000000 0.927500
0.717424 0.000000 0.927500
0.927503 0.000000 0.927503
0.000000 0.118081 0.927500
0.075745 0.075745 0.970041
0.360822 0.075433 0.970177
0.740029 0.075433 0.970177
0.969806 0.075714 0.969806
0.000000 0.376641 0.927500
0.075433 0.360822 0.970177
0.334423 0.334423 0.970773
0.730923 0.333437 0.970746
0.970308 0.333746 0.970308
0.000000 0.717424 0.927500
0.075433 0.740029 0.970177
0.333437 0.730923 0.970746
0.700445 0.700445 0.945192
0.944743 0.699987 0.944743
0.000000 0.927503 0.927503
0.075714 0.969806 0.969806
0.333746 0.970308 0.970308
0.699987 0.944743 0.944743
0.927568 0.927572 0.927572
