Postproduction/IWLTBAP - Humble/LUTs by IWLTBAP (CUBE)/UTILITY/Generic LOG to Rec.709/U-9993-LTR.cube
# Copyright: (C) Copyright 2010-2018 by IWLTBAP SAS
# Cannot be resold, shared or otherwise redistributed
# Website: https://luts.iwltbap.com
TITLE "IWLTBAP 9993 (Utility LOG to Rec.709)"
LUT_3D_SIZE 8
DOMAIN_MIN 0.000000 0.000000 0.000000
DOMAIN_MAX 0.903226 0.903226 0.903226
0.062531 0.062531 0.062531
0.072323 0.062531 0.062547
0.208318 0.062531 0.064267
0.455291 0.062531 0.074524
0.746369 0.062531 0.105785
0.918182 0.062531 0.143910
0.918182 0.062531 0.157199
0.918182 0.062531 0.157501
0.062531 0.070916 0.062531
0.069984 0.070808 0.062531
0.207567 0.066361 0.063621
0.454937 0.062878 0.073731
0.746147 0.062531 0.105058
0.918182 0.062531 0.143458
0.918182 0.062531 0.156769
0.918182 0.062531 0.157068
0.062531 0.196429 0.062531
0.062791 0.196387 0.062531
0.181674 0.194264 0.062531
0.448383 0.179278 0.063097
0.743405 0.115481 0.087172
0.918182 0.076563 0.130146
0.918182 0.073744 0.145188
0.918182 0.073736 0.145469
0.062531 0.430335 0.062531
0.062531 0.430330 0.062531
0.066426 0.429791 0.062531
0.401120 0.425817 0.062531
0.724561 0.413476 0.062531
0.918182 0.393664 0.062531
0.918182 0.383868 0.062531
0.918182 0.383572 0.062531
0.062531 0.706211 0.062531
0.062531 0.706211 0.062531
0.062531 0.705928 0.062531
0.120018 0.704253 0.062531
0.661434 0.698981 0.062531
0.914114 0.691224 0.062531
0.918182 0.687555 0.062531
0.918182 0.687555 0.062531
0.062531 0.911516 0.062531
0.062531 0.911516 0.062531
0.062531 0.911339 0.062531
0.062531 0.910670 0.062531
0.541309 0.908656 0.062531
0.871648 0.905362 0.062531
0.918182 0.903505 0.062531
0.918182 0.903505 0.062531
0.062531 0.918182 0.062531
0.062531 0.918182 0.062531
0.062531 0.918182 0.062531
0.062531 0.918182 0.062531
0.461072 0.918182 0.062531
0.842812 0.918182 0.062531
0.918182 0.918182 0.062531
0.918182 0.918182 0.062531
0.062531 0.918182 0.062531
0.062531 0.918182 0.062531
0.062531 0.918182 0.062531
0.062531 0.918182 0.062531
0.458909 0.918182 0.062531
0.842097 0.918182 0.062531
0.918182 0.918182 0.062531
0.918182 0.918182 0.062531
0.062531 0.062531 0.070006
0.071651 0.062531 0.070014
0.208249 0.062531 0.071534
0.455008 0.062531 0.081891
0.746181 0.062531 0.112290
0.918182 0.062531 0.148551
0.918182 0.062531 0.161376
0.918182 0.062531 0.161678
0.062531 0.069478 0.068988
0.069524 0.069372 0.069231
0.207271 0.065092 0.070735
0.454924 0.062846 0.081113
0.746138 0.062531 0.111636
0.918182 0.062531 0.148134
0.918182 0.062531 0.160977
0.918182 0.062531 0.161258
0.062531 0.195772 0.063418
0.062774 0.195746 0.063448
0.181364 0.193603 0.063640
0.448366 0.178365 0.065600
0.743398 0.114530 0.094347
0.918182 0.076258 0.135433
0.918182 0.073382 0.149962
0.918182 0.073373 0.150264
0.062531 0.430081 0.062531
0.062531 0.430058 0.062531
0.066420 0.429500 0.062531
0.401053 0.425535 0.062531
0.724554 0.413211 0.062531
0.918182 0.393526 0.063009
0.918182 0.383563 0.065453
0.918182 0.383280 0.065884
0.062531 0.706180 0.062531
0.062531 0.706174 0.062531
0.062531 0.705885 0.062531
0.119967 0.704206 0.062531
0.661429 0.698950 0.062531
0.914113 0.691184 0.062531
0.918182 0.687486 0.062531
0.918182 0.687327 0.062531
0.062531 0.911513 0.062531
0.062531 0.911512 0.062531
0.062531 0.911337 0.062531
0.062531 0.910665 0.062531
0.541300 0.908654 0.062531
0.871646 0.905360 0.062531
0.918182 0.903503 0.062531
0.918182 0.903502 0.062531
0.062531 0.918182 0.062531
0.062531 0.918182 0.062531
0.062531 0.918182 0.062531
0.062531 0.918182 0.062531
0.461041 0.918182 0.062531
0.842788 0.918182 0.062531
0.918182 0.918182 0.062531
0.918182 0.918182 0.062531
0.062531 0.918182 0.062531
0.062531 0.918182 0.062531
0.062531 0.918182 0.062531
0.062531 0.918182 0.062531
0.458897 0.918182 0.062531
0.842080 0.918182 0.062531
0.918182 0.918182 0.062531
0.918182 0.918182 0.062531
0.062531 0.062531 0.185327
0.065199 0.062531 0.185330
0.203446 0.062531 0.186098
0.453722 0.062531 0.190725
0.745603 0.062531 0.203922
0.918182 0.062531 0.221498
0.918182 0.062531 0.228817
0.918182 0.062531 0.228951
0.062531 0.063013 0.184955
0.064499 0.063009 0.184963
0.202439 0.062885 0.185768
0.453415 0.062531 0.190398
0.745566 0.062531 0.203796
0.918182 0.062531 0.221179
0.918182 0.062531 0.228511
0.918182 0.062531 0.228655
0.062531 0.178968 0.176356
0.062557 0.178909 0.176362
0.175162 0.176448 0.177176
0.447045 0.158076 0.182144
0.742830 0.089531 0.196386
0.918182 0.070377 0.214890
0.918182 0.066161 0.222468
0.918182 0.066148 0.222618
0.062531 0.425783 0.101305
0.062531 0.425779 0.101331
0.066152 0.425054 0.102644
0.399261 0.421064 0.110575
0.723967 0.408464 0.133318
0.918182 0.388348 0.159522
0.918182 0.378223 0.170766
0.918182 0.378083 0.171068
0.062531 0.704243 0.062531
0.062531 0.704241 0.062531
0.062531 0.703993 0.062531
0.119328 0.702327 0.062531
0.660653 0.697065 0.062698
0.913942 0.689135 0.063690
0.918182 0.685532 0.064001
0.918182 0.685393 0.064002
0.062531 0.910673 0.062531
0.062531 0.910673 0.062531
0.062531 0.910666 0.062531
0.062531 0.909999 0.062531
0.540226 0.907963 0.062531
0.871153 0.904539 0.062531
0.918182 0.902819 0.062531
0.918182 0.902673 0.062531
0.062531 0.918182 0.062531
0.062531 0.918182 0.062531
0.062531 0.918182 0.062531
0.062531 0.918182 0.062531
0.459636 0.918182 0.062531
0.842288 0.918182 0.062531
0.918182 0.918182 0.062531
0.918182 0.918182 0.062531
0.062531 0.918182 0.062531
0.062531 0.918182 0.062531
0.062531 0.918182 0.062531
0.062531 0.918182 0.062531
0.457472 0.918182 0.062531
0.841688 0.918182 0.062531
0.918182 0.918182 0.062531
0.918182 0.918182 0.062531
0.062531 0.062531 0.407188
0.062531 0.062531 0.407194
0.163582 0.062531 0.407467
0.444886 0.062531 0.408783
0.741817 0.062531 0.412823
0.918182 0.062531 0.418720
0.918182 0.062531 0.421434
0.918182 0.062531 0.421434
0.062531 0.062531 0.406974
0.062531 0.062531 0.407173
0.162137 0.062531 0.407251
0.444561 0.062531 0.408567
0.741767 0.062531 0.412761
0.918182 0.062531 0.418677
0.918182 0.062531 0.421419
0.918182 0.062531 0.421419
0.062531 0.067507 0.404810
0.062531 0.067506 0.404810
0.127828 0.067423 0.404839
0.437911 0.066850 0.406200
0.738854 0.064245 0.410438
0.918182 0.062531 0.416478
0.918182 0.062531 0.419126
0.918182 0.062531 0.419268
0.062531 0.394803 0.388780
0.062531 0.394798 0.388780
0.063886 0.394047 0.388996
0.387924 0.389456 0.390382
0.719902 0.374841 0.394884
0.918182 0.351173 0.401247
0.918182 0.338994 0.404245
0.918182 0.338704 0.404248
0.062531 0.691473 0.330076
0.062531 0.691473 0.330077
0.062531 0.691216 0.330346
0.114839 0.689508 0.332276
0.655933 0.684171 0.338240
0.912250 0.675991 0.346553
0.918182 0.672246 0.350363
0.918182 0.672099 0.350509
0.062531 0.906060 0.170085
0.062531 0.906060 0.170244
0.062531 0.905907 0.170960
0.062531 0.905213 0.175556
0.533521 0.903173 0.188715
0.868458 0.899755 0.205704
0.918182 0.897902 0.213420
0.918182 0.897902 0.213556
0.062531 0.918182 0.123325
0.062531 0.918182 0.123328
0.062531 0.918182 0.123375
0.062531 0.918182 0.123869
0.450516 0.918182 0.124991
0.839154 0.918182 0.126237
0.918182 0.918182 0.126593
0.918182 0.918182 0.126594
0.062531 0.918182 0.123312
0.062531 0.918182 0.123312
0.062531 0.918182 0.123359
0.062531 0.918182 0.123853
0.448217 0.918182 0.124976
0.838442 0.918182 0.126221
0.918182 0.918182 0.126578
0.918182 0.918182 0.126578
0.062531 0.062531 0.668800
0.062531 0.062531 0.668802
0.070787 0.062531 0.669044
0.415296 0.062531 0.669575
0.729863 0.062531 0.671389
0.918182 0.062531 0.674058
0.918182 0.062531 0.675187
0.918182 0.062531 0.675187
0.062531 0.062531 0.668792
0.062531 0.062531 0.668792
0.069936 0.062531 0.668987
0.414955 0.062531 0.669565
0.729829 0.062531 0.671357
0.918182 0.062531 0.673882
0.918182 0.062531 0.675163
0.918182 0.062531 0.675163
0.062531 0.062531 0.667727
0.062531 0.062531 0.667897
0.065107 0.062531 0.667965
0.407279 0.062531 0.668493
0.726883 0.062531 0.670323
0.918182 0.062531 0.672962
0.918182 0.062531 0.674109
0.918182 0.062531 0.674109
0.062531 0.252759 0.661121
0.062531 0.252751 0.661124
0.062531 0.251651 0.661163
0.347837 0.244016 0.661733
0.707396 0.217161 0.663510
0.918182 0.148252 0.666261
0.918182 0.121854 0.667545
0.918182 0.121849 0.667546
0.062531 0.650180 0.639780
0.062531 0.650180 0.639781
0.062531 0.649904 0.639828
0.100391 0.647978 0.640553
0.641102 0.641873 0.642391
0.907168 0.632933 0.645340
0.918182 0.628507 0.646653
0.918182 0.628507 0.646655
0.062531 0.890211 0.605743
0.062531 0.890211 0.605743
0.062531 0.890208 0.605773
0.062531 0.889518 0.606522
0.511701 0.887315 0.608566
0.859756 0.883729 0.611739
0.918182 0.881855 0.613212
0.918182 0.881722 0.613212
0.062531 0.918182 0.588496
0.062531 0.918182 0.588496
0.062531 0.918182 0.588562
0.062531 0.918182 0.589350
0.419352 0.918182 0.591568
0.829581 0.918182 0.594887
0.918182 0.918182 0.596379
0.918182 0.918182 0.596379
0.062531 0.918182 0.588062
0.062531 0.918182 0.588062
0.062531 0.918182 0.588279
0.062531 0.918182 0.589052
0.416763 0.918182 0.591267
0.828858 0.918182 0.594453
0.918182 0.918182 0.596076
0.918182 0.918182 0.596076
0.062531 0.062531 0.879720
0.062531 0.062531 0.879720
0.062531 0.062531 0.879720
0.362428 0.062531 0.879907
0.711640 0.062531 0.880575
0.918182 0.062531 0.881731
0.918182 0.062531 0.882336
0.918182 0.062531 0.882336
0.062531 0.062531 0.879577
0.062531 0.062531 0.879577
0.062531 0.062531 0.879719
0.362078 0.062531 0.879906
0.711602 0.062531 0.880575
0.918182 0.062531 0.881730
0.918182 0.062531 0.882336
0.918182 0.062531 0.882336
0.062531 0.062531 0.879214
0.062531 0.062531 0.879214
0.062531 0.062531 0.879218
0.352190 0.062531 0.879567
0.708473 0.062531 0.880228
0.918182 0.062531 0.881380
0.918182 0.062531 0.881993
0.918182 0.062531 0.881993
0.062531 0.091308 0.875991
0.062531 0.091270 0.875991
0.062531 0.090660 0.876154
0.270468 0.086184 0.876430
0.688021 0.069598 0.877325
0.917970 0.066788 0.878723
0.918182 0.066346 0.879410
0.918182 0.066341 0.879410
0.062531 0.578687 0.863015
0.062531 0.578686 0.863031
0.062531 0.578370 0.863079
0.074382 0.575986 0.863536
0.618105 0.568535 0.864668
0.898779 0.557271 0.866331
0.918182 0.551848 0.867085
0.918182 0.551700 0.867231
0.062531 0.857292 0.843280
0.062531 0.857280 0.843280
0.062531 0.857022 0.843350
0.062531 0.855837 0.843652
0.475071 0.852134 0.844942
0.846535 0.846686 0.846772
0.918182 0.844083 0.847567
0.918182 0.844079 0.847572
0.062531 0.918182 0.833872
0.062531 0.918182 0.833872
0.062531 0.918182 0.833879
0.062531 0.918182 0.834379
0.358730 0.918182 0.835657
0.815083 0.918182 0.837371
0.918165 0.918182 0.838263
0.918182 0.918182 0.838271
0.062531 0.918182 0.833717
0.062531 0.918182 0.833717
0.062531 0.918182 0.833719
0.062531 0.918182 0.834232
0.354855 0.918182 0.835360
0.814353 0.918182 0.837224
0.918160 0.918182 0.837988
0.918182 0.918182 0.838115
0.062531 0.062531 0.918182
0.062531 0.062531 0.918182
0.062531 0.062531 0.918182
0.331487 0.062531 0.918182
0.702765 0.062531 0.918182
0.918182 0.062531 0.918182
0.918182 0.062531 0.918182
0.918182 0.062531 0.918182
0.062531 0.062531 0.918182
0.062531 0.062531 0.918182
0.062531 0.062531 0.918182
0.331134 0.062531 0.918182
0.702709 0.062531 0.918182
0.918182 0.062531 0.918182
0.918182 0.062531 0.918182
0.918182 0.062531 0.918182
0.062531 0.062531 0.918182
0.062531 0.062531 0.918182
0.062531 0.062531 0.918182
0.319543 0.062531 0.918182
0.699569 0.062531 0.918182
0.918182 0.062531 0.918182
0.918182 0.062531 0.918182
0.918182 0.062531 0.918182
0.062531 0.062531 0.918182
0.062531 0.062531 0.918182
0.062531 0.062531 0.918182
0.216343 0.062531 0.918182
0.678762 0.062531 0.918182
0.917860 0.062531 0.918182
0.918182 0.062531 0.918182
0.918182 0.062531 0.918182
0.062531 0.538780 0.918182
0.062531 0.538762 0.918182
0.062531 0.538323 0.918182
0.073112 0.535516 0.918182
0.606722 0.527164 0.918182
0.894159 0.514058 0.918182
0.918182 0.507613 0.918182
0.918182 0.507475 0.918182
0.062531 0.838402 0.918107
0.062531 0.838395 0.918107
0.062531 0.838269 0.918115
0.062531 0.836936 0.918123
0.455894 0.833025 0.918162
0.840138 0.827388 0.918182
0.918182 0.824761 0.918182
0.918182 0.824631 0.918182
0.062531 0.918182 0.913206
0.062531 0.918182 0.913206
0.062531 0.918182 0.913206
0.062531 0.918182 0.913558
0.316610 0.918182 0.914636
0.808157 0.918133 0.916279
0.916825 0.916847 0.916857
0.918182 0.916847 0.916857
0.062531 0.918182 0.913070
0.062531 0.918182 0.913070
0.062531 0.918182 0.913070
0.062531 0.918182 0.913415
0.311068 0.918182 0.914477
0.807553 0.918182 0.915996
0.916419 0.918182 0.916732
0.918182 0.918182 0.916732
0.062531 0.062531 0.918182
0.062531 0.062531 0.918182
0.062531 0.062531 0.918182
0.330758 0.062531 0.918182
0.702629 0.062531 0.918182
0.918182 0.062531 0.918182
0.918182 0.062531 0.918182
0.918182 0.062531 0.918182
0.062531 0.062531 0.918182
0.062531 0.062531 0.918182
0.062531 0.062531 0.918182
0.330407 0.062531 0.918182
0.702571 0.062531 0.918182
0.918182 0.062531 0.918182
0.918182 0.062531 0.918182
0.918182 0.062531 0.918182
0.062531 0.062531 0.918182
0.062531 0.062531 0.918182
0.062531 0.062531 0.918182
0.318831 0.062531 0.918182
0.699425 0.062531 0.918182
0.918182 0.062531 0.918182
0.918182 0.062531 0.918182
0.918182 0.062531 0.918182
0.062531 0.062531 0.918182
0.062531 0.062531 0.918182
0.062531 0.062531 0.918182
0.214779 0.062531 0.918182
0.678620 0.062531 0.918182
0.917859 0.062531 0.918182
0.918182 0.062531 0.918182
0.918182 0.062531 0.918182
0.062531 0.537774 0.918182
0.062531 0.537753 0.918182
0.062531 0.537449 0.918182
0.073106 0.534648 0.918182
0.606425 0.526295 0.918182
0.894158 0.513048 0.918182
0.918182 0.506609 0.918182
0.918182 0.506465 0.918182
0.062531 0.838110 0.918182
0.062531 0.838093 0.918182
0.062531 0.837839 0.918182
0.062531 0.836634 0.918182
0.455460 0.832719 0.918182
0.839989 0.826946 0.918182
0.918182 0.824329 0.918182
0.918182 0.824202 0.918182
0.062531 0.918182 0.914687
0.062531 0.918182 0.914687
0.062531 0.918182 0.914687
0.062531 0.918182 0.915012
0.315488 0.918182 0.916093
0.807991 0.918129 0.917613
0.916700 0.916589 0.918182
0.918182 0.916589 0.918182
0.062531 0.918182 0.914520
0.062531 0.918182 0.914520
0.062531 0.918182 0.914520
0.062531 0.918182 0.914873
0.309926 0.918182 0.915957
0.807417 0.918182 0.917477
0.916287 0.918182 0.918182
0.918182 0.918182 0.918182
