Postproduction/IWLTBAP - Humble/LUTs by IWLTBAP (CUBE)/UTILITY/Generic LOG to Rec.709/U-9991-LTR.cube
# Copyright: (C) Copyright 2010-2018 by IWLTBAP SAS
# Cannot be resold, shared or otherwise redistributed
# Website: https://luts.iwltbap.com
TITLE "IWLTBAP 9991 (Utility LOG to Rec.709)"
LUT_3D_SIZE 32
0.000000 0.000000 0.000000
0.000732 0.000000 0.000000
0.010223 0.000000 0.000000
0.039948 0.000000 0.000000
0.074554 0.000000 0.000000
0.109192 0.000000 0.000000
0.143738 0.000000 0.000000
0.182007 0.000000 0.000000
0.221466 0.000000 0.000000
0.263062 0.000000 0.000000
0.306519 0.000000 0.000000
0.351837 0.000000 0.000000
0.398163 0.000000 0.000000
0.446716 0.000000 0.000000
0.496307 0.000000 0.000000
0.547241 0.000000 0.000000
0.599762 0.000000 0.000000
0.653351 0.000000 0.000000
0.708252 0.000000 0.000000
0.763672 0.000000 0.000000
0.792725 0.000000 0.000000
0.802155 0.000000 0.000000
0.802155 0.000000 0.000000
0.802155 0.000000 0.000000
0.802155 0.000000 0.000000
0.802155 0.000000 0.000000
0.802155 0.000000 0.000000
0.802155 0.000000 0.000000
0.802155 0.000000 0.000000
0.802155 0.000000 0.000000
0.802155 0.000000 0.000000
0.802155 0.000000 0.000000
0.000000 0.000000 0.000000
0.000000 0.000000 0.000000
0.007233 0.000000 0.000000
0.029083 0.000000 0.000000
0.067413 0.000000 0.000000
0.102661 0.000000 0.000000
0.136963 0.000000 0.000000
0.175415 0.000000 0.000000
0.214813 0.000000 0.000000
0.256561 0.000000 0.000000
0.300171 0.000000 0.000000
0.345306 0.000000 0.000000
0.391998 0.000000 0.000000
0.440521 0.000000 0.000000
0.490143 0.000000 0.000000
0.541077 0.000000 0.000000
0.593628 0.000000 0.000000
0.647217 0.000000 0.000000
0.702240 0.000000 0.000000
0.758240 0.000000 0.000000
0.789886 0.000000 0.000000
0.802155 0.000000 0.000000
0.802155 0.000000 0.000000
0.802155 0.000000 0.000000
0.802155 0.000000 0.000000
0.802155 0.000000 0.000000
0.802155 0.000000 0.000000
0.802155 0.000000 0.000000
0.802155 0.000000 0.000000
0.802155 0.000000 0.000000
0.802155 0.000000 0.000000
0.802155 0.000000 0.000000
0.000000 0.005890 0.000000
0.000000 0.005066 0.000000
0.004242 0.004242 0.000000
0.019470 0.003418 0.000000
0.059875 0.002167 0.000000
0.095734 0.001068 0.000000
0.130432 0.000122 0.000000
0.168610 0.000000 0.000000
0.207855 0.000000 0.000000
0.249908 0.000000 0.000000
0.293335 0.000000 0.000000
0.338470 0.000000 0.000000
0.385223 0.000000 0.000000
0.433746 0.000000 0.000000
0.483429 0.000000 0.000000
0.534485 0.000000 0.000000
0.587097 0.000000 0.000000
0.640900 0.000000 0.000000
0.695770 0.000000 0.000000
0.751923 0.000000 0.000000
0.786835 0.000000 0.000000
0.802155 0.000000 0.000000
0.802155 0.000000 0.000000
0.802155 0.000000 0.000000
0.802155 0.000000 0.000000
0.802155 0.000000 0.000000
0.802155 0.000000 0.000000
0.802155 0.000000 0.000000
0.802155 0.000000 0.000000
0.802155 0.000000 0.000000
0.802155 0.000000 0.000000
0.802155 0.000000 0.000000
0.000000 0.016174 0.000000
0.000000 0.014954 0.000000
0.001617 0.014008 0.000000
0.012604 0.012604 0.000000
0.050323 0.011200 0.000000
0.086609 0.009583 0.000000
0.121429 0.007812 0.000000
0.159424 0.006012 0.000000
0.198334 0.004425 0.000000
0.240448 0.002716 0.000000
0.283630 0.001190 0.000000
0.328583 0.000000 0.000000
0.375366 0.000000 0.000000
0.423737 0.000000 0.000000
0.473236 0.000000 0.000000
0.524292 0.000000 0.000000
0.576813 0.000000 0.000000
0.630554 0.000000 0.000000
0.685242 0.000000 0.000000
0.741425 0.000000 0.000000
0.783142 0.000000 0.000000
0.802155 0.000000 0.000000
0.802155 0.000000 0.000000
0.802155 0.000000 0.000000
0.802155 0.000000 0.000000
0.802155 0.000000 0.000000
0.802155 0.000000 0.000000
0.802155 0.000000 0.000000
0.802155 0.000000 0.000000
0.802155 0.000000 0.000000
0.802155 0.000000 0.000000
0.802155 0.000000 0.000000
0.000000 0.049316 0.000000
0.000000 0.046600 0.000000
0.000000 0.044098 0.000000
0.007690 0.040436 0.000000
0.035492 0.035492 0.000000
0.075714 0.030334 0.000000
0.111389 0.025330 0.000000
0.149109 0.020294 0.000000
0.187866 0.015930 0.000000
0.230042 0.013702 0.000000
0.273071 0.011627 0.000000
0.317993 0.009583 0.000000
0.364807 0.007355 0.000000
0.413055 0.005157 0.000000
0.462585 0.002808 0.000000
0.513733 0.000305 0.000000
0.566132 0.000000 0.000000
0.619781 0.000000 0.000000
0.674591 0.000000 0.000000
0.730713 0.000000 0.000000
0.775299 0.000000 0.000000
0.802155 0.000000 0.000000
0.802155 0.000000 0.000000
0.802155 0.000000 0.000000
0.802155 0.000000 0.000000
0.802155 0.000000 0.000000
0.802155 0.000000 0.000000
0.802155 0.000000 0.000000
0.802155 0.000000 0.000000
0.802155 0.000000 0.000000
0.802155 0.000000 0.000000
0.802155 0.000000 0.000000
0.000000 0.077057 0.000000
0.000000 0.075226 0.000000
0.000000 0.073364 0.000000
0.003326 0.070374 0.000000
0.019623 0.067047 0.000000
0.063080 0.063080 0.000000
0.100555 0.059326 0.000000
0.137726 0.055511 0.000000
0.176758 0.051331 0.000000
0.218445 0.046173 0.000000
0.261444 0.040436 0.000000
0.306366 0.033447 0.000000
0.353027 0.026825 0.000000
0.401123 0.020599 0.000000
0.450500 0.015381 0.000000
0.501587 0.013000 0.000000
0.553864 0.010681 0.000000
0.607239 0.008331 0.000000
0.662201 0.005890 0.000000
0.718323 0.003540 0.000000
0.768829 0.001892 0.000000
0.802155 0.000458 0.000000
0.802155 0.000000 0.000000
0.802155 0.000000 0.000000
0.802155 0.000000 0.000000
0.802155 0.000000 0.000000
0.802155 0.000000 0.000000
0.802155 0.000000 0.000000
0.802155 0.000000 0.000000
0.802155 0.000000 0.000000
0.802155 0.000000 0.000000
0.802155 0.000000 0.000000
0.000000 0.104004 0.000000
0.000000 0.102600 0.000000
0.000000 0.101135 0.000000
0.000000 0.098572 0.000000
0.011566 0.095520 0.000000
0.050720 0.092377 0.000000
0.089050 0.089050 0.000000
0.125916 0.085297 0.000000
0.165009 0.081421 0.000000
0.206482 0.077026 0.000000
0.249298 0.072418 0.000000
0.294312 0.067535 0.000000
0.340759 0.062408 0.000000
0.388550 0.057495 0.000000
0.437988 0.052399 0.000000
0.489166 0.046387 0.000000
0.541290 0.039185 0.000000
0.594604 0.030975 0.000000
0.649597 0.023560 0.000000
0.705414 0.016846 0.000000
0.758453 0.013489 0.000000
0.800293 0.010834 0.000000
0.802155 0.008514 0.000000
0.802155 0.006195 0.000000
0.802155 0.004639 0.000000
0.802155 0.003967 0.000000
0.802155 0.003357 0.000000
0.802155 0.002625 0.000000
0.802155 0.001984 0.000000
0.802155 0.001312 0.000000
0.802155 0.001251 0.000000
0.802155 0.001190 0.000000
0.000000 0.132385 0.000000
0.000000 0.131165 0.000000
0.000000 0.129608 0.000000
0.000000 0.126801 0.000000
0.005554 0.123993 0.000000
0.032745 0.120728 0.000000
0.075958 0.117157 0.000000
0.113556 0.113556 0.000000
0.152649 0.109772 0.000000
0.193848 0.105652 0.000000
0.236328 0.101685 0.000000
0.281433 0.097382 0.000000
0.327515 0.093170 0.000000
0.375336 0.088776 0.000000
0.424805 0.084167 0.000000
0.475616 0.079163 0.000000
0.527618 0.073730 0.000000
0.581116 0.068176 0.000000
0.635803 0.062378 0.000000
0.691681 0.056885 0.000000
0.747650 0.051178 0.000000
0.793976 0.043884 0.000000
0.802155 0.035400 0.000000
0.802155 0.026825 0.000000
0.802155 0.019958 0.000000
0.802155 0.017212 0.000000
0.802155 0.015106 0.000000
0.802155 0.014038 0.000000
0.802155 0.012817 0.000000
0.802155 0.011719 0.000000
0.802155 0.011597 0.000000
0.802155 0.011566 0.000000
0.000000 0.162018 0.000000
0.000000 0.160797 0.000000
0.000000 0.159454 0.000000
0.000000 0.156677 0.000000
0.000000 0.153931 0.000000
0.015808 0.150696 0.000000
0.061523 0.147125 0.000000
0.100861 0.143494 0.000000
0.139771 0.139771 0.000000
0.180695 0.135651 0.000000
0.223236 0.131622 0.000000
0.267975 0.127167 0.000000
0.314087 0.122894 0.000000
0.361877 0.118469 0.000000
0.411255 0.113708 0.000000
0.461884 0.109070 0.000000
0.513824 0.104095 0.000000
0.567200 0.099243 0.000000
0.621887 0.094086 0.000000
0.677460 0.089081 0.000000
0.734436 0.083740 0.000000
0.785187 0.077942 0.000000
0.802155 0.071838 0.000000
0.802155 0.065582 0.000000
0.802155 0.059509 0.000000
0.802155 0.057037 0.000000
0.802155 0.054718 0.000000
0.802155 0.052155 0.000000
0.802155 0.049927 0.000000
0.802155 0.046570 0.000000
0.802155 0.046173 0.000000
0.802155 0.045990 0.000000
0.000000 0.193420 0.000000
0.000000 0.192200 0.000000
0.000000 0.190857 0.000000
0.000000 0.188141 0.000000
0.000000 0.185425 0.000000
0.009155 0.182129 0.000000
0.045929 0.178558 0.000000
0.087830 0.174835 0.000000
0.126221 0.171051 0.000000
0.166840 0.166840 0.000000
0.209656 0.162750 0.000000
0.254150 0.158295 0.000000
0.300079 0.153931 0.000000
0.347717 0.149536 0.000000
0.396881 0.144775 0.000000
0.447388 0.140167 0.000000
0.499451 0.135284 0.000000
0.552673 0.130402 0.000000
0.607117 0.125305 0.000000
0.662720 0.120331 0.000000
0.719727 0.115021 0.000000
0.777618 0.109802 0.000000
0.802155 0.104340 0.000000
0.802155 0.099030 0.000000
0.802155 0.093384 0.000000
0.802155 0.090790 0.000000
0.802155 0.088470 0.000000
0.802155 0.086029 0.000000
0.802155 0.083801 0.000000
0.802155 0.081329 0.000000
0.802155 0.081055 0.000000
0.802155 0.080963 0.000000
0.000000 0.225677 0.000000
0.000000 0.224426 0.000000
0.000000 0.223175 0.000000
0.000000 0.220703 0.000000
0.000000 0.217957 0.000000
0.003662 0.214722 0.000000
0.024628 0.211365 0.000000
0.073151 0.207489 0.000000
0.112396 0.203705 0.000000
0.152893 0.199738 0.000000
0.195435 0.195435 0.000000
0.239899 0.191193 0.000000
0.285461 0.186646 0.000000
0.333282 0.182129 0.000000
0.382294 0.177368 0.000000
0.432648 0.172668 0.000000
0.484558 0.167664 0.000000
0.537689 0.162750 0.000000
0.592163 0.157562 0.000000
0.647491 0.152466 0.000000
0.704498 0.147125 0.000000
0.762360 0.141846 0.000000
0.802155 0.136292 0.000000
0.802155 0.130920 0.000000
0.802155 0.125214 0.000000
0.802155 0.122009 0.000000
0.802155 0.119629 0.000000
0.802155 0.117157 0.000000
0.802155 0.114960 0.000000
0.802155 0.112671 0.000000
0.802155 0.112396 0.000000
0.802155 0.112335 0.000000
0.000000 0.259888 0.000000
0.000000 0.258453 0.000000
0.000000 0.257111 0.000000
0.000000 0.254791 0.000000
0.000000 0.252228 0.000000
0.000000 0.248810 0.000000
0.012115 0.245422 0.000000
0.057129 0.241699 0.000000
0.098175 0.237701 0.000000
0.138702 0.233643 0.000000
0.181000 0.229523 0.000000
0.225006 0.225006 0.000000
0.270782 0.220581 0.000000
0.318268 0.215851 0.000000
0.367035 0.211182 0.000000
0.417328 0.206268 0.000000
0.469421 0.201385 0.000000
0.522369 0.196289 0.000000
0.576508 0.191315 0.000000
0.632050 0.186066 0.000000
0.688934 0.180908 0.000000
0.746521 0.175476 0.000000
0.795319 0.170197 0.000000
0.802155 0.164581 0.000000
0.802155 0.159058 0.000000
0.802155 0.155243 0.000000
0.802155 0.152863 0.000000
0.802155 0.150513 0.000000
0.802155 0.147949 0.000000
0.802155 0.145630 0.000000
0.802155 0.145355 0.000000
0.802155 0.145203 0.000000
0.000000 0.294617 0.000000
0.000000 0.293304 0.000000
0.000000 0.291962 0.000000
0.000000 0.289642 0.000000
0.000000 0.287018 0.000000
0.000000 0.283844 0.000000
0.006226 0.280457 0.000000
0.038177 0.276581 0.000000
0.083374 0.272827 0.000000
0.123993 0.268616 0.000000
0.165985 0.264465 0.000000
0.209991 0.260162 0.000000
0.255554 0.255554 0.000000
0.303040 0.251068 0.000000
0.351685 0.246216 0.000000
0.401947 0.241486 0.000000
0.453644 0.236420 0.000000
0.506500 0.231476 0.000000
0.560638 0.226257 0.000000
0.616058 0.221100 0.000000
0.672852 0.215698 0.000000
0.730530 0.210388 0.000000
0.787659 0.204803 0.000000
0.799927 0.199371 0.000000
0.802155 0.193634 0.000000
0.802155 0.189423 0.000000
0.802155 0.186737 0.000000
0.802155 0.184326 0.000000
0.802155 0.181885 0.000000
0.802155 0.179443 0.000000
0.802155 0.179169 0.000000
0.802155 0.179047 0.000000
0.000000 0.330963 0.000000
0.000000 0.329681 0.000000
0.000000 0.328094 0.000000
0.000000 0.326019 0.000000
0.000000 0.323700 0.000000
0.000000 0.320526 0.000000
0.000336 0.316925 0.000000
0.016327 0.313171 0.000000
0.066498 0.309235 0.000000
0.109009 0.305115 0.000000
0.150726 0.300964 0.000000
0.194427 0.296387 0.000000
0.240173 0.291992 0.000000
0.287201 0.287201 0.000000
0.335693 0.282501 0.000000
0.385986 0.277496 0.000000
0.437500 0.272614 0.000000
0.490387 0.267426 0.000000
0.544434 0.262299 0.000000
0.599915 0.256958 0.000000
0.656311 0.251648 0.000000
0.713867 0.246124 0.000000
0.772736 0.240784 0.000000
0.795593 0.235107 0.000000
0.802155 0.229553 0.000000
0.802155 0.224731 0.000000
0.802155 0.222229 0.000000
0.802155 0.219818 0.000000
0.802155 0.217163 0.000000
0.802155 0.214752 0.000000
0.802155 0.214478 0.000000
0.802155 0.214325 0.000000
0.000000 0.368011 0.000000
0.000000 0.366669 0.000000
0.000000 0.365295 0.000000
0.000000 0.363251 0.000000
0.000000 0.360962 0.000000
0.000000 0.357697 0.000000
0.000000 0.354187 0.000000
0.008057 0.350494 0.000000
0.049713 0.346466 0.000000
0.093597 0.342377 0.000000
0.135071 0.337982 0.000000
0.179016 0.333588 0.000000
0.224274 0.328979 0.000000
0.271271 0.324402 0.000000
0.319733 0.319733 0.000000
0.369843 0.314758 0.000000
0.421234 0.309875 0.000000
0.473785 0.304718 0.000000
0.527771 0.299622 0.000000
0.583160 0.294250 0.000000
0.639648 0.288788 0.000000
0.696899 0.283447 0.000000
0.755798 0.277832 0.000000
0.791870 0.272339 0.000000
0.802155 0.266541 0.000000
0.802155 0.261353 0.000000
0.802155 0.258606 0.000000
0.802155 0.256042 0.000000
0.802155 0.253510 0.000000
0.802155 0.251068 0.000000
0.802155 0.250763 0.000000
0.802155 0.250641 0.000000
0.000000 0.406158 0.000000
0.000000 0.404816 0.000000
0.000000 0.403503 0.000000
0.000000 0.401611 0.000000
0.000000 0.399445 0.000000
0.000000 0.396179 0.000000
0.000000 0.392761 0.000000
0.000000 0.388885 0.000000
0.025421 0.385010 0.000000
0.077240 0.380951 0.000000
0.119080 0.376587 0.000000
0.162903 0.372223 0.000000
0.207947 0.367584 0.000000
0.254730 0.362976 0.000000
0.303284 0.358002 0.000000
0.353180 0.353180 0.000000
0.404419 0.348083 0.000000
0.456940 0.343079 0.000000
0.511078 0.337769 0.000000
0.566101 0.332520 0.000000
0.622437 0.327057 0.000000
0.679932 0.321625 0.000000
0.738647 0.315918 0.000000
0.782013 0.310394 0.000000
0.802155 0.304565 0.000000
0.802155 0.298645 0.000000
0.802155 0.295959 0.000000
0.802155 0.293365 0.000000
0.802155 0.290894 0.000000
0.802155 0.288177 0.000000
0.802155 0.287933 0.000000
0.802155 0.287811 0.000000
0.000000 0.445526 0.000000
0.000000 0.444214 0.000000
0.000000 0.442810 0.000000
0.000000 0.440979 0.000000
0.000000 0.438721 0.000000
0.000000 0.435638 0.000000
0.000000 0.432281 0.000000
0.000000 0.428375 0.000000
0.011261 0.424500 0.000000
0.058746 0.420410 0.000000
0.102936 0.416016 0.000000
0.146545 0.411591 0.000000
0.191528 0.406921 0.000000
0.238068 0.402283 0.000000
0.286530 0.397339 0.000000
0.336243 0.392456 0.000000
0.387299 0.387299 0.000000
0.440033 0.382233 0.000000
0.493835 0.376862 0.000000
0.548828 0.371704 0.000000
0.604889 0.366211 0.000000
0.662354 0.360809 0.000000
0.721008 0.355164 0.000000
0.771545 0.349609 0.000000
0.802155 0.343811 0.000000
0.802155 0.337921 0.000000
0.802155 0.334717 0.000000
0.802155 0.332062 0.000000
0.802155 0.329498 0.000000
0.802155 0.326752 0.000000
0.802155 0.326477 0.000000
0.802155 0.326355 0.000000
0.000000 0.485626 0.000000
0.000000 0.484253 0.000000
0.000000 0.482849 0.000000
0.000000 0.481079 0.000000
0.000000 0.478943 0.000000
0.000000 0.475800 0.000000
0.000000 0.472534 0.000000
0.000000 0.468597 0.000000
0.004395 0.464722 0.000000
0.037079 0.460663 0.000000
0.086578 0.456268 0.000000
0.130066 0.451904 0.000000
0.174591 0.447205 0.000000
0.221405 0.442596 0.000000
0.269623 0.437683 0.000000
0.318970 0.432800 0.000000
0.370148 0.427673 0.000000
0.422577 0.422577 0.000000
0.476227 0.417206 0.000000
0.531097 0.412018 0.000000
0.587189 0.406464 0.000000
0.644531 0.401031 0.000000
0.703033 0.395355 0.000000
0.759583 0.389740 0.000000
0.799561 0.383881 0.000000
0.802155 0.377960 0.000000
0.802155 0.374176 0.000000
0.802155 0.371490 0.000000
0.802155 0.368652 0.000000
0.802155 0.366058 0.000000
0.802155 0.365753 0.000000
0.802155 0.365662 0.000000
0.000000 0.526672 0.000000
0.000000 0.525269 0.000000
0.000000 0.523895 0.000000
0.000000 0.522095 0.000000
0.000000 0.520233 0.000000
0.000000 0.517090 0.000000
0.000000 0.513947 0.000000
0.000000 0.510193 0.000000
0.000000 0.506134 0.000000
0.014648 0.502106 0.000000
0.068237 0.497650 0.000000
0.113068 0.493225 0.000000
0.157440 0.488525 0.000000
0.204224 0.483856 0.000000
0.252228 0.479004 0.000000
0.301605 0.473999 0.000000
0.352570 0.468811 0.000000
0.404877 0.463715 0.000000
0.458344 0.458344 0.000000
0.513092 0.453064 0.000000
0.569397 0.447449 0.000000
0.626404 0.442047 0.000000
0.684784 0.436279 0.000000
0.743896 0.430664 0.000000
0.790894 0.424805 0.000000
0.802155 0.418823 0.000000
0.802155 0.414490 0.000000
0.802155 0.411835 0.000000
0.802155 0.408997 0.000000
0.802155 0.406433 0.000000
0.802155 0.406128 0.000000
0.802155 0.406006 0.000000
0.000000 0.568695 0.000000
0.000000 0.567230 0.000000
0.000000 0.565765 0.000000
0.000000 0.563965 0.000000
0.000000 0.562042 0.000000
0.000000 0.559235 0.000000
0.000000 0.556030 0.000000
0.000000 0.552277 0.000000
0.000000 0.548187 0.000000
0.007568 0.544128 0.000000
0.049347 0.539856 0.000000
0.095764 0.535248 0.000000
0.140472 0.530701 0.000000
0.186798 0.525818 0.000000
0.234558 0.521027 0.000000
0.283875 0.515900 0.000000
0.334778 0.510864 0.000000
0.386902 0.505646 0.000000
0.440430 0.500427 0.000000
0.494965 0.494965 0.000000
0.551117 0.489624 0.000000
0.608032 0.483978 0.000000
0.666229 0.478210 0.000000
0.725494 0.472626 0.000000
0.782928 0.466736 0.000000
0.802155 0.460999 0.000000
0.802155 0.455933 0.000000
0.802155 0.453125 0.000000
0.802155 0.450500 0.000000
0.802155 0.447632 0.000000
0.802155 0.447357 0.000000
0.802155 0.447205 0.000000
0.000000 0.611511 0.000000
0.000000 0.610107 0.000000
0.000000 0.608551 0.000000
0.000000 0.606598 0.000000
0.000000 0.604706 0.000000
0.000000 0.601990 0.000000
0.000000 0.599030 0.000000
0.000000 0.595184 0.000000
0.000000 0.591339 0.000000
0.001434 0.587097 0.000000
0.022003 0.582825 0.000000
0.077759 0.578247 0.000000
0.122925 0.573700 0.000000
0.169220 0.569031 0.000000
0.216553 0.564087 0.000000
0.265869 0.559174 0.000000
0.316650 0.553955 0.000000
0.368561 0.548767 0.000000
0.421906 0.543427 0.000000
0.476532 0.537964 0.000000
0.532532 0.532532 0.000000
0.589447 0.526825 0.000000
0.647400 0.521271 0.000000
0.706665 0.515472 0.000000
0.766144 0.509674 0.000000
0.802155 0.503723 0.000000
0.802155 0.498108 0.000000
0.802155 0.495270 0.000000
0.802155 0.492554 0.000000
0.802155 0.489838 0.000000
0.802155 0.489532 0.000000
0.802155 0.489441 0.000000
0.000000 0.654968 0.000000
0.000000 0.653564 0.000000
0.000000 0.652100 0.000000
0.000000 0.650269 0.000000
0.000000 0.648376 0.000000
0.000000 0.645599 0.000000
0.000000 0.642822 0.000000
0.000000 0.639191 0.000000
0.000000 0.635162 0.000000
0.000000 0.631042 0.000000
0.009216 0.626587 0.000000
0.057709 0.622223 0.000000
0.105133 0.617462 0.000000
0.151184 0.612762 0.000000
0.198425 0.607788 0.000000
0.247742 0.602814 0.000000
0.298309 0.597565 0.000000
0.350250 0.592468 0.000000
0.403473 0.587006 0.000000
0.457886 0.581665 0.000000
0.513763 0.576050 0.000000
0.570557 0.570557 0.000000
0.628693 0.564728 0.000000
0.687653 0.559052 0.000000
0.748169 0.553101 0.000000
0.795441 0.547150 0.000000
0.802155 0.541229 0.000000
0.802155 0.538147 0.000000
0.802155 0.535400 0.000000
0.802155 0.532684 0.000000
0.802155 0.532410 0.000000
0.802155 0.532288 0.000000
0.000000 0.699585 0.000000
0.000000 0.698151 0.000000
0.000000 0.696472 0.000000
0.000000 0.694641 0.000000
0.000000 0.692749 0.000000
0.000000 0.690338 0.000000
0.000000 0.687378 0.000000
0.000000 0.683807 0.000000
0.000000 0.679962 0.000000
0.000000 0.675629 0.000000
0.000000 0.671387 0.000000
0.033051 0.666779 0.000000
0.087036 0.662170 0.000000
0.132935 0.657257 0.000000
0.180420 0.652435 0.000000
0.229523 0.647278 0.000000
0.279877 0.642242 0.000000
0.331482 0.636963 0.000000
0.384644 0.631683 0.000000
0.438934 0.626190 0.000000
0.494629 0.620758 0.000000
0.551331 0.615112 0.000000
0.609436 0.609436 0.000000
0.668457 0.603607 0.000000
0.728638 0.597626 0.000000
0.786346 0.591858 0.000000
0.800781 0.585724 0.000000
0.802155 0.582245 0.000000
0.802155 0.579437 0.000000
0.802155 0.576508 0.000000
0.802155 0.576172 0.000000
0.802155 0.576050 0.000000
0.000000 0.744537 0.000000
0.000000 0.743103 0.000000
0.000000 0.741547 0.000000
0.000000 0.739685 0.000000
0.000000 0.737823 0.000000
0.000000 0.735291 0.000000
0.000000 0.732666 0.000000
0.000000 0.729156 0.000000
0.000000 0.725128 0.000000
0.000000 0.721008 0.000000
0.000000 0.716614 0.000000
0.012726 0.712219 0.000000
0.067017 0.707458 0.000000
0.114410 0.702759 0.000000
0.161926 0.697815 0.000000
0.210846 0.692780 0.000000
0.260986 0.687561 0.000000
0.312622 0.682404 0.000000
0.365662 0.676941 0.000000
0.419983 0.671600 0.000000
0.475311 0.665924 0.000000
0.532043 0.660400 0.000000
0.590057 0.654633 0.000000
0.648895 0.648895 0.000000
0.708954 0.642914 0.000000
0.769867 0.636871 0.000000
0.795563 0.630920 0.000000
0.802155 0.626709 0.000000
0.802155 0.623840 0.000000
0.802155 0.621033 0.000000
0.802155 0.620728 0.000000
0.802155 0.620544 0.000000
0.000000 0.790649 0.000000
0.000000 0.789124 0.000000
0.000000 0.787689 0.000000
0.000000 0.785614 0.000000
0.000000 0.783691 0.000000
0.000000 0.781555 0.000000
0.000000 0.779053 0.000000
0.000000 0.775330 0.000000
0.000000 0.771545 0.000000
0.000000 0.767242 0.000000
0.000000 0.763000 0.000000
0.003632 0.758575 0.000000
0.044769 0.753784 0.000000
0.095886 0.749054 0.000000
0.143188 0.744110 0.000000
0.191864 0.739075 0.000000
0.241852 0.733826 0.000000
0.293488 0.728668 0.000000
0.346375 0.723145 0.000000
0.400513 0.717590 0.000000
0.455750 0.712128 0.000000
0.512451 0.706360 0.000000
0.570312 0.700714 0.000000
0.629028 0.694824 0.000000
0.688995 0.688995 0.000000
0.749908 0.682922 0.000000
0.787903 0.676819 0.000000
0.802155 0.672241 0.000000
0.802155 0.669403 0.000000
0.802155 0.666351 0.000000
0.802155 0.666046 0.000000
0.802155 0.665924 0.000000
0.000000 0.801849 0.000000
0.000000 0.801819 0.000000
0.000000 0.801819 0.000000
0.000000 0.801788 0.000000
0.000000 0.801758 0.000000
0.000000 0.801758 0.000000
0.000000 0.801758 0.000000
0.000000 0.800812 0.000000
0.000000 0.799957 0.000000
0.000000 0.798096 0.000000
0.000000 0.796387 0.000000
0.000000 0.794617 0.000000
0.016693 0.792145 0.000000
0.076416 0.789703 0.000000
0.124268 0.786896 0.000000
0.172760 0.783875 0.000000
0.222748 0.780518 0.000000
0.274200 0.775177 0.000000
0.326904 0.769958 0.000000
0.380829 0.764404 0.000000
0.436188 0.758942 0.000000
0.492645 0.753204 0.000000
0.550415 0.747406 0.000000
0.609009 0.741638 0.000000
0.668976 0.735657 0.000000
0.729736 0.729736 0.000000
0.779419 0.723633 0.000000
0.802155 0.718475 0.000000
0.802155 0.715393 0.000000
0.802155 0.712463 0.000000
0.802155 0.712158 0.000000
0.802155 0.712036 0.000000
0.000000 0.802155 0.000000
0.000000 0.802155 0.000000
0.000000 0.802155 0.000000
0.000000 0.802155 0.000000
0.000000 0.802155 0.000000
0.000000 0.802155 0.000000
0.000000 0.802155 0.000000
0.000000 0.802155 0.000000
0.000000 0.802094 0.000000
0.000000 0.802002 0.000000
0.000000 0.801666 0.000000
0.000000 0.801056 0.000000
0.007172 0.800659 0.000000
0.054932 0.799866 0.000000
0.104919 0.798676 0.000000
0.153229 0.797150 0.000000
0.203339 0.796234 0.000000
0.254608 0.794373 0.000000
0.307068 0.792114 0.000000
0.361023 0.789886 0.000000
0.416260 0.787903 0.000000
0.472595 0.785126 0.000000
0.530212 0.781677 0.000000
0.588715 0.778137 0.000000
0.648651 0.774689 0.000000
0.709320 0.771027 0.000000
0.766815 0.766815 0.000000
0.802155 0.761688 0.000000
0.802155 0.759369 0.000000
0.802155 0.756897 0.000000
0.802155 0.756592 0.000000
0.802155 0.756500 0.000000
0.000000 0.802155 0.000000
0.000000 0.802155 0.000000
0.000000 0.802155 0.000000
0.000000 0.802155 0.000000
0.000000 0.802155 0.000000
0.000000 0.802155 0.000000
0.000000 0.802155 0.000000
0.000000 0.802155 0.000000
0.000000 0.802155 0.000000
0.000000 0.802155 0.000000
0.000000 0.802155 0.000000
0.000000 0.802155 0.000000
0.004272 0.802155 0.000000
0.037842 0.802155 0.000000
0.091858 0.802155 0.000000
0.139709 0.802155 0.000000
0.189087 0.802155 0.000000
