Postproduction/IWLTBAP - Humble/LUTs by IWLTBAP (CUBE)/UTILITY/Generic LOG to Rec.709/U-9996-LTR.cube
# Copyright: (C) Copyright 2010-2018 by IWLTBAP SAS
# Cannot be resold, shared or otherwise redistributed
# Website: https://luts.iwltbap.com
TITLE "IWLTBAP 9996 (Utility LOG to Rec.709)"
LUT_3D_SIZE 8
DOMAIN_MIN 0.000000 0.000000 0.000000
DOMAIN_MAX 0.903226 0.903226 0.903226
0.015625 0.015625 0.015625
0.074820 0.000000 0.004383
0.205694 0.000000 0.000000
0.437553 0.000000 0.000000
0.727083 0.000000 0.000000
0.971869 0.000000 0.000000
1.000000 0.000000 0.000000
1.000000 0.000000 0.000000
0.005115 0.080241 0.026670
0.064310 0.062780 0.015611
0.195184 0.024007 0.000000
0.427044 0.000000 0.000000
0.716605 0.000000 0.000000
0.964910 0.000000 0.000000
1.000000 0.000000 0.000000
1.000000 0.000000 0.000000
0.000000 0.223419 0.051289
0.041260 0.205759 0.040072
0.172123 0.167158 0.015649
0.403996 0.098572 0.000000
0.693585 0.016009 0.000000
0.949339 0.000000 0.000000
1.000000 0.000000 0.000000
1.000000 0.000000 0.000000
0.000000 0.476891 0.094669
0.003213 0.459370 0.083625
0.131191 0.420641 0.059249
0.363090 0.352081 0.015941
0.652728 0.266347 0.000000
0.918291 0.187280 0.000000
1.000000 0.136874 0.000000
1.000000 0.121667 0.000000
0.000000 0.793606 0.149020
0.000000 0.776067 0.137997
0.080118 0.737348 0.113612
0.312009 0.668771 0.070237
0.601722 0.583152 0.016237
0.867128 0.503960 0.000000
0.998472 0.453556 0.000000
1.000000 0.438366 0.000000
0.000000 0.996358 0.199325
0.000000 0.993288 0.188157
0.033025 0.983339 0.163746
0.264851 0.946759 0.120537
0.554543 0.872285 0.066425
0.820014 0.793147 0.016602
0.981291 0.742865 0.000000
1.000000 0.727448 0.000000
0.000000 1.000000 0.231222
0.000000 1.000000 0.220185
0.009325 1.000000 0.195807
0.234810 1.000000 0.152471
0.524577 0.999762 0.098427
0.790067 0.974682 0.048459
0.958836 0.928291 0.016787
1.000000 0.912868 0.007157
0.000000 1.000000 0.240901
0.000000 1.000000 0.229857
0.007189 1.000000 0.205481
0.225735 1.000000 0.162129
0.515467 1.000000 0.108118
0.780956 1.000000 0.058115
0.949689 0.987944 0.026488
0.999734 0.972719 0.016835
0.015090 0.016648 0.063803
0.074312 0.000014 0.052764
0.205178 0.000000 0.028351
0.437049 0.000000 0.000162
0.726595 0.000000 0.000000
0.971552 0.000000 0.000000
1.000000 0.000000 0.000000
1.000000 0.000000 0.000000
0.004613 0.081462 0.074862
0.063809 0.063818 0.063833
0.194688 0.025203 0.039431
0.426541 0.000000 0.001178
0.716297 0.000000 0.000000
0.964660 0.000000 0.000000
1.000000 0.000000 0.000000
1.000000 0.000000 0.000000
0.000000 0.224458 0.099473
0.040741 0.206964 0.088432
0.171604 0.168198 0.064045
0.403486 0.099628 0.020701
0.693226 0.016741 0.000000
0.949087 0.000000 0.000000
1.000000 0.000000 0.000000
1.000000 0.000000 0.000000
0.000000 0.477930 0.143075
0.002836 0.460472 0.131836
0.130803 0.421812 0.107446
0.362693 0.353116 0.064284
0.652239 0.267533 0.010859
0.917803 0.188334 0.000000
1.000000 0.137983 0.000000
1.000000 0.122698 0.000000
0.000000 0.794760 0.197332
0.000000 0.777180 0.186312
0.079635 0.738494 0.161912
0.311536 0.669905 0.118639
0.601249 0.584218 0.064520
0.866738 0.505102 0.014636
1.000000 0.454705 0.000425
1.000000 0.439408 0.000000
0.000000 0.996539 0.247577
0.000000 0.993557 0.236547
0.032608 0.986968 0.212081
0.264488 0.961382 0.168800
0.554091 0.875529 0.114765
0.819584 0.796518 0.064798
0.991107 0.746109 0.032995
1.000000 0.730720 0.023419
0.000000 1.000000 0.279472
0.000000 1.000000 0.268447
0.009253 1.000000 0.244056
0.234378 1.000000 0.200738
0.524061 1.000000 0.146679
0.789547 0.983640 0.096824
0.961993 0.933458 0.064999
1.000000 0.918031 0.055360
0.000000 1.000000 0.289110
0.000000 1.000000 0.278105
0.007092 1.000000 0.253715
0.225247 1.000000 0.210521
0.514939 1.000000 0.156430
0.780433 1.000000 0.106515
0.952850 0.990087 0.074690
1.000000 0.974847 0.065042
0.014036 0.018985 0.170518
0.073293 0.002040 0.159322
0.204167 0.000000 0.134944
0.436057 0.000000 0.091740
0.725739 0.000000 0.037672
0.970880 0.000000 0.003335
1.000000 0.000000 0.000000
1.000000 0.000000 0.000000
0.003589 0.083834 0.181562
0.062795 0.066209 0.170516
0.193665 0.027587 0.146147
0.425528 0.000000 0.102796
0.715246 0.000000 0.048772
0.963937 0.000000 0.006447
1.000000 0.000000 0.000003
1.000000 0.000000 0.000000
0.000000 0.226849 0.206182
0.039733 0.209364 0.195020
0.170597 0.170602 0.170601
0.402470 0.102039 0.127420
0.692181 0.018406 0.073337
0.948414 0.000000 0.023421
1.000000 0.000000 0.005597
1.000000 0.000000 0.003328
0.000000 0.480448 0.249624
0.002127 0.462849 0.238555
0.129788 0.424207 0.214161
0.361651 0.355641 0.170861
0.651274 0.269912 0.116795
0.916765 0.190748 0.066881
1.000000 0.140343 0.035151
1.000000 0.125125 0.025491
0.000000 0.797137 0.303936
0.000000 0.779667 0.292929
0.078715 0.740887 0.268528
0.310590 0.672332 0.225212
0.600220 0.586598 0.171160
0.865675 0.507524 0.121294
1.000000 0.457162 0.089504
1.000000 0.441862 0.079865
0.000000 0.996896 0.354223
0.000000 0.993910 0.343100
0.031556 0.987344 0.318710
0.263419 0.963826 0.275440
0.553075 0.877912 0.221384
0.818567 0.798873 0.171499
0.990290 0.748470 0.139709
1.000000 0.733256 0.130058
0.000000 1.000000 0.386123
0.000000 1.000000 0.375103
0.008935 1.000000 0.350703
0.233464 1.000000 0.307420
0.523051 1.000000 0.253334
0.788540 0.985573 0.203435
0.961027 0.935969 0.171700
1.000000 0.920439 0.162058
0.000000 1.000000 0.395856
0.000000 1.000000 0.384787
0.006794 1.000000 0.360396
0.224350 1.000000 0.317096
0.513952 1.000000 0.263032
0.779449 1.000000 0.213096
0.951838 0.992503 0.181382
1.000000 0.977218 0.171731
0.012265 0.023186 0.359350
0.071460 0.005760 0.348343
0.202333 0.000000 0.323960
0.434212 0.000000 0.280604
0.723967 0.000000 0.226581
0.969780 0.000000 0.176714
1.000000 0.000000 0.144939
1.000000 0.000000 0.135294
0.001989 0.088030 0.370525
0.060982 0.070570 0.359517
0.191895 0.031812 0.334976
0.423730 0.000000 0.291794
0.713457 0.000000 0.237711
0.962808 0.000000 0.187814
1.000000 0.000000 0.156023
1.000000 0.000000 0.146339
0.000000 0.231224 0.395033
0.038024 0.213564 0.384027
0.168770 0.174961 0.359597
0.400637 0.106361 0.316293
0.690390 0.021413 0.262238
0.947249 0.000000 0.212402
1.000000 0.000000 0.180598
1.000000 0.000000 0.170957
0.000000 0.484684 0.438638
0.001475 0.467159 0.427605
0.127975 0.428446 0.403140
0.359838 0.359874 0.359842
0.649598 0.274148 0.305782
0.915078 0.195077 0.255841
1.000000 0.144667 0.224129
1.000000 0.129365 0.214466
0.000000 0.801393 0.492999
0.000000 0.783850 0.481911
0.076929 0.745153 0.457506
0.308778 0.676576 0.414219
0.598393 0.590943 0.360157
0.863890 0.511759 0.310299
1.000000 0.461357 0.278446
1.000000 0.446148 0.268802
0.000000 0.997685 0.543123
0.000000 0.994621 0.532095
0.029778 0.988125 0.507720
0.261650 0.968146 0.464361
0.551290 0.882284 0.410355
0.816742 0.803060 0.360408
0.988806 0.752661 0.328704
1.000000 0.737448 0.319049
0.000000 1.000000 0.575167
0.000000 1.000000 0.564084
0.008483 1.000000 0.539662
0.231692 1.000000 0.496394
0.521272 1.000000 0.442296
0.786707 0.989060 0.392445
0.959175 0.940174 0.360591
1.000000 0.924764 0.350923
0.000000 1.000000 0.584869
0.000000 1.000000 0.573758
0.006347 1.000000 0.549369
0.222578 1.000000 0.506070
0.512120 1.000000 0.452026
0.777610 1.000000 0.402100
0.950005 0.996287 0.370279
0.999909 0.981421 0.360730
0.010006 0.028592 0.595521
0.069201 0.011038 0.584490
0.200085 0.000000 0.560003
0.431949 0.000000 0.516721
0.721708 0.000000 0.462730
0.968342 0.000000 0.412743
1.000000 0.000000 0.380928
1.000000 0.000000 0.371372
0.000231 0.093412 0.606565
0.058834 0.075879 0.595531
0.189737 0.037166 0.571144
0.421585 0.000000 0.527818
0.711200 0.000000 0.473788
0.961205 0.000000 0.423875
1.000000 0.000000 0.392150
1.000000 0.000000 0.382498
0.000000 0.236507 0.631185
0.035820 0.218945 0.620163
0.166614 0.180249 0.595656
0.398520 0.111698 0.552428
0.688127 0.025969 0.498378
0.945697 0.000000 0.448441
1.000000 0.000000 0.416712
1.000000 0.000000 0.407023
0.000000 0.490020 0.674689
0.001176 0.472512 0.663567
0.125719 0.433770 0.639150
0.357578 0.365162 0.595912
0.647352 0.279481 0.541813
0.912842 0.200435 0.492016
1.000000 0.150028 0.460167
1.000000 0.134749 0.450518
0.000000 0.806708 0.729036
0.000000 0.789209 0.717944
0.074743 0.750452 0.693534
0.306633 0.681938 0.650351
0.596223 0.596242 0.596258
0.861717 0.517138 0.546363
1.000000 0.466767 0.514547
1.000000 0.451433 0.504868
0.000000 0.998582 0.779238
0.000000 0.995604 0.768200
0.027577 0.989021 0.743758
0.259466 0.971711 0.700503
0.549127 0.887570 0.646421
0.814535 0.808470 0.596501
0.986999 0.758145 0.564756
1.000000 0.742857 0.555106
0.000000 1.000000 0.811163
0.000000 1.000000 0.800113
0.007908 1.000000 0.775712
0.229429 1.000000 0.732438
0.519089 1.000000 0.678377
0.784495 0.993362 0.628483
0.957010 0.945492 0.596723
1.000000 0.930064 0.587057
0.000000 1.000000 0.820943
0.000000 1.000000 0.809801
0.005748 1.000000 0.785391
0.220319 1.000000 0.742174
0.509972 1.000000 0.688067
0.775350 1.000000 0.638244
0.947855 0.999887 0.606399
0.999479 0.986822 0.596742
0.007991 0.033579 0.813375
0.067186 0.016049 0.802374
0.198059 0.000000 0.777878
0.429930 0.000000 0.734741
0.719693 0.000000 0.680579
0.966882 0.000000 0.630737
1.000000 0.000000 0.598905
1.000000 0.000000 0.589235
0.000000 0.098323 0.824579
0.056828 0.080766 0.813523
0.187612 0.042066 0.789098
0.419513 0.000058 0.745779
0.709183 0.000000 0.691760
0.959829 0.000000 0.641775
1.000000 0.000000 0.610014
1.000000 0.000000 0.600345
0.000000 0.241393 0.849085
0.033715 0.223944 0.838062
0.164528 0.185151 0.813560
0.396391 0.116593 0.770399
0.686110 0.030851 0.716335
0.944338 0.000005 0.666394
1.000000 0.000000 0.634570
1.000000 0.000000 0.624908
0.000000 0.494932 0.892579
0.000923 0.477411 0.881541
0.123699 0.438720 0.857162
0.355563 0.370156 0.813791
0.645256 0.284451 0.759796
0.910733 0.205330 0.709858
1.000000 0.154930 0.678159
1.000000 0.139713 0.668518
0.000000 0.811681 0.947157
0.000000 0.794198 0.936051
0.072714 0.755466 0.911523
0.304597 0.686905 0.868227
0.594140 0.601136 0.814206
0.859614 0.522051 0.764272
1.000000 0.471697 0.732551
1.000000 0.456424 0.722877
0.000000 0.999447 0.987376
0.000000 0.996471 0.983147
0.025524 0.989891 0.961837
0.257396 0.974375 0.918547
0.547062 0.892448 0.864338
0.812468 0.813470 0.814514
0.984940 0.763067 0.782660
1.000000 0.747794 0.773014
0.000000 1.000000 0.994558
0.000000 1.000000 0.988860
0.007397 1.000000 0.975529
0.227413 1.000000 0.946661
0.516961 1.000000 0.894535
0.782447 0.996127 0.844581
0.954888 0.950520 0.812761
1.000000 0.935142 0.803085
0.000000 1.000000 0.992794
0.000000 1.000000 0.990862
0.005237 1.000000 0.986757
0.218303 1.000000 0.959480
0.507845 1.000000 0.905323
0.773335 1.000000 0.855331
0.945746 1.000000 0.823621
0.997611 0.991809 0.813966
0.006650 0.036749 0.952324
0.065845 0.019089 0.941325
0.196718 0.000000 0.916738
0.428585 0.000000 0.873437
0.718352 0.000000 0.819358
0.965980 0.000000 0.769526
1.000000 0.000000 0.737706
1.000000 0.000000 0.728025
0.000000 0.101531 0.963568
0.055523 0.083908 0.952499
0.186399 0.045270 0.927889
0.418256 0.000153 0.884575
0.707842 0.000000 0.830472
0.958974 0.000000 0.780628
1.000000 0.000000 0.748772
1.000000 0.000000 0.739103
0.000000 0.244561 0.988104
0.032461 0.227108 0.977070
0.163317 0.188303 0.952568
0.395155 0.119715 0.909107
0.684778 0.034013 0.855028
0.943433 0.000088 0.805191
1.000000 0.000000 0.773353
1.000000 0.000000 0.763692
0.000000 0.498120 1.000000
0.000775 0.480579 0.999704
0.122363 0.441859 0.993724
0.354223 0.373215 0.952817
0.643997 0.287624 0.898589
0.909486 0.208495 0.848629
1.000000 0.158100 0.816959
1.000000 0.142794 0.807307
0.000000 0.814851 1.000000
0.000000 0.797277 1.000000
0.071388 0.758588 1.000000
0.303278 0.689975 0.997278
0.592803 0.604306 0.953171
0.858278 0.525206 0.903055
1.000000 0.474813 0.871237
1.000000 0.459478 0.861676
0.000000 1.000000 1.000000
0.000000 0.997063 1.000000
0.024202 0.990484 1.000000
0.256078 0.976057 1.000000
0.545779 0.895615 0.996581
0.811127 0.816641 0.953439
0.983733 0.766234 0.921480
1.000000 0.750806 0.911806
0.000000 1.000000 1.000000
0.000000 1.000000 1.000000
0.007075 1.000000 1.000000
0.226073 1.000000 1.000000
0.515765 1.000000 0.999622
0.781113 0.996868 0.980685
0.953561 0.953545 0.951282
1.000000 0.938318 0.941581
0.000000 1.000000 1.000000
0.000000 1.000000 1.000000
0.004915 1.000000 1.000000
0.216962 1.000000 1.000000
0.506616 1.000000 1.000000
0.771995 1.000000 0.993740
0.944409 1.000000 0.963434
0.996310 0.994972 0.953724
0.006348 0.037598 0.994578
0.065543 0.020181 0.983562
0.196416 0.000000 0.959158
0.428307 0.000000 0.915553
0.717810 0.000000 0.861565
0.965584 0.000000 0.811576
1.000000 0.000000 0.779744
1.000000 0.000000 0.770272
0.000000 0.102412 1.000000
0.055034 0.084971 0.994631
0.185913 0.046178 0.970235
0.417766 0.000176 0.926685
0.707540 0.000000 0.872616
0.958685 0.000000 0.822798
1.000000 0.000000 0.790971
1.000000 0.000000 0.781321
0.000000 0.245563 1.000000
0.031982 0.227979 1.000000
0.162846 0.189338 0.994482
0.394719 0.120641 0.951485
0.684479 0.035029 0.897214
0.943139 0.000115 0.847277
1.000000 0.000000 0.815586
1.000000 0.000000 0.805932
0.000000 0.499019 1.000000
0.000728 0.481557 1.000000
0.122060 0.442800 1.000000
0.353920 0.374240 0.994149
0.643455 0.288561 0.940899
0.908939 0.209404 0.890824
1.000000 0.159064 0.859032
1.000000 0.143746 0.849334
0.000000 0.815819 1.000000
0.000000 0.798278 1.000000
0.070962 0.759565 1.000000
0.302851 0.690948 1.000000
0.592475 0.605274 0.994228
0.857975 0.526174 0.945384
1.000000 0.475772 0.913369
1.000000 0.460547 0.903714
0.000000 1.000000 1.000000
0.000000 0.997286 1.000000
0.023854 0.990700 1.000000
0.255725 0.976541 1.000000
0.545328 0.896680 1.000000
0.810825 0.817484 0.994849
0.983286 0.767074 0.963887
1.000000 0.751867 0.954221
0.000000 1.000000 1.000000
0.000000 1.000000 1.000000
0.007009 1.000000 1.000000
0.225692 1.000000 1.000000
0.515300 1.000000 1.000000
0.780789 0.997116 1.000000
0.953194 0.954579 0.995086
1.000000 0.939184 0.985539
0.000000 1.000000 1.000000
0.000000 1.000000 1.000000
0.004847 1.000000 1.000000
0.216543 1.000000 1.000000
0.506196 1.000000 1.000000
0.771691 1.000000 1.000000
0.944080 1.000000 1.000000
0.995838 0.995838 0.995838
