Postproduction/IWLTBAP - Humble/LUTs by IWLTBAP (CUBE)/UTILITY/Generic LOG to Rec.709/U-9990-LTR.cube
# Copyright: (C) Copyright 2010-2018 by IWLTBAP SAS
# Cannot be resold, shared or otherwise redistributed
# Website: https://luts.iwltbap.com
TITLE "IWLTBAP 9990 (Utility LOG to Rec.709)"
LUT_3D_SIZE 8
DOMAIN_MIN 0.000000 0.000000 0.000000
DOMAIN_MAX 0.903226 0.903226 0.903226
0.000000 0.000000 0.000000
0.067108 0.000000 0.000000
0.222900 0.000000 0.000000
0.414124 0.000000 0.000000
0.618805 0.000000 0.000000
0.823395 0.000000 0.000000
0.980011 0.000000 0.000000
1.000000 0.000000 0.000000
0.000000 0.052979 0.000000
0.042145 0.042114 0.000000
0.178436 0.022827 0.000000
0.366455 0.002441 0.000000
0.576782 0.000305 0.000000
0.798340 0.000000 0.000000
0.975372 0.000000 0.000000
1.000000 0.000000 0.000000
0.000000 0.154846 0.000000
0.005737 0.152679 0.000000
0.151459 0.151398 0.000000
0.355835 0.136292 0.000000
0.580261 0.116425 0.000000
0.812378 0.095673 0.000000
0.993835 0.087372 0.000000
1.000000 0.083984 0.000000
0.000000 0.313507 0.000000
0.000122 0.318817 0.000000
0.109192 0.326172 0.000000
0.316772 0.316742 0.000000
0.546143 0.301392 0.000000
0.784760 0.284088 0.000000
0.986298 0.275940 0.000000
1.000000 0.274780 0.000000
0.000000 0.498047 0.000000
0.000000 0.506592 0.000000
0.065613 0.518524 0.000000
0.270508 0.514496 0.000000
0.502625 0.502625 0.000000
0.745453 0.487915 0.000000
0.969635 0.477875 0.000000
1.000000 0.479950 0.000000
0.000000 0.696442 0.000000
0.000000 0.707642 0.000000
0.026550 0.721405 0.000000
0.222504 0.722992 0.000000
0.455505 0.713623 0.000000
0.700775 0.700775 0.000000
0.941620 0.688812 0.000000
1.000000 0.691986 0.000000
0.000000 0.901550 0.000000
0.000000 0.914520 0.000000
0.008942 0.928619 0.000000
0.180298 0.935242 0.000000
0.411072 0.928223 0.000000
0.656372 0.916351 0.000000
0.903107 0.903381 0.000000
1.000000 0.905273 0.000000
0.000000 1.000000 0.000000
0.000000 1.000000 0.000000
0.019348 1.000000 0.000000
0.187408 1.000000 0.000000
0.412140 1.000000 0.000000
0.654480 1.000000 0.000000
0.898315 1.000000 0.000000
1.000000 1.000000 0.000000
0.000000 0.000000 0.066498
0.065765 0.000000 0.065796
0.219360 0.000000 0.050873
0.409515 0.000000 0.020660
0.611237 0.000000 0.000885
0.817963 0.000000 0.000000
0.978088 0.000000 0.000000
1.000000 0.000000 0.000000
0.000000 0.049011 0.049072
0.036682 0.036591 0.036682
0.173767 0.019714 0.019714
0.362854 0.002258 0.002045
0.574493 0.000305 0.000214
0.797272 0.000000 0.000000
0.975739 0.000000 0.000000
1.000000 0.000000 0.000000
0.000000 0.152985 0.005035
0.006073 0.152039 0.006012
0.151855 0.151825 0.007233
0.356445 0.137268 0.002136
0.581085 0.117920 0.000397
0.813568 0.097351 0.000122
0.994049 0.089478 0.000122
1.000000 0.086456 0.000122
0.000000 0.314362 0.000000
0.000183 0.319946 0.000153
0.111298 0.327942 0.000305
0.318787 0.318787 0.000183
0.548309 0.303802 0.000061
0.787170 0.286774 0.000000
0.989136 0.278656 0.000000
1.000000 0.277802 0.000000
0.000000 0.500061 0.000000
0.000000 0.508759 0.000000
0.068878 0.520905 0.000000
0.273438 0.517090 0.000000
0.505707 0.505585 0.000000
0.748566 0.491119 0.000000
0.972565 0.481140 0.000000
1.000000 0.483551 0.000000
0.000000 0.699524 0.000000
0.000000 0.710663 0.000000
0.030151 0.724762 0.000000
0.226105 0.726349 0.000000
0.459106 0.717102 0.000000
0.704315 0.704407 0.000000
0.945160 0.692261 0.000000
1.000000 0.695648 0.000000
0.000000 0.905212 0.000000
0.000000 0.917694 0.000000
0.011230 0.932068 0.000000
0.184235 0.938843 0.000000
0.415039 0.931824 0.000000
0.660065 0.920074 0.000000
0.906891 0.907135 0.000000
1.000000 0.908661 0.000000
0.000000 1.000000 0.000000
0.000000 1.000000 0.000000
0.021423 1.000000 0.000000
0.191498 1.000000 0.000000
0.416046 1.000000 0.000000
0.657776 1.000000 0.000000
0.899506 1.000000 0.000000
1.000000 1.000000 0.000000
0.000000 0.000000 0.232544
0.060730 0.000000 0.229675
0.212189 0.000000 0.212219
0.401703 0.000000 0.177979
0.602417 0.000000 0.132629
0.812500 0.000000 0.089081
0.976532 0.000000 0.063354
1.000000 0.000000 0.043976
0.000000 0.041748 0.203247
0.029572 0.029633 0.185516
0.167572 0.014893 0.167603
0.358490 0.001862 0.137817
0.572418 0.000305 0.106567
0.796661 0.000000 0.077301
0.976624 0.000000 0.063812
1.000000 0.000000 0.055420
0.000000 0.150208 0.150238
0.005768 0.150635 0.150665
0.151886 0.151825 0.151886
0.357056 0.138184 0.138214
0.582336 0.119507 0.119690
0.815460 0.099731 0.099915
0.994537 0.092072 0.092377
1.000000 0.089508 0.089691
0.000000 0.315552 0.097443
0.000214 0.321625 0.104462
0.113800 0.330078 0.113800
0.321503 0.321533 0.106873
0.551361 0.307098 0.094818
0.790588 0.290314 0.081726
0.992218 0.282410 0.078705
1.000000 0.281799 0.084229
0.000000 0.502777 0.048187
0.000000 0.512024 0.058960
0.073059 0.524414 0.073090
0.277374 0.521088 0.072632
0.509735 0.509705 0.065216
0.752594 0.495361 0.055603
0.976257 0.485504 0.051941
1.000000 0.487732 0.061737
0.000000 0.702942 0.012665
0.000000 0.714233 0.020630
0.034943 0.728577 0.034943
0.230682 0.730438 0.040649
0.463379 0.721405 0.035431
0.708557 0.708557 0.026947
0.949615 0.696472 0.020477
1.000000 0.699829 0.030060
0.000000 0.909027 0.001709
0.000000 0.921783 0.004425
0.013550 0.936096 0.013092
0.188568 0.942993 0.016632
0.419281 0.935974 0.013763
0.664124 0.924225 0.008972
0.910919 0.911194 0.004120
1.000000 0.912750 0.007172
0.000000 1.000000 0.004547
0.000000 1.000000 0.014954
0.023438 1.000000 0.023132
0.195740 1.000000 0.032806
0.420227 1.000000 0.026611
0.661377 1.000000 0.016815
0.900085 1.000000 0.005432
1.000000 1.000000 0.001343
0.000000 0.000000 0.447144
0.050842 0.000000 0.442444
0.200165 0.000000 0.424042
0.388123 0.000000 0.388123
0.589203 0.000000 0.342377
0.801483 0.000000 0.300232
0.971558 0.000000 0.273651
1.000000 0.000000 0.253021
0.000000 0.029419 0.410767
0.017792 0.017792 0.393127
0.156006 0.006012 0.377045
0.348114 0.000885 0.348175
0.564148 0.000214 0.318359
0.789795 0.000000 0.289124
0.973267 0.000000 0.273193
1.000000 0.000000 0.261414
0.000000 0.142120 0.362946
0.002808 0.143555 0.363495
0.146027 0.146149 0.365356
0.351318 0.132935 0.351379
0.577240 0.114929 0.332306
0.810883 0.095825 0.311066
0.994202 0.088470 0.299957
1.000000 0.086884 0.292938
0.000000 0.310333 0.310394
0.000153 0.316742 0.316925
0.110382 0.325836 0.326019
0.318024 0.317993 0.318024
0.548370 0.303955 0.304108
0.788025 0.287903 0.287994
0.991943 0.280090 0.280212
1.000000 0.280182 0.280426
0.000000 0.499664 0.254730
0.000000 0.509064 0.264862
0.071930 0.522095 0.278137
0.275726 0.519318 0.275757
0.508453 0.508331 0.265350
0.751923 0.494598 0.252014
0.977234 0.484985 0.243073
1.000000 0.487762 0.247040
0.000000 0.701874 0.199951
0.000000 0.713501 0.212494
0.035919 0.727875 0.227722
0.230804 0.730499 0.230804
0.463776 0.721771 0.222534
0.709412 0.709351 0.210632
0.951355 0.697632 0.199371
1.000000 0.701263 0.204529
0.000000 0.910095 0.153168
0.000000 0.922943 0.167450
0.014221 0.937378 0.182983
0.189911 0.944397 0.189911
0.420593 0.937622 0.182312
0.665924 0.926056 0.170135
0.912964 0.913239 0.157288
1.000000 0.914795 0.160522
0.000000 1.000000 0.157990
0.000000 1.000000 0.173248
0.024719 1.000000 0.188507
0.197693 1.000000 0.197723
0.421631 1.000000 0.190796
0.661682 1.000000 0.175690
0.896881 1.000000 0.149048
1.000000 1.000000 0.127380
0.000000 0.000000 0.680573
0.038635 0.000000 0.674011
0.185669 0.000000 0.655243
0.371307 0.000000 0.617645
0.574463 0.000000 0.574493
0.788513 0.000000 0.533752
0.962341 0.000000 0.508362
1.000000 0.000000 0.488861
0.000000 0.014160 0.638062
0.005005 0.005035 0.622620
0.142517 0.002319 0.608765
0.336273 0.000397 0.581970
0.553650 0.000061 0.553650
0.780609 0.000000 0.525452
0.968292 0.000000 0.509247
1.000000 0.000000 0.497864
0.000000 0.132263 0.598602
0.001770 0.134552 0.599304
0.138153 0.138153 0.602081
0.343567 0.125519 0.588654
0.569794 0.108215 0.569794
0.803772 0.089600 0.548584
0.992798 0.082214 0.536713
1.000000 0.080994 0.529236
0.000000 0.302887 0.548340
0.000092 0.309662 0.554749
0.104645 0.319427 0.564087
0.312164 0.311951 0.556488
0.542603 0.298553 0.542603
0.782806 0.282684 0.526489
0.989899 0.274719 0.518097
1.000000 0.275269 0.517670
0.000000 0.493561 0.493561
0.000000 0.503418 0.503357
0.068024 0.516632 0.516571
0.271057 0.514252 0.514374
0.503876 0.503754 0.503845
0.747589 0.490265 0.490234
0.975311 0.480347 0.480286
1.000000 0.483368 0.483459
0.000000 0.697083 0.438324
0.000000 0.708649 0.450745
0.033051 0.723206 0.465210
0.226776 0.726440 0.468292
0.459961 0.717865 0.459930
0.705658 0.705658 0.447449
0.948608 0.693726 0.435364
1.000000 0.697327 0.439301
0.000000 0.906219 0.389069
0.000000 0.919189 0.402985
0.012573 0.933563 0.418213
0.185974 0.941101 0.424805
0.416748 0.934540 0.416718
0.662201 0.922913 0.403809
0.909698 0.909943 0.389801
1.000000 0.911285 0.390411
0.000000 1.000000 0.387238
0.000000 1.000000 0.402313
0.022522 1.000000 0.417572
0.194153 1.000000 0.425751
0.417419 1.000000 0.417389
0.655518 1.000000 0.398193
0.887909 1.000000 0.365997
1.000000 1.000000 0.340820
0.000000 0.000000 0.907745
0.025604 0.000000 0.901367
0.170471 0.000000 0.885437
0.354004 0.000000 0.851074
0.559357 0.000000 0.812866
0.775024 0.000000 0.775024
0.952820 0.000000 0.751678
1.000000 0.000000 0.734802
0.000000 0.003387 0.869843
0.001770 0.001862 0.857147
0.128143 0.000763 0.845978
0.324036 0.000275 0.822937
0.542572 0.000000 0.796936
0.770569 0.000000 0.770569
0.962372 0.000000 0.755127
1.000000 0.000000 0.745148
0.000000 0.122009 0.840729
0.000824 0.124939 0.842438
0.129578 0.129517 0.846313
0.335052 0.117523 0.833954
0.561401 0.100616 0.816162
0.795563 0.082336 0.795563
0.988525 0.074860 0.783905
1.000000 0.074127 0.777313
0.000000 0.294525 0.795349
0.000031 0.301697 0.801666
0.098297 0.311859 0.811646
0.305176 0.305176 0.804962
0.535919 0.291901 0.791931
0.776611 0.276123 0.776581
0.986725 0.267853 0.768097
1.000000 0.269012 0.768433
0.000000 0.486389 0.743835
0.000000 0.496368 0.753418
0.063263 0.509766 0.766632
0.265289 0.508362 0.765320
0.498016 0.498047 0.755219
0.742157 0.484619 0.742126
0.972443 0.474213 0.732086
1.000000 0.477448 0.735474
0.000000 0.690674 0.690582
0.000000 0.702698 0.702698
0.028992 0.717133 0.717163
0.221436 0.720703 0.720825
0.454529 0.712555 0.712555
0.700378 0.700317 0.700348
0.944489 0.688263 0.688232
1.000000 0.691833 0.691772
0.000000 0.900848 0.642029
0.000000 0.913818 0.655457
0.010254 0.928406 0.670380
0.180389 0.936096 0.677429
0.411041 0.929382 0.669556
0.656647 0.917816 0.656616
0.904572 0.904541 0.642609
1.000000 0.905426 0.642426
0.000000 1.000000 0.639038
0.000000 1.000000 0.653473
0.019623 1.000000 0.668549
0.188232 1.000000 0.676666
0.410553 1.000000 0.667969
0.645782 1.000000 0.645782
0.875732 1.000000 0.610992
1.000000 1.000000 0.587189
0.000000 0.000000 1.000000
0.018005 0.000000 1.000000
0.159241 0.000000 0.999969
0.342499 0.000000 0.996704
0.549133 0.000000 0.982941
0.765686 0.000000 0.961395
0.947327 0.000000 0.947388
1.000000 0.000000 0.940125
0.000000 0.001617 0.999023
0.000610 0.000671 0.997650
0.119507 0.000488 0.996613
0.316284 0.000214 0.993561
0.535583 0.000000 0.980774
0.764038 0.000000 0.965881
0.958557 0.000000 0.958557
1.000000 0.000000 0.957123
0.000000 0.116547 0.996735
0.000610 0.119965 0.997375
0.125610 0.125519 0.998505
0.330475 0.113983 0.997162
0.556335 0.097168 0.995087
0.790497 0.078705 0.990662
0.985657 0.070648 0.985718
1.000000 0.069702 0.986633
0.000000 0.289703 0.986206
0.000031 0.297302 0.992279
0.095947 0.308044 0.995453
0.301575 0.301666 0.995331
0.532104 0.288239 0.993622
0.772675 0.272583 0.986969
0.985535 0.263123 0.985809
1.000000 0.263855 0.992584
0.000000 0.481567 0.961212
0.000000 0.491943 0.969177
0.061279 0.505493 0.980652
0.261383 0.504303 0.983398
0.493866 0.493805 0.980042
0.737701 0.479889 0.974213
0.970184 0.468811 0.970490
1.000000 0.471893 0.977264
0.000000 0.685211 0.929688
0.000000 0.697235 0.941895
0.026215 0.711884 0.956268
0.216797 0.715851 0.962738
0.449371 0.707581 0.958099
0.695190 0.695251 0.949310
0.940063 0.682556 0.939941
1.000000 0.685883 0.944946
0.000000 0.895111 0.894318
0.000000 0.908081 0.907318
0.007874 0.922668 0.921967
0.174805 0.930817 0.930084
0.405060 0.924194 0.923676
0.650696 0.912445 0.912170
0.898895 0.898987 0.898865
1.000000 0.898987 0.898926
0.000000 1.000000 0.895233
0.000000 1.000000 0.909454
0.016479 1.000000 0.924072
0.181702 1.000000 0.932251
0.402130 1.000000 0.923096
0.633972 1.000000 0.898346
0.862305 1.000000 0.862335
1.000000 1.000000 0.841095
0.000000 0.000000 1.000000
0.009583 0.000000 1.000000
0.146271 0.000000 1.000000
0.331116 0.000000 1.000000
0.539001 0.000000 1.000000
0.757416 0.000000 1.000000
0.943237 0.000000 1.000000
1.000000 0.000000 1.000000
0.000000 0.000549 1.000000
0.000427 0.000488 1.000000
0.111298 0.000427 1.000000
0.309174 0.000153 1.000000
0.529327 0.000000 1.000000
0.758911 0.000000 1.000000
0.956757 0.000000 1.000000
1.000000 0.000000 1.000000
0.000000 0.111694 1.000000
0.000488 0.115692 1.000000
0.122101 0.121979 1.000000
0.326538 0.111328 1.000000
0.552338 0.095184 1.000000
0.786896 0.077148 1.000000
0.984650 0.068848 1.000000
1.000000 0.068329 1.000000
0.000000 0.286407 1.000000
0.000031 0.294250 1.000000
0.095276 0.305420 1.000000
0.299835 0.299835 1.000000
0.530426 0.286957 1.000000
0.771454 0.271362 1.000000
0.987244 0.261688 1.000000
1.000000 0.263092 1.000000
0.000000 0.479553 1.000000
0.000000 0.490051 1.000000
0.062500 0.503784 1.000000
0.260986 0.503540 1.000000
0.493469 0.493317 1.000000
0.737671 0.479919 1.000000
0.971741 0.468384 1.000000
1.000000 0.471222 1.000000
0.000000 0.684509 1.000000
0.000000 0.696747 1.000000
0.028229 0.711334 1.000000
0.217194 0.715759 1.000000
0.449615 0.707855 1.000000
0.695404 0.695435 1.000000
0.940826 0.682526 1.000000
1.000000 0.685120 1.000000
0.000000 0.894714 1.000000
0.000000 0.908020 1.000000
0.008575 0.922485 1.000000
0.174744 0.930573 1.000000
0.404480 0.924042 1.000000
0.649872 0.911835 1.000000
0.898041 0.898132 1.000000
1.000000 0.896301 1.000000
0.000000 1.000000 1.000000
0.000000 1.000000 1.000000
0.015839 1.000000 1.000000
0.179718 1.000000 1.000000
0.396973 1.000000 1.000000
0.625122 1.000000 1.000000
0.853180 1.000000 1.000000
1.000000 1.000000 1.000000
