Postproduction/IWLTBAP - Humble/LUTs by IWLTBAP (CUBE)/UTILITY/Generic LOG to Rec.709/U-9995-LTR.cube
# Copyright: (C) Copyright 2010-2018 by IWLTBAP SAS
# Cannot be resold, shared or otherwise redistributed
# Website: https://luts.iwltbap.com
TITLE "IWLTBAP 9995 (Utility LOG to Rec.709)"
LUT_3D_SIZE 32
0.000000 0.000000 0.000000
0.000000 0.000000 0.000000
0.000000 0.000000 0.000000
0.000000 0.000000 0.000000
0.001158 0.000000 0.000000
0.033108 0.000000 0.000000
0.068298 0.000000 0.000000
0.103506 0.000000 0.000000
0.141531 0.000000 0.000000
0.183281 0.000000 0.000000
0.229991 0.000000 0.000000
0.281790 0.000000 0.000000
0.337284 0.000000 0.000000
0.394658 0.000000 0.000000
0.452487 0.000000 0.000000
0.509005 0.000000 0.000000
0.563406 0.000000 0.000000
0.614384 0.000000 0.000000
0.661072 0.000000 0.000000
0.702469 0.000000 0.000000
0.739123 0.000000 0.000000
0.771669 0.000000 0.000000
0.800805 0.000000 0.000000
0.827056 0.000000 0.000000
0.851033 0.000000 0.000000
0.873269 0.000000 0.000000
0.894342 0.000000 0.000000
0.914530 0.000000 0.000000
0.921570 0.000000 0.000000
0.921570 0.000000 0.000000
0.921570 0.000000 0.000000
0.921570 0.000000 0.000000
0.000000 0.000000 0.000000
0.000000 0.000000 0.000000
0.000000 0.000000 0.000000
0.000000 0.000000 0.000000
0.001158 0.000000 0.000000
0.033108 0.000000 0.000000
0.068298 0.000000 0.000000
0.103506 0.000000 0.000000
0.141531 0.000000 0.000000
0.183281 0.000000 0.000000
0.229991 0.000000 0.000000
0.281790 0.000000 0.000000
0.337284 0.000000 0.000000
0.394658 0.000000 0.000000
0.452487 0.000000 0.000000
0.509005 0.000000 0.000000
0.563406 0.000000 0.000000
0.614384 0.000000 0.000000
0.661072 0.000000 0.000000
0.702469 0.000000 0.000000
0.739123 0.000000 0.000000
0.771669 0.000000 0.000000
0.800805 0.000000 0.000000
0.827056 0.000000 0.000000
0.851033 0.000000 0.000000
0.873269 0.000000 0.000000
0.894342 0.000000 0.000000
0.914530 0.000000 0.000000
0.921570 0.000000 0.000000
0.921570 0.000000 0.000000
0.921570 0.000000 0.000000
0.921570 0.000000 0.000000
0.000000 0.000000 0.000000
0.000000 0.000000 0.000000
0.000000 0.000000 0.000000
0.000000 0.000000 0.000000
0.001158 0.000000 0.000000
0.033108 0.000000 0.000000
0.068298 0.000000 0.000000
0.103506 0.000000 0.000000
0.141531 0.000000 0.000000
0.183281 0.000000 0.000000
0.229991 0.000000 0.000000
0.281790 0.000000 0.000000
0.337284 0.000000 0.000000
0.394658 0.000000 0.000000
0.452487 0.000000 0.000000
0.509005 0.000000 0.000000
0.563406 0.000000 0.000000
0.614384 0.000000 0.000000
0.661072 0.000000 0.000000
0.702469 0.000000 0.000000
0.739123 0.000000 0.000000
0.771669 0.000000 0.000000
0.800805 0.000000 0.000000
0.827056 0.000000 0.000000
0.851033 0.000000 0.000000
0.873269 0.000000 0.000000
0.894342 0.000000 0.000000
0.914530 0.000000 0.000000
0.921570 0.000000 0.000000
0.921570 0.000000 0.000000
0.921570 0.000000 0.000000
0.921570 0.000000 0.000000
0.000000 0.000000 0.000000
0.000000 0.000000 0.000000
0.000000 0.000000 0.000000
0.000000 0.000000 0.000000
0.001158 0.000000 0.000000
0.033108 0.000000 0.000000
0.068298 0.000000 0.000000
0.103506 0.000000 0.000000
0.141531 0.000000 0.000000
0.183281 0.000000 0.000000
0.229991 0.000000 0.000000
0.281790 0.000000 0.000000
0.337284 0.000000 0.000000
0.394658 0.000000 0.000000
0.452487 0.000000 0.000000
0.509005 0.000000 0.000000
0.563406 0.000000 0.000000
0.614384 0.000000 0.000000
0.661072 0.000000 0.000000
0.702469 0.000000 0.000000
0.739123 0.000000 0.000000
0.771669 0.000000 0.000000
0.800805 0.000000 0.000000
0.827056 0.000000 0.000000
0.851033 0.000000 0.000000
0.873269 0.000000 0.000000
0.894342 0.000000 0.000000
0.914530 0.000000 0.000000
0.921570 0.000000 0.000000
0.921570 0.000000 0.000000
0.921570 0.000000 0.000000
0.921570 0.000000 0.000000
0.000000 0.001158 0.000000
0.000000 0.001158 0.000000
0.000000 0.001158 0.000000
0.000000 0.001158 0.000000
0.001158 0.001158 0.000000
0.033108 0.001158 0.000000
0.068298 0.001158 0.000000
0.103506 0.001158 0.000000
0.141531 0.001158 0.000000
0.183281 0.001158 0.000000
0.229991 0.001158 0.000000
0.281790 0.001158 0.000000
0.337284 0.001158 0.000000
0.394658 0.001158 0.000000
0.452487 0.001158 0.000000
0.509005 0.001158 0.000000
0.563406 0.001158 0.000000
0.614384 0.001158 0.000000
0.661072 0.001158 0.000000
0.702469 0.001158 0.000000
0.739123 0.001158 0.000000
0.771669 0.001158 0.000000
0.800805 0.001158 0.000000
0.827056 0.001158 0.000000
0.851033 0.001158 0.000000
0.873269 0.001158 0.000000
0.894342 0.001158 0.000000
0.914530 0.001158 0.000000
0.921570 0.001158 0.000000
0.921570 0.001158 0.000000
0.921570 0.001158 0.000000
0.921570 0.001158 0.000000
0.000000 0.033108 0.000000
0.000000 0.033108 0.000000
0.000000 0.033108 0.000000
0.000000 0.033108 0.000000
0.001158 0.033108 0.000000
0.033108 0.033108 0.000000
0.068298 0.033108 0.000000
0.103506 0.033108 0.000000
0.141531 0.033108 0.000000
0.183281 0.033108 0.000000
0.229991 0.033108 0.000000
0.281790 0.033108 0.000000
0.337284 0.033108 0.000000
0.394658 0.033108 0.000000
0.452487 0.033108 0.000000
0.509005 0.033108 0.000000
0.563406 0.033108 0.000000
0.614384 0.033108 0.000000
0.661072 0.033108 0.000000
0.702469 0.033108 0.000000
0.739123 0.033108 0.000000
0.771669 0.033108 0.000000
0.800805 0.033108 0.000000
0.827056 0.033108 0.000000
0.851033 0.033108 0.000000
0.873269 0.033108 0.000000
0.894342 0.033108 0.000000
0.914530 0.033108 0.000000
0.921570 0.033108 0.000000
0.921570 0.033108 0.000000
0.921570 0.033108 0.000000
0.921570 0.033108 0.000000
0.000000 0.068298 0.000000
0.000000 0.068298 0.000000
0.000000 0.068298 0.000000
0.000000 0.068298 0.000000
0.001158 0.068298 0.000000
0.033108 0.068298 0.000000
0.068298 0.068298 0.000000
0.103506 0.068298 0.000000
0.141531 0.068298 0.000000
0.183281 0.068298 0.000000
0.229991 0.068298 0.000000
0.281790 0.068298 0.000000
0.337284 0.068298 0.000000
0.394658 0.068298 0.000000
0.452487 0.068298 0.000000
0.509005 0.068298 0.000000
0.563406 0.068298 0.000000
0.614384 0.068298 0.000000
0.661072 0.068298 0.000000
0.702469 0.068298 0.000000
0.739123 0.068298 0.000000
0.771669 0.068298 0.000000
0.800805 0.068298 0.000000
0.827056 0.068298 0.000000
0.851033 0.068298 0.000000
0.873269 0.068298 0.000000
0.894342 0.068298 0.000000
0.914530 0.068298 0.000000
0.921570 0.068298 0.000000
0.921570 0.068298 0.000000
0.921570 0.068298 0.000000
0.921570 0.068298 0.000000
0.000000 0.103506 0.000000
0.000000 0.103506 0.000000
0.000000 0.103506 0.000000
0.000000 0.103506 0.000000
0.001158 0.103506 0.000000
0.033108 0.103506 0.000000
0.068298 0.103506 0.000000
0.103506 0.103506 0.000000
0.141531 0.103506 0.000000
0.183281 0.103506 0.000000
0.229991 0.103506 0.000000
0.281790 0.103506 0.000000
0.337284 0.103506 0.000000
0.394658 0.103506 0.000000
0.452487 0.103506 0.000000
0.509005 0.103506 0.000000
0.563406 0.103506 0.000000
0.614384 0.103506 0.000000
0.661072 0.103506 0.000000
0.702469 0.103506 0.000000
0.739123 0.103506 0.000000
0.771669 0.103506 0.000000
0.800805 0.103506 0.000000
0.827056 0.103506 0.000000
0.851033 0.103506 0.000000
0.873269 0.103506 0.000000
0.894342 0.103506 0.000000
0.914530 0.103506 0.000000
0.921570 0.103506 0.000000
0.921570 0.103506 0.000000
0.921570 0.103506 0.000000
0.921570 0.103506 0.000000
0.000000 0.141531 0.000000
0.000000 0.141531 0.000000
0.000000 0.141531 0.000000
0.000000 0.141531 0.000000
0.001158 0.141531 0.000000
0.033108 0.141531 0.000000
0.068298 0.141531 0.000000
0.103506 0.141531 0.000000
0.141531 0.141531 0.000000
0.183281 0.141531 0.000000
0.229991 0.141531 0.000000
0.281790 0.141531 0.000000
0.337284 0.141531 0.000000
0.394658 0.141531 0.000000
0.452487 0.141531 0.000000
0.509005 0.141531 0.000000
0.563406 0.141531 0.000000
0.614384 0.141531 0.000000
0.661072 0.141531 0.000000
0.702469 0.141531 0.000000
0.739123 0.141531 0.000000
0.771669 0.141531 0.000000
0.800805 0.141531 0.000000
0.827056 0.141531 0.000000
0.851033 0.141531 0.000000
0.873269 0.141531 0.000000
0.894342 0.141531 0.000000
0.914530 0.141531 0.000000
0.921570 0.141531 0.000000
0.921570 0.141531 0.000000
0.921570 0.141531 0.000000
0.921570 0.141531 0.000000
0.000000 0.183281 0.000000
0.000000 0.183281 0.000000
0.000000 0.183281 0.000000
0.000000 0.183281 0.000000
0.001158 0.183281 0.000000
0.033108 0.183281 0.000000
0.068298 0.183281 0.000000
0.103506 0.183281 0.000000
0.141531 0.183281 0.000000
0.183281 0.183281 0.000000
0.229991 0.183281 0.000000
0.281790 0.183281 0.000000
0.337284 0.183281 0.000000
0.394658 0.183281 0.000000
0.452487 0.183281 0.000000
0.509005 0.183281 0.000000
0.563406 0.183281 0.000000
0.614384 0.183281 0.000000
0.661072 0.183281 0.000000
0.702469 0.183281 0.000000
0.739123 0.183281 0.000000
0.771669 0.183281 0.000000
0.800805 0.183281 0.000000
0.827056 0.183281 0.000000
0.851033 0.183281 0.000000
0.873269 0.183281 0.000000
0.894342 0.183281 0.000000
0.914530 0.183281 0.000000
0.921570 0.183281 0.000000
0.921570 0.183281 0.000000
0.921570 0.183281 0.000000
0.921570 0.183281 0.000000
0.000000 0.229991 0.000000
0.000000 0.229991 0.000000
0.000000 0.229991 0.000000
0.000000 0.229991 0.000000
0.001158 0.229991 0.000000
0.033108 0.229991 0.000000
0.068298 0.229991 0.000000
0.103506 0.229991 0.000000
0.141531 0.229991 0.000000
0.183281 0.229991 0.000000
0.229991 0.229991 0.000000
0.281790 0.229991 0.000000
0.337284 0.229991 0.000000
0.394658 0.229991 0.000000
0.452487 0.229991 0.000000
0.509005 0.229991 0.000000
0.563406 0.229991 0.000000
0.614384 0.229991 0.000000
0.661072 0.229991 0.000000
0.702469 0.229991 0.000000
0.739123 0.229991 0.000000
0.771669 0.229991 0.000000
0.800805 0.229991 0.000000
0.827056 0.229991 0.000000
0.851033 0.229991 0.000000
0.873269 0.229991 0.000000
0.894342 0.229991 0.000000
0.914530 0.229991 0.000000
0.921570 0.229991 0.000000
0.921570 0.229991 0.000000
0.921570 0.229991 0.000000
0.921570 0.229991 0.000000
0.000000 0.281790 0.000000
0.000000 0.281790 0.000000
0.000000 0.281790 0.000000
0.000000 0.281790 0.000000
0.001158 0.281790 0.000000
0.033108 0.281790 0.000000
0.068298 0.281790 0.000000
0.103506 0.281790 0.000000
0.141531 0.281790 0.000000
0.183281 0.281790 0.000000
0.229991 0.281790 0.000000
0.281790 0.281790 0.000000
0.337284 0.281790 0.000000
0.394658 0.281790 0.000000
0.452487 0.281790 0.000000
0.509005 0.281790 0.000000
0.563406 0.281790 0.000000
0.614384 0.281790 0.000000
0.661072 0.281790 0.000000
0.702469 0.281790 0.000000
0.739123 0.281790 0.000000
0.771669 0.281790 0.000000
0.800805 0.281790 0.000000
0.827056 0.281790 0.000000
0.851033 0.281790 0.000000
0.873269 0.281790 0.000000
0.894342 0.281790 0.000000
0.914530 0.281790 0.000000
0.921570 0.281790 0.000000
0.921570 0.281790 0.000000
0.921570 0.281790 0.000000
0.921570 0.281790 0.000000
0.000000 0.337284 0.000000
0.000000 0.337284 0.000000
0.000000 0.337284 0.000000
0.000000 0.337284 0.000000
0.001158 0.337284 0.000000
0.033108 0.337284 0.000000
0.068298 0.337284 0.000000
0.103506 0.337284 0.000000
0.141531 0.337284 0.000000
0.183281 0.337284 0.000000
0.229991 0.337284 0.000000
0.281790 0.337284 0.000000
0.337284 0.337284 0.000000
0.394658 0.337284 0.000000
0.452487 0.337284 0.000000
0.509005 0.337284 0.000000
0.563406 0.337284 0.000000
0.614384 0.337284 0.000000
0.661072 0.337284 0.000000
0.702469 0.337284 0.000000
0.739123 0.337284 0.000000
0.771669 0.337284 0.000000
0.800805 0.337284 0.000000
0.827056 0.337284 0.000000
0.851033 0.337284 0.000000
0.873269 0.337284 0.000000
0.894342 0.337284 0.000000
0.914530 0.337284 0.000000
0.921570 0.337284 0.000000
0.921570 0.337284 0.000000
0.921570 0.337284 0.000000
0.921570 0.337284 0.000000
0.000000 0.394658 0.000000
0.000000 0.394658 0.000000
0.000000 0.394658 0.000000
0.000000 0.394658 0.000000
0.001158 0.394658 0.000000
0.033108 0.394658 0.000000
0.068298 0.394658 0.000000
0.103506 0.394658 0.000000
0.141531 0.394658 0.000000
0.183281 0.394658 0.000000
0.229991 0.394658 0.000000
0.281790 0.394658 0.000000
0.337284 0.394658 0.000000
0.394658 0.394658 0.000000
0.452487 0.394658 0.000000
0.509005 0.394658 0.000000
0.563406 0.394658 0.000000
0.614384 0.394658 0.000000
0.661072 0.394658 0.000000
0.702469 0.394658 0.000000
0.739123 0.394658 0.000000
0.771669 0.394658 0.000000
0.800805 0.394658 0.000000
0.827056 0.394658 0.000000
0.851033 0.394658 0.000000
0.873269 0.394658 0.000000
0.894342 0.394658 0.000000
0.914530 0.394658 0.000000
0.921570 0.394658 0.000000
0.921570 0.394658 0.000000
0.921570 0.394658 0.000000
0.921570 0.394658 0.000000
0.000000 0.452487 0.000000
0.000000 0.452487 0.000000
0.000000 0.452487 0.000000
0.000000 0.452487 0.000000
0.001158 0.452487 0.000000
0.033108 0.452487 0.000000
0.068298 0.452487 0.000000
0.103506 0.452487 0.000000
0.141531 0.452487 0.000000
0.183281 0.452487 0.000000
0.229991 0.452487 0.000000
0.281790 0.452487 0.000000
0.337284 0.452487 0.000000
0.394658 0.452487 0.000000
0.452487 0.452487 0.000000
0.509005 0.452487 0.000000
0.563406 0.452487 0.000000
0.614384 0.452487 0.000000
0.661072 0.452487 0.000000
0.702469 0.452487 0.000000
0.739123 0.452487 0.000000
0.771669 0.452487 0.000000
0.800805 0.452487 0.000000
0.827056 0.452487 0.000000
0.851033 0.452487 0.000000
0.873269 0.452487 0.000000
0.894342 0.452487 0.000000
0.914530 0.452487 0.000000
0.921570 0.452487 0.000000
0.921570 0.452487 0.000000
0.921570 0.452487 0.000000
0.921570 0.452487 0.000000
0.000000 0.509005 0.000000
0.000000 0.509005 0.000000
0.000000 0.509005 0.000000
0.000000 0.509005 0.000000
0.001158 0.509005 0.000000
0.033108 0.509005 0.000000
0.068298 0.509005 0.000000
0.103506 0.509005 0.000000
0.141531 0.509005 0.000000
0.183281 0.509005 0.000000
0.229991 0.509005 0.000000
0.281790 0.509005 0.000000
0.337284 0.509005 0.000000
0.394658 0.509005 0.000000
0.452487 0.509005 0.000000
0.509005 0.509005 0.000000
0.563406 0.509005 0.000000
0.614384 0.509005 0.000000
0.661072 0.509005 0.000000
0.702469 0.509005 0.000000
0.739123 0.509005 0.000000
0.771669 0.509005 0.000000
0.800805 0.509005 0.000000
0.827056 0.509005 0.000000
0.851033 0.509005 0.000000
0.873269 0.509005 0.000000
0.894342 0.509005 0.000000
0.914530 0.509005 0.000000
0.921570 0.509005 0.000000
0.921570 0.509005 0.000000
0.921570 0.509005 0.000000
0.921570 0.509005 0.000000
0.000000 0.563406 0.000000
0.000000 0.563406 0.000000
0.000000 0.563406 0.000000
0.000000 0.563406 0.000000
0.001158 0.563406 0.000000
0.033108 0.563406 0.000000
0.068298 0.563406 0.000000
0.103506 0.563406 0.000000
0.141531 0.563406 0.000000
0.183281 0.563406 0.000000
0.229991 0.563406 0.000000
0.281790 0.563406 0.000000
0.337284 0.563406 0.000000
0.394658 0.563406 0.000000
0.452487 0.563406 0.000000
0.509005 0.563406 0.000000
0.563406 0.563406 0.000000
0.614384 0.563406 0.000000
0.661072 0.563406 0.000000
0.702469 0.563406 0.000000
0.739123 0.563406 0.000000
0.771669 0.563406 0.000000
0.800805 0.563406 0.000000
0.827056 0.563406 0.000000
0.851033 0.563406 0.000000
0.873269 0.563406 0.000000
0.894342 0.563406 0.000000
0.914530 0.563406 0.000000
0.921570 0.563406 0.000000
0.921570 0.563406 0.000000
0.921570 0.563406 0.000000
0.921570 0.563406 0.000000
0.000000 0.614384 0.000000
0.000000 0.614384 0.000000
0.000000 0.614384 0.000000
0.000000 0.614384 0.000000
0.001158 0.614384 0.000000
0.033108 0.614384 0.000000
0.068298 0.614384 0.000000
0.103506 0.614384 0.000000
0.141531 0.614384 0.000000
0.183281 0.614384 0.000000
0.229991 0.614384 0.000000
0.281790 0.614384 0.000000
0.337284 0.614384 0.000000
0.394658 0.614384 0.000000
0.452487 0.614384 0.000000
0.509005 0.614384 0.000000
0.563406 0.614384 0.000000
0.614384 0.614384 0.000000
0.661072 0.614384 0.000000
0.702469 0.614384 0.000000
0.739123 0.614384 0.000000
0.771669 0.614384 0.000000
0.800805 0.614384 0.000000
0.827056 0.614384 0.000000
0.851033 0.614384 0.000000
0.873269 0.614384 0.000000
0.894342 0.614384 0.000000
0.914530 0.614384 0.000000
0.921570 0.614384 0.000000
0.921570 0.614384 0.000000
0.921570 0.614384 0.000000
0.921570 0.614384 0.000000
0.000000 0.661072 0.000000
0.000000 0.661072 0.000000
0.000000 0.661072 0.000000
0.000000 0.661072 0.000000
0.001158 0.661072 0.000000
0.033108 0.661072 0.000000
0.068298 0.661072 0.000000
0.103506 0.661072 0.000000
0.141531 0.661072 0.000000
0.183281 0.661072 0.000000
0.229991 0.661072 0.000000
0.281790 0.661072 0.000000
0.337284 0.661072 0.000000
0.394658 0.661072 0.000000
0.452487 0.661072 0.000000
0.509005 0.661072 0.000000
0.563406 0.661072 0.000000
0.614384 0.661072 0.000000
0.661072 0.661072 0.000000
0.702469 0.661072 0.000000
0.739123 0.661072 0.000000
0.771669 0.661072 0.000000
0.800805 0.661072 0.000000
0.827056 0.661072 0.000000
0.851033 0.661072 0.000000
0.873269 0.661072 0.000000
0.894342 0.661072 0.000000
0.914530 0.661072 0.000000
0.921570 0.661072 0.000000
0.921570 0.661072 0.000000
0.921570 0.661072 0.000000
0.921570 0.661072 0.000000
0.000000 0.702469 0.000000
0.000000 0.702469 0.000000
0.000000 0.702469 0.000000
0.000000 0.702469 0.000000
0.001158 0.702469 0.000000
0.033108 0.702469 0.000000
0.068298 0.702469 0.000000
0.103506 0.702469 0.000000
0.141531 0.702469 0.000000
0.183281 0.702469 0.000000
0.229991 0.702469 0.000000
0.281790 0.702469 0.000000
0.337284 0.702469 0.000000
0.394658 0.702469 0.000000
0.452487 0.702469 0.000000
0.509005 0.702469 0.000000
0.563406 0.702469 0.000000
0.614384 0.702469 0.000000
0.661072 0.702469 0.000000
0.702469 0.702469 0.000000
0.739123 0.702469 0.000000
0.771669 0.702469 0.000000
0.800805 0.702469 0.000000
0.827056 0.702469 0.000000
0.851033 0.702469 0.000000
0.873269 0.702469 0.000000
0.894342 0.702469 0.000000
0.914530 0.702469 0.000000
0.921570 0.702469 0.000000
0.921570 0.702469 0.000000
0.921570 0.702469 0.000000
0.921570 0.702469 0.000000
0.000000 0.739123 0.000000
0.000000 0.739123 0.000000
0.000000 0.739123 0.000000
0.000000 0.739123 0.000000
0.001158 0.739123 0.000000
0.033108 0.739123 0.000000
0.068298 0.739123 0.000000
0.103506 0.739123 0.000000
0.141531 0.739123 0.000000
0.183281 0.739123 0.000000
0.229991 0.739123 0.000000
0.281790 0.739123 0.000000
0.337284 0.739123 0.000000
0.394658 0.739123 0.000000
0.452487 0.739123 0.000000
0.509005 0.739123 0.000000
0.563406 0.739123 0.000000
0.614384 0.739123 0.000000
0.661072 0.739123 0.000000
0.702469 0.739123 0.000000
0.739123 0.739123 0.000000
0.771669 0.739123 0.000000
0.800805 0.739123 0.000000
0.827056 0.739123 0.000000
0.851033 0.739123 0.000000
0.873269 0.739123 0.000000
0.894342 0.739123 0.000000
0.914530 0.739123 0.000000
0.921570 0.739123 0.000000
0.921570 0.739123 0.000000
0.921570 0.739123 0.000000
0.921570 0.739123 0.000000
0.000000 0.771669 0.000000
0.000000 0.771669 0.000000
0.000000 0.771669 0.000000
0.000000 0.771669 0.000000
0.001158 0.771669 0.000000
0.033108 0.771669 0.000000
0.068298 0.771669 0.000000
0.103506 0.771669 0.000000
0.141531 0.771669 0.000000
0.183281 0.771669 0.000000
0.229991 0.771669 0.000000
0.281790 0.771669 0.000000
0.337284 0.771669 0.000000
0.394658 0.771669 0.000000
0.452487 0.771669 0.000000
0.509005 0.771669 0.000000
0.563406 0.771669 0.000000
0.614384 0.771669 0.000000
0.661072 0.771669 0.000000
0.702469 0.771669 0.000000
0.739123 0.771669 0.000000
0.771669 0.771669 0.000000
0.800805 0.771669 0.000000
0.827056 0.771669 0.000000
0.851033 0.771669 0.000000
0.873269 0.771669 0.000000
0.894342 0.771669 0.000000
0.914530 0.771669 0.000000
0.921570 0.771669 0.000000
0.921570 0.771669 0.000000
0.921570 0.771669 0.000000
0.921570 0.771669 0.000000
0.000000 0.800805 0.000000
0.000000 0.800805 0.000000
0.000000 0.800805 0.000000
0.000000 0.800805 0.000000
0.001158 0.800805 0.000000
0.033108 0.800805 0.000000
0.068298 0.800805 0.000000
0.103506 0.800805 0.000000
0.141531 0.800805 0.000000
0.183281 0.800805 0.000000
0.229991 0.800805 0.000000
0.281790 0.800805 0.000000
0.337284 0.800805 0.000000
0.394658 0.800805 0.000000
0.452487 0.800805 0.000000
0.509005 0.800805 0.000000
0.563406 0.800805 0.000000
0.614384 0.800805 0.000000
0.661072 0.800805 0.000000
0.702469 0.800805 0.000000
0.739123 0.800805 0.000000
0.771669 0.800805 0.000000
0.800805 0.800805 0.000000
0.827056 0.800805 0.000000
0.851033 0.800805 0.000000
0.873269 0.800805 0.000000
0.894342 0.800805 0.000000
0.914530 0.800805 0.000000
0.921570 0.800805 0.000000
0.921570 0.800805 0.000000
0.921570 0.800805 0.000000
0.921570 0.800805 0.000000
0.000000 0.827056 0.000000
0.000000 0.827056 0.000000
0.000000 0.827056 0.000000
0.000000 0.827056 0.000000
0.001158 0.827056 0.000000
0.033108 0.827056 0.000000
0.068298 0.827056 0.000000
0.103506 0.827056 0.000000
0.141531 0.827056 0.000000
0.183281 0.827056 0.000000
0.229991 0.827056 0.000000
0.281790 0.827056 0.000000
0.337284 0.827056 0.000000
0.394658 0.827056 0.000000
0.452487 0.827056 0.000000
0.509005 0.827056 0.000000
0.563406 0.827056 0.000000
0.614384 0.827056 0.000000
0.661072 0.827056 0.000000
0.702469 0.827056 0.000000
0.739123 0.827056 0.000000
0.771669 0.827056 0.000000
0.800805 0.827056 0.000000
0.827056 0.827056 0.000000
0.851033 0.827056 0.000000
0.873269 0.827056 0.000000
0.894342 0.827056 0.000000
0.914530 0.827056 0.000000
0.921570 0.827056 0.000000
0.921570 0.827056 0.000000
0.921570 0.827056 0.000000
0.921570 0.827056 0.000000
0.000000 0.851033 0.000000
0.000000 0.851033 0.000000
0.000000 0.851033 0.000000
0.000000 0.851033 0.000000
0.001158 0.851033 0.000000
0.033108 0.851033 0.000000
0.068298 0.851033 0.000000
0.103506 0.851033 0.000000
0.141531 0.851033 0.000000
0.183281 0.851033 0.000000
0.229991 0.851033 0.000000
0.281790 0.851033 0.000000
0.337284 0.851033 0.000000
0.394658 0.851033 0.000000
0.452487 0.851033 0.000000
0.509005 0.851033 0.000000
0.563406 0.851033 0.000000
0.614384 0.851033 0.000000
0.661072 0.851033 0.000000
0.702469 0.851033 0.000000
0.739123 0.851033 0.000000
0.771669 0.851033 0.000000
0.800805 0.851033 0.000000
0.827056 0.851033 0.000000
0.851033 0.851033 0.000000
0.873269 0.851033 0.000000
0.894342 0.851033 0.000000
0.914530 0.851033 0.000000
0.921570 0.851033 0.000000
0.921570 0.851033 0.000000
0.921570 0.851033 0.000000
0.921570 0.851033 0.000000
0.000000 0.873269 0.000000
0.000000 0.873269 0.000000
0.000000 0.873269 0.000000
0.000000 0.873269 0.000000
0.001158 0.873269 0.000000
0.033108 0.873269 0.000000
0.068298 0.873269 0.000000
0.103506 0.873269 0.000000
0.141531 0.873269 0.000000
0.183281 0.873269 0.000000
0.229991 0.873269 0.000000
0.281790 0.873269 0.000000
0.337284 0.873269 0.000000
0.394658 0.873269 0.000000
0.452487 0.873269 0.000000
0.509005 0.873269 0.000000
0.563406 0.873269 0.000000
0.614384 0.873269 0.000000
0.661072 0.873269 0.000000
0.702469 0.873269 0.000000
0.739123 0.873269 0.000000
0.771669 0.873269 0.000000
0.800805 0.873269 0.000000
0.827056 0.873269 0.000000
0.851033 0.873269 0.000000
0.873269 0.873269 0.000000
0.894342 0.873269 0.000000
0.914530 0.873269 0.000000
0.921570 0.873269 0.000000
0.921570 0.873269 0.000000
0.921570 0.873269 0.000000
0.921570 0.873269 0.000000
0.000000 0.894342 0.000000
0.000000 0.894342 0.000000
0.000000 0.894342 0.000000
0.000000 0.894342 0.000000
0.001158 0.894342 0.000000
0.033108 0.894342 0.000000
0.068298 0.894342 0.000000
0.103506 0.894342 0.000000
0.141531 0.894342 0.000000
0.183281 0.894342 0.000000
0.229991 0.894342 0.000000
0.281790 0.894342 0.000000
0.337284 0.894342 0.000000
0.394658 0.894342 0.000000
0.452487 0.894342 0.000000
0.509005 0.894342 0.000000
0.563406 0.894342 0.000000
0.614384 0.894342 0.000000
0.661072 0.894342 0.000000
0.702469 0.894342 0.000000
0.739123 0.894342 0.000000
0.771669 0.894342 0.000000
0.800805 0.894342 0.000000
0.827056 0.894342 0.000000
0.851033 0.894342 0.000000
0.873269 0.894342 0.000000
0.894342 0.894342 0.000000
0.914530 0.894342 0.000000
0.921570 0.894342 0.000000
0.921570 0.894342 0.000000
0.921570 0.894342 0.000000
0.921570 0.894342 0.000000
0.000000 0.914530 0.000000
0.000000 0.914530 0.000000
0.000000 0.914530 0.000000
0.000000 0.914530 0.000000
0.001158 0.914530 0.000000
0.033108 0.914530 0.000000
0.068298 0.914530 0.000000
0.103506 0.914530 0.000000
0.141531 0.914530 0.000000
0.183281 0.914530 0.000000
0.229991 0.914530 0.000000
0.281790 0.914530 0.000000
0.337284 0.914530 0.000000
0.394658 0.914530 0.000000
0.452487 0.914530 0.000000
0.509005 0.914530 0.000000
0.563406 0.914530 0.000000
