Postproduction/IWLTBAP - Humble/LUTs by IWLTBAP (CUBE)/UTILITY/Generic LOG to Rec.709/U-9995-LTR.cube
# Copyright: (C) Copyright 2010-2018 by IWLTBAP SAS
# Cannot be resold, shared or otherwise redistributed
# Website: https://luts.iwltbap.com
TITLE "IWLTBAP 9995 (Utility LOG to Rec.709)"
LUT_3D_SIZE 8
DOMAIN_MIN 0.000000 0.000000 0.000000
DOMAIN_MAX 0.903226 0.903226 0.903226
0.000000 0.000000 0.000000
0.001158 0.000000 0.000000
0.141531 0.000000 0.000000
0.337284 0.000000 0.000000
0.563406 0.000000 0.000000
0.739123 0.000000 0.000000
0.851033 0.000000 0.000000
0.921570 0.000000 0.000000
0.000000 0.001158 0.000000
0.001158 0.001158 0.000000
0.141531 0.001158 0.000000
0.337284 0.001158 0.000000
0.563406 0.001158 0.000000
0.739123 0.001158 0.000000
0.851033 0.001158 0.000000
0.921570 0.001158 0.000000
0.000000 0.141531 0.000000
0.001158 0.141531 0.000000
0.141531 0.141531 0.000000
0.337284 0.141531 0.000000
0.563406 0.141531 0.000000
0.739123 0.141531 0.000000
0.851033 0.141531 0.000000
0.921570 0.141531 0.000000
0.000000 0.337284 0.000000
0.001158 0.337284 0.000000
0.141531 0.337284 0.000000
0.337284 0.337284 0.000000
0.563406 0.337284 0.000000
0.739123 0.337284 0.000000
0.851033 0.337284 0.000000
0.921570 0.337284 0.000000
0.000000 0.563406 0.000000
0.001158 0.563406 0.000000
0.141531 0.563406 0.000000
0.337284 0.563406 0.000000
0.563406 0.563406 0.000000
0.739123 0.563406 0.000000
0.851033 0.563406 0.000000
0.921570 0.563406 0.000000
0.000000 0.739123 0.000000
0.001158 0.739123 0.000000
0.141531 0.739123 0.000000
0.337284 0.739123 0.000000
0.563406 0.739123 0.000000
0.739123 0.739123 0.000000
0.851033 0.739123 0.000000
0.921570 0.739123 0.000000
0.000000 0.851033 0.000000
0.001158 0.851033 0.000000
0.141531 0.851033 0.000000
0.337284 0.851033 0.000000
0.563406 0.851033 0.000000
0.739123 0.851033 0.000000
0.851033 0.851033 0.000000
0.921570 0.851033 0.000000
0.000000 0.921570 0.000000
0.001158 0.921570 0.000000
0.141531 0.921570 0.000000
0.337284 0.921570 0.000000
0.563406 0.921570 0.000000
0.739123 0.921570 0.000000
0.851033 0.921570 0.000000
0.921570 0.921570 0.000000
0.000000 0.000000 0.001158
0.001158 0.000000 0.001158
0.141531 0.000000 0.001158
0.337284 0.000000 0.001158
0.563406 0.000000 0.001158
0.739123 0.000000 0.001158
0.851033 0.000000 0.001158
0.921570 0.000000 0.001158
0.000000 0.001158 0.001158
0.001158 0.001158 0.001158
0.141531 0.001158 0.001158
0.337284 0.001158 0.001158
0.563406 0.001158 0.001158
0.739123 0.001158 0.001158
0.851033 0.001158 0.001158
0.921570 0.001158 0.001158
0.000000 0.141531 0.001158
0.001158 0.141531 0.001158
0.141531 0.141531 0.001158
0.337284 0.141531 0.001158
0.563406 0.141531 0.001158
0.739123 0.141531 0.001158
0.851033 0.141531 0.001158
0.921570 0.141531 0.001158
0.000000 0.337284 0.001158
0.001158 0.337284 0.001158
0.141531 0.337284 0.001158
0.337284 0.337284 0.001158
0.563406 0.337284 0.001158
0.739123 0.337284 0.001158
0.851033 0.337284 0.001158
0.921570 0.337284 0.001158
0.000000 0.563406 0.001158
0.001158 0.563406 0.001158
0.141531 0.563406 0.001158
0.337284 0.563406 0.001158
0.563406 0.563406 0.001158
0.739123 0.563406 0.001158
0.851033 0.563406 0.001158
0.921570 0.563406 0.001158
0.000000 0.739123 0.001158
0.001158 0.739123 0.001158
0.141531 0.739123 0.001158
0.337284 0.739123 0.001158
0.563406 0.739123 0.001158
0.739123 0.739123 0.001158
0.851033 0.739123 0.001158
0.921570 0.739123 0.001158
0.000000 0.851033 0.001158
0.001158 0.851033 0.001158
0.141531 0.851033 0.001158
0.337284 0.851033 0.001158
0.563406 0.851033 0.001158
0.739123 0.851033 0.001158
0.851033 0.851033 0.001158
0.921570 0.851033 0.001158
0.000000 0.921570 0.001158
0.001158 0.921570 0.001158
0.141531 0.921570 0.001158
0.337284 0.921570 0.001158
0.563406 0.921570 0.001158
0.739123 0.921570 0.001158
0.851033 0.921570 0.001158
0.921570 0.921570 0.001158
0.000000 0.000000 0.141531
0.001158 0.000000 0.141531
0.141531 0.000000 0.141531
0.337284 0.000000 0.141531
0.563406 0.000000 0.141531
0.739123 0.000000 0.141531
0.851033 0.000000 0.141531
0.921570 0.000000 0.141531
0.000000 0.001158 0.141531
0.001158 0.001158 0.141531
0.141531 0.001158 0.141531
0.337284 0.001158 0.141531
0.563406 0.001158 0.141531
0.739123 0.001158 0.141531
0.851033 0.001158 0.141531
0.921570 0.001158 0.141531
0.000000 0.141531 0.141531
0.001158 0.141531 0.141531
0.141531 0.141531 0.141531
0.337284 0.141531 0.141531
0.563406 0.141531 0.141531
0.739123 0.141531 0.141531
0.851033 0.141531 0.141531
0.921570 0.141531 0.141531
0.000000 0.337284 0.141531
0.001158 0.337284 0.141531
0.141531 0.337284 0.141531
0.337284 0.337284 0.141531
0.563406 0.337284 0.141531
0.739123 0.337284 0.141531
0.851033 0.337284 0.141531
0.921570 0.337284 0.141531
0.000000 0.563406 0.141531
0.001158 0.563406 0.141531
0.141531 0.563406 0.141531
0.337284 0.563406 0.141531
0.563406 0.563406 0.141531
0.739123 0.563406 0.141531
0.851033 0.563406 0.141531
0.921570 0.563406 0.141531
0.000000 0.739123 0.141531
0.001158 0.739123 0.141531
0.141531 0.739123 0.141531
0.337284 0.739123 0.141531
0.563406 0.739123 0.141531
0.739123 0.739123 0.141531
0.851033 0.739123 0.141531
0.921570 0.739123 0.141531
0.000000 0.851033 0.141531
0.001158 0.851033 0.141531
0.141531 0.851033 0.141531
0.337284 0.851033 0.141531
0.563406 0.851033 0.141531
0.739123 0.851033 0.141531
0.851033 0.851033 0.141531
0.921570 0.851033 0.141531
0.000000 0.921570 0.141531
0.001158 0.921570 0.141531
0.141531 0.921570 0.141531
0.337284 0.921570 0.141531
0.563406 0.921570 0.141531
0.739123 0.921570 0.141531
0.851033 0.921570 0.141531
0.921570 0.921570 0.141531
0.000000 0.000000 0.337284
0.001158 0.000000 0.337284
0.141531 0.000000 0.337284
0.337284 0.000000 0.337284
0.563406 0.000000 0.337284
0.739123 0.000000 0.337284
0.851033 0.000000 0.337284
0.921570 0.000000 0.337284
0.000000 0.001158 0.337284
0.001158 0.001158 0.337284
0.141531 0.001158 0.337284
0.337284 0.001158 0.337284
0.563406 0.001158 0.337284
0.739123 0.001158 0.337284
0.851033 0.001158 0.337284
0.921570 0.001158 0.337284
0.000000 0.141531 0.337284
0.001158 0.141531 0.337284
0.141531 0.141531 0.337284
0.337284 0.141531 0.337284
0.563406 0.141531 0.337284
0.739123 0.141531 0.337284
0.851033 0.141531 0.337284
0.921570 0.141531 0.337284
0.000000 0.337284 0.337284
0.001158 0.337284 0.337284
0.141531 0.337284 0.337284
0.337284 0.337284 0.337284
0.563406 0.337284 0.337284
0.739123 0.337284 0.337284
0.851033 0.337284 0.337284
0.921570 0.337284 0.337284
0.000000 0.563406 0.337284
0.001158 0.563406 0.337284
0.141531 0.563406 0.337284
0.337284 0.563406 0.337284
0.563406 0.563406 0.337284
0.739123 0.563406 0.337284
0.851033 0.563406 0.337284
0.921570 0.563406 0.337284
0.000000 0.739123 0.337284
0.001158 0.739123 0.337284
0.141531 0.739123 0.337284
0.337284 0.739123 0.337284
0.563406 0.739123 0.337284
0.739123 0.739123 0.337284
0.851033 0.739123 0.337284
0.921570 0.739123 0.337284
0.000000 0.851033 0.337284
0.001158 0.851033 0.337284
0.141531 0.851033 0.337284
0.337284 0.851033 0.337284
0.563406 0.851033 0.337284
0.739123 0.851033 0.337284
0.851033 0.851033 0.337284
0.921570 0.851033 0.337284
0.000000 0.921570 0.337284
0.001158 0.921570 0.337284
0.141531 0.921570 0.337284
0.337284 0.921570 0.337284
0.563406 0.921570 0.337284
0.739123 0.921570 0.337284
0.851033 0.921570 0.337284
0.921570 0.921570 0.337284
0.000000 0.000000 0.563406
0.001158 0.000000 0.563406
0.141531 0.000000 0.563406
0.337284 0.000000 0.563406
0.563406 0.000000 0.563406
0.739123 0.000000 0.563406
0.851033 0.000000 0.563406
0.921570 0.000000 0.563406
0.000000 0.001158 0.563406
0.001158 0.001158 0.563406
0.141531 0.001158 0.563406
0.337284 0.001158 0.563406
0.563406 0.001158 0.563406
0.739123 0.001158 0.563406
0.851033 0.001158 0.563406
0.921570 0.001158 0.563406
0.000000 0.141531 0.563406
0.001158 0.141531 0.563406
0.141531 0.141531 0.563406
0.337284 0.141531 0.563406
0.563406 0.141531 0.563406
0.739123 0.141531 0.563406
0.851033 0.141531 0.563406
0.921570 0.141531 0.563406
0.000000 0.337284 0.563406
0.001158 0.337284 0.563406
0.141531 0.337284 0.563406
0.337284 0.337284 0.563406
0.563406 0.337284 0.563406
0.739123 0.337284 0.563406
0.851033 0.337284 0.563406
0.921570 0.337284 0.563406
0.000000 0.563406 0.563406
0.001158 0.563406 0.563406
0.141531 0.563406 0.563406
0.337284 0.563406 0.563406
0.563406 0.563406 0.563406
0.739123 0.563406 0.563406
0.851033 0.563406 0.563406
0.921570 0.563406 0.563406
0.000000 0.739123 0.563406
0.001158 0.739123 0.563406
0.141531 0.739123 0.563406
0.337284 0.739123 0.563406
0.563406 0.739123 0.563406
0.739123 0.739123 0.563406
0.851033 0.739123 0.563406
0.921570 0.739123 0.563406
0.000000 0.851033 0.563406
0.001158 0.851033 0.563406
0.141531 0.851033 0.563406
0.337284 0.851033 0.563406
0.563406 0.851033 0.563406
0.739123 0.851033 0.563406
0.851033 0.851033 0.563406
0.921570 0.851033 0.563406
0.000000 0.921570 0.563406
0.001158 0.921570 0.563406
0.141531 0.921570 0.563406
0.337284 0.921570 0.563406
0.563406 0.921570 0.563406
0.739123 0.921570 0.563406
0.851033 0.921570 0.563406
0.921570 0.921570 0.563406
0.000000 0.000000 0.739123
0.001158 0.000000 0.739123
0.141531 0.000000 0.739123
0.337284 0.000000 0.739123
0.563406 0.000000 0.739123
0.739123 0.000000 0.739123
0.851033 0.000000 0.739123
0.921570 0.000000 0.739123
0.000000 0.001158 0.739123
0.001158 0.001158 0.739123
0.141531 0.001158 0.739123
0.337284 0.001158 0.739123
0.563406 0.001158 0.739123
0.739123 0.001158 0.739123
0.851033 0.001158 0.739123
0.921570 0.001158 0.739123
0.000000 0.141531 0.739123
0.001158 0.141531 0.739123
0.141531 0.141531 0.739123
0.337284 0.141531 0.739123
0.563406 0.141531 0.739123
0.739123 0.141531 0.739123
0.851033 0.141531 0.739123
0.921570 0.141531 0.739123
0.000000 0.337284 0.739123
0.001158 0.337284 0.739123
0.141531 0.337284 0.739123
0.337284 0.337284 0.739123
0.563406 0.337284 0.739123
0.739123 0.337284 0.739123
0.851033 0.337284 0.739123
0.921570 0.337284 0.739123
0.000000 0.563406 0.739123
0.001158 0.563406 0.739123
0.141531 0.563406 0.739123
0.337284 0.563406 0.739123
0.563406 0.563406 0.739123
0.739123 0.563406 0.739123
0.851033 0.563406 0.739123
0.921570 0.563406 0.739123
0.000000 0.739123 0.739123
0.001158 0.739123 0.739123
0.141531 0.739123 0.739123
0.337284 0.739123 0.739123
0.563406 0.739123 0.739123
0.739123 0.739123 0.739123
0.851033 0.739123 0.739123
0.921570 0.739123 0.739123
0.000000 0.851033 0.739123
0.001158 0.851033 0.739123
0.141531 0.851033 0.739123
0.337284 0.851033 0.739123
0.563406 0.851033 0.739123
0.739123 0.851033 0.739123
0.851033 0.851033 0.739123
0.921570 0.851033 0.739123
0.000000 0.921570 0.739123
0.001158 0.921570 0.739123
0.141531 0.921570 0.739123
0.337284 0.921570 0.739123
0.563406 0.921570 0.739123
0.739123 0.921570 0.739123
0.851033 0.921570 0.739123
0.921570 0.921570 0.739123
0.000000 0.000000 0.851033
0.001158 0.000000 0.851033
0.141531 0.000000 0.851033
0.337284 0.000000 0.851033
0.563406 0.000000 0.851033
0.739123 0.000000 0.851033
0.851033 0.000000 0.851033
0.921570 0.000000 0.851033
0.000000 0.001158 0.851033
0.001158 0.001158 0.851033
0.141531 0.001158 0.851033
0.337284 0.001158 0.851033
0.563406 0.001158 0.851033
0.739123 0.001158 0.851033
0.851033 0.001158 0.851033
0.921570 0.001158 0.851033
0.000000 0.141531 0.851033
0.001158 0.141531 0.851033
0.141531 0.141531 0.851033
0.337284 0.141531 0.851033
0.563406 0.141531 0.851033
0.739123 0.141531 0.851033
0.851033 0.141531 0.851033
0.921570 0.141531 0.851033
0.000000 0.337284 0.851033
0.001158 0.337284 0.851033
0.141531 0.337284 0.851033
0.337284 0.337284 0.851033
0.563406 0.337284 0.851033
0.739123 0.337284 0.851033
0.851033 0.337284 0.851033
0.921570 0.337284 0.851033
0.000000 0.563406 0.851033
0.001158 0.563406 0.851033
0.141531 0.563406 0.851033
0.337284 0.563406 0.851033
0.563406 0.563406 0.851033
0.739123 0.563406 0.851033
0.851033 0.563406 0.851033
0.921570 0.563406 0.851033
0.000000 0.739123 0.851033
0.001158 0.739123 0.851033
0.141531 0.739123 0.851033
0.337284 0.739123 0.851033
0.563406 0.739123 0.851033
0.739123 0.739123 0.851033
0.851033 0.739123 0.851033
0.921570 0.739123 0.851033
0.000000 0.851033 0.851033
0.001158 0.851033 0.851033
0.141531 0.851033 0.851033
0.337284 0.851033 0.851033
0.563406 0.851033 0.851033
0.739123 0.851033 0.851033
0.851033 0.851033 0.851033
0.921570 0.851033 0.851033
0.000000 0.921570 0.851033
0.001158 0.921570 0.851033
0.141531 0.921570 0.851033
0.337284 0.921570 0.851033
0.563406 0.921570 0.851033
0.739123 0.921570 0.851033
0.851033 0.921570 0.851033
0.921570 0.921570 0.851033
0.000000 0.000000 0.921570
0.001158 0.000000 0.921570
0.141531 0.000000 0.921570
0.337284 0.000000 0.921570
0.563406 0.000000 0.921570
0.739123 0.000000 0.921570
0.851033 0.000000 0.921570
0.921570 0.000000 0.921570
0.000000 0.001158 0.921570
0.001158 0.001158 0.921570
0.141531 0.001158 0.921570
0.337284 0.001158 0.921570
0.563406 0.001158 0.921570
0.739123 0.001158 0.921570
0.851033 0.001158 0.921570
0.921570 0.001158 0.921570
0.000000 0.141531 0.921570
0.001158 0.141531 0.921570
0.141531 0.141531 0.921570
0.337284 0.141531 0.921570
0.563406 0.141531 0.921570
0.739123 0.141531 0.921570
0.851033 0.141531 0.921570
0.921570 0.141531 0.921570
0.000000 0.337284 0.921570
0.001158 0.337284 0.921570
0.141531 0.337284 0.921570
0.337284 0.337284 0.921570
0.563406 0.337284 0.921570
0.739123 0.337284 0.921570
0.851033 0.337284 0.921570
0.921570 0.337284 0.921570
0.000000 0.563406 0.921570
0.001158 0.563406 0.921570
0.141531 0.563406 0.921570
0.337284 0.563406 0.921570
0.563406 0.563406 0.921570
0.739123 0.563406 0.921570
0.851033 0.563406 0.921570
0.921570 0.563406 0.921570
0.000000 0.739123 0.921570
0.001158 0.739123 0.921570
0.141531 0.739123 0.921570
0.337284 0.739123 0.921570
0.563406 0.739123 0.921570
0.739123 0.739123 0.921570
0.851033 0.739123 0.921570
0.921570 0.739123 0.921570
0.000000 0.851033 0.921570
0.001158 0.851033 0.921570
0.141531 0.851033 0.921570
0.337284 0.851033 0.921570
0.563406 0.851033 0.921570
0.739123 0.851033 0.921570
0.851033 0.851033 0.921570
0.921570 0.851033 0.921570
0.000000 0.921570 0.921570
0.001158 0.921570 0.921570
0.141531 0.921570 0.921570
0.337284 0.921570 0.921570
0.563406 0.921570 0.921570
0.739123 0.921570 0.921570
0.851033 0.921570 0.921570
0.921570 0.921570 0.921570
