Postproduction/IWLTBAP - Humble/LUTs by IWLTBAP (CUBE)/UTILITY/Generic LOG to Rec.709/U-9994-LTR.cube
# Copyright: (C) Copyright 2010-2018 by IWLTBAP SAS
# Cannot be resold, shared or otherwise redistributed
# Website: https://luts.iwltbap.com
TITLE "IWLTBAP 9994 (Utility LOG to Rec.709)"
LUT_3D_SIZE 5
DOMAIN_MIN 0.000000 0.000000 0.000000
DOMAIN_MAX 0.903226 0.903226 0.903226
0.009369 0.009369 0.009369
0.161924 0.000000 0.000000
0.528800 0.000000 0.000000
0.877984 0.000000 0.000000
0.962764 0.000000 0.000000
0.000000 0.168651 0.022878
0.149233 0.147359 0.009385
0.516098 0.081691 0.000000
0.876641 0.080546 0.000000
0.962764 0.080546 0.000000
0.000000 0.560423 0.072910
0.102260 0.539099 0.059445
0.469125 0.460236 0.009681
0.856851 0.372172 0.000000
0.962764 0.347250 0.000000
0.000000 0.878496 0.128761
0.080564 0.878496 0.115287
0.416602 0.865182 0.065513
0.810011 0.793145 0.009956
0.962764 0.768242 0.000000
0.000000 0.962764 0.144577
0.080546 0.962764 0.131153
0.401749 0.962764 0.081330
0.795156 0.962764 0.025771
0.962650 0.946565 0.010098
0.008714 0.010584 0.148581
0.161445 0.000000 0.135154
0.528214 0.000000 0.086655
0.877974 0.000000 0.080546
0.962764 0.000000 0.080546
0.000000 0.170017 0.162151
0.148730 0.148714 0.148715
0.515518 0.081922 0.098957
0.877739 0.080546 0.080546
0.962764 0.080546 0.080546
0.000000 0.561790 0.212172
0.101683 0.540473 0.198747
0.468523 0.461592 0.149003
0.863263 0.373508 0.093485
0.962764 0.348581 0.084111
0.000000 0.878496 0.268115
0.080557 0.878496 0.254618
0.416075 0.875493 0.204878
0.811475 0.796805 0.149311
0.962764 0.771863 0.133519
0.000000 0.962764 0.283906
0.080546 0.962764 0.270432
0.401245 0.962764 0.220680
0.796613 0.962764 0.165114
0.962764 0.948398 0.149338
0.006753 0.015574 0.466158
0.159335 0.000000 0.452704
0.526207 0.000000 0.402898
0.877935 0.000000 0.347362
0.962764 0.000000 0.331618
0.000000 0.174978 0.479694
0.146627 0.153623 0.466231
0.513485 0.082762 0.416448
0.877694 0.080546 0.360893
0.962764 0.080546 0.345146
0.000000 0.566741 0.529728
0.099636 0.545388 0.516255
0.466510 0.466507 0.466502
0.861451 0.378403 0.410946
0.962764 0.353505 0.395223
0.000000 0.878496 0.585597
0.080550 0.878496 0.572155
0.414047 0.876831 0.522341
0.809391 0.801712 0.466803
0.962764 0.776767 0.451080
0.000000 0.962764 0.601411
0.080546 0.962764 0.587960
0.399179 0.962764 0.538167
0.794549 0.962764 0.482616
0.962667 0.953377 0.466878
0.004464 0.021049 0.806481
0.157065 0.001282 0.793061
0.523925 0.000000 0.743308
0.877889 0.000000 0.687713
0.962764 0.000000 0.672007
0.000000 0.180474 0.820058
0.144351 0.159110 0.806623
0.511214 0.085040 0.756838
0.877648 0.080546 0.701258
0.962764 0.080546 0.685556
0.000000 0.572222 0.867240
0.097356 0.550874 0.856757
0.464207 0.471990 0.806905
0.859408 0.383932 0.751302
0.962764 0.358998 0.735598
0.000000 0.878496 0.878496
0.080546 0.878496 0.878476
0.411715 0.877765 0.862368
0.807133 0.807205 0.807213
0.962764 0.782238 0.791435
0.000000 0.962764 0.878496
0.080546 0.962764 0.878496
0.396881 0.962764 0.874403
0.792284 0.962764 0.823025
0.961057 0.958870 0.807311
0.003815 0.022552 0.959626
0.156437 0.002232 0.946147
0.523247 0.000000 0.896240
0.877876 0.000000 0.840687
0.962764 0.000000 0.825019
0.000000 0.181956 0.962764
0.143690 0.160623 0.959625
0.510541 0.085646 0.909777
0.877633 0.080546 0.854236
0.962764 0.080546 0.838505
0.000000 0.573759 0.962764
0.096691 0.552379 0.962764
0.463561 0.473500 0.959226
0.858777 0.385492 0.904279
0.962764 0.360495 0.888562
0.000000 0.878496 0.962764
0.080546 0.878496 0.962764
0.411129 0.877848 0.962764
0.806451 0.808726 0.959995
0.962764 0.783816 0.944550
0.000000 0.962764 0.962764
0.080546 0.962764 0.962764
0.396244 0.962764 0.962764
0.791593 0.962764 0.962764
0.960363 0.960363 0.960365
