Postproduction/IWLTBAP - Humble/LUTs by IWLTBAP (CUBE)/UTILITY/Generic LOG to Rec.709/U-9992-LTR.cube
# Copyright: (C) Copyright 2010-2018 by IWLTBAP SAS
# Cannot be resold, shared or otherwise redistributed
# Website: https://luts.iwltbap.com
TITLE "IWLTBAP 9992 (Utility LOG to Rec.709)"
LUT_3D_SIZE 32
0.000000 0.000000 0.000000
0.003632 0.000000 0.000000
0.038666 0.000000 0.000000
0.082062 0.000000 0.000000
0.124756 0.000000 0.000000
0.172760 0.000000 0.000000
0.220123 0.000000 0.000000
0.271027 0.000000 0.000000
0.322205 0.000000 0.000000
0.374969 0.000000 0.000000
0.429016 0.000000 0.000000
0.484406 0.000000 0.000000
0.540100 0.000000 0.000000
0.597626 0.000000 0.000000
0.655640 0.000000 0.000000
0.714478 0.000000 0.000000
0.774475 0.000000 0.000000
0.834961 0.000000 0.000000
0.896362 0.000000 0.000000
0.957733 0.000000 0.000000
0.989716 0.000000 0.000000
1.000000 0.000000 0.000000
1.000000 0.000000 0.000000
1.000000 0.000000 0.000000
1.000000 0.000000 0.000000
1.000000 0.000000 0.000000
1.000000 0.000000 0.000000
1.000000 0.000000 0.000000
1.000000 0.000000 0.000000
1.000000 0.000000 0.000000
1.000000 0.000000 0.000000
1.000000 0.000000 0.000000
0.000000 0.000000 0.000000
0.000000 0.000000 0.000000
0.028381 0.000000 0.000000
0.071960 0.000000 0.000000
0.115692 0.000000 0.000000
0.163635 0.000000 0.000000
0.210968 0.000000 0.000000
0.262390 0.000000 0.000000
0.313660 0.000000 0.000000
0.366821 0.000000 0.000000
0.421173 0.000000 0.000000
0.476471 0.000000 0.000000
0.532715 0.000000 0.000000
0.590363 0.000000 0.000000
0.648468 0.000000 0.000000
0.707428 0.000000 0.000000
0.767487 0.000000 0.000000
0.828094 0.000000 0.000000
0.889648 0.000000 0.000000
0.951752 0.000000 0.000000
0.986603 0.000000 0.000000
1.000000 0.000000 0.000000
1.000000 0.000000 0.000000
1.000000 0.000000 0.000000
1.000000 0.000000 0.000000
1.000000 0.000000 0.000000
1.000000 0.000000 0.000000
1.000000 0.000000 0.000000
1.000000 0.000000 0.000000
1.000000 0.000000 0.000000
1.000000 0.000000 0.000000
1.000000 0.000000 0.000000
0.000000 0.023621 0.000000
0.000000 0.020691 0.000000
0.017639 0.017639 0.000000
0.061157 0.014526 0.000000
0.105957 0.009705 0.000000
0.153839 0.005066 0.000000
0.202087 0.000732 0.000000
0.253387 0.000000 0.000000
0.304718 0.000000 0.000000
0.358429 0.000000 0.000000
0.412720 0.000000 0.000000
0.468140 0.000000 0.000000
0.524597 0.000000 0.000000
0.582367 0.000000 0.000000
0.640656 0.000000 0.000000
0.699829 0.000000 0.000000
0.760040 0.000000 0.000000
0.820984 0.000000 0.000000
0.882477 0.000000 0.000000
0.944763 0.000000 0.000000
0.983215 0.000000 0.000000
1.000000 0.000000 0.000000
1.000000 0.000000 0.000000
1.000000 0.000000 0.000000
1.000000 0.000000 0.000000
1.000000 0.000000 0.000000
1.000000 0.000000 0.000000
1.000000 0.000000 0.000000
1.000000 0.000000 0.000000
1.000000 0.000000 0.000000
1.000000 0.000000 0.000000
1.000000 0.000000 0.000000
0.000000 0.056732 0.000000
0.000000 0.054199 0.000000
0.007507 0.051208 0.000000
0.046631 0.046631 0.000000
0.092773 0.041901 0.000000
0.140839 0.036499 0.000000
0.189697 0.030396 0.000000
0.241180 0.024078 0.000000
0.292389 0.018341 0.000000
0.346436 0.011871 0.000000
0.400665 0.005646 0.000000
0.456085 0.000000 0.000000
0.512787 0.000000 0.000000
0.570496 0.000000 0.000000
0.628784 0.000000 0.000000
0.688080 0.000000 0.000000
0.748322 0.000000 0.000000
0.809326 0.000000 0.000000
0.870728 0.000000 0.000000
0.933167 0.000000 0.000000
0.979187 0.000000 0.000000
1.000000 0.000000 0.000000
1.000000 0.000000 0.000000
1.000000 0.000000 0.000000
1.000000 0.000000 0.000000
1.000000 0.000000 0.000000
1.000000 0.000000 0.000000
1.000000 0.000000 0.000000
1.000000 0.000000 0.000000
1.000000 0.000000 0.000000
1.000000 0.000000 0.000000
1.000000 0.000000 0.000000
0.000000 0.091248 0.000000
0.000000 0.088928 0.000000
0.000000 0.086456 0.000000
0.029968 0.082642 0.000000
0.078003 0.078003 0.000000
0.126282 0.073181 0.000000
0.175812 0.068054 0.000000
0.227386 0.062195 0.000000
0.278748 0.056396 0.000000
0.333160 0.050201 0.000000
0.387512 0.043365 0.000000
0.443115 0.036469 0.000000
0.500061 0.028778 0.000000
0.557861 0.020996 0.000000
0.616272 0.012177 0.000000
0.675842 0.001740 0.000000
0.736115 0.000000 0.000000
0.797150 0.000000 0.000000
0.858795 0.000000 0.000000
0.921326 0.000000 0.000000
0.970551 0.000000 0.000000
1.000000 0.000000 0.000000
1.000000 0.000000 0.000000
1.000000 0.000000 0.000000
1.000000 0.000000 0.000000
1.000000 0.000000 0.000000
1.000000 0.000000 0.000000
1.000000 0.000000 0.000000
1.000000 0.000000 0.000000
1.000000 0.000000 0.000000
1.000000 0.000000 0.000000
1.000000 0.000000 0.000000
0.000000 0.128021 0.000000
0.000000 0.125671 0.000000
0.000000 0.123199 0.000000
0.014160 0.119415 0.000000
0.061371 0.115204 0.000000
0.110199 0.110199 0.000000
0.160645 0.105194 0.000000
0.212006 0.099945 0.000000
0.264130 0.094269 0.000000
0.318329 0.088531 0.000000
0.372955 0.082642 0.000000
0.428802 0.076141 0.000000
0.485809 0.069641 0.000000
0.543610 0.062561 0.000000
0.602112 0.055573 0.000000
0.661774 0.047882 0.000000
0.722076 0.040222 0.000000
0.782959 0.032166 0.000000
0.844910 0.023712 0.000000
0.907532 0.015015 0.000000
0.963409 0.008606 0.000000
1.000000 0.002411 0.000000
1.000000 0.000000 0.000000
1.000000 0.000000 0.000000
1.000000 0.000000 0.000000
1.000000 0.000000 0.000000
1.000000 0.000000 0.000000
1.000000 0.000000 0.000000
1.000000 0.000000 0.000000
1.000000 0.000000 0.000000
1.000000 0.000000 0.000000
1.000000 0.000000 0.000000
0.000000 0.165497 0.000000
0.000000 0.163544 0.000000
0.000000 0.161438 0.000000
0.000000 0.157837 0.000000
0.043182 0.153564 0.000000
0.093353 0.149078 0.000000
0.144348 0.144348 0.000000
0.195892 0.138977 0.000000
0.248596 0.133636 0.000000
0.302917 0.127991 0.000000
0.357666 0.121948 0.000000
0.413910 0.115845 0.000000
0.470917 0.109283 0.000000
0.528595 0.102783 0.000000
0.587372 0.095734 0.000000
0.647339 0.088745 0.000000
0.707642 0.081238 0.000000
0.768616 0.073822 0.000000
0.830780 0.066071 0.000000
0.893219 0.057709 0.000000
0.951965 0.049438 0.000000
0.997986 0.040771 0.000000
1.000000 0.032806 0.000000
1.000000 0.024689 0.000000
1.000000 0.019165 0.000000
1.000000 0.016632 0.000000
1.000000 0.014252 0.000000
1.000000 0.011444 0.000000
1.000000 0.008911 0.000000
1.000000 0.006165 0.000000
1.000000 0.005890 0.000000
1.000000 0.005707 0.000000
0.000000 0.204742 0.000000
0.000000 0.203064 0.000000
0.000000 0.200958 0.000000
0.000000 0.197113 0.000000
0.022430 0.193237 0.000000
0.075470 0.188751 0.000000
0.126587 0.183807 0.000000
0.178802 0.178802 0.000000
0.232117 0.173553 0.000000
0.286530 0.167816 0.000000
0.341187 0.162262 0.000000
0.397949 0.156158 0.000000
0.454773 0.150208 0.000000
0.512756 0.143982 0.000000
0.571777 0.137329 0.000000
0.631561 0.130768 0.000000
0.691895 0.123688 0.000000
0.753265 0.116699 0.000000
0.815216 0.109253 0.000000
0.877899 0.101929 0.000000
0.940063 0.094025 0.000000
0.991058 0.086243 0.000000
1.000000 0.077911 0.000000
1.000000 0.069641 0.000000
1.000000 0.061798 0.000000
1.000000 0.058197 0.000000
1.000000 0.054718 0.000000
1.000000 0.051239 0.000000
1.000000 0.047302 0.000000
1.000000 0.043701 0.000000
1.000000 0.043304 0.000000
1.000000 0.043091 0.000000
0.000000 0.244629 0.000000
0.000000 0.243011 0.000000
0.000000 0.241211 0.000000
0.000000 0.237518 0.000000
0.000000 0.233856 0.000000
0.056213 0.229492 0.000000
0.108093 0.224701 0.000000
0.161072 0.219818 0.000000
0.214752 0.214752 0.000000
0.269318 0.209167 0.000000
0.324493 0.203674 0.000000
0.381104 0.197632 0.000000
0.438324 0.191711 0.000000
0.496552 0.185608 0.000000
0.555695 0.179047 0.000000
0.615479 0.172577 0.000000
0.675934 0.165619 0.000000
0.737335 0.158813 0.000000
0.799530 0.151520 0.000000
0.862000 0.144379 0.000000
0.925415 0.136719 0.000000
0.981415 0.129181 0.000000
1.000000 0.121216 0.000000
1.000000 0.113373 0.000000
1.000000 0.105469 0.000000
1.000000 0.102112 0.000000
1.000000 0.098907 0.000000
1.000000 0.095428 0.000000
1.000000 0.092163 0.000000
1.000000 0.088898 0.000000
1.000000 0.088531 0.000000
1.000000 0.088379 0.000000
0.000000 0.285980 0.000000
0.000000 0.284393 0.000000
0.000000 0.282623 0.000000
0.000000 0.279083 0.000000
0.000000 0.275513 0.000000
0.034973 0.271210 0.000000
0.088287 0.266510 0.000000
0.142578 0.261627 0.000000
0.196289 0.256622 0.000000
0.251068 0.251068 0.000000
0.307007 0.245605 0.000000
0.363770 0.239655 0.000000
0.421051 0.233856 0.000000
0.479370 0.227905 0.000000
0.538574 0.221558 0.000000
0.598450 0.215332 0.000000
0.659302 0.208649 0.000000
0.720734 0.202026 0.000000
0.782806 0.195038 0.000000
0.845520 0.188171 0.000000
0.909119 0.180847 0.000000
0.973114 0.173645 0.000000
1.000000 0.165985 0.000000
1.000000 0.158508 0.000000
1.000000 0.150513 0.000000
1.000000 0.146790 0.000000
1.000000 0.143524 0.000000
1.000000 0.140045 0.000000
1.000000 0.136810 0.000000
1.000000 0.133514 0.000000
1.000000 0.133179 0.000000
1.000000 0.133026 0.000000
0.000000 0.327606 0.000000
0.000000 0.326019 0.000000
0.000000 0.324402 0.000000
0.000000 0.321228 0.000000
0.000000 0.317688 0.000000
0.015503 0.313538 0.000000
0.067261 0.309204 0.000000
0.122894 0.304230 0.000000
0.177246 0.299316 0.000000
0.232422 0.294189 0.000000
0.288605 0.288605 0.000000
0.345734 0.283081 0.000000
0.402924 0.277100 0.000000
0.461823 0.271210 0.000000
0.521118 0.264923 0.000000
0.581055 0.258728 0.000000
0.641968 0.252106 0.000000
0.703491 0.245575 0.000000
0.765808 0.238708 0.000000
0.828400 0.231873 0.000000
0.892181 0.224701 0.000000
0.956299 0.217560 0.000000
1.000000 0.210083 0.000000
1.000000 0.202728 0.000000
1.000000 0.194916 0.000000
1.000000 0.190521 0.000000
1.000000 0.187256 0.000000
1.000000 0.183807 0.000000
1.000000 0.180756 0.000000
1.000000 0.177612 0.000000
1.000000 0.177246 0.000000
1.000000 0.177124 0.000000
0.000000 0.370972 0.000000
0.000000 0.369171 0.000000
0.000000 0.367462 0.000000
0.000000 0.364563 0.000000
0.000000 0.361328 0.000000
0.000000 0.357025 0.000000
0.044922 0.352722 0.000000
0.102264 0.348022 0.000000
0.157288 0.342926 0.000000
0.213318 0.337769 0.000000
0.269714 0.332489 0.000000
0.326752 0.326752 0.000000
0.384644 0.321075 0.000000
0.443451 0.315002 0.000000
0.502777 0.308990 0.000000
0.562897 0.302643 0.000000
0.624298 0.296326 0.000000
0.685852 0.289734 0.000000
0.747986 0.283234 0.000000
0.811005 0.276367 0.000000
0.874847 0.269592 0.000000
0.938812 0.262482 0.000000
0.992523 0.255463 0.000000
1.000000 0.248047 0.000000
1.000000 0.240692 0.000000
1.000000 0.235596 0.000000
1.000000 0.232391 0.000000
1.000000 0.229248 0.000000
1.000000 0.225800 0.000000
1.000000 0.222656 0.000000
1.000000 0.222321 0.000000
1.000000 0.222107 0.000000
0.000000 0.414276 0.000000
0.000000 0.412659 0.000000
0.000000 0.411011 0.000000
0.000000 0.408142 0.000000
0.000000 0.404877 0.000000
0.000000 0.400940 0.000000
0.024872 0.396698 0.000000
0.080322 0.391876 0.000000
0.136200 0.387177 0.000000
0.193268 0.381927 0.000000
0.249908 0.376740 0.000000
0.307465 0.371338 0.000000
0.365540 0.365540 0.000000
0.424713 0.359833 0.000000
0.484192 0.353729 0.000000
0.544586 0.347717 0.000000
0.605804 0.341309 0.000000
0.667450 0.335022 0.000000
0.729858 0.328339 0.000000
0.792938 0.321747 0.000000
0.856842 0.314819 0.000000
0.921082 0.307983 0.000000
0.984131 0.300751 0.000000
0.997589 0.293701 0.000000
1.000000 0.286255 0.000000
1.000000 0.280762 0.000000
1.000000 0.277252 0.000000
1.000000 0.274078 0.000000
1.000000 0.270874 0.000000
1.000000 0.267700 0.000000
1.000000 0.267334 0.000000
1.000000 0.267181 0.000000
0.000000 0.458984 0.000000
0.000000 0.457428 0.000000
0.000000 0.455505 0.000000
0.000000 0.452972 0.000000
0.000000 0.450104 0.000000
0.000000 0.446228 0.000000
0.001892 0.441803 0.000000
0.056946 0.437195 0.000000
0.114502 0.432373 0.000000
0.172516 0.427277 0.000000
0.229553 0.422150 0.000000
0.287292 0.416504 0.000000
0.346069 0.411041 0.000000
0.405121 0.405121 0.000000
0.464752 0.399292 0.000000
0.525513 0.393036 0.000000
0.586792 0.386932 0.000000
0.648743 0.380432 0.000000
0.711243 0.374023 0.000000
0.774628 0.367279 0.000000
0.838318 0.360596 0.000000
0.902618 0.353607 0.000000
0.967712 0.346832 0.000000
0.992859 0.339630 0.000000
1.000000 0.332581 0.000000
1.000000 0.326385 0.000000
1.000000 0.323212 0.000000
1.000000 0.320068 0.000000
1.000000 0.316681 0.000000
1.000000 0.313568 0.000000
1.000000 0.313232 0.000000
1.000000 0.313049 0.000000
0.000000 0.503937 0.000000
0.000000 0.502289 0.000000
0.000000 0.500671 0.000000
0.000000 0.498199 0.000000
0.000000 0.495453 0.000000
0.000000 0.491486 0.000000
0.000000 0.487244 0.000000
0.031311 0.482758 0.000000
0.091858 0.477844 0.000000
0.150818 0.472900 0.000000
0.208374 0.467529 0.000000
0.267120 0.462219 0.000000
0.325806 0.456573 0.000000
0.385254 0.450989 0.000000
0.445282 0.445282 0.000000
0.506165 0.439148 0.000000
0.567535 0.433136 0.000000
0.629395 0.426788 0.000000
0.692108 0.420502 0.000000
0.755585 0.413849 0.000000
0.819580 0.407074 0.000000
0.883728 0.400452 0.000000
0.949036 0.393433 0.000000
0.988739 0.386566 0.000000
1.000000 0.379333 0.000000
1.000000 0.372803 0.000000
1.000000 0.369354 0.000000
1.000000 0.366150 0.000000
1.000000 0.362976 0.000000
1.000000 0.359833 0.000000
1.000000 0.359497 0.000000
1.000000 0.359344 0.000000
0.000000 0.549652 0.000000
0.000000 0.548035 0.000000
0.000000 0.546448 0.000000
0.000000 0.544220 0.000000
0.000000 0.541626 0.000000
0.000000 0.537720 0.000000
0.000000 0.533630 0.000000
0.000000 0.528992 0.000000
0.068146 0.524353 0.000000
0.128265 0.519501 0.000000
0.186493 0.514252 0.000000
0.245819 0.509003 0.000000
0.304810 0.503418 0.000000
0.364502 0.497833 0.000000
0.425018 0.491882 0.000000
0.486023 0.486023 0.000000
0.547546 0.479828 0.000000
0.609650 0.473755 0.000000
0.672760 0.467285 0.000000
0.736084 0.460876 0.000000
0.800140 0.454193 0.000000
0.864746 0.447571 0.000000
0.930115 0.440582 0.000000
0.977936 0.433807 0.000000
1.000000 0.426605 0.000000
1.000000 0.419312 0.000000
1.000000 0.415985 0.000000
1.000000 0.412781 0.000000
1.000000 0.409698 0.000000
1.000000 0.406342 0.000000
1.000000 0.406006 0.000000
1.000000 0.405884 0.000000
0.000000 0.596252 0.000000
0.000000 0.594696 0.000000
0.000000 0.593048 0.000000
0.000000 0.590881 0.000000
0.000000 0.588257 0.000000
0.000000 0.584595 0.000000
0.000000 0.580627 0.000000
0.000000 0.576019 0.000000
0.042145 0.571411 0.000000
0.104462 0.566589 0.000000
0.164001 0.561340 0.000000
0.223907 0.556122 0.000000
0.283508 0.550537 0.000000
0.343414 0.545013 0.000000
0.404266 0.539093 0.000000
0.465454 0.533295 0.000000
0.527100 0.527100 0.000000
0.589752 0.521027 0.000000
0.652771 0.514587 0.000000
0.716309 0.508362 0.000000
0.780273 0.501770 0.000000
0.845093 0.495239 0.000000
0.910553 0.488403 0.000000
0.966400 0.481689 0.000000
1.000000 0.474609 0.000000
1.000000 0.467468 0.000000
1.000000 0.463562 0.000000
1.000000 0.460358 0.000000
1.000000 0.457214 0.000000
1.000000 0.453857 0.000000
1.000000 0.453522 0.000000
1.000000 0.453339 0.000000
0.000000 0.643219 0.000000
0.000000 0.641602 0.000000
0.000000 0.639984 0.000000
0.000000 0.637909 0.000000
0.000000 0.635406 0.000000
0.000000 0.631775 0.000000
0.000000 0.627930 0.000000
0.000000 0.623322 0.000000
0.018250 0.618805 0.000000
0.079376 0.614044 0.000000
0.140808 0.608887 0.000000
0.201569 0.603729 0.000000
0.261292 0.598236 0.000000
0.322113 0.592773 0.000000
0.383209 0.586975 0.000000
0.444336 0.581238 0.000000
0.506500 0.575165 0.000000
0.569153 0.569153 0.000000
0.632263 0.562775 0.000000
0.695923 0.556580 0.000000
0.760132 0.549988 0.000000
0.825043 0.543518 0.000000
0.890564 0.536743 0.000000
0.953217 0.530029 0.000000
0.997162 0.523041 0.000000
1.000000 0.515900 0.000000
1.000000 0.511383 0.000000
1.000000 0.508118 0.000000
1.000000 0.504700 0.000000
1.000000 0.501587 0.000000
1.000000 0.501221 0.000000
1.000000 0.501099 0.000000
0.000000 0.690796 0.000000
0.000000 0.689209 0.000000
0.000000 0.687592 0.000000
0.000000 0.685547 0.000000
0.000000 0.683380 0.000000
0.000000 0.679749 0.000000
0.000000 0.676086 0.000000
0.000000 0.671753 0.000000
0.000000 0.667053 0.000000
0.053223 0.662354 0.000000
0.116760 0.657196 0.000000
0.178162 0.652069 0.000000
0.238525 0.646576 0.000000
0.299988 0.641174 0.000000
0.361298 0.635468 0.000000
0.422943 0.629669 0.000000
0.485291 0.623596 0.000000
0.548096 0.617615 0.000000
0.611298 0.611298 0.000000
0.675140 0.605103 0.000000
0.739868 0.598511 0.000000
0.804626 0.592163 0.000000
0.870209 0.585358 0.000000
0.935913 0.578735 0.000000
0.987671 0.571747 0.000000
1.000000 0.564697 0.000000
1.000000 0.559570 0.000000
1.000000 0.556396 0.000000
1.000000 0.553040 0.000000
1.000000 0.549957 0.000000
1.000000 0.549591 0.000000
1.000000 0.549469 0.000000
0.000000 0.739075 0.000000
0.000000 0.737366 0.000000
0.000000 0.735718 0.000000
0.000000 0.733643 0.000000
0.000000 0.731445 0.000000
0.000000 0.728241 0.000000
0.000000 0.724548 0.000000
0.000000 0.720245 0.000000
0.000000 0.715576 0.000000
0.029572 0.710907 0.000000
0.091278 0.705994 0.000000
0.153900 0.700684 0.000000
0.215729 0.695465 0.000000
0.277344 0.689819 0.000000
0.338959 0.684265 0.000000
0.400970 0.678375 0.000000
0.463654 0.672546 0.000000
0.526642 0.666473 0.000000
0.590240 0.660461 0.000000
0.654083 0.654083 0.000000
0.718933 0.647858 0.000000
0.783813 0.641296 0.000000
0.849457 0.634583 0.000000
0.915497 0.628052 0.000000
0.978912 0.621155 0.000000
1.000000 0.614410 0.000000
1.000000 0.608459 0.000000
1.000000 0.605194 0.000000
1.000000 0.602112 0.000000
1.000000 0.598724 0.000000
1.000000 0.598389 0.000000
1.000000 0.598236 0.000000
0.000000 0.787781 0.000000
0.000000 0.786163 0.000000
0.000000 0.784424 0.000000
0.000000 0.782196 0.000000
0.000000 0.780060 0.000000
0.000000 0.777008 0.000000
0.000000 0.773621 0.000000
0.000000 0.769257 0.000000
0.000000 0.764893 0.000000
0.006653 0.760040 0.000000
0.064270 0.755188 0.000000
0.128937 0.749969 0.000000
0.191772 0.744781 0.000000
0.254211 0.739441 0.000000
0.315918 0.733765 0.000000
0.378510 0.728149 0.000000
0.441467 0.722198 0.000000
0.504608 0.716248 0.000000
0.568359 0.710114 0.000000
0.632629 0.703796 0.000000
0.697571 0.697571 0.000000
0.762756 0.691010 0.000000
0.828308 0.684601 0.000000
0.894592 0.677856 0.000000
0.960449 0.671173 0.000000
1.000000 0.664246 0.000000
1.000000 0.657745 0.000000
1.000000 0.654449 0.000000
1.000000 0.651276 0.000000
1.000000 0.648132 0.000000
1.000000 0.647766 0.000000
1.000000 0.647644 0.000000
0.000000 0.836823 0.000000
0.000000 0.835205 0.000000
0.000000 0.833557 0.000000
0.000000 0.831543 0.000000
0.000000 0.829407 0.000000
0.000000 0.826263 0.000000
0.000000 0.823151 0.000000
0.000000 0.819031 0.000000
0.000000 0.814514 0.000000
0.000000 0.809845 0.000000
0.035248 0.804840 0.000000
0.103027 0.799896 0.000000
0.167084 0.794495 0.000000
0.230164 0.789185 0.000000
0.292511 0.783539 0.000000
0.355682 0.777924 0.000000
0.418884 0.771973 0.000000
0.482452 0.766174 0.000000
0.546417 0.759949 0.000000
0.610779 0.753876 0.000000
0.675873 0.747437 0.000000
0.741180 0.741180 0.000000
0.807220 0.734528 0.000000
0.873413 0.728027 0.000000
0.940613 0.721191 0.000000
0.992676 0.714386 0.000000
1.000000 0.707581 0.000000
1.000000 0.704041 0.000000
1.000000 0.700897 0.000000
1.000000 0.697754 0.000000
1.000000 0.697418 0.000000
1.000000 0.697266 0.000000
0.000000 0.886719 0.000000
0.000000 0.885132 0.000000
0.000000 0.883240 0.000000
0.000000 0.881195 0.000000
0.000000 0.879089 0.000000
0.000000 0.876404 0.000000
0.000000 0.873108 0.000000
0.000000 0.869110 0.000000
0.000000 0.864807 0.000000
0.000000 0.859955 0.000000
0.000000 0.855225 0.000000
0.075775 0.850037 0.000000
0.141510 0.844879 0.000000
0.205475 0.839386 0.000000
0.268951 0.833954 0.000000
0.332489 0.828156 0.000000
0.395966 0.822479 0.000000
0.459625 0.816528 0.000000
0.523926 0.810608 0.000000
0.588501 0.804382 0.000000
0.653687 0.798218 0.000000
0.719177 0.791840 0.000000
0.785431 0.785431 0.000000
0.851959 0.778809 0.000000
0.919006 0.772034 0.000000
0.982697 0.765472 0.000000
0.998505 0.758484 0.000000
1.000000 0.754547 0.000000
1.000000 0.751343 0.000000
1.000000 0.747986 0.000000
1.000000 0.747620 0.000000
1.000000 0.747437 0.000000
0.000000 0.936615 0.000000
0.000000 0.935028 0.000000
0.000000 0.933319 0.000000
0.000000 0.931274 0.000000
0.000000 0.929169 0.000000
0.000000 0.926361 0.000000
0.000000 0.923462 0.000000
0.000000 0.919586 0.000000
0.000000 0.915100 0.000000
0.000000 0.910553 0.000000
0.000000 0.905670 0.000000
0.046936 0.900757 0.000000
0.115173 0.895477 0.000000
0.180023 0.890259 0.000000
0.244537 0.884766 0.000000
0.308533 0.879120 0.000000
0.372345 0.873291 0.000000
0.436523 0.867554 0.000000
0.501099 0.861420 0.000000
0.566040 0.855438 0.000000
0.631195 0.849091 0.000000
0.696991 0.842926 0.000000
0.763428 0.836395 0.000000
0.829956 0.829956 0.000000
0.897156 0.823242 0.000000
0.964569 0.816437 0.000000
0.992798 0.809723 0.000000
1.000000 0.804962 0.000000
1.000000 0.801727 0.000000
1.000000 0.798553 0.000000
1.000000 0.798187 0.000000
1.000000 0.798004 0.000000
0.000000 0.987396 0.000000
0.000000 0.985748 0.000000
0.000000 0.984161 0.000000
0.000000 0.981873 0.000000
0.000000 0.979767 0.000000
0.000000 0.977417 0.000000
0.000000 0.974670 0.000000
0.000000 0.970581 0.000000
0.000000 0.966400 0.000000
0.000000 0.961670 0.000000
0.000000 0.957001 0.000000
0.015350 0.952118 0.000000
0.087128 0.946838 0.000000
0.154053 0.941620 0.000000
0.219391 0.936127 0.000000
0.283936 0.930573 0.000000
0.348206 0.924744 0.000000
0.412933 0.919037 0.000000
0.477753 0.912933 0.000000
0.542877 0.906738 0.000000
0.608276 0.900665 0.000000
0.674377 0.894257 0.000000
0.740936 0.887970 0.000000
0.807587 0.881409 0.000000
0.874908 0.874908 0.000000
0.942566 0.868134 0.000000
0.984406 0.861298 0.000000
1.000000 0.856171 0.000000
1.000000 0.852997 0.000000
1.000000 0.849579 0.000000
1.000000 0.849243 0.000000
1.000000 0.849091 0.000000
0.000000 0.999695 0.000000
0.000000 0.999664 0.000000
0.000000 0.999664 0.000000
0.000000 0.999634 0.000000
0.000000 0.999603 0.000000
0.000000 0.999573 0.000000
0.000000 0.999573 0.000000
0.000000 0.998535 0.000000
0.000000 0.997620 0.000000
0.000000 0.995575 0.000000
0.000000 0.993683 0.000000
0.000000 0.991760 0.000000
0.057434 0.989044 0.000000
0.127197 0.986359 0.000000
0.193604 0.983276 0.000000
0.258850 0.979950 0.000000
0.323883 0.976288 0.000000
0.388916 0.970428 0.000000
0.454041 0.964661 0.000000
0.519379 0.958557 0.000000
0.585205 0.952515 0.000000
0.651398 0.946198 0.000000
0.718109 0.939789 0.000000
0.784943 0.933411 0.000000
0.852509 0.926758 0.000000
0.920227 0.920227 0.000000
0.975067 0.913452 0.000000
1.000000 0.907715 0.000000
1.000000 0.904297 0.000000
1.000000 0.901062 0.000000
1.000000 0.900696 0.000000
1.000000 0.900574 0.000000
0.000000 1.000000 0.000000
0.000000 1.000000 0.000000
0.000000 1.000000 0.000000
0.000000 1.000000 0.000000
0.000000 1.000000 0.000000
0.000000 1.000000 0.000000
0.000000 1.000000 0.000000
0.000000 1.000000 0.000000
0.000000 0.999939 0.000000
0.000000 0.999847 0.000000
0.000000 0.999481 0.000000
0.000000 0.998840 0.000000
0.028168 0.998383 0.000000
0.099213 0.997528 0.000000
0.166779 0.996216 0.000000
0.232910 0.994537 0.000000
0.298859 0.993530 0.000000
0.364319 0.991486 0.000000
0.429718 0.989014 0.000000
0.495514 0.986542 0.000000
0.561646 0.984406 0.000000
0.628021 0.981354 0.000000
0.694885 0.977570 0.000000
0.761902 0.973663 0.000000
0.829681 0.969849 0.000000
0.897552 0.965851 0.000000
0.961182 0.961182 0.000000
1.000000 0.955566 0.000000
1.000000 0.953003 0.000000
1.000000 0.950256 0.000000
1.000000 0.949951 0.000000
1.000000 0.949829 0.000000
0.000000 1.000000 0.000000
0.000000 1.000000 0.000000
0.000000 1.000000 0.000000
0.000000 1.000000 0.000000
0.000000 1.000000 0.000000
0.000000 1.000000 0.000000
0.000000 1.000000 0.000000
0.000000 1.000000 0.000000
0.000000 1.000000 0.000000
0.000000 1.000000 0.000000
0.000000 1.000000 0.000000
0.000000 1.000000 0.000000
0.017761 1.000000 0.000000
0.080048 1.000000 0.000000
0.148315 1.000000 0.000000
0.214691 1.000000 0.000000
0.280304 1.000000 0.000000
