Postproduction/IWLTBAP - Humble/LUTs by IWLTBAP (CUBE)/UTILITY/Generic LOG to Rec.709/U-9993-LTR.cube
# Copyright: (C) Copyright 2010-2018 by IWLTBAP SAS
# Cannot be resold, shared or otherwise redistributed
# Website: https://luts.iwltbap.com
TITLE "IWLTBAP 9993 (Utility LOG to Rec.709)"
LUT_3D_SIZE 5
DOMAIN_MIN 0.000000 0.000000 0.000000
DOMAIN_MAX 0.903226 0.903226 0.903226
0.062531 0.062531 0.062531
0.168271 0.062531 0.063600
0.602948 0.062531 0.087382
0.918182 0.062531 0.149710
0.918182 0.062531 0.157501
0.062531 0.158452 0.062531
0.147031 0.156704 0.062531
0.600259 0.105867 0.075931
0.918182 0.062531 0.142226
0.918182 0.062531 0.150422
0.062531 0.570233 0.062531
0.062531 0.570067 0.062531
0.533283 0.564430 0.062531
0.918182 0.546061 0.062531
0.918182 0.542893 0.062531
0.062531 0.916684 0.062531
0.062531 0.916682 0.062531
0.149699 0.916354 0.062531
0.903217 0.915201 0.062531
0.918182 0.914885 0.062531
0.062531 0.918182 0.062531
0.062531 0.918182 0.062531
0.138756 0.918182 0.062531
0.887765 0.918182 0.062531
0.918182 0.918182 0.062531
0.062531 0.062531 0.149333
0.164285 0.062531 0.149901
0.602215 0.062531 0.164578
0.918182 0.062531 0.200355
0.918182 0.062531 0.205618
0.062531 0.144414 0.142090
0.142025 0.142431 0.142751
0.599773 0.090422 0.158307
0.918182 0.062531 0.195668
0.918182 0.062531 0.201149
0.062531 0.568520 0.062531
0.062531 0.568276 0.062531
0.532528 0.562616 0.062531
0.918182 0.544168 0.063516
0.918182 0.540940 0.067287
0.062531 0.916607 0.062531
0.062531 0.916607 0.062531
0.149408 0.916278 0.062531
0.903033 0.915135 0.062531
0.918182 0.914799 0.062531
0.062531 0.918182 0.062531
0.062531 0.918182 0.062531
0.138407 0.918182 0.062531
0.887404 0.918182 0.062531
0.918182 0.918182 0.062531
0.062531 0.062531 0.539815
0.071688 0.062531 0.540059
0.589554 0.062531 0.541914
0.918182 0.062531 0.547999
0.918182 0.062531 0.548914
0.062531 0.062531 0.539035
0.062830 0.062531 0.539093
0.586766 0.062531 0.540957
0.918182 0.062531 0.547023
0.918182 0.062531 0.548123
0.062531 0.524259 0.516181
0.062531 0.524093 0.516181
0.516522 0.517589 0.518287
0.918182 0.496151 0.524789
0.918182 0.492195 0.525967
0.062531 0.914146 0.428245
0.062531 0.914096 0.428391
0.142256 0.913766 0.431208
0.896913 0.912590 0.440213
0.918182 0.912268 0.441807
0.062531 0.918182 0.409518
0.062531 0.918182 0.409576
0.129548 0.918182 0.412753
0.880745 0.918182 0.422447
0.918182 0.918182 0.424106
0.062531 0.062531 0.909490
0.062531 0.062531 0.909490
0.545322 0.062531 0.909610
0.918182 0.062531 0.909980
0.918182 0.062531 0.910089
0.062531 0.062531 0.909463
0.062531 0.062531 0.909463
0.542298 0.062531 0.909555
0.918182 0.062531 0.909964
0.918182 0.062531 0.910083
0.062531 0.283126 0.903331
0.062531 0.282212 0.903331
0.458949 0.256263 0.904180
0.917123 0.185474 0.906702
0.918182 0.181386 0.907067
0.062531 0.888452 0.873796
0.062531 0.888247 0.873958
0.123087 0.885577 0.874703
0.877205 0.877345 0.877441
0.918182 0.875995 0.877983
0.062531 0.918182 0.868664
0.062531 0.918182 0.868664
0.102376 0.918182 0.869542
0.859899 0.918182 0.872276
0.918182 0.918182 0.872681
0.062531 0.062531 0.918182
0.062531 0.062531 0.918182
0.537081 0.062531 0.918182
0.918182 0.062531 0.918182
0.918182 0.062531 0.918182
0.062531 0.062531 0.918182
0.062531 0.062531 0.918182
0.534067 0.062531 0.918182
0.918182 0.062531 0.918182
0.918182 0.062531 0.918182
0.062531 0.161643 0.918182
0.062531 0.161585 0.918182
0.447653 0.159285 0.918182
0.916284 0.154134 0.918182
0.918182 0.153380 0.918182
0.062531 0.877957 0.918182
0.062531 0.877751 0.918182
0.119580 0.875027 0.918182
0.873693 0.866560 0.918182
0.918182 0.865177 0.918182
0.062531 0.918182 0.914520
0.062531 0.918182 0.914520
0.096098 0.918182 0.915369
0.856103 0.918182 0.917849
0.918182 0.918182 0.918182
