Postproduction/IWLTBAP - Humble/LUTs by IWLTBAP (CUBE)/UTILITY/Generic LOG to Rec.709/U-9991-LTR.cube
# Copyright: (C) Copyright 2010-2018 by IWLTBAP SAS
# Cannot be resold, shared or otherwise redistributed
# Website: https://luts.iwltbap.com
TITLE "IWLTBAP 9991 (Utility LOG to Rec.709)"
LUT_3D_SIZE 8
DOMAIN_MIN 0.000000 0.000000 0.000000
DOMAIN_MAX 0.903226 0.903226 0.903226
0.000000 0.000000 0.000000
0.074554 0.000000 0.000000
0.221466 0.000000 0.000000
0.398163 0.000000 0.000000
0.599762 0.000000 0.000000
0.792725 0.000000 0.000000
0.802155 0.000000 0.000000
0.802155 0.000000 0.000000
0.000000 0.049316 0.000000
0.035492 0.035492 0.000000
0.187866 0.015930 0.000000
0.364807 0.007355 0.000000
0.566132 0.000000 0.000000
0.775299 0.000000 0.000000
0.802155 0.000000 0.000000
0.802155 0.000000 0.000000
0.000000 0.162018 0.000000
0.000000 0.153931 0.000000
0.139771 0.139771 0.000000
0.314087 0.122894 0.000000
0.513824 0.104095 0.000000
0.734436 0.083740 0.000000
0.802155 0.059509 0.000000
0.802155 0.049927 0.000000
0.000000 0.294617 0.000000
0.000000 0.287018 0.000000
0.083374 0.272827 0.000000
0.255554 0.255554 0.000000
0.453644 0.236420 0.000000
0.672852 0.215698 0.000000
0.802155 0.193634 0.000000
0.802155 0.181885 0.000000
0.000000 0.445526 0.000000
0.000000 0.438721 0.000000
0.011261 0.424500 0.000000
0.191528 0.406921 0.000000
0.387299 0.387299 0.000000
0.604889 0.366211 0.000000
0.802155 0.343811 0.000000
0.802155 0.329498 0.000000
0.000000 0.611511 0.000000
0.000000 0.604706 0.000000
0.000000 0.591339 0.000000
0.122925 0.573700 0.000000
0.316650 0.553955 0.000000
0.532532 0.532532 0.000000
0.766144 0.509674 0.000000
0.802155 0.492554 0.000000
0.000000 0.790649 0.000000
0.000000 0.783691 0.000000
0.000000 0.771545 0.000000
0.044769 0.753784 0.000000
0.241852 0.733826 0.000000
0.455750 0.712128 0.000000
0.688995 0.688995 0.000000
0.802155 0.669403 0.000000
0.000000 0.802155 0.000000
0.000000 0.802155 0.000000
0.000000 0.802155 0.000000
0.001709 0.802155 0.000000
0.179047 0.802155 0.000000
0.388489 0.802155 0.000000
0.617615 0.802155 0.000000
0.802155 0.802155 0.000000
0.000000 0.000000 0.082336
0.070709 0.000000 0.070709
0.217682 0.000000 0.053986
0.394592 0.000000 0.028259
0.596008 0.000000 0.010468
0.791229 0.000000 0.000061
0.802155 0.000000 0.000000
0.802155 0.000000 0.000000
0.000000 0.044434 0.044434
0.030884 0.030884 0.030884
0.184998 0.014282 0.014282
0.361847 0.006073 0.006073
0.563202 0.000000 0.000000
0.773590 0.000000 0.000000
0.802155 0.000000 0.000000
0.802155 0.000000 0.000000
0.000000 0.159271 0.001617
0.000000 0.151367 0.000000
0.137146 0.137146 0.000000
0.311523 0.120575 0.000000
0.511230 0.101929 0.000000
0.731903 0.081482 0.000000
0.802155 0.057281 0.000000
0.802155 0.046997 0.000000
0.000000 0.292053 0.000000
0.000000 0.284668 0.000000
0.081085 0.270599 0.000000
0.253479 0.253479 0.000000
0.451447 0.234436 0.000000
0.670654 0.213806 0.000000
0.802155 0.191742 0.000000
0.802155 0.179871 0.000000
0.000000 0.443268 0.000000
0.000000 0.436584 0.000000
0.010468 0.422455 0.000000
0.189697 0.404907 0.000000
0.385284 0.385284 0.000000
0.602814 0.364258 0.000000
0.802155 0.341827 0.000000
0.802155 0.327209 0.000000
0.000000 0.609253 0.000000
0.000000 0.602478 0.000000
0.000000 0.589294 0.000000
0.121185 0.571655 0.000000
0.314728 0.551880 0.000000
0.530457 0.530457 0.000000
0.763977 0.507477 0.000000
0.802155 0.490356 0.000000
0.000000 0.788361 0.000000
0.000000 0.781464 0.000000
0.000000 0.769318 0.000000
0.042175 0.751648 0.000000
0.239990 0.731689 0.000000
0.453766 0.709961 0.000000
0.686676 0.686676 0.000000
0.802155 0.666931 0.000000
0.000000 0.802155 0.000000
0.000000 0.802155 0.000000
0.000000 0.802155 0.000000
0.001068 0.802155 0.000000
0.176514 0.802155 0.000000
0.386047 0.802155 0.000000
0.615082 0.802155 0.000000
0.802155 0.802155 0.000000
0.000000 0.000000 0.239746
0.064697 0.000000 0.228363
0.212280 0.000000 0.212280
0.388916 0.000000 0.193512
0.590363 0.000000 0.172882
0.788788 0.000000 0.151031
0.802155 0.000000 0.130859
0.802155 0.000000 0.120056
0.000000 0.037079 0.204010
0.023987 0.023987 0.194672
0.180237 0.011902 0.180237
0.356598 0.003784 0.163208
0.557770 0.000000 0.144348
0.770447 0.000000 0.123749
0.802155 0.000000 0.103363
0.802155 0.000000 0.093689
0.000000 0.154266 0.154266
0.000000 0.146454 0.146454
0.132507 0.132507 0.132507
0.306427 0.115784 0.115784
0.506042 0.097137 0.097137
0.726624 0.076202 0.076202
0.802155 0.052277 0.052277
0.802155 0.040253 0.040253
0.000000 0.286896 0.096771
0.000000 0.279907 0.090332
0.075836 0.265717 0.075836
0.248688 0.248688 0.057709
0.446503 0.229889 0.032898
0.665588 0.209320 0.011810
0.802155 0.187195 0.001709
0.802155 0.175323 0.000000
0.000000 0.438171 0.019806
0.000000 0.431824 0.014709
0.008362 0.417572 0.008362
0.185150 0.400391 0.001190
0.380951 0.380951 0.000000
0.598358 0.360077 0.000000
0.801971 0.337677 0.000000
0.802155 0.323242 0.000000
0.000000 0.604431 0.000000
0.000000 0.597748 0.000000
0.000000 0.584839 0.000000
0.117279 0.567322 0.000000
0.310944 0.547699 0.000000
0.526459 0.526459 0.000000
0.760406 0.503815 0.000000
0.802155 0.486481 0.000000
0.000000 0.783936 0.000000
0.000000 0.777130 0.000000
0.000000 0.765259 0.000000
0.036926 0.747894 0.000000
0.236633 0.728088 0.000000
0.450500 0.706360 0.000000
0.683441 0.683441 0.000000
0.802155 0.663574 0.000000
0.000000 0.802155 0.000000
0.000000 0.802155 0.000000
0.000000 0.802155 0.000000
0.000092 0.802155 0.000000
0.173187 0.802155 0.000000
0.382599 0.802155 0.000000
0.611603 0.802155 0.000000
0.802155 0.802155 0.000000
0.000000 0.000000 0.430328
0.058136 0.000000 0.418427
0.205872 0.000000 0.401733
0.382477 0.000000 0.382477
0.583557 0.000000 0.361267
0.785583 0.000000 0.338287
0.802155 0.000000 0.316925
0.802155 0.000000 0.304993
0.000000 0.027893 0.393372
0.016846 0.016846 0.383698
0.174377 0.009186 0.368347
0.350677 0.000793 0.350677
0.551636 0.000000 0.330872
0.766052 0.000000 0.309082
0.802155 0.000000 0.287567
0.802155 0.000000 0.277039
0.000000 0.148468 0.341278
0.000000 0.140900 0.332916
0.126740 0.126740 0.317963
0.300629 0.110229 0.300629
0.500183 0.091614 0.281250
0.720551 0.069977 0.260529
0.802155 0.045044 0.238159
0.802155 0.030731 0.227844
0.000000 0.281006 0.281006
0.000000 0.273987 0.273987
0.069702 0.260071 0.260071
0.243042 0.243042 0.243042
0.440674 0.224091 0.224091
0.659637 0.203552 0.203552
0.802155 0.181671 0.181671
0.802155 0.169647 0.169647
0.000000 0.432190 0.215485
0.000000 0.425751 0.209686
0.005524 0.411804 0.196167
0.179626 0.394440 0.179626
0.375122 0.375122 0.160950
0.592468 0.354279 0.140930
0.800110 0.332031 0.119537
0.802155 0.317261 0.105652
0.000000 0.598206 0.145081
0.000000 0.591766 0.139740
0.000000 0.579010 0.127960
0.111969 0.561554 0.111969
0.305206 0.541962 0.093658
0.520752 0.520752 0.072571
0.755035 0.497925 0.048248
0.802155 0.480652 0.023926
0.000000 0.777954 0.069672
0.000000 0.771118 0.063354
0.000000 0.759399 0.052063
0.028137 0.741943 0.028137
0.231293 0.722107 0.011963
0.444824 0.700653 0.004852
0.677612 0.677612 0.000000
0.802155 0.657715 0.000000
0.000000 0.802155 0.009247
0.000000 0.802155 0.007080
0.000000 0.802155 0.003784
0.000000 0.802155 0.000000
0.167175 0.802155 0.000000
0.376465 0.802155 0.000000
0.605377 0.802155 0.000000
0.802155 0.802155 0.000000
0.000000 0.000000 0.646973
0.050934 0.000000 0.635040
0.198914 0.000000 0.617798
0.375244 0.000000 0.597961
0.576080 0.000000 0.576080
0.781769 0.000000 0.552673
0.802155 0.000000 0.530334
0.802155 0.000000 0.517487
0.000000 0.019104 0.609344
0.012878 0.012878 0.599426
0.167877 0.006042 0.583557
0.343872 0.000000 0.565063
0.544617 0.000000 0.544617
0.761047 0.000000 0.522339
0.802155 0.000000 0.499939
0.802155 0.000000 0.488495
0.000000 0.141968 0.555267
0.000000 0.134430 0.546631
0.120514 0.120514 0.531342
0.293945 0.103851 0.513184
0.493317 0.085205 0.493317
0.713562 0.062775 0.471863
0.802155 0.035370 0.448761
0.802155 0.021271 0.437347
0.000000 0.274292 0.493195
0.000000 0.267395 0.485779
0.062561 0.253510 0.471252
0.236542 0.236542 0.453613
0.433960 0.217590 0.433960
0.652710 0.197052 0.412689
0.802155 0.175232 0.390106
0.802155 0.163086 0.376984
0.000000 0.425354 0.425354
0.000000 0.418976 0.418976
0.002533 0.405121 0.405121
0.173218 0.387756 0.387756
0.368530 0.368530 0.368530
0.585724 0.347717 0.347717
0.797852 0.325531 0.325531
0.802155 0.310760 0.310760
0.000000 0.591431 0.352814
0.000000 0.584900 0.346680
0.000000 0.572235 0.334503
0.105682 0.554810 0.317657
0.298676 0.535309 0.298676
0.514130 0.514130 0.278076
0.748566 0.491516 0.256134
0.802155 0.473877 0.239502
0.000000 0.770935 0.276306
0.000000 0.764130 0.270538
0.000000 0.752563 0.259857
0.019501 0.735168 0.243408
0.224945 0.715363 0.224945
0.438324 0.693939 0.204773
0.671143 0.671143 0.183136
0.802155 0.651062 0.164246
0.000000 0.802155 0.216309
0.000000 0.802155 0.209259
0.000000 0.802155 0.198303
0.000000 0.802155 0.180725
0.160370 0.802155 0.160370
0.369568 0.802155 0.137970
0.598114 0.802155 0.114349
0.802155 0.802155 0.091278
0.000000 0.000000 0.802155
0.040741 0.000000 0.802155
0.191315 0.000000 0.801544
0.367432 0.000000 0.797272
0.568085 0.000000 0.789307
0.777283 0.000000 0.777283
0.802155 0.000000 0.760986
0.802155 0.000000 0.750000
0.000000 0.013580 0.799591
0.009583 0.009583 0.797089
0.161041 0.002563 0.791870
0.336578 0.000000 0.783325
0.536957 0.000000 0.771179
0.755127 0.000000 0.755127
0.802155 0.000000 0.734558
0.802155 0.000000 0.722809
0.000000 0.134857 0.779022
0.000000 0.127441 0.773773
0.113617 0.113617 0.763397
0.286774 0.096954 0.747986
0.485992 0.077942 0.728241
0.705994 0.055542 0.705994
0.802155 0.024902 0.682526
0.802155 0.014404 0.670319
0.000000 0.267029 0.728180
0.000000 0.260498 0.720490
0.055359 0.246429 0.705353
0.229675 0.229675 0.687195
0.426666 0.210754 0.667084
0.645294 0.190277 0.645294
0.802155 0.168182 0.622131
0.802155 0.156006 0.608032
0.000000 0.417908 0.658600
0.000000 0.411713 0.651825
0.000397 0.397858 0.637451
0.166229 0.380768 0.619843
0.361603 0.361603 0.600006
0.578369 0.340790 0.578369
0.794861 0.318451 0.555603
0.802155 0.303436 0.539978
0.000000 0.583954 0.583954
0.000000 0.577393 0.577393
0.000000 0.564880 0.564880
0.098999 0.547546 0.547546
0.291870 0.528046 0.528046
0.506866 0.506866 0.506866
0.741150 0.484344 0.484344
0.802155 0.466492 0.466492
0.000000 0.763336 0.505524
0.000000 0.756531 0.499268
0.000000 0.745148 0.488068
0.014191 0.727997 0.471283
0.218018 0.708191 0.452179
0.431366 0.686615 0.431366
0.663879 0.663879 0.408966
0.802155 0.643585 0.389435
0.000000 0.802155 0.442535
0.000000 0.802155 0.434814
0.000000 0.802155 0.423615
0.000000 0.802155 0.405365
0.152802 0.802155 0.384521
0.361755 0.802155 0.361755
0.590393 0.802155 0.337341
0.802155 0.802155 0.313416
0.000000 0.000000 0.802155
0.031006 0.000000 0.802155
0.184692 0.000000 0.802155
0.360687 0.000000 0.802155
0.560883 0.000000 0.802155
0.772217 0.000000 0.802155
0.802155 0.000000 0.802155
0.802155 0.000000 0.802155
0.000000 0.010620 0.802155
0.006592 0.006592 0.802155
0.154694 0.000000 0.802155
0.329895 0.000000 0.802155
0.529724 0.000000 0.802155
0.748718 0.000000 0.802155
0.802155 0.000000 0.802155
0.802155 0.000000 0.802155
0.000000 0.128204 0.802155
0.000000 0.120880 0.802155
0.106689 0.106689 0.802155
0.279663 0.090057 0.802155
0.478271 0.069763 0.802155
0.698151 0.046783 0.802155
0.802155 0.015686 0.802155
0.802155 0.010590 0.802155
0.000000 0.259705 0.802155
0.000000 0.252899 0.802155
0.046570 0.238953 0.802155
0.222137 0.222137 0.802155
0.418945 0.203217 0.802155
0.637360 0.182770 0.802155
0.802155 0.160919 0.802155
0.802155 0.148590 0.802155
0.000000 0.410187 0.802155
0.000000 0.403809 0.802155
0.000000 0.390289 0.802155
0.159058 0.373108 0.802155
0.353973 0.353973 0.802155
0.570831 0.333221 0.800293
0.791504 0.311066 0.791504
0.802155 0.295654 0.779968
0.000000 0.575989 0.802155
0.000000 0.569611 0.802094
0.000000 0.557068 0.796173
0.091736 0.539978 0.787506
0.284302 0.520477 0.774414
0.499329 0.499329 0.755493
0.733276 0.476562 0.733276
0.802155 0.458649 0.714630
0.000000 0.755249 0.755249
0.000000 0.748657 0.748657
0.000000 0.737213 0.737213
0.011139 0.720062 0.720062
0.210815 0.700348 0.700348
0.423798 0.678986 0.678986
0.656097 0.656097 0.656097
0.802155 0.635620 0.635620
0.000000 0.802155 0.689545
0.000000 0.802155 0.681549
0.000000 0.802155 0.670044
0.000000 0.802155 0.651398
0.144653 0.802155 0.630096
0.353455 0.802155 0.606689
0.581970 0.802155 0.581970
0.802155 0.802155 0.556885
0.000000 0.000000 0.802155
0.026337 0.000000 0.802155
0.181122 0.000000 0.802155
0.356659 0.000000 0.802155
0.556610 0.000000 0.802155
0.769012 0.000000 0.802155
0.802155 0.000000 0.802155
0.802155 0.000000 0.802155
0.000000 0.009277 0.802155
0.005310 0.005310 0.802155
0.151733 0.000000 0.802155
0.326294 0.000000 0.802155
0.525818 0.000000 0.802155
0.745300 0.000000 0.802155
0.802155 0.000000 0.802155
0.802155 0.000000 0.802155
0.000000 0.125061 0.802155
0.000000 0.117737 0.802155
0.103851 0.103851 0.802155
0.276306 0.086975 0.802155
0.474762 0.066681 0.802155
0.694153 0.042450 0.802155
0.802155 0.013977 0.802155
0.802155 0.008789 0.802155
0.000000 0.256226 0.802155
0.000000 0.249725 0.802155
0.042236 0.235626 0.802155
0.218475 0.218475 0.802155
0.414978 0.199554 0.802155
0.632965 0.178894 0.802155
0.802155 0.156799 0.802155
0.802155 0.143921 0.802155
0.000000 0.405914 0.802155
0.000000 0.399628 0.802155
0.000000 0.385864 0.802155
0.154846 0.368591 0.802155
0.349457 0.349457 0.802155
0.565613 0.328308 0.802155
0.787994 0.305939 0.802155
0.802155 0.290222 0.802155
0.000000 0.571014 0.802155
0.000000 0.564331 0.802155
0.000000 0.552002 0.802155
0.086731 0.534485 0.802155
0.278870 0.514801 0.802155
0.493500 0.493500 0.802155
0.727020 0.470734 0.802155
0.802155 0.452393 0.802155
0.000000 0.749420 0.802155
0.000000 0.742493 0.802155
0.000000 0.731232 0.802155
0.009155 0.713715 0.802155
0.204773 0.693848 0.802155
0.417328 0.672333 0.802155
0.649414 0.649414 0.802155
0.802155 0.628448 0.802155
0.000000 0.802155 0.802155
0.000000 0.802155 0.802155
0.000000 0.802155 0.802155
0.000000 0.802155 0.802155
0.137085 0.802155 0.802155
0.345490 0.802155 0.802155
0.573608 0.802155 0.802155
0.799805 0.799805 0.799805
