Postproduction/IWLTBAP - Humble/LUTs by IWLTBAP (CUBE)/UTILITY/Generic LOG to Rec.709/U-9992-LTR.cube
# Copyright: (C) Copyright 2010-2018 by IWLTBAP SAS
# Cannot be resold, shared or otherwise redistributed
# Website: https://luts.iwltbap.com
TITLE "IWLTBAP 9992 (Utility LOG to Rec.709)"
LUT_3D_SIZE 5
DOMAIN_MIN 0.000000 0.000000 0.000000
DOMAIN_MAX 0.903226 0.903226 0.903226
0.000000 0.000000 0.000000
0.271027 0.000000 0.000000
0.655640 0.000000 0.000000
1.000000 0.000000 0.000000
1.000000 0.000000 0.000000
0.000000 0.204742 0.000000
0.178802 0.178802 0.000000
0.571777 0.137329 0.000000
0.991058 0.086243 0.000000
1.000000 0.047302 0.000000
0.000000 0.503937 0.000000
0.031311 0.482758 0.000000
0.445282 0.445282 0.000000
0.883728 0.400452 0.000000
1.000000 0.362976 0.000000
0.000000 0.836823 0.000000
0.000000 0.819031 0.000000
0.292511 0.783539 0.000000
0.741180 0.741180 0.000000
1.000000 0.700897 0.000000
0.000000 1.000000 0.000000
0.000000 1.000000 0.000000
0.134247 1.000000 0.000000
0.594421 1.000000 0.000000
1.000000 1.000000 0.000000
0.000000 0.000000 0.290558
0.261047 0.000000 0.261047
0.646393 0.000000 0.217621
1.000000 0.000000 0.165100
1.000000 0.000000 0.129974
0.000000 0.195740 0.195740
0.170227 0.170227 0.170227
0.564087 0.129333 0.129333
0.986725 0.077820 0.077820
1.000000 0.038422 0.038422
0.000000 0.496674 0.048523
0.022339 0.475739 0.022339
0.438599 0.438599 0.000000
0.877686 0.394043 0.000000
1.000000 0.356445 0.000000
0.000000 0.830750 0.000000
0.000000 0.813110 0.000000
0.287048 0.778076 0.000000
0.735718 0.735718 0.000000
1.000000 0.695557 0.000000
0.000000 1.000000 0.000000
0.000000 1.000000 0.000000
0.127747 1.000000 0.000000
0.588440 1.000000 0.000000
1.000000 1.000000 0.000000
0.000000 0.000000 0.701233
0.246338 0.000000 0.673279
0.632690 0.000000 0.632690
1.000000 0.000000 0.585266
1.000000 0.000000 0.552063
0.000000 0.181396 0.612122
0.156372 0.156372 0.589020
0.551392 0.115021 0.551392
0.979523 0.062408 0.507202
1.000000 0.020325 0.473511
0.000000 0.483704 0.483704
0.002075 0.463074 0.463074
0.426056 0.426056 0.426056
0.865692 0.381378 0.381378
1.000000 0.343323 0.343323
0.000000 0.818542 0.329620
0.000000 0.801239 0.311890
0.274353 0.766235 0.274353
0.723999 0.723999 0.228363
1.000000 0.683685 0.182983
0.000000 1.000000 0.176880
0.000000 1.000000 0.156830
0.112854 1.000000 0.112854
0.575928 1.000000 0.054535
1.000000 1.000000 0.000000
0.000000 0.000000 1.000000
0.229095 0.000000 1.000000
0.616699 0.000000 1.000000
1.000000 0.000000 1.000000
1.000000 0.000000 0.998596
0.000000 0.164368 1.000000
0.139801 0.139801 1.000000
0.536438 0.097595 0.993439
0.969055 0.043304 0.969055
1.000000 0.000000 0.938080
0.000000 0.468079 0.948822
0.000000 0.448151 0.929138
0.411041 0.411041 0.893402
0.851288 0.366211 0.851288
1.000000 0.327484 0.814850
0.000000 0.803741 0.803741
0.000000 0.786957 0.786957
0.258850 0.751984 0.751984
0.709808 0.709808 0.709808
1.000000 0.668762 0.668762
0.000000 1.000000 0.662720
0.000000 1.000000 0.644440
0.093567 1.000000 0.606964
0.560150 1.000000 0.560150
1.000000 1.000000 0.509247
0.000000 0.000000 1.000000
0.218414 0.000000 1.000000
0.605927 0.000000 1.000000
1.000000 0.000000 1.000000
1.000000 0.000000 1.000000
0.000000 0.153748 1.000000
0.129211 0.129211 1.000000
0.525696 0.085785 1.000000
0.959137 0.028931 1.000000
1.000000 0.000000 1.000000
0.000000 0.456360 1.000000
0.000000 0.436432 1.000000
0.398895 0.398895 1.000000
0.839264 0.353455 1.000000
1.000000 0.313538 1.000000
0.000000 0.790985 1.000000
0.000000 0.774109 1.000000
0.244629 0.738556 1.000000
0.696259 0.696259 1.000000
1.000000 0.654266 1.000000
0.000000 1.000000 1.000000
0.000000 1.000000 1.000000
0.073120 1.000000 1.000000
0.543335 1.000000 1.000000
0.997467 0.997467 0.997467
