Postproduction/IWLTBAP - Humble/LUTs by IWLTBAP (CUBE)/UTILITY/DJI D-Log to Rec.709/LUTs by DJI/DJI_Phantom4_DLOG2sRGB.cube
# DaVinci Resolve Cube (3D LUT).
# Converts DJI Phantom4 DLOG data to sRGB
# Gamma as defined by ITU-Rec.1886.
LUT_3D_SIZE 5
0 0 0
0.250233 0 0
0.593011 0 0
0.95227 0 0
1 0 0
0 0.201129 0
0.192767 0.186419 0
0.451209 0.111833 0
0.940337 0 0
1 0 0
0 0.489479 0
0 0.483772 0
0.470192 0.456733 0
0.891127 0.392889 0
1 0.248707 0
0 0.793133 0
0 0.789624 0
0 0.771634 0
0.760128 0.739269 0
1 0.68246 0
0 1 0
0 1 0
0 1 0
0.420768 1 0
1 1 0
0 0 0.201709
0.245426 0 0.199374
0.591913 0 0.189776
0.952102 0 0.166629
1 0 0.115023
0 0.199435 0.187793
0.185122 0.184573 0.185107
0.572015 0.0799878 0.17435
0.94078 0 0.148425
1 0 0.0868696
0 0.488731 0.0934462
0 0.483009 0.0883345
0.467384 0.455909 0.0620432
0.866087 0.396216 0.00738537
1 0.29572 0.0145876
0 0.792615 0
0 0.789105 0
0 0.77113 0
0.758511 0.73872 0
1 0.68188 0
0 1 0
0 1 0
0 1 0
0.417594 1 0
1 1 0
0 0 0.489616
0.214908 0 0.488334
0.582681 0 0.4851
0.94754 0 0.478874
1 0 0.468391
0 0.191165 0.48452
0.140459 0.175463 0.482979
0.562814 0.0574807 0.479042
0.936355 0 0.47274
1 0 0.462074
0 0.485893 0.461219
0 0.48014 0.459556
0.453803 0.452674 0.453788
0.881193 0.388739 0.445533
1 0.231052 0.430991
0 0.790799 0.40415
0 0.787274 0.40235
0 0.769238 0.393164
0.750881 0.736553 0.38117
1 0.694438 0.431983
0 1 0.268925
0 1 0.266545
0 1 0.254322
0.401312 1 0.227771
1 1 0.193027
0 0 0.790814
0.117006 0 0.789456
0.560235 0 0.787564
0.936233 0 0.784817
1 0 0.780697
0 0.171252 0.787579
0 0.153338 0.786221
0.53933 0 0.783642
0.924926 0 0.78085
1 0 0.776699
0 0.479774 0.77557
0 0.473945 0.774258
0.421836 0.445609 0.769711
0.869535 0.379797 0.764752
1 0.214542 0.757443
0 0.78764 0.74934
0 0.7841 0.748012
0 0.765988 0.741238
0.734447 0.732677 0.734417
1 0.67599 0.726848
0 1 0.701823
0 1 0.70045
0 1 0.693446
0.363912 1 0.679255
1 1 0.669932
0 0 1
0 0 1
0.518563 0 1
0.915984 0 1
1 0 1
0 0.129793 1
0 0.105303 1
0.49546 0 1
0.904372 0 1
1 0 1
0 0.469184 1
0 0.463203 1
0.359167 0.433341 1
0.846815 0.36463 1
1 0.183368 1
0 0.782361 1
0 0.77879 1
0 0.76054 1
0.705455 0.726162 1
1 0.668284 1
0 1 1
0 1 1
0 1 1
0.286748 1 1
1 1 1
