Postproduction/IWLTBAP - Humble/LUTs by IWLTBAP (CUBE)/UTILITY/DJI D-Log to Rec.709/LUTs by DJI/DJI_Phantom4_DLOG2sRGB.cube
# DaVinci Resolve Cube (3D LUT).
# Converts DJI Phantom4 DLOG data to sRGB
# Gamma as defined by ITU-Rec.1886.
LUT_3D_SIZE 9
0 0 0
0.0885939 0 0
0.250233 0 0
0.419059 0 0
0.593011 0 0
0.770962 0 0
0.95227 0 0
1 0 0
1 0 0
0 0.0656901 0
0.0619059 0.0588998 0
0.184726 0.0308232 0.00856031
0.413825 0 0
0.58967 0 0
0.768521 0 0
0.950362 0 0
1 0 0
1 0 0
0 0.201129 0
0 0.198734 0
0.192767 0.186419 0
0.387518 0.156924 0
0.451209 0.111833 0
0.724681 0 0
0.940337 0 0
1 0 0
1 0 0
0 0.343008 0
0 0.34165 0
0 0.334661 0
0.329503 0.319646 0
0.539681 0.292821 0
0.726085 0.247974 0
0.804669 0.184344 0
0.795468 0 0
1 0 0
0 0.489479 0
0 0.488548 0
0 0.483772 0
0.169177 0.473136 0
0.470192 0.456733 0
0.688777 0.43122 0
0.891127 0.392889 0
1 0.335302 0
1 0.248707 0
0 0.639689 0
0 0.638972 0
0 0.635355 0
0 0.627192 0
0.333822 0.614237 0
0.613916 0.596796 0
0.839048 0.571923 0
1 0.537392 0
1 0.489723 0
0 0.793133 0
0 0.792554 0
0 0.789624 0
0 0.783017 0
0 0.771634 0
0.486931 0.757504 0
0.760128 0.739269 0
0.990585 0.714748 0
1 0.68246 0
0 0.949523 0
0 0.949035 0
0 0.946532 0
0 0.940948 0
0 0.931365 0
0.190509 0.917144 0
0.638086 0.902663 0
0.908461 0.883803 0
1 0.859495 0
0 1 0
0 1 0
0 1 0
0 1 0
0 1 0
0 1 0
0.420768 1 0
0.78938 1 0
1 1 0
0 0 0.0659495
0.0865949 0 0.0648814
0.249729 0 0.0601053
0.418921 0 0.0486152
0.592996 0 0.0251774
0.770993 0 0
0.952331 0 0
1 0 0
1 0 0
0 0.0648966 0.0594034
0.05832 0.0580606 0.0583047
0.240848 0.0153048 0.0532235
0.414023 0 0.040528
0.589715 0 0.016434
0.768582 0 0
0.950439 0 0
1 0 0
1 0 0
0 0.200839 0.0185855
0 0.198428 0.0171817
0.191516 0.186114 0.0102846
0.366629 0.160632 0.0202945
0.440955 0.115618 0.0423133
0.755291 0 0
0.940581 0 0
1 0 0
1 0 0
0 0.34284 0
0 0.341466 0
0 0.334478 0
0.328801 0.319463 0
0.539284 0.292622 0
0.712337 0.250263 0
0.765194 0.193637 0
0.872908 0 0
1 0 0
0 0.489357 0
0 0.488411 0
0 0.48365 0
0.167758 0.473014 0
0.469718 0.456596 0
0.688472 0.431083 0
0.890913 0.392737 0
1 0.335973 0
1 0.253788 0
0 0.639582 0
0 0.638865 0
0 0.635248 0
0 0.627085 0
0.333135 0.61413 0
0.613581 0.596674 0
0.838804 0.571801 0
1 0.537285 0
1 0.489586 0
0 0.793042 0
0 0.792462 0
0 0.789532 0
0 0.78294 0
0 0.771542 0
0.486488 0.757412 0
0.759854 0.739178 0
0.990372 0.714656 0
1 0.682368 0
0 0.949447 0
0 0.948959 0
0 0.946471 0
0 0.940871 0
0 0.931289 0
0.189258 0.917067 0
0.637766 0.902586 0
0.908232 0.883711 0
1 0.859419 0
0 1 0
0 1 0
0 1 0
0 1 0
0 1 0
0 1 0
0.420249 1 0
0.78912 1 0
1 1 0
0 0 0.201709
0.0721447 0 0.201205
0.245426 0 0.199374
0.416907 0 0.195804
0.591913 0 0.189776
0.770428 0 0.180438
0.952102 0 0.166629
1 0 0.146319
1 0 0.115023
0 0.0609293 0.199359
0.0372473 0.0537575 0.198886
0.236515 0.00973526 0.196994
0.412085 0 0.193378
0.588724 0 0.187274
0.768078 0 0.177798
0.950256 0 0.163745
1 0 0.143008
1 0 0.110796
0 0.199435 0.187793
0 0.197009 0.187304
0.185122 0.184573 0.185107
0.386816 0.154406 0.181216
0.572015 0.0799878 0.17435
0.755932 0 0.163897
0.94078 0 0.148425
1 0 0.125109
1 0 0.0868696
0 0.342016 0.159533
0 0.340642 0.158968
0 0.333639 0.156146
0.325322 0.318547 0.150835
0.50251 0.29868 0.174807
0.599145 0.277562 0.200671
0.789456 0.192569 0.153811
1 0 0.0741131
1 0 0.00251774
0 0.488731 0.0934462
0 0.487785 0.0926223
0 0.483009 0.0883345
0.160342 0.472358 0.0784314
0.467384 0.455909 0.0620432
0.686961 0.43035 0.0303349
0.866087 0.396216 0.00738537
0.958434 0.360494 0.027512
1 0.29572 0.0145876
0 0.639078 0
0 0.638361 0
0 0.634745 0
0 0.626566 0
0.329671 0.613596 0
0.611856 0.596139 0
0.837598 0.571237 0
1 0.536675 0
1 0.489128 0
0 0.792615 0
0 0.792035 0
0 0.789105 0
0 0.782498 0
0 0.77113 0
0.484245 0.75697 0
0.758511 0.73872 0
0.989364 0.714183 0
1 0.68188 0
0 0.949065 0
0 0.948577 0
0 0.94609 0
0 0.940505 0
0 0.930907 0
0.182788 0.916686 0
0.636118 0.90219 0
0.907118 0.883314 0
1 0.859007 0
0 1 0
0 1 0
0 1 0
0 1 0
0 1 0
0 1 0
0.417594 1 0
0.787823 1 0
1 1 0
0 0 0.343572
0.0271611 0 0.343221
0.234745 0 0.342046
0.411536 0 0.340078
0.588647 0 0.337026
0.768246 0 0.332555
0.95053 0 0.326375
1 0 0.318105
1 0 0.307271
0 0.0513924 0.342214
0 0.0432288 0.341894
0.22536 0 0.340673
0.406668 0 0.338674
0.585458 0 0.335607
0.765896 0 0.331121
0.948699 0 0.32491
1 0 0.316594
1 0 0.305699
0 0.196399 0.335988
0 0.193942 0.335668
0.170031 0.181247 0.334203
0.381308 0.150195 0.331868
0.568963 0.0721904 0.32842
0.753887 0 0.323796
0.939315 0 0.317403
1 0 0.308827
1 0 0.297597
0 0.340368 0.322301
0 0.338994 0.321965
0 0.331945 0.320272
0.317571 0.316732 0.31754
0.531762 0.289982 0.313985
0.727169 0.243442 0.308507
0.917845 0.154452 0.300847
1 0 0.291066
1 0 0.278828
0 0.487648 0.297612
0 0.486702 0.297261
0 0.48191 0.29546
0.142687 0.471183 0.291508
0.462379 0.454673 0.287114
0.643915 0.437232 0.317067
0.751537 0.423453 0.345388
0.922789 0.373953 0.321859
1 0.250446 0.260563
0 0.638193 0.255573
0 0.637476 0.255177
0 0.633844 0.253162
0 0.62565 0.248615
0.32195 0.612619 0.24184
0.608148 0.595102 0.234089
0.835035 0.570138 0.223255
0.9823 0.547997 0.269169
1 0.529961 0.320943
0 0.79176 0.178485
0 0.79118 0.177966
0 0.788235 0.175311
0 0.781628 0.169299
0 0.77023 0.158709
0.479225 0.756008 0.145159
0.755505 0.737728 0.126604
0.987121 0.713146 0.098024
1 0.680858 0.0474098
0 0.948226 0
0 0.947738 0
0 0.945251 0
0 0.939651 0
0 0.930068 0
0.167407 0.915816 0
0.63241 0.901305 0
0.904631 0.882414 0
1 0.858076 0
0 1 0
0 1 0
0 1 0
0 1 0
0 1 0
0 1 0
0.411597 1 0
0.784909 1 0
1 1 0
0 0 0.489616
0 0 0.489342
0.214908 0 0.488334
0.401846 0 0.487007
0.582681 0 0.4851
0.764141 0 0.482429
0.94754 0 0.478874
1 0 0.47425
1 0 0.468391
0 0.0320287 0.48867
0 0.0229038 0.488396
0.204501 0 0.487373
0.396826 0 0.48603
0.579446 0 0.484092
0.761791 0 0.481437
0.945708 0 0.477867
1 0 0.473228
1 0 0.467353
0 0.191165 0.48452
0 0.188632 0.484245
0.140459 0.175463 0.482979
0.370596 0.143023 0.481331
0.562814 0.0574807 0.479042
0.749783 0 0.476341
0.936355 0 0.47274
1 0 0.46804
1 0 0.462074
0 0.337636 0.475914
0 0.336248 0.475654
0 0.329137 0.474296
0.303883 0.313649 0.472206
0.52549 0.286336 0.469596
0.723354 0.239017 0.466148
0.915236 0.147311 0.461585
1 0 0.456352
1 0 0.450141
0 0.485893 0.461219
0 0.484947 0.460945
0 0.48014 0.459556
0.106279 0.469276 0.456519
0.453803 0.452674 0.453788
0.677058 0.427298 0.45037
0.881193 0.388739 0.445533
1 0.330007 0.439139
1 0.231052 0.430991
0 0.636942 0.438346
0 0.636225 0.438056
0 0.632593 0.436637
0 0.624384 0.433417
0.308553 0.6112 0.428946
0.60209 0.593637 0.424857
0.787945 0.577508 0.457893
0.903029 0.567559 0.487434
1 0.530663 0.47219
0 0.790799 0.40415
0 0.790219 0.403845
0 0.787274 0.40235
0 0.780652 0.398962
0 0.769238 0.393164
0.471031 0.754879 0.387304
0.750881 0.736553 0.38117
0.983688 0.71194 0.373404
1 0.694438 0.431983
0 0.947341 0.352697
0 0.946853 0.352361
0 0.94435 0.350729
0 0.93875 0.347036
0 0.929122 0.340688
0.137835 0.914778 0.331197
0.626459 0.900206 0.323476
0.900771 0.88127 0.31371
1 0.85687 0.301137
0 1 0.268925
0 1 0.268528
0 1 0.266545
0 1 0.262058
0 1 0.254322
0 1 0.242557
0.401312 1 0.227771
0.780072 1 0.21294
1 1 0.193027
0 0 0.638895
0 0 0.638651
0.180697 0 0.637629
0.386664 0 0.636606
0.573419 0 0.635264
0.757794 0 0.633509
0.942855 0 0.631251
1 0 0.628382
1 0 0.624826
0 0.00155642 0.638132
0 0 0.637903
0.168002 0 0.636866
0.381399 0 0.635843
0.570138 0 0.634501
0.755413 0 0.632731
0.941024 0 0.630457
1 0 0.627588
1 0 0.624018
0 0.183062 0.635004
0 0.180423 0.634775
0.0785992 0.166476 0.633539
0.353658 0.131716 0.632197
0.553155 0.0294652 0.630549
0.743313 0 0.628763
0.93164 0 0.626474
1 0 0.62359
1 0 0.619989
0 0.333532 0.628946
0 0.332128 0.628717
0 0.324926 0.627527
0.282032 0.309041 0.625589
0.514824 0.281132 0.623636
0.716609 0.232532 0.621042
0.910506 0.136248 0.617823
1 0 0.614603
1 0 0.610925
0 0.483314 0.618875
0 0.482368 0.618631
0 0.477531 0.617441
0.00903334 0.466545 0.614755
0.440696 0.449699 0.612558
0.670298 0.423835 0.609781
0.876768 0.384894 0.606332
1 0.325383 0.601984
1 0.22417 0.596613
0 0.635142 0.603708
0 0.634424 0.603479
0 0.630777 0.602258
0 0.622538 0.599527
0.287251 0.60914 0.595743
0.59295 0.591501 0.59292
0.823209 0.566827 0.589593
1 0.532143 0.585092
1 0.484062 0.5794
0 0.789456 0.582116
0 0.788876 0.581872
0 0.785916 0.580636
0 0.779278 0.577859
0 0.767865 0.573098
0.458564 0.753292 0.568673
0.744015 0.734905 0.564721
0.933577 0.719646 0.599924
1 0.712077 0.630213
0 0.946288 0.552193
0 0.945785 0.551949
0 0.943297 0.550668
0 0.937682 0.547799
0 0.928054 0.542901
0.0766918 0.913573 0.535561
0.617792 0.898909 0.530907
0.895323 0.879927 0.525475
1 0.855528 0.519219
0 1 0.510933
0 1 0.510674
0 1 0.509331
0 1 0.50634
0 1 0.501228
0 1 0.493553
0.386069 1 0.484657
0.77351 1 0.478401
1 1 0.470756
0 0 0.790814
0 0 0.790585
0.117006 0 0.789456
0.36437 0 0.788571
0.560235 0 0.787564
0.748775 0 0.786328
0.936233 0 0.784817
1 0 0.782956
1 0 0.780697
0 0 0.790188
0 0 0.789975
0.0964675 0 0.788846
0.358724 0 0.78793
0.556848 0 0.786923
0.74638 0 0.785687
0.934371 0 0.784161
1 0 0.7823
1 0 0.780041
0 0.171252 0.787579
0 0.168414 0.78735
0 0.153338 0.786221
0.328557 0.114443 0.784848
0.53933 0 0.783642
0.734081 0 0.782391
0.924926 0 0.78085
1 0 0.778973
1 0 0.776699
0 0.32781 0.782986
0 0.326375 0.782773
0 0.319036 0.781674
0.248264 0.302571 0.779706
0.499458 0.273838 0.778119
0.706828 0.223392 0.776074
0.903578 0.119539 0.773602
1 0 0.771527
1 0 0.769223
0 0.479774 0.77557
0 0.478813 0.775357
0 0.473945 0.774258
0 0.462867 0.771786
0.421836 0.445609 0.769711
0.659556 0.419364 0.767514
0.869535 0.379797 0.764752
1 0.319127 0.761425
1 0.214542 0.757443
0 0.632685 0.764614
0 0.631968 0.764385
0 0.628305 0.763287
0 0.620035 0.760815
0.254536 0.606348 0.757214
0.580133 0.588586 0.754955
0.816083 0.563439 0.752041
1 0.528511 0.748592
1 0.480003 0.744411
0 0.78764 0.74934
0 0.78706 0.749126
0 0.7841 0.748012
0 0.777447 0.74551
0 0.765988 0.741238
0.440742 0.751125 0.737316
0.734447 0.732677 0.734417
0.970428 0.7084 0.731136
1 0.67599 0.726848
0 0.944884 0.728847
0 0.944396 0.728618
0 0.941894 0.727489
0 0.936263 0.724956
0 0.926619 0.720607
0 0.912108 0.714122
0.605661 0.897169 0.710475
0.887831 0.878141 0.706615
1 0.863508 0.743481
0 1 0.701823
0 1 0.701595
0 1 0.70045
0 1 0.697856
0 1 0.693446
0 1 0.686839
0.363912 1 0.679255
0.764446 1 0.674983
1 1 0.669932
0 0 0.945006
0 0 0.944808
0 0 0.943694
0.332418 0 0.942611
0.542306 0 0.941802
0.73669 0 0.940902
0.927367 0 0.939864
1 0 0.938643
1 0 0.937224
0 0 0.944457
0 0 0.944274
0 0 0.943206
0.326101 0 0.942046
0.538781 0 0.941253
0.734234 0 0.940337
0.92549 0 0.9393
1 0 0.938079
1 0 0.93666
0 0.154345 0.942107
0 0.151186 0.941909
0 0.134203 0.940856
0.291844 0.0873426 0.9393
0.520485 0 0.938415
0.721691 0 0.937484
0.915938 0 0.936431
1 0 0.935195
1 0 0.933761
0 0.320165 0.93846
0 0.3187 0.938262
0 0.311147 0.937224
0.194217 0.293919 0.935088
0.478401 0.264027 0.9337
0.693629 0.210864 0.932006
0.89424 0.0937819 0.930068
1 0 0.928725
1 0 0.927275
0 0.47512 0.932723
0 0.474144 0.932525
0 0.469215 0.931487
0 0.458015 0.929152
0.39556 0.440208 0.92697
0.645014 0.413504 0.925155
0.859632 0.373129 0.922881
1 0.310872 0.920165
1 0.201343 0.917037
0 0.629496 0.924392
0 0.628763 0.924178
0 0.625086 0.92314
0 0.61677 0.920821
0.202792 0.602731 0.917174
0.562844 0.584787 0.915236
0.805264 0.55935 0.912856
1 0.52401 0.909987
1 0.474922 0.906615
0 0.78529 0.912947
0 0.78471 0.912749
0 0.78175 0.911696
0 0.775067 0.909361
0 0.763577 0.905364
0.416052 0.748333 0.901549
0.721782 0.729793 0.899153
0.962997 0.705043 0.896132
1 0.67245 0.892683
0 0.943084 0.897826
0 0.942596 0.897627
0 0.940078 0.896574
0 0.934447 0.894224
0 0.924788 0.890196
0 0.910231 0.884184
0.589395 0.894926 0.880873
0.877943 0.875837 0.877897
1 0.851789 0.874647
0 1 0.878355
0 1 0.878141
0 1 0.877073
0 1 0.874693
0 1 0.870634
0 1 0.864561
0.332326 1 0.857435
0.752438 1 0.854139
1 1 0.850324
0 0 1
0 0 1
0 0 1
0.285969 0 1
0.518563 0 1
0.72105 0 1
0.915984 0 1
1 0 1
1 0 1
0 0 1
0 0 1
0 0 1
0.278431 0 1
0.514839 0 1
0.718532 0 1
0.914092 0 1
1 0 1
1 0 1
0 0.129793 1
0 0.126055 1
0 0.105303 1
0.236179 0.0368811 1
0.49546 0 1
0.705623 0 1
0.904372 0 1
1 0 1
1 0 1
0 0.310231 1
0 0.308705 1
0 0.300877 1
0.084184 0.282658 1
0.450187 0.251102 1
0.676478 0.193912 1
0.882246 0.0483711 1
1 0 1
1 0 1
0 0.469184 1
0 0.468208 1
0 0.463203 1
0 0.451835 1
0.359167 0.433341 1
0.626062 0.406043 1
0.846815 0.36463 1
1 0.300206 1
1 0.183368 1
0 0.625467 1
0 0.624735 1
0 0.621027 1
0 0.61265 1
0.103624 0.598199 1
0.540139 0.579965 1
0.791196 0.554223 1
1 0.518395 1
1 0.468528 1
0 0.782361 1
0 0.781765 1
0 0.77879 1
0 0.772091 1
0 0.76054 1
0.382223 0.744839 1
0.705455 0.726162 1
0.952071 0.701183 1
1 0.668284 1
0 0.940841 1
0 0.940352 1
0 0.937835 1
0 0.932189 1
0 0.922499 1
0 0.907912 1
0.568124 0.892134 1
0.865354 0.872969 1
1 0.848447 1
0 1 1
0 1 1
0 1 1
0 1 1
0 1 1
0 1 1
0.286748 1 1
0.737057 1 1
1 1 1
