Postproduction/IWLTBAP - Humble/LUTs by IWLTBAP (CUBE)/UTILITY/DJI D-Log to Rec.709/LUTs by DJI/DJI_Phantom4_DLOG2sRGB_Improv.cube
# DaVinci Resolve Cube (3D LUT).
# Converts DJI Phantom4 DLOG data to sRGB with color tuning
# Gamma as defined by ITU-Rec.1886.
LUT_3D_SIZE 33
0 0 0
6.10361e-05 0 6.10361e-05
0.00654612 0.000137331 0.000137331
0.0267948 0.000549325 0.000549325
0.0626535 0.00129702 0.00129702
0.116564 0.00239567 0.00239567
0.185367 0.00381476 0.00381476
0.240955 0.00495918 0.00495918
0.303227 0.00161746 0.0152285
0.368582 0.00453193 0.0296025
0.436484 0.0118563 0.0442359
0.501549 0.0151369 0.0562448
0.565713 0.0183261 0.0704967
0.62475 0.0128023 0.077409
0.677577 0 0.0716564
0.721645 0.000747692 0.0562753
0.754528 0.00381476 0.0387732
0.778683 0.0090486 0.0247044
0.803952 0.0141299 0.0141451
0.831907 0.0171511 0.0171511
0.86186 0.0177615 0.0177615
0.886397 0.018265 0.018265
0.90547 0.0186618 0.0186618
0.921813 0.0189975 0.0189975
0.929091 0.0191501 0.0191501
0.929091 0.0191501 0.0191501
0.929091 0.0191501 0.0191501
0.929091 0.0191501 0.0191501
0.929091 0.0191501 0.0191501
0.929091 0.0191501 0.0191501
0.929091 0.0191501 0.0191501
0.929091 0.0191501 0.0191501
0.929091 0.0191501 0.0191501
0 0.000106813 1.5259e-05
1.5259e-05 1.5259e-05 0
0.0056611 0.000122072 0.000122072
0.026627 0.000549325 0.000549325
0.0623026 0.00128176 0.00128176
0.11606 0.00239567 0.00239567
0.18497 0.00381476 0.00381476
0.240986 0.00495918 0.00495918
0.30338 0.00157168 0.0154116
0.368078 0.00547799 0.0297093
0.436271 0.0129244 0.0445411
0.50132 0.0162203 0.0564736
0.565545 0.0192721 0.0706493
0.624598 0.01355 0.0773785
0.677363 0 0.0714733
0.72137 0.00077821 0.0560159
0.754421 0.00386053 0.0385595
0.77821 0.00909438 0.0245518
0.795575 0.0164034 0.0164034
0.831922 0.0171511 0.0171511
0.861814 0.0177615 0.0177615
0.886397 0.018265 0.018265
0.90547 0.0186618 0.0186618
0.921782 0.0189975 0.0189975
0.929091 0.0191501 0.0191501
0.929091 0.0191501 0.0191501
0.929091 0.0191501 0.0191501
0.929091 0.0191501 0.0191501
0.929091 0.0191501 0.0191501
0.929091 0.0191501 0.0191501
0.929091 0.0191501 0.0191501
0.929091 0.0191501 0.0191501
0.929091 0.0191501 0.0191501
0 0.00282292 0
0 0.00285344 0
0.00347906 0.00303655 0
0.0244144 0.00215152 0.00117494
0.0612192 0.0012665 0.0012665
0.113985 0.00234989 0.00234989
0.183459 0.00378424 0.00378424
0.241108 0.00497444 0.00497444
0.303044 0.00367742 0.0166018
0.365454 0.0112612 0.0306096
0.434928 0.0185092 0.0460517
0.500099 0.0216983 0.0578317
0.564492 0.0240482 0.0713664
0.623331 0.0175631 0.0772564
0.67657 0 0.0704509
0.72018 0.000885023 0.0547189
0.752468 0.00408942 0.0374456
0.776867 0.00939956 0.0238041
0.795239 0.0163882 0.0163882
0.831479 0.0171359 0.0171359
0.861891 0.0177615 0.0177615
0.886397 0.018265 0.018265
0.90547 0.0186618 0.0186618
0.921843 0.0189975 0.0189975
0.929091 0.0191501 0.0191501
0.929091 0.0191501 0.0191501
0.929091 0.0191501 0.0191501
0.929091 0.0191501 0.0191501
0.929091 0.0191501 0.0191501
0.929091 0.0191501 0.0191501
0.929091 0.0191501 0.0191501
0.929091 0.0191501 0.0191501
0.929091 0.0191501 0.0191501
0 0.0176699 0
0 0.0177005 0
0 0.0178378 0
0.0180972 0.0168154 0
0.0458839 0.0166018 0.00712596
0.0962234 0.0140078 0.00749218
0.18024 0.00546273 0.00415045
0.240177 0.00888075 0.00721752
0.294331 0.0185245 0.0215
0.359014 0.024979 0.0348669
0.429343 0.0327764 0.0499886
0.496101 0.0350805 0.0619669
0.560906 0.0348821 0.0718395
0.620783 0.0271763 0.0765087
0.674235 0.004654 0.0680552
0.717693 0.00115969 0.0517891
0.749386 0.00466926 0.0350652
0.772793 0.0100862 0.0222019
0.794217 0.0163729 0.0163729
0.830976 0.0171206 0.0171206
0.861936 0.0177615 0.0177615
0.886488 0.018265 0.018265
0.90547 0.0186618 0.0186618
0.921813 0.0189975 0.0189975
0.929091 0.0191501 0.0191501
0.929091 0.0191501 0.0191501
0.929091 0.0191501 0.0191501
0.929091 0.0191501 0.0191501
0.929091 0.0191501 0.0191501
0.929091 0.0191501 0.0191501
0.929091 0.0191501 0.0191501
0.929091 0.0191501 0.0191501
0.929091 0.0191501 0.0191501
0 0.0421607 0
0 0.0421912 0
0 0.0423438 0
0.00262455 0.0426947 0
0.0404364 0.0378424 0
0.0870832 0.036286 0.0107576
0.13991 0.0382391 0.0194553
0.20296 0.0406195 0.0224308
0.266636 0.0448005 0.0328527
0.337316 0.0525826 0.0462959
0.412589 0.0572519 0.0582589
0.48394 0.058381 0.068574
0.550332 0.0547494 0.0748455
0.612909 0.0420539 0.0746014
0.668025 0.0174563 0.0640269
0.71281 0.00173953 0.0467536
0.742199 0.0059205 0.0304112
0.764309 0.0119478 0.0184787
0.792905 0.0163424 0.0163424
0.830152 0.0171054 0.0171054
0.86096 0.0177462 0.0177462
0.885496 0.0182498 0.0182498
0.904585 0.0186465 0.0186465
0.921828 0.0189975 0.0189975
0.929091 0.0191501 0.0191501
0.929091 0.0191501 0.0191501
0.929091 0.0191501 0.0191501
0.929091 0.0191501 0.0191501
0.929091 0.0191501 0.0191501
0.929091 0.0191501 0.0191501
0.929091 0.0191501 0.0191501
0.929091 0.0191501 0.0191501
0.929091 0.0191501 0.0191501
0 0.0783856 0
0 0.0784161 0
0 0.0785382 0
0 0.0787671 0
0.0177157 0.0778973 0
0.0782635 0.0723735 0
0.151369 0.0679637 0.00755322
0.196277 0.0725261 0.0303655
0.237903 0.0843061 0.0477607
0.290486 0.0973068 0.0675517
0.362921 0.100969 0.0788891
0.44921 0.0952163 0.0835584
0.519554 0.0870985 0.0831311
0.587793 0.0671702 0.0747234
0.648981 0.0373083 0.0582742
0.703532 0.0030518 0.0384527
0.731807 0.00782788 0.0247044
0.756283 0.0133059 0.0148165
0.790433 0.0162966 0.0162966
0.82829 0.0170748 0.0170748
0.860151 0.017731 0.017731
0.884596 0.0182345 0.0182345
0.904585 0.0186465 0.0186465
0.920913 0.0189822 0.0189822
0.929091 0.0191501 0.0191501
0.929091 0.0191501 0.0191501
0.929091 0.0191501 0.0191501
0.929091 0.0191501 0.0191501
0.929091 0.0191501 0.0191501
0.929091 0.0191501 0.0191501
0.929091 0.0191501 0.0191501
0.929091 0.0191501 0.0191501
0.929091 0.0191501 0.0191501
0 0.129381 0
0 0.129412 0
0 0.129534 0
0 0.129793 0
0 0.129809 0
0.0438239 0.124926 0
0.127016 0.118364 0
0.222004 0.113024 0.000793469
0.269871 0.121538 0.024094
0.300313 0.136782 0.0621805
0.342779 0.148211 0.0906844
0.389013 0.146975 0.101762
0.447578 0.13431 0.0994583
0.531106 0.104082 0.0830243
0.601404 0.0698253 0.0594949
0.66833 0.0325017 0.0354314
0.716228 0.0106661 0.0181582
0.744717 0.0153506 0.0153506
0.787411 0.0162203 0.0162203
0.826474 0.0170291 0.0170291
0.858244 0.0176852 0.0176852
0.88368 0.0182193 0.0182193
0.903655 0.018616 0.018616
0.920058 0.018967 0.018967
0.929091 0.0191501 0.0191501
0.929091 0.0191501 0.0191501
0.929091 0.0191501 0.0191501
0.929091 0.0191501 0.0191501
0.929091 0.0191501 0.0191501
0.929091 0.0191501 0.0191501
0.929091 0.0191501 0.0191501
0.929091 0.0191501 0.0191501
0.929091 0.0191501 0.0191501
0 0.191882 0
0 0.191928 0
0 0.192142 0
0 0.19266 0
0 0.193484 0
0.00428779 0.194873 0
0.0855116 0.186694 0
0.188785 0.178576 0
0.270558 0.178515 0
0.329412 0.183307 0.00906386
0.383322 0.18616 0.0382391
0.405203 0.184054 0.0778668
0.429892 0.173297 0.0909895
0.462577 0.1523 0.0858015
0.510643 0.122683 0.0720378
0.585229 0.0833753 0.0480659
0.669963 0.0417639 0.0241245
0.740246 0.015259 0.015259
0.783612 0.016144 0.016144
0.823301 0.016968 0.016968
0.856428 0.0176547 0.0176547
0.882246 0.0181888 0.0181888
0.902754 0.0186007 0.0186007
0.919051 0.0189364 0.0189364
0.929091 0.0191501 0.0191501
0.929091 0.0191501 0.0191501
0.929091 0.0191501 0.0191501
0.929091 0.0191501 0.0191501
0.929091 0.0191501 0.0191501
0.929091 0.0191501 0.0191501
0.929091 0.0191501 0.0191501
0.929091 0.0191501 0.0191501
0.929091 0.0191501 0.0191501
0 0.259144 0
0 0.259174 0
0 0.259342 0
0 0.259693 0
0 0.260182 0
0 0.260731 0
0.0482185 0.258473 0
0.147845 0.248066 0
0.247608 0.239429 0
0.30425 0.24062 0
0.367498 0.23476 0
0.435309 0.220172 0.00205997
0.465965 0.203967 0.0337682
0.47245 0.188418 0.0680705
0.495598 0.167819 0.0764477
0.531136 0.14226 0.0728313
0.590066 0.108965 0.0581674
0.683116 0.0629129 0.0341497
0.778286 0.0170443 0.0160983
0.820172 0.016907 0.016907
0.853727 0.0175937 0.0175937
0.880491 0.018143 0.018143
0.900938 0.0185702 0.0185702
0.918181 0.0189212 0.0189212
0.929091 0.0191501 0.0191501
0.929091 0.0191501 0.0191501
0.929091 0.0191501 0.0191501
0.929091 0.0191501 0.0191501
0.929091 0.0191501 0.0191501
0.929091 0.0191501 0.0191501
0.929091 0.0191501 0.0191501
0.929091 0.0191501 0.0191501
0.929091 0.0191501 0.0191501
0 0.317983 0.0155642
0 0.317952 0.0155642
0 0.317815 0.0155947
0 0.317403 0.0155337
0 0.31693 0.0153201
0 0.315877 0.014435
0.0256657 0.312856 0.012604
0.10695 0.302739 0.00135805
0.218891 0.28658 0
0.285191 0.279591 0
0.340047 0.272557 0
0.409232 0.259922 0
0.47454 0.24152 0.00172427
0.509133 0.22536 0.0313878
0.518975 0.213687 0.0681315
0.537408 0.197467 0.0832532
0.564981 0.174701 0.0842298
0.603616 0.146471 0.0766155
0.6701 0.111009 0.0593423
0.764523 0.0652476 0.0356603
0.851087 0.0184176 0.0175937
0.878218 0.0180972 0.0180972
0.899092 0.0185245 0.0185245
0.917266 0.0189059 0.0189059
0.929091 0.0191501 0.0191501
0.929091 0.0191501 0.0191501
0.929091 0.0191501 0.0191501
0.929091 0.0191501 0.0191501
0.929091 0.0191501 0.0191501
0.929091 0.0191501 0.0191501
0.929091 0.0191501 0.0191501
0.929091 0.0191501 0.0191501
0.929091 0.0191501 0.0191501
0 0.364569 0.0232548
0 0.364508 0.0231327
0 0.363943 0.0225528
0 0.362371 0.0214847
0 0.36051 0.0198062
0 0.357153 0.0169528
0 0.352575 0.01178
0.0444953 0.34638 0.00512703
0.15877 0.328389 0
0.26186 0.312078 0
0.316579 0.307698 0
0.386206 0.297932 0
0.461189 0.283131 0
0.525185 0.267185 0.00195315
0.565118 0.253788 0.0280613
0.577264 0.243442 0.0652628
0.5897 0.232273 0.0868391
0.610666 0.217853 0.0948806
0.636316 0.197498 0.0950332
0.671366 0.171466 0.088838
0.725704 0.133104 0.0710613
0.806653 0.0827344 0.0445411
0.897292 0.022034 0.0187839
0.915465 0.0188602 0.0188602
0.929091 0.0191501 0.0191501
0.929091 0.0191501 0.0191501
0.929091 0.0191501 0.0191501
0.929091 0.0191501 0.0191501
0.929091 0.0191501 0.0191501
0.929091 0.0191501 0.0191501
0.929091 0.0191501 0.0191501
0.929091 0.0191501 0.0191501
0.929091 0.0191501 0.0191501
0 0.402579 0.00453193
0 0.402502 0.00442512
0 0.402106 0.00384527
0 0.400488 0.00263981
0 0.398535 0.000671397
0 0.395071 0
0 0.390967 0
0 0.385977 0
0.068513 0.376181 0
0.208057 0.357275 0
0.286458 0.350393 0
0.358038 0.346029 0
0.438956 0.334356 0
0.511559 0.320424 0
0.579492 0.304311 0
0.62768 0.291112 0.0190127
0.648127 0.2813 0.0529488
0.658366 0.274144 0.0815442
0.670207 0.263371 0.0990158
0.688273 0.249012 0.106889
0.706874 0.228504 0.107393
0.724437 0.199405 0.101244
0.756802 0.157641 0.0838026
0.824201 0.102266 0.0547036
0.916899 0.0345312 0.023621
0.929091 0.0191501 0.0191501
0.929091 0.0191501 0.0191501
0.929091 0.0191501 0.0191501
0.929091 0.0191501 0.0191501
0.929091 0.0191501 0.0191501
0.929091 0.0191501 0.0191501
0.929091 0.0191501 0.0191501
0.929091 0.0191501 0.0191501
0 0.443793 0
0 0.443717 0
0 0.443336 0
0 0.442573 0
0 0.440558 0
0 0.438117 0
0 0.43505 0
0 0.431144 0
0 0.426337 0
0.109834 0.414832 0
0.249332 0.401251 0
0.320562 0.398169 0
0.406851 0.390906 0
0.489281 0.38024 0
0.563821 0.369039 0
0.633448 0.356329 0
0.690517 0.343206 0.00563058
0.725292 0.331197 0.0280003
0.738811 0.320592 0.0605325
0.743465 0.310307 0.0907149
0.747372 0.296178 0.108965
0.752346 0.278462 0.11635
0.756619 0.255604 0.11664
0.761135 0.225986 0.111284
0.775799 0.186374 0.0976425
0.815427 0.127275 0.0680247
0.899184 0.0507362 0.030045
0.929091 0.0191501 0.0191501
0.929091 0.0191501 0.0191501
0.929091 0.0191501 0.0191501
0.929091 0.0191501 0.0191501
0.929091 0.0191501 0.0191501
0.929091 0.0191501 0.0191501
0 0.486473 0
0 0.486412 0
0 0.486091 0
0 0.485359 0
0 0.484154 0
0 0.482902 0
0 0.4804 0
0 0.477165 0
0 0.473182 0
0 0.469093 0
0.163943 0.456428 0
0.273945 0.451698 0
0.364553 0.449973 0
0.459373 0.443839 0
0.539437 0.435126 0
0.614862 0.425528 0
0.682094 0.413993 0
0.741451 0.400519 0
0.786587 0.385962 0.00874342
0.816083 0.372137 0.0321813
0.824933 0.359457 0.0637827
0.819501 0.345586 0.092668
0.809369 0.328557 0.112016
0.800336 0.306981 0.121462
0.794659 0.281575 0.12343
0.784634 0.252171 0.118929
0.775158 0.212009 0.107866
0.79266 0.155718 0.0830091
0.872145 0.0745556 0.0407416
0.929091 0.0191501 0.0191501
0.929091 0.0191501 0.0191501
0.929091 0.0191501 0.0191501
0.929091 0.0191501 0.0191501
0 0.532921 0
0 0.532876 0
0 0.532616 0
0 0.532021 0
0 0.530999 0
0 0.530327 0
0 0.528084 0
0 0.526009 0
0 0.523568 0
0 0.520531 0
0.038819 0.51516 0
0.225666 0.503441 0
0.316091 0.502983 0
0.420569 0.499825 0
0.508995 0.492897 0
0.589456 0.484581 0
0.662104 0.476051 0
0.72607 0.466361 0
0.782788 0.454292 0
0.834867 0.441749 0
0.87451 0.427024 0.0108339
0.894316 0.411536 0.0306706
0.896376 0.396262 0.05626
0.882521 0.378607 0.0837415
0.863554 0.359701 0.106752
0.839078 0.335805 0.120027
0.814694 0.308064 0.124849
0.79443 0.275349 0.123186
0.779995 0.238087 0.115602
0.778347 0.185794 0.0974594
0.838361 0.104601 0.0559396
0.929091 0.0191501 0.0191501
0.929091 0.0191501 0.0191501
0 0.583352 0
0 0.583307 0
0 0.583078 0
0 0.582513 0
0 0.581827 0
0 0.581445 0
0 0.579492 0
0 0.577981 0
0 0.575692 0
0 0.573236 0
0 0.569375 0
0.110506 0.562081 0
0.266987 0.555215 0
0.368948 0.554513 0
0.472557 0.548226 0
0.559411 0.541939 0
0.637705 0.534249 0
0.707088 0.524926 0
0.767147 0.514961 0
0.822095 0.503807 0
0.874846 0.491798 0
0.914244 0.477577 0
0.939025 0.463172 0.00926223
0.951019 0.44773 0.0230716
0.951019 0.430335 0.0421454
0.935103 0.41088 0.0641947
0.905898 0.388724 0.0857557
0.872038 0.364111 0.106172
0.838117 0.334829 0.120317
0.809644 0.300984 0.125017
0.788647 0.262516 0.12105
0.775265 0.213855 0.108507
0.806088 0.137865 0.0736553
0 0.632898 0
0 0.632868 0
0 0.632776 0
0 0.632776 0
0 0.632166 0
0 0.630838 0
0 0.629816 0
0 0.628214 0
0 0.626184 0
0 0.623972 0
0 0.621012 0
0 0.61738 0
0.190097 0.607401 0
0.310018 0.606836 0
0.426856 0.602762 0
0.523583 0.597345 0
0.608606 0.590707 0
0.683375 0.582925 0
0.749111 0.574044 0
0.806241 0.564324 0
0.861494 0.554009 0
0.907546 0.541466 0
0.942977 0.528206 0
0.966964 0.513695 0
0.982925 0.497383 0.00456245
0.989151 0.480674 0.0135348
0.980438 0.462486 0.0230411
0.966537 0.441733 0.0368353
0.944076 0.418524 0.0568551
0.911009 0.392401 0.0822309
0.871 0.363302 0.106706
0.832288 0.328878 0.121935
0.802106 0.289189 0.12459
0 0.6804 0
0 0.680354 0
0 0.68011 0
0 0.679789 0
0 0.679713 0
0 0.678813 0
0 0.677821 0
0 0.676753 0
0 0.674846 0
0 0.67277 0
0 0.670588 0
0 0.667033 0
0.0267185 0.663081 0
0.248905 0.654932 0
0.363882 0.654551 0
0.479637 0.649546 0
0.573358 0.644297 0
0.656321 0.637507 0
0.72723 0.629709 0
0.788174 0.621927 0
0.846281 0.612482 0
0.896406 0.60206 0
0.934829 0.590738 0
0.963409 0.577874 0
0.985107 0.563928 0
1 0.548745 0
1 0.531991 0
0.998596 0.514 0.00192264
0.993698 0.493721 0.00817884
0.985367 0.471977 0.0177615
0.972229 0.449165 0.031342
0.947204 0.421363 0.0542153
0.909636 0.391409 0.0831922
0 0.723934 0
0 0.723888 0
0 0.723812 0
0 0.723796 0
0 0.723964 0
0 0.723003 0
0 0.722271 0
0 0.720928 0
0 0.719463 0
0 0.718029 0
0 0.716014 0
0 0.7131 0
0 0.710704 0
0.115587 0.704097 0
0.29221 0.700893 0
0.424292 0.69839 0
0.530449 0.693553 0
0.622675 0.688197 0
0.700862 0.681651 0
0.767254 0.675608 0
0.827176 0.66775 0
0.882353 0.658885 0
0.924712 0.649668 0
0.956207 0.638682 0
0.979858 0.626566 0
1 0.613611 0
1 0.599924 0
1 0.584237 0
1 0.566583 0
1 0.547662 0
1 0.526345 0
0.996323 0.503319 0.00491341
0.988403 0.478874 0.014374
0 0.765988 0
0 0.765972 0
0 0.765759 0
0 0.765255 0
0 0.764904 0
0 0.764889 0
0 0.76376 0
0 0.763165 0
0 0.761608 0
0 0.760113 0
0 0.75816 0
0 0.756191 0
0 0.753918 0
0 0.7514 0
0.209155 0.744244 0
0.347738 0.742931 0
0.478416 0.739635 0
0.581613 0.734615 0
0.669612 0.729717 0
0.742443 0.723796 0
0.806241 0.71754 0
0.865385 0.710582 0
0.912535 0.702876 0
0.948074 0.693996 0
0.973678 0.684169 0
0.995377 0.673381 0
1 0.661631 0
1 0.649165 0
1 0.634379 0
1 0.619394 0
1 0.601846 0
1 0.582208 0
1 0.560708 0
0 0.805081 0
0 0.805066 0
0 0.805051 0
0 0.805188 0
0 0.805188 0
0 0.80415 0
0 0.803723 0
0 0.80325 0
0 0.802274 0
0 0.800183 0
0 0.799161 0
0 0.797406 0
0 0.794797 0
0 0.792432 0
0 0.789425 0
0.26305 0.783444 0
0.40943 0.781933 0
0.531228 0.778042 0
0.631067 0.773892 0
0.713176 0.768841 0
0.78172 0.763546 0
0.845518 0.757656 0
0.898589 0.750896 0
0.938811 0.743191 0
0.96759 0.735149 0
0.989181 0.726223 0
1 0.716701 0
1 0.706661 0
1 0.694911 0
1 0.682185 0
1 0.667811 0
1 0.65211 0
1 0.634409 0
0 0.845319 0
0 0.845304 0
0 0.845258 0
0 0.845273 0
0 0.845396 0
0 0.844236 0
0 0.844099 0
0 0.843488 0
0 0.842512 0
0 0.840818 0
0 0.839429 0
0 0.8374 0
0 0.835416 0
0 0.833661 0
0 0.830564 0
0.109819 0.825452 0
0.318334 0.823377 0
0.468376 0.820035 0
0.582681 0.816114 0
0.677699 0.812055 0
0.753902 0.807019 0
0.8206 0.80148 0
0.880629 0.795895 0
0.926406 0.789059 0
0.959365 0.782193 0
0.983017 0.774334 0
1 0.766461 0
1 0.757549 0
1 0.748348 0
1 0.738003 0
1 0.726131 0
1 0.713771 0
1 0.699809 0
0 0.882124 0
0 0.882078 0
0 0.881849 0
0 0.881529 0
0 0.881559 0
0 0.881621 0
0 0.880583 0
0 0.880674 0
0 0.879606 0
0 0.87863 0
0 0.877409 0
0 0.875669 0
0 0.874235 0
0 0.872831 0
0 0.870298 0
0 0.867857 0
0.216648 0.862516 0
0.382956 0.861479 0
0.523476 0.858 0
0.633417 0.85417 0
0.721233 0.849836 0
0.793118 0.845212 0
0.859419 0.839139 0
0.911559 0.833387 0
0.949294 0.827192 0
0.975906 0.820371 0
0.997482 0.812787 0
1 0.805463 0
1 0.796826 0
1 0.788052 0
1 0.778256 0
1 0.767285 0
1 0.755749 0
0 0.913527 0
0 0.913466 0
0 0.91313 0
0 0.91284 0
0 0.912932 0
0 0.912886 0
0 0.912612 0
0 0.911955 0
0 0.911009 0
0 0.911055 0
0 0.910033 0
0 0.908675 0
0 0.906935 0
0 0.906126 0
0 0.904112 0
0 0.902144 0
0 0.900191 0
0.275013 0.895811 0
0.449165 0.894682 0
0.577417 0.891478 0
0.680613 0.888182 0
0.762081 0.884382 0
0.832059 0.879683 0
0.89305 0.87538 0
0.937301 0.869932 0
0.967803 0.864485 0
0.990448 0.858396 0
1 0.851713 0
1 0.843763 0
1 0.835859 0
1 0.827161 0
1 0.817349 0
1 0.807126 0
0 0.939361 0
0 0.939361 0
0 0.939361 0
0 0.939361 0
0 0.939361 0
0 0.939101 0
0 0.938384 0
0 0.938369 0
0 0.937346 0
0 0.937392 0
0 0.936416 0
0 0.935439 0
0 0.934462 0
0 0.933486 0
0 0.932525 0
0 0.930526 0
0 0.929641 0
0.0889601 0.926482 0
0.341741 0.924514 0
0.507118 0.922164 0
0.63006 0.919799 0
0.724773 0.916732 0
0.801419 0.913664 0
0.869902 0.90956 0
0.921294 0.905547 0
0.957763 0.901656 0
0.983368 0.896727 0
1 0.891814 0
1 0.885924 0
1 0.878996 0
1 0.872206 0
1 0.864332 0
1 0.856596 0
0 0.959945 0
0 0.95996 0
0 0.959945 0
0 0.959915 0
0 0.95993 0
0 0.95993 0
0 0.959915 0
0 0.959121 0
0 0.958953 0
0 0.958984 0
0 0.957977 0
0 0.95761 0
0 0.95697 0
0 0.956024 0
0 0.955032 0
0 0.954055 0
0 0.95317 0
0 0.95111 0
0.216754 0.947829 0
0.416007 0.94754 0
0.565301 0.945373 0
0.67837 0.943221 0
0.766369 0.941131 0
0.841016 0.938079 0
0.902647 0.935042 0
0.944869 0.932082 0
0.974365 0.928084 0
0.997971 0.924132 0
1 0.920256 0
1 0.915297 0
1 0.909773 0
1 0.903487 0
1 0.897658 0
0 0.977554 0
0 0.977554 0
0 0.977539 0
0 0.977554 0
0 0.977584 0
0 0.976486 0
0 0.976577 0
0 0.976577 0
0 0.976593 0
0 0.975525 0
0 0.975601 0
0 0.974609 0
0 0.974624 0
0 0.973663 0
0 0.97319 0
0 0.972641 0
0 0.971679 0
0 0.970703 0
0 0.9691 0
0.284337 0.967315 0
0.481071 0.966049 0
0.620111 0.963882 0
0.724483 0.961746 0
0.806012 0.96025 0
0.877943 0.957549 0
0.929 0.955581 0
0.964385 0.95259 0
0.988983 0.94963 0
1 0.946654 0
1 0.943603 0
1 0.939788 0
1 0.934829 0
1 0.929976 0
0 0.992264 0
0 0.992264 0
0 0.992279 0
0 0.992248 0
0 0.992248 0
0 0.992248 0
0 0.992248 0
0 0.992248 0
0 0.991196 0
