Postproduction/IWLTBAP - Humble/LUTs by IWLTBAP (CUBE)/UTILITY/DJI D-Log to Rec.709/LUTs by DJI/DJI_Phantom4_DLOG2sRGB_Improv.cube
# DaVinci Resolve Cube (3D LUT).
# Converts DJI Phantom4 DLOG data to sRGB with color tuning
# Gamma as defined by ITU-Rec.1886.
LUT_3D_SIZE 5
0 0 0
0.303227 0.00161746 0.0152285
0.754528 0.00381476 0.0387732
0.929091 0.0191501 0.0191501
0.929091 0.0191501 0.0191501
0 0.259144 0
0.247608 0.239429 0
0.590066 0.108965 0.0581674
0.929091 0.0191501 0.0191501
0.929091 0.0191501 0.0191501
0 0.632898 0
0 0.626184 0
0.608606 0.590707 0
0.982925 0.497383 0.00456245
0.802106 0.289189 0.12459
0 0.939361 0
0 0.937346 0
0 0.929641 0
0.921294 0.905547 0
1 0.856596 0
0 1 0
0 1 0
0 1 0
0.540002 1 0
1 1 0
0 0 0.249454
0.304768 0 0.264057
0.766125 0 0.277684
1 0 0.184909
0.994812 0.00144961 0.0731823
0 0.255695 0.243015
0.232425 0.231586 0.232456
0.736492 0.059678 0.212406
1 0 0.150225
0.974227 0.00706493 0.0421149
0 0.631052 0.0815137
0 0.624521 0.0745861
0.604486 0.588724 0.0410773
0.98262 0.495918 0.00500496
0.801129 0.28751 0.124468
0 0.93933 0
0 0.937407 0
0 0.928817 0
0.920409 0.905653 0
1 0.855467 0
0 1 0
0 1 0
0 1 0
0.535424 1 0
1 1 0
0 0.0174563 0.643915
0.304265 0.00805676 0.645609
0.754421 0 0.638117
1 0 0.614359
1 0 0.59173
0 0.262455 0.634577
0.155795 0.221256 0.627161
0.727398 0.0395972 0.621576
1 0 0.607462
1 0 0.584863
0 0.627527 0.595071
0 0.620768 0.594095
0.585626 0.584131 0.585672
0.983902 0.48986 0.570077
1 0.229877 0.530907
0 0.938079 0.506218
0 0.936141 0.505684
0 0.927275 0.499062
0.915221 0.904326 0.483421
1 0.853284 0.458488
0 1 0.3093
0 1 0.307179
0 1 0.297978
0.511574 1 0.275837
1 1 0.240711
0 0.0402228 0.949722
0.18056 0.00437934 0.947417
0.724849 0 0.941253
1 0 0.93669
1 0 0.930709
0 0.202655 0.941146
0 0.162142 0.940307
0.699321 0 0.939361
1 0 0.934737
1 0 0.929793
0 0.618448 0.931487
0 0.610697 0.931502
0.539925 0.573358 0.928817
0.980209 0.476112 0.924193
1 0.204822 0.91458
0 0.935424 0.909407
0 0.933928 0.908293
0 0.925093 0.907286
0.902251 0.901015 0.902235
1 0.849454 0.896406
0 1 0.863737
0 1 0.863828
0 1 0.861097
0.458671 1 0.854444
1 1 0.844602
0 0 1
0 0 1
0.670146 0 1
0.998459 0 1
1 0 1
0 0.0973068 1
0 0.0658274 1
0.641703 0 1
0.993759 0 1
1 0 1
0 0.60087 1
0 0.594003 1
0.446647 0.554192 1
0.970565 0.452628 1
1 0.15758 1
0 0.930922 1
0 0.930007 1
0 0.92018 1
0.87747 0.895384 1
1 0.841459 1
0 1 1
0 1 1
0 1 1
0.334997 1 1
1 1 1
