Postproduction/IWLTBAP - Humble/LUTs by IWLTBAP (CUBE)/UTILITY/DJI D-Log to Rec.709/LUTs by DJI/DJI_Phantom4_DLOG2sRGB_Improv.cube
# DaVinci Resolve Cube (3D LUT).
# Converts DJI Phantom4 DLOG data to sRGB with color tuning
# Gamma as defined by ITU-Rec.1886.
LUT_3D_SIZE 9
0 0 0
0.0626535 0.00129702 0.00129702
0.303227 0.00161746 0.0152285
0.565713 0.0183261 0.0704967
0.754528 0.00381476 0.0387732
0.86186 0.0177615 0.0177615
0.929091 0.0191501 0.0191501
0.929091 0.0191501 0.0191501
0.929091 0.0191501 0.0191501
0 0.0421607 0
0.0404364 0.0378424 0
0.266636 0.0448005 0.0328527
0.550332 0.0547494 0.0748455
0.742199 0.0059205 0.0304112
0.86096 0.0177462 0.0177462
0.929091 0.0191501 0.0191501
0.929091 0.0191501 0.0191501
0.929091 0.0191501 0.0191501
0 0.259144 0
0 0.260182 0
0.247608 0.239429 0
0.465965 0.203967 0.0337682
0.590066 0.108965 0.0581674
0.853727 0.0175937 0.0175937
0.929091 0.0191501 0.0191501
0.929091 0.0191501 0.0191501
0.929091 0.0191501 0.0191501
0 0.443793 0
0 0.440558 0
0 0.426337 0
0.406851 0.390906 0
0.690517 0.343206 0.00563058
0.747372 0.296178 0.108965
0.775799 0.186374 0.0976425
0.929091 0.0191501 0.0191501
0.929091 0.0191501 0.0191501
0 0.632898 0
0 0.632166 0
0 0.626184 0
0.190097 0.607401 0
0.608606 0.590707 0
0.861494 0.554009 0
0.982925 0.497383 0.00456245
0.944076 0.418524 0.0568551
0.802106 0.289189 0.12459
0 0.805081 0
0 0.805188 0
0 0.802274 0
0 0.794797 0
0.40943 0.781933 0
0.78172 0.763546 0
0.96759 0.735149 0
1 0.694911 0
1 0.634409 0
0 0.939361 0
0 0.939361 0
0 0.937346 0
0 0.934462 0
0 0.929641 0
0.63006 0.919799 0
0.921294 0.905547 0
1 0.885924 0
1 0.856596 0
0 1 0
0 1 0
0 1 0
0 1 0
0 1 0
0.214038 0.997772 0
0.807263 0.993042 0
0.994705 0.984863 0
1 0.97499 0
0 1 0
0 1 0
0 1 0
0 1 0
0 1 0
0 1 0
0.540002 1 0
0.940459 1 0
1 1 0
0 0 0.0427405
0.064622 0 0.0393835
0.30869 0 0.0556954
0.565545 0.0175326 0.11014
0.766598 0.000350958 0.0662699
0.861891 0.0177615 0.0177615
0.929091 0.0191501 0.0191501
0.929091 0.0191501 0.0191501
0.929091 0.0191501 0.0191501
0 0.0413825 0.0363775
0.0378271 0.0375982 0.0378271
0.307698 0.0331579 0.0598001
0.561303 0.0509499 0.109056
0.758541 0.00134279 0.0536965
0.86099 0.0177462 0.0177462
0.929091 0.0191501 0.0191501
0.929091 0.0191501 0.0191501
0.929091 0.0191501 0.0191501
0 0.259419 0.0187839
0 0.260441 0.0214694
0.246555 0.239139 0.00885023
0.458762 0.204532 0.0501106
0.590768 0.108034 0.0576944
0.853697 0.0175937 0.0175937
0.929091 0.0191501 0.0191501
0.929091 0.0191501 0.0191501
0.929091 0.0191501 0.0191501
0 0.443366 0.00289921
0 0.43978 0.000488289
0 0.426047 0
0.405829 0.390478 0
0.689738 0.342885 0.00560006
0.747051 0.295888 0.10901
0.775906 0.185809 0.0974136
0.929091 0.0191501 0.0191501
0.929091 0.0191501 0.0191501
0 0.632776 0
0 0.631708 0
0 0.62591 0
0.187839 0.607309 0
0.608423 0.5906 0
0.861234 0.553857 0
0.982834 0.497047 0.004654
0.943435 0.41796 0.0574044
0.801938 0.288914 0.124575
0 0.805035 0
0 0.805097 0
0 0.802197 0
0 0.794583 0
0.408759 0.781994 0
0.781476 0.763333 0
0.967132 0.735119 0
1 0.694911 0
1 0.634287 0
0 0.939361 0
0 0.939391 0
0 0.937377 0
0 0.934478 0
0 0.92961 0
0.629023 0.919799 0
0.921416 0.905577 0
1 0.885954 0
1 0.856565 0
0 1 0
0 1 0
0 1 0
0 1 0
0 1 0
0.212406 0.997726 0
0.80679 0.993072 0
0.994705 0.984863 0
1 0.97496 0
0 1 0
0 1 0
0 1 0
0 1 0
0 1 0
0 1 0
0.538979 1 0
0.940581 1 0
1 1 0
0 0 0.249454
0.0494087 0 0.249943
0.304768 0 0.264057
0.562631 0.0116426 0.310063
0.766125 0 0.277684
0.928161 0 0.218967
1 0 0.184909
1 0 0.135698
0.994812 0.00144961 0.0731823
0 0.0370947 0.24741
0.0247349 0.0364233 0.251926
0.304997 0.0294347 0.270268
0.557794 0.0447242 0.312016
0.76141 0 0.268727
0.926101 0 0.214542
1 0 0.179232
1 0 0.129519
0.992889 0.00196841 0.0684672
0 0.255695 0.243015
0 0.256153 0.24567
0.232425 0.231586 0.232456
0.492958 0.183505 0.229587
0.736492 0.059678 0.212406
0.918868 0 0.190173
1 0 0.150225
0.999954 1.5259e-05 0.0992752
0.974227 0.00706493 0.0421149
0 0.437613 0.216236
0 0.434775 0.213138
0 0.42034 0.200092
0.395743 0.385657 0.170962
0.630869 0.350195 0.195911
0.723064 0.2981 0.187823
0.799405 0.174105 0.106004
0.971054 0.00791943 0.0392309
0.929091 0.0191501 0.0191501
0 0.631052 0.0815137
0 0.63035 0.0803845
0 0.624521 0.0745861
0.174914 0.606821 0.0445106
0.604486 0.588724 0.0410773
0.86041 0.55259 0.0119783
0.98262 0.495918 0.00500496
0.94226 0.416922 0.0583658
0.801129 0.28751 0.124468
0 0.80528 0
0 0.804166 0
0 0.801251 0
0 0.794446 0
0.403708 0.782025 0
0.779614 0.762844 0
0.966522 0.73492 0
1 0.694438 0
1 0.634195 0
0 0.93933 0
0 0.939193 0
0 0.937407 0
0 0.934462 0
0 0.928817 0
0.626062 0.91989 0
0.920409 0.905653 0
1 0.885725 0
1 0.855467 0
0 1 0
0 1 0
0 1 0
0 1 0
0 1 0
0.203616 0.997833 0
0.805798 0.992493 0
0.99469 0.984863 0
1 0.975082 0
0 1 0
0 1 0
0 1 0
0 1 0
0 1 0
0 1 0
0.535424 1 0
0.940398 1 0
1 1 0
0 0.00457771 0.433799
0.0320897 0.00521859 0.435462
0.306004 0.000686656 0.439902
0.558923 0.0169223 0.464164
0.762707 0 0.438407
0.927337 0 0.407218
1 0 0.390494
1 0 0.370443
1 0 0.34873
0 0.049485 0.434195
0.0171206 0.0505531 0.437064
0.308339 0.0396887 0.444541
0.552651 0.0463569 0.463004
0.758251 0 0.43447
0.92607 0 0.405112
1 0 0.388678
1 0 0.368475
1 0 0.346471
0 0.263737 0.425666
0 0.262577 0.426276
0.213306 0.231922 0.415564
0.48484 0.176516 0.410941
0.734005 0.0548409 0.403494
0.918212 0 0.394141
1 0 0.376761
1 0 0.357961
1 0 0.336172
0 0.43537 0.409186
0 0.432898 0.407248
0 0.418494 0.40032
0.38558 0.383749 0.385611
0.686244 0.336355 0.371054
0.892989 0.255894 0.34313
0.997406 0.119097 0.31136
1 0 0.334249
1 0 0.312444
0 0.630167 0.355642
0 0.629511 0.355306
0 0.623636 0.353124
0.143175 0.606073 0.338018
0.597452 0.586877 0.340063
0.83122 0.554849 0.354406
0.86154 0.520989 0.39649
0.840894 0.441093 0.368368
0.958038 0.24416 0.250248
0 0.803388 0.29575
0 0.803113 0.295659
0 0.799786 0.294499
0 0.793072 0.289998
0.387823 0.780056 0.2822
0.775525 0.761028 0.276265
0.965393 0.732921 0.262364
1 0.691844 0.247761
1 0.631449 0.225971
0 0.938262 0.209155
0 0.938277 0.207935
0 0.936217 0.204349
0 0.933364 0.19707
0 0.928496 0.184009
0.618433 0.918807 0.160769
0.918349 0.904585 0.126879
1 0.884871 0.0805371
1 0.854704 0.0245518
0 1 0
0 1 0
0 1 0
0 1 0
0 1 0
0.178027 0.997864 0
0.802014 0.992035 0
0.993729 0.984878 0
1 0.975052 0
0 1 0
0 1 0
0 1 0
0 1 0
0 1 0
0 1 0
0.527611 1 0
0.938582 1 0
1 1 0
0 0.0174563 0.643915
0.0121157 0.0178988 0.644877
0.304265 0.00805676 0.645609
0.54519 0.00813306 0.654536
0.754421 0 0.638117
0.92459 0 0.623301
1 0 0.614359
1 0 0.603754
1 0 0.59173
0 0.05832 0.644739
0.0047303 0.0596323 0.646769
0.303471 0.0461891 0.647562
0.537408 0.0319982 0.652674
0.750225 0 0.635401
0.923659 0 0.621836
1 0 0.613352
1 0 0.603525
1 0 0.591257
0 0.262455 0.634577
0 0.259174 0.634333
0.155795 0.221256 0.627161
0.467323 0.154788 0.623713
0.727398 0.0395972 0.621576
0.915496 0 0.615869
1 0 0.607462
1 0 0.596979
1 0 0.584863
0 0.427512 0.621622
0 0.425223 0.621576
0 0.410224 0.617716
0.361517 0.376272 0.610529
0.678569 0.329458 0.603357
0.889632 0.249882 0.589441
0.997543 0.109789 0.576654
1 0 0.584115
1 0 0.57145
0 0.627527 0.595071
0 0.626795 0.594675
0 0.620768 0.594095
0.0857099 0.605035 0.588525
0.585626 0.584131 0.585672
0.849714 0.547585 0.580636
0.983902 0.48986 0.570077
1 0.39736 0.55906
1 0.229877 0.530907
0 0.802899 0.560647
0 0.801877 0.56022
0 0.799023 0.55848
0 0.79144 0.556512
0.368017 0.77879 0.550744
0.769467 0.759884 0.544976
0.953277 0.7337 0.548455
0.944289 0.702861 0.574701
0.903044 0.653223 0.574487
0 0.938079 0.506218
0 0.937499 0.506065
0 0.936141 0.505684
0 0.933181 0.502419
0 0.927275 0.499062
0.608438 0.917586 0.491341
0.915221 0.904326 0.483421
1 0.883711 0.471809
1 0.853284 0.458488
0 1 0.429572
0 1 0.42945
0 1 0.427268
0 1 0.424521
0 1 0.418738
0.125704 0.997711 0.401068
0.795926 0.991806 0.397955
0.991577 0.983673 0.381659
1 0.974853 0.362966
0 1 0.3093
0 1 0.309133
0 1 0.307179
0 1 0.30428
0 1 0.297978
0 1 0.290028
0.511574 1 0.275837
0.9355 1 0.261921
1 1 0.240711
0 0.0334173 0.818998
0 0.033402 0.81886
0.28275 0.0146944 0.818463
0.51989 0 0.817731
0.742763 0 0.80856
0.920043 0 0.801297
1 0 0.796094
1 0 0.791043
1 0 0.784329
0 0.0716411 0.819715
0 0.0721904 0.820554
0.26891 0.0480354 0.818189
0.509255 0.00218204 0.816129
0.738018 0 0.806455
0.919127 0 0.800214
1 0 0.795621
1 0 0.790173
1 0 0.783459
0 0.243885 0.80734
0 0.237598 0.806394
0.0550546 0.199893 0.803372
0.438209 0.127352 0.8009
0.716091 0.0193637 0.800565
0.910216 0 0.797284
1 0 0.792172
1 0 0.787381
1 0 0.780392
0 0.415686 0.799634
0 0.412924 0.798779
0 0.398184 0.797391
0.327016 0.36553 0.793591
0.663874 0.320424 0.789807
0.883177 0.239094 0.782193
0.996078 0.0945907 0.777188
1 0 0.780484
1 0 0.774258
0 0.623529 0.785931
0 0.622522 0.785992
0 0.616678 0.784939
0 0.604257 0.783978
0.566995 0.580179 0.78024
0.842618 0.542351 0.776699
0.982864 0.483757 0.77203
1 0.38938 0.766155
1 0.21976 0.752117
0 0.799802 0.767346
0 0.799649 0.767346
0 0.796887 0.766247
0 0.789349 0.765423
0.336202 0.775799 0.762158
0.759625 0.757504 0.759594
0.959014 0.729458 0.754635
1 0.68809 0.749645
1 0.626596 0.743008
0 0.93698 0.740017
0 0.937026 0.740032
0 0.935012 0.740139
0 0.932067 0.738155
0 0.926162 0.736233
0.591653 0.916472 0.73257
0.910201 0.902693 0.728054
1 0.88249 0.722286
0.996902 0.852705 0.720348
0 1 0.703273
0 1 0.70312
0 1 0.702388
0 1 0.700938
0 1 0.698085
0.0405127 0.997665 0.693492
0.786587 0.991272 0.689403
0.989441 0.983536 0.682231
1 0.973724 0.674388
0 1 0.650828
0 1 0.650675
0 1 0.650248
0 1 0.648463
0 1 0.645212
0 1 0.641062
0.490059 1 0.632822
0.93138 1 0.62417
1 1 0.61323
0 0.0402228 0.949722
0 0.0377661 0.949706
0.18056 0.00437934 0.947417
0.478721 0 0.944762
0.724849 0 0.941253
0.913329 0 0.938842
1 0 0.93669
1 0 0.9337
1 0 0.930709
0 0.0695659 0.948775
0 0.064683 0.948516
0.147036 0.0285954 0.947402
0.468482 0 0.944854
0.720043 0 0.941299
0.911345 0 0.938842
1 0 0.936782
1 0 0.93373
1 0 0.9308
0 0.202655 0.941146
0 0.196536 0.940597
0 0.162142 0.940307
0.394675 0.0918593 0.939147
0.699321 0 0.939361
0.902541 0 0.936904
1 0 0.934737
1 0 0.93283
1 0 0.929793
0 0.399405 0.937758
0 0.397421 0.937346
0 0.385077 0.937407
0.27779 0.348959 0.935103
0.642481 0.306493 0.933486
0.873381 0.223255 0.929305
0.993408 0.07187 0.928588
1 0 0.929427
1 0 0.926116
0 0.618448 0.931487
0 0.616571 0.931487
0 0.610697 0.931502
0 0.597848 0.930602
0.539925 0.573358 0.928817
0.831113 0.535409 0.92723
0.980209 0.476112 0.924193
1 0.377661 0.921538
1 0.204822 0.91458
0 0.796872 0.922805
0 0.796902 0.922835
0 0.793347 0.922103
0 0.786007 0.92192
0.288243 0.771893 0.919493
0.744686 0.754086 0.9178
0.955795 0.726055 0.915557
1 0.683879 0.912703
1 0.621241 0.909926
0 0.935424 0.909407
0 0.93492 0.909377
0 0.933928 0.908293
0 0.930816 0.908125
0 0.925093 0.907286
0.566552 0.915373 0.904616
0.902251 0.901015 0.902235
1 0.879667 0.89929
1 0.849454 0.896406
0 1 0.890303
0 1 0.890349
0 1 0.889723
0 1 0.889418
0 1 0.887953
0 0.996567 0.886015
0.773037 0.9906 0.882597
0.986389 0.982452 0.879057
1 0.972656 0.875227
0 1 0.863737
0 1 0.863737
0 1 0.863828
0 1 0.862837
0 1 0.861097
0 1 0.858824
0.458671 1 0.854444
0.925368 1 0.849821
1 1 0.844602
0 4.57771e-05 1
0 0 1
0.0167544 0 1
0.421027 0 1
0.700542 0 1
0.903532 0 1
1 0 1
1 0 1
1 0 1
0 0.0204318 1
0 0.0137484 1
0 0 1
0.408301 0 1
0.69662 0 1
0.901595 0 1
1 0 1
1 0 1
1 0 1
0 0.150927 1
0 0.145373 1
0 0.115541 1
0.334264 0.047837 1
0.675044 0 1
0.891783 0 1
0.998581 0 1
1 0 1
1 0 1
0 0.383124 1
0 0.380545 1
0 0.368261 1
0.212497 0.325567 1
0.611139 0.287755 1
0.858701 0.20325 1
0.990677 0.043946 1
1 0 1
1 0 1
0 0.610651 1
0 0.608713 1
0 0.603372 1
0 0.589303 1
0.500603 0.564889 1
0.814267 0.526207 1
0.976318 0.465736 1
1 0.362524 1
1 0.184298 0.996979
0 0.792737 1
0 0.79263 1
0 0.788907 1
0 0.781979 1
0.231403 0.766018 0.998886
0.725093 0.74966 0.998535
0.950011 0.720928 0.997177
1 0.677943 0.995361
1 0.613977 0.994476
0 0.933944 0.994751
0 0.93283 0.994675
0 0.931914 0.993866
0 0.929076 0.993942
0 0.923095 0.993973
0.530419 0.912459 0.992264
0.89134 0.898299 0.990692
1 0.876829 0.989624
1 0.845869 0.988754
0 1 0.987793
0 1 0.987716
0 1 0.986664
0 1 0.986709
0 1 0.986725
0 0.995575 0.985763
0.755337 0.989593 0.983703
0.982406 0.98143 0.982406
1 0.971649 0.98143
0 1 0.978836
0 1 0.978836
0 1 0.978851
0 1 0.977813
0 1 0.977859
0 1 0.976867
0.407919 1 0.97528
0.916365 1 0.973556
1 1 0.97145
0 0 1
0 0 1
0 0 1
0.337011 0 1
0.670146 0 1
0.889876 0 1
0.998459 0 1
1 0 1
1 0 1
0 0 1
0 0 1
0 0 1
0.325948 0 1
0.665309 0 1
0.887922 0 1
0.99765 0 1
1 0 1
1 0 1
0 0.0973068 1
0 0.0903944 1
0 0.0658274 1
0.268971 0 1
0.641703 0 1
0.877089 0 1
0.993759 0 1
1 0 1
1 0 1
0 0.362631 1
0 0.360433 1
0 0.347539 1
0.0335851 0.313863 1
0.568048 0.263249 1
0.839124 0.17702 1
0.98587 0.00726329 1
1 0 1
1 0 1
0 0.60087 1
0 0.599863 1
0 0.594003 1
0 0.579629 1
0.446647 0.554192 1
0.793683 0.514717 1
0.970565 0.452628 1
1 0.342443 1
1 0.15758 1
0 0.78793 1
0 0.786847 1
0 0.784024 1
0 0.777218 1
0.0721599 0.762432 1
0.697597 0.744228 1
0.942245 0.714351 1
1 0.671016 1
1 0.605509 1
0 0.930922 1
0 0.930938 1
0 0.930007 1
0 0.926055 1
0 0.92018 1
0.480476 0.910246 1
0.87747 0.895384 1
1 0.873732 1
1 0.841459 1
0 1 1
0 1 1
0 1 1
0 1 1
0 0.999283 1
0 0.994614 1
0.731746 0.988617 1
0.977493 0.980438 1
1 0.970626 1
0 1 1
0 1 1
0 1 1
0 1 1
0 1 1
0 1 1
0.334997 1 1
0.904585 1 1
1 1 1
