Postproduction/IWLTBAP - Humble/LUTs by IWLTBAP (CUBE)/UTILITY/DJI D-Log to Rec.709/LUTs by DJI/DJI_Phantom4_DLOG2sRGB.cube
# DaVinci Resolve Cube (3D LUT).
# Converts DJI Phantom4 DLOG data to sRGB
# Gamma as defined by ITU-Rec.1886.
LUT_3D_SIZE 33
0 0 0
0.00291447 0 0
0.0177157 0 0
0.0499733 0 0
0.0885939 0 0
0.128206 0 0
0.168368 0 0
0.209049 0 0
0.250233 0 0
0.291875 0 0
0.333913 0 0
0.376318 0 0
0.419059 0 0
0.462119 0 0
0.50547 0 0
0.549111 0 0
0.593011 0 0
0.637156 0 0
0.681529 0 0
0.726131 0 0
0.770962 0 0
0.815991 0 0
0.861219 0 0
0.906645 0 0
0.95227 0 0
0.998062 0 0
1 0 0
1 0 0
1 0 0
1 0 0
1 0 0
1 0 0
1 0 0
0 0.00192264 0
0.00178531 0.00167849 0
0.0142061 0.00109865 0.000396735
0.0476997 0 0
0.0872053 0 0
0.127443 0 0
0.167971 0 0
0.208743 0 0
0.249989 0 0
0.291661 0 0
0.33373 0 0
0.376165 0 0
0.418921 0 0
0.461997 0 0
0.505364 0 0
0.549004 0 0
0.59292 0 0
0.637064 0 0
0.681453 0 0
0.72607 0 0
0.770901 0 0
0.81593 0 0
0.861173 0 0
0.9066 0 0
0.952209 0 0
0.998016 0 0
1 0 0
1 0 0
1 0 0
1 0 0
1 0 0
1 0 0
1 0 0
0 0.0117037 0
0 0.0114443 0
0.0108492 0.010193 0
0.034226 0.00979629 0.00352483
0.0708934 0.00639353 0.00218204
0.11783 0 0
0.163333 0 0
0.20679 0 0
0.248707 0 0
0.290608 0 0
0.33283 0 0
0.375387 0 0
0.418235 0 0
0.461387 0 0
0.504814 0 0
0.548516 0 0
0.592462 0 0
0.636652 0 0
0.681071 0 0
0.725704 0 0
0.770565 0 0
0.81561 0 0
0.860868 0 0
0.906325 0 0
0.951949 0 0
0.997757 0 0
1 0 0
1 0 0
1 0 0
1 0 0
1 0 0
1 0 0
1 0 0
0 0.0335851 0
0 0.0333257 0
0 0.0320745 0
0.0311284 0.0292515 0
0.0686809 0.0262608 0.0021973
0.0923781 0.0242161 0.00842298
0.128664 0.0164187 0.00521859
0.183398 0.000610361 0
0.238727 0 0
0.287129 0 0
0.330724 0 0
0.373587 0 0
0.416678 0 0
0.460014 0 0
0.503578 0 0
0.547387 0 0
0.59144 0 0
0.635706 0 0
0.680201 0 0
0.72491 0 0
0.769802 0 0
0.814908 0 0
0.860212 0 0
0.905699 0 0
0.95137 0 0
0.997208 0 0
1 0 0
1 0 0
1 0 0
1 0 0
1 0 0
1 0 0
1 0 0
0 0.0656901 0
0 0.065507 0
0 0.0646067 0
0.00839246 0.0625467 0
0.0619059 0.0588998 0
0.110338 0.053254 0
0.134264 0.0492256 0.0052491
0.15407 0.0429541 0.0120089
0.184726 0.0308232 0.00856031
0.24004 0.00868238 0
0.309499 0 0
0.367132 0 0
0.413825 0 0
0.457557 0 0
0.501411 0 0
0.545449 0 0
0.58967 0 0
0.634089 0 0
0.678706 0 0
0.723522 0 0
0.768521 0 0
0.813718 0 0
0.859083 0 0
0.904631 0 0
0.950362 0 0
0.996246 0 0
1 0 0
1 0 0
1 0 0
1 0 0
1 0 0
1 0 0
1 0 0
0 0.0987564 0
0 0.0986343 0
0 0.0979782 0
0 0.0965133 0
0.0319066 0.0939651 0
0.0938888 0.090074 0
0.144015 0.0845197 0
0.186252 0.0775921 0
0.204303 0.0728313 0.00309758
0.220218 0.0650645 0.0124819
0.2439 0.0488289 0.010132
0.289265 0.022034 0
0.369802 0 0
0.444053 0 0
0.497658 0 0
0.542397 0 0
0.586954 0 0
0.631617 0 0
0.676448 0 0
0.721431 0 0
0.766583 0 0
0.811902 0 0
0.857389 0 0
0.903029 0 0
0.948852 0 0
0.994827 0 0
1 0 0
1 0 0
1 0 0
1 0 0
1 0 0
1 0 0
1 0 0
0 0.132403 0
0 0.132311 0
0 0.131807 0
0 0.130694 0
0 0.128756 0
0.065568 0.125826 0
0.126406 0.121767 0
0.177722 0.116289 0
0.225498 0.109117 0
0.261662 0.101564 0
0.277241 0.0956893 0
0.289921 0.0869612 0.00787366
0.308782 0.0699168 0.00788891
0.339361 0.0390326 0
0.415381 0 0
0.512688 0 0
0.58053 0 0
0.62797 0 0
0.673198 0 0
0.718471 0 0
0.763851 0 0
0.809354 0 0
0.855009 0 0
0.900801 0 0
0.946746 0 0
0.992828 0 0
1 0 0
1 0 0
1 0 0
1 0 0
1 0 0
1 0 0
1 0 0
0 0.166552 0
0 0.166476 0
0 0.166079 0
0 0.165179 0
0 0.163638 0
0.0101625 0.161318 0
0.0991836 0.158114 0
0.159396 0.153903 0
0.211704 0.148486 0
0.2607 0.141604 0
0.306386 0.133196 0
0.338689 0.124971 0
0.353536 0.1178 0
0.363409 0.108232 0
0.377768 0.0912184 0.000289921
0.397147 0.0584726 0
0.451972 0.00665293 0
0.56524 0 0
0.658396 0 0
0.714153 0 0
0.760082 0 0
0.80592 0 0
0.851835 0 0
0.897841 0 0
0.943954 0 0
0.990204 0 0
1 0 0
1 0 0
1 0 0
1 0 0
1 0 0
1 0 0
1 0 0
0 0.201129 0
0 0.201068 0
0 0.200732 0
0 0.2 0
0 0.198734 0
0 0.196826 0
0.050721 0.194171 0
0.132815 0.190753 0
0.192767 0.186419 0
0.245945 0.181033 0
0.295933 0.17438 0
0.344182 0.166232 0
0.387518 0.156924 0
0.418158 0.147784 0
0.433463 0.139208 0
0.441321 0.12874 0
0.451209 0.111833 0
0.464118 0.0805219 0
0.493477 0.0250095 0
0.596597 0 0
0.724681 0 0
0.799908 0 0
0.847517 0 0
0.893935 0 0
0.940337 0 0
0.986816 0 0
1 0 0
1 0 0
1 0 0
1 0 0
1 0 0
1 0 0
1 0 0
0 0.236103 0
0 0.236042 0
0 0.235767 0
0 0.235142 0
0 0.234073 0
0 0.232456 0
0 0.230228 0
0.0909438 0.227314 0
0.166613 0.223713 0
0.226505 0.219303 0
0.280415 0.213916 0
0.331289 0.207431 0
0.380407 0.199649 0
0.428214 0.190387 0
0.46981 0.18024 0
0.500313 0.170001 0
0.516991 0.15996 0
0.524269 0.148409 0
0.530022 0.131548 0
0.537118 0.102586 0
0.548058 0.0446021 0
0.616617 0 0
0.769055 0 0
0.879377 0 0
0.935393 0 0
0.982422 0 0
1 0 0
1 0 0
1 0 0
1 0 0
1 0 0
1 0 0
1 0 0
0 0.271412 0
0 0.271366 0
0 0.271138 0
0 0.270588 0
0 0.269673 0
0 0.268284 0
0 0.266361 0
0.0012665 0.263828 0
0.128374 0.260716 0
0.20061 0.256977 0
0.260563 0.252476 0
0.315129 0.247105 0
0.366796 0.240726 0
0.416709 0.233234 0
0.465492 0.22443 0
0.512749 0.214206 0
0.553628 0.203159 0
0.585031 0.19173 0
0.604044 0.180117 0
0.612238 0.167269 0
0.614832 0.150256 0
0.616541 0.123033 0
0.615793 0.0660868 0
0.645685 0 0
0.784604 0 0
0.943877 0 0
1 0 0
1 0 0
1 0 0
1 0 0
1 0 0
1 0 0
1 0 0
0 0.307057 0
0 0.307027 0
0 0.306813 0
0 0.30634 0
0 0.305531 0
0 0.304311 0
0 0.302632 0
0 0.300435 0
0.0605173 0.297642 0
0.164721 0.294377 0
0.234852 0.290517 0
0.294896 0.285939 0
0.350072 0.280552 0
0.402441 0.274281 0
0.453086 0.267002 0
0.502556 0.258564 0
0.551263 0.248814 0
0.598138 0.237705 0
0.639094 0.225727 0
0.671824 0.213077 0
0.694087 0.199847 0
0.704829 0.185458 0
0.706661 0.167773 0
0.703304 0.141878 0
0.69366 0.0908827 0
0.694179 0 0
0.783688 0 0
0.982162 0 0
1 0 0
1 0 0
1 0 0
1 0 0
1 0 0
0 0.343008 0
0 0.342977 0
0 0.342779 0
0 0.342367 0
0 0.34165 0
0 0.340566 0
0 0.339086 0
0 0.337133 0
0 0.334661 0
0.109102 0.33167 0
0.20058 0.328267 0
0.269322 0.324285 0
0.329503 0.319646 0
0.385214 0.314275 0
0.438239 0.30808 0
0.489555 0.300954 0
0.539681 0.292821 0
0.588998 0.283528 0
0.63772 0.272892 0
0.68452 0.260929 0
0.726085 0.247974 0
0.760739 0.234104 0
0.786526 0.219272 0
0.801068 0.203189 0
0.804669 0.184344 0
0.798749 0.158999 0
0.783169 0.115145 0
0.761028 0.0198978 0
0.795468 0 0
0.979751 0 0
1 0 0
1 0 0
1 0 0
0 0.379248 0
0 0.379202 0
0 0.379034 0
0 0.378668 0
0 0.378012 0
0 0.37705 0
0 0.375708 0
0 0.373968 0
0 0.371756 0
0 0.369024 0
0.151415 0.365896 0
0.23624 0.362371 0
0.304006 0.358297 0
0.36434 0.353613 0
0.420554 0.348226 0
0.474189 0.342077 0
0.526116 0.335103 0
0.576852 0.327199 0
0.626749 0.318273 0
0.67602 0.308156 0
0.724849 0.296696 0
0.771862 0.283909 0
0.814404 0.269993 0
0.851179 0.254932 0
0.880613 0.238575 0
0.89984 0.220722 0
0.907485 0.200336 0
0.902495 0.17464 0
0.882582 0.135134 0
0.840116 0.0428321 0
0.834043 0 0
0.954742 0 0
1 0 0
0 0.415732 0
0 0.415702 0
0 0.415549 0
0 0.415213 0
0 0.414633 0
0 0.413748 0
0 0.412543 0
0 0.410956 0
0 0.408957 0
0 0.406485 0
0.0606088 0.40354 0
0.191165 0.400336 0
0.271824 0.396689 0
0.338918 0.392523 0
0.39942 0.387778 0
0.456077 0.382391 0
0.510277 0.376303 0
0.562783 0.369436 0
0.614099 0.36173 0
0.664546 0.353094 0
0.714336 0.343389 0
0.763668 0.332525 0
0.812619 0.320302 0
0.86009 0.306706 0
0.903822 0.291859 0
0.942763 0.275654 0
0.975357 0.257939 0
0.999939 0.238315 0
1 0.216159 0
1 0.189364 0
0.993194 0.151873 0
0.935699 0.0684825 0
0.897658 0 0
0 0.452491 0
0 0.452461 0
0 0.452323 0
0 0.452003 0
0 0.451469 0
0 0.450675 0
0 0.449561 0
0 0.448112 0
0 0.446296 0
0 0.444053 0
0 0.441352 0
0.120836 0.438254 0
0.229618 0.434943 0
0.307454 0.431205 0
0.374029 0.426963 0
0.434699 0.422156 0
0.491783 0.41677 0
0.546487 0.410712 0
0.599542 0.403952 0
0.651392 0.396399 0
0.702373 0.388006 0
0.752667 0.378653 0
0.802472 0.368261 0
0.851881 0.356664 0
0.900984 0.34374 0
0.949065 0.329351 0
0.994171 0.313588 0
1 0.296345 0
1 0.277348 0
1 0.256199 0
1 0.232197 0
1 0.203861 0
1 0.166659 0
0 0.489479 0
0 0.489448 0
0 0.489326 0
0 0.489036 0
0 0.488548 0
0 0.4878 0
0 0.486793 0
0 0.485451 0
0 0.483772 0
0 0.481712 0
0 0.47924 0
0 0.476326 0
0.169177 0.473136 0
0.267338 0.469734 0
0.34313 0.465888 0
0.409339 0.461585 0
0.470192 0.456733 0
0.527657 0.451331 0
0.582849 0.445304 0
0.636408 0.438621 0
0.688777 0.43122 0
0.740246 0.423026 0
0.791028 0.413977 0
0.841291 0.403967 0
0.891127 0.392889 0
0.940658 0.380636 0
0.989929 0.367025 0
1 0.351904 0
1 0.335302 0
1 0.317067 0
1 0.29691 0
1 0.274403 0
1 0.248707 0
0 0.526711 0
0 0.52668 0
0 0.526558 0
0 0.526299 0
0 0.525841 0
0 0.525154 0
0 0.524208 0
0 0.522972 0
0 0.521416 0
0 0.519524 0
0 0.517235 0
0 0.514534 0
0.0477913 0.511391 0
0.212985 0.508186 0
0.304631 0.504677 0
0.378897 0.500755 0
0.444831 0.496376 0
0.505852 0.491493 0
0.563699 0.486076 0
0.619333 0.480095 0
0.673381 0.473472 0
0.726223 0.466178 0
0.778164 0.458167 0
0.829419 0.449348 0
0.88011 0.439673 0
0.930388 0.429038 0
0.980316 0.417334 0
1 0.404425 0
1 0.390188 0
1 0.374395 0
1 0.357 0
1 0.33785 0
1 0.31667 0
0 0.564157 0
0 0.564126 0
0 0.564019 0
0 0.563775 0
0 0.563348 0
0 0.562707 0
0 0.561822 0
0 0.560678 0
0 0.559228 0
0 0.557458 0
0 0.555337 0
0 0.552834 0
0 0.54992 0
0.126207 0.546654 0
0.254444 0.543389 0
0.34168 0.539803 0
0.414771 0.53579 0
0.480507 0.53135 0
0.541711 0.526436 0
0.599893 0.521004 0
0.655955 0.515038 0
0.710445 0.508476 0
0.76376 0.501289 0
0.816144 0.493431 0
0.867842 0.484825 0
0.918959 0.475425 0
0.969635 0.465141 0
1 0.45391 0
1 0.441596 0
1 0.428092 0
1 0.413245 0
1 0.396841 0
1 0.378729 0
0 0.601816 0
0 0.601801 0
0 0.601694 0
0 0.60145 0
0 0.601053 0
0 0.600458 0
0 0.599634 0
0 0.598566 0
0 0.597208 0
0 0.595544 0
0 0.593561 0
0 0.591226 0
0 0.58851 0
0 0.585382 0
0.18204 0.582101 0
0.29456 0.578744 0
0.378592 0.575067 0
0.450767 0.570977 0
0.51635 0.566491 0
0.577737 0.561532 0
0.63624 0.5561 0
0.692699 0.550149 0
0.747616 0.543633 0
0.801358 0.536538 0
0.854185 0.528801 0
0.906294 0.520378 0
0.957839 0.511223 0
1 0.501259 0
1 0.49041 0
1 0.478599 0
1 0.465721 0
1 0.451652 0
1 0.436225 0
0 0.639689 0
0 0.639658 0
0 0.639567 0
0 0.639353 0
0 0.638972 0
0 0.638407 0
0 0.637629 0
0 0.636622 0
0 0.635355 0
0 0.633799 0
0 0.631922 0
0 0.62974 0
0 0.627192 0
0 0.624262 0
0.0127871 0.62092 0
0.230594 0.61767 0
0.333822 0.614237 0
0.415457 0.610468 0
0.486885 0.606317 0
0.552361 0.60177 0
0.613916 0.596796 0
0.67274 0.591348 0
0.729564 0.585397 0
0.784894 0.578943 0
0.839048 0.571923 0
0.892287 0.564309 0
0.944808 0.556039 0
0.996735 0.547097 0
1 0.537392 0
1 0.526894 0
1 0.515511 0
1 0.503151 0
1 0.489723 0
0 0.67776 0
0 0.677745 0
0 0.677638 0
0 0.67744 0
0 0.677089 0
0 0.676555 0
0 0.675822 0
0 0.674861 0
0 0.673671 0
0 0.67219 0
0 0.670436 0
0 0.66836 0
0 0.665965 0
0 0.663203 0
0 0.660075 0
0.124559 0.656626 0
0.275517 0.653376 0
0.372534 0.649866 0
0.452293 0.646021 0
0.52314 0.64181 0
0.588525 0.637217 0
0.650248 0.632197 0
0.709361 0.626734 0
0.766552 0.620813 0
0.822263 0.614389 0
0.876814 0.607431 0
0.930449 0.599924 0
0.983352 0.591806 0
1 0.583032 0
1 0.573571 0
1 0.563363 0
1 0.552346 0
1 0.540444 0
0 0.71603 0
0 0.716014 0
0 0.715923 0
0 0.715724 0
0 0.715389 0
0 0.714885 0
0 0.714199 0
0 0.713283 0
0 0.712154 0
0 0.71075 0
0 0.709087 0
0 0.707134 0
0 0.70486 0
0 0.702251 0
0 0.69929 0
0 0.695964 0
0.190082 0.692531 0
0.318334 0.689204 0
0.41088 0.685618 0
0.489143 0.681697 0
0.559503 0.67744 0
0.624842 0.672786 0
0.686732 0.66775 0
0.746136 0.662287 0
0.803647 0.656367 0
0.859724 0.649973 0
0.914656 0.643091 0
0.968673 0.63566 0
1 0.627665 0
1 0.619058 0
1 0.609812 0
1 0.599863 0
1 0.589151 0
0 0.754482 0
0 0.754467 0
0 0.754391 0
0 0.754192 0
0 0.753872 0
0 0.753399 0
0 0.752743 0
0 0.751888 0
0 0.750805 0
0 0.749477 0
0 0.74789 0
0 0.746029 0
0 0.743877 0
0 0.741405 0
0 0.738598 0
0 0.735439 0
0 0.731899 0
0.244221 0.728542 0
0.359808 0.72517 0
0.448997 0.721508 0
0.52604 0.717525 0
0.595987 0.713191 0
0.661311 0.708507 0
0.723369 0.703441 0
0.783032 0.697963 0
0.840864 0.692058 0
0.897292 0.685695 0
0.952575 0.678859 0
1 0.671504 0
1 0.66363 0
1 0.655177 0
1 0.646097 0
1 0.636378 0
0 0.793133 0
0 0.793118 0
0 0.793042 0
0 0.792859 0
0 0.792554 0
0 0.792096 0
0 0.79147 0
0 0.790646 0
0 0.789624 0
0 0.788357 0
0 0.786847 0
0 0.785077 0
0 0.783017 0
0 0.780667 0
0 0.777996 0
0 0.77499 0
0 0.771634 0
0.11426 0.767956 0
0.29308 0.764691 0
0.400381 0.761242 0
0.486931 0.757504 0
0.562982 0.75346 0
0.632609 0.749081 0
0.697902 0.744366 0
0.760128 0.739269 0
0.820035 0.733776 0
0.878187 0.727871 0
0.934936 0.721538 0
0.990585 0.714748 0
1 0.707485 0
1 0.699687 0
1 0.691371 0
1 0.68246 0
0 0.831968 0
0 0.831952 0
0 0.831876 0
0 0.831693 0
0 0.831403 0
0 0.830976 0
0 0.830365 0
0 0.829587 0
0 0.828595 0
0 0.82739 0
0 0.825956 0
0 0.824262 0
0 0.822293 0
0 0.82005 0
0 0.817502 0
0 0.814633 0
0 0.811429 0
0 0.807874 0
0.193072 0.804257 0
0.338933 0.800946 0
0.44033 0.797421 0
0.524788 0.793622 0
0.599985 0.789517 0
0.669337 0.785092 0
0.734646 0.780331 0
0.797024 0.775219 0
0.857176 0.769711 0
0.915618 0.763821 0
0.972686 0.757519 0
1 0.750774 0
1 0.743557 0
1 0.735866 0
1 0.727657 0
0 0.87097 0
0 0.870954 0
0 0.870878 0
0 0.870726 0
0 0.870436 0
0 0.870024 0
0 0.869444 0
0 0.868696 0
0 0.86775 0
0 0.86659 0
0 0.865217 0
0 0.863584 0
0 0.861708 0
0 0.859556 0
0 0.857114 0
0 0.854368 0
0 0.851316 0
0 0.847913 0
0 0.84416 0
0.253941 0.840681 0
0.382849 0.837308 0
0.479835 0.833722 0
0.56257 0.829862 0
0.637079 0.825696 0
0.706188 0.821241 0
0.771511 0.816434 0
0.834043 0.811292 0
0.894438 0.805783 0
0.953155 0.799893 0
1 0.793606 0
1 0.786892 0
1 0.779751 0
1 0.772137 0
0 0.910155 0
0 0.91014 0
0 0.910079 0
0 0.909911 0
0 0.909651 0
0 0.909255 0
0 0.90869 0
0 0.907973 0
0 0.907057 0
