Postproduction/IWLTBAP - Humble/LUTs by IWLTBAP (3DL)/UTILITY/BMDFilm BMPCC to Rec.709/U-BMDFILM-BMPCC-V1-LTR.3dl
# Copyright: (C) Copyright 2010-2018 by IWLTBAP SAS
# Cannot be resold, shared or otherwise redistributed
# Website: https://luts.iwltbap.com
0 256 512 768 1023
0 0 0
0 0 1094
0 0 2491
0 0 3710
0 0 4076
0 886 0
0 814 828
0 591 2370
0 0 3688
0 0 4076
0 2119 0
0 2085 0
0 1993 2019
0 1733 3625
0 758 4076
0 3486 0
0 3478 0
0 3455 546
0 3393 3411
0 3177 4076
0 4076 0
0 4076 0
0 4076 0
0 4076 1684
0 4076 4076
1130 0 0
905 0 1036
45 0 2463
0 0 3705
0 0 4076
1014 841 0
763 766 755
0 530 2341
0 0 3683
0 0 4076
628 2098 0
246 2064 0
0 1971 1985
0 1708 3619
0 703 4076
0 3481 0
0 3473 0
0 3450 485
0 3387 3402
0 3167 4076
0 4076 0
0 4076 0
0 4076 0
0 4076 1641
0 4076 4076
2557 0 0
2453 0 868
2154 0 2388
1062 0 3691
0 0 4076
2502 712 0
2395 626 523
2089 340 2262
936 0 3669
0 0 4076
2348 2041 0
2236 2006 0
1907 1911 1892
551 1639 3603
0 550 4076
1898 3468 0
1760 3459 0
1331 3435 292
0 3370 3377
0 3141 4076
47 4076 0
0 4076 0
0 4076 0
0 4076 1518
0 4076 4076
3744 0 0
3726 0 231
3674 0 2179
3509 0 3654
2398 0 4076
3734 253 0
3716 140 0
3663 0 2043
3495 0 3629
2338 0 4076
3707 1885 0
3688 1848 0
3633 1745 1629
3451 1446 3558
2171 202 4076
3632 3430 0
3609 3421 0
3543 3396 41
3319 3324 3306
1662 3067 4076
3352 4076 0
3311 4076 0
3185 4076 0
2670 4076 1123
176 4076 4076
4076 0 0
4076 0 0
4076 0 1524
4076 0 3541
4076 0 4076
4076 0 0
4076 0 0
4076 0 1330
4076 0 3510
4076 0 4076
4076 1412 0
4076 1363 0
4076 1226 587
4076 768 3418
4076 0 4076
4076 3315 0
4076 3303 0
4076 3272 0
4076 3180 3050
4076 2825 4076
4076 4076 0
4076 4076 0
4076 4076 0
4076 4076 251
4076 4076 4076
