Postproduction/IWLTBAP - Humble/LUTs by IWLTBAP (3DL)/UTILITY/BMDFilm BMPCC to Rec.709/U-BMDFILM-BMPCC-V2-LTR.3dl
# Copyright: (C) Copyright 2010-2018 by IWLTBAP SAS
# Cannot be resold, shared or otherwise redistributed
# Website: https://luts.iwltbap.com
0 128 256 384 512 640 768 896 1023
0 0 0
0 0 672
0 0 1360
0 0 1988
0 0 2676
0 0 3358
0 0 3761
0 0 4056
0 0 4079
0 502 0
0 445 457
0 345 1269
0 185 1931
0 10 2636
0 0 3341
0 0 3754
0 0 4053
0 0 4079
0 1152 0
0 1126 78
0 1080 1093
0 999 1828
0 850 2566
0 525 3309
0 37 3741
0 0 4048
0 0 4079
0 1720 0
0 1704 0
0 1675 699
0 1628 1646
0 1548 2448
0 1408 3254
0 1137 3721
0 430 4039
0 0 4079
0 2335 0
0 2323 0
0 2304 14
0 2272 1285
0 2218 2242
0 2129 3147
0 1975 3686
0 1690 4024
0 1020 4079
0 3039 0
0 3031 0
0 3018 0
0 2996 297
0 2961 1848
0 2900 2927
0 2795 3623
0 2616 3997
0 2291 4079
0 3564 0
0 3562 0
0 3557 0
0 3550 0
0 3538 768
0 3517 2473
0 3482 3499
0 3419 3947
0 3291 4079
0 3902 0
0 3901 0
0 3899 0
0 3895 0
0 3890 0
0 3881 1319
0 3865 3163
0 3840 3853
0 3795 4079
0 4079 0
0 4079 0
0 4079 0
0 4079 0
0 4079 0
0 4079 0
0 4079 1926
0 4079 3637
0 4079 4079
700 0 0
519 0 627
170 0 1339
0 0 1974
0 0 2667
0 0 3354
0 0 3759
0 0 4056
0 0 4079
609 466 0
408 409 402
75 308 1247
0 151 1917
0 5 2627
0 0 3336
0 0 3752
0 0 4053
0 0 4079
424 1136 0
218 1110 37
4 1062 1067
0 980 1813
0 826 2556
0 491 3305
0 26 3740
0 0 4047
0 0 4079
127 1710 0
9 1693 0
0 1665 656
0 1617 1630
0 1537 2438
0 1395 3249
0 1120 3719
0 404 4038
0 0 4079
0 2328 0
0 2316 0
0 2296 8
0 2264 1262
0 2211 2230
0 2121 3141
0 1966 3684
0 1680 4023
0 999 4079
0 3034 0
0 3026 0
0 3013 0
0 2991 263
0 2957 1833
0 2894 2919
0 2790 3621
0 2610 3996
0 2284 4079
0 3563 0
0 3560 0
0 3556 0
0 3548 0
0 3536 745
0 3515 2463
0 3480 3496
0 3416 3946
0 3288 4079
0 3902 0
0 3900 0
0 3898 0
0 3895 0
0 3889 0
0 3880 1294
0 3865 3157
0 3839 3852
0 3794 4079
0 4079 0
0 4079 0
0 4079 0
0 4079 0
0 4079 0
0 4079 0
0 4079 1911
0 4079 3635
0 4079 4079
1396 0 0
1318 0 540
1172 0 1303
869 0 1951
154 0 2651
0 0 3347
0 0 3756
0 0 4054
0 0 4079
1355 404 0
1275 346 306
1121 245 1207
796 95 1893
92 1 2610
0 0 3329
0 0 3749
0 0 4051
0 0 4079
1281 1107 0
1195 1080 10
1027 1031 1019
653 946 1788
25 784 2539
0 433 3299
0 12 3737
0 0 4046
0 0 4079
1150 1692 0
1051 1675 0
848 1646 579
388 1598 1601
0 1517 2420
0 1373 3240
0 1090 3716
0 362 4037
0 0 4079
887 2315 0
748 2304 0
455 2284 0
49 2251 1222
0 2198 2210
0 2108 3132
0 1951 3681
0 1661 4021
0 962 4079
260 3026 0
115 3018 0
4 3004 0
0 2982 205
0 2948 1808
0 2885 2905
0 2780 3617
0 2599 3995
0 2271 4079
0 3560 0
0 3557 0
0 3553 0
0 3545 0
0 3533 703
0 3512 2445
0 3477 3491
0 3412 3944
0 3283 4079
0 3900 0
0 3899 0
0 3897 0
0 3893 0
0 3888 0
0 3878 1250
0 3863 3146
0 3837 3849
0 3792 4079
0 4079 0
0 4079 0
0 4079 0
0 4079 0
0 4079 0
0 4079 0
0 4079 1885
0 4079 3632
0 4079 4079
2034 0 0
1985 0 389
1898 0 1242
1745 0 1914
1458 0 2625
724 0 3336
0 0 3752
0 0 4052
0 0 4079
2008 303 0
1958 244 161
1869 149 1140
1714 26 1854
1418 0 2584
646 0 3317
0 0 3745
0 0 4049
0 0 4079
1962 1059 0
1911 1031 0
1819 979 935
1658 887 1746
1348 710 2512
517 339 3286
0 0 3732
0 0 4044
0 0 4079
1886 1663 0
1832 1646 0
1735 1616 444
1564 1567 1553
1223 1484 2391
322 1335 3225
0 1040 3711
0 293 4034
0 0 4079
1753 2295 0
1694 2284 0
1588 2264 0
1394 2231 1154
974 2176 2178
94 2085 3113
0 1927 3676
0 1631 4019
0 902 4079
1509 3012 0
1438 3004 0
1306 2990 0
1045 2969 143
438 2933 1766
0 2870 2883
0 2764 3611
0 2582 3992
0 2250 4079
945 3555 0
820 3553 0
578 3548 0
215 3540 0
0 3528 627
0 3507 2416
0 3471 3482
0 3406 3941
0 3274 4079
0 3898 0
0 3897 0
0 3895 0
0 3891 0
0 3886 0
0 3876 1179
0 3861 3131
0 3835 3846
0 3789 4079
0 4079 0
0 4079 0
0 4079 0
0 4079 0
0 4079 0
0 4079 0
0 4079 1842
0 4079 3625
0 4079 4079
2736 0 0
2701 0 151
2641 0 1134
2541 0 1851
2367 0 2582
2049 0 3316
1325 0 3744
0 0 4049
0 0 4079
2717 144 0
2683 92 9
2622 25 1020
2520 1 1789
2346 0 2540
2023 0 3299
1278 0 3737
0 0 4046
0 0 4079
2685 976 0
2650 944 0
2589 886 776
2486 781 1676
2307 577 2467
1977 197 3264
1197 0 3724
0 0 4040
0 0 4079
2633 1615 0
2597 1597 0
2534 1567 236
2428 1515 1472
2245 1428 2343
1901 1272 3200
1049 951 3703
0 181 4031
0 0 4079
2546 2263 0
2509 2251 0
2443 2230 0
2332 2197 1031
2138 2142 2124
1769 2048 3083
776 1886 3667
0 1582 4015
0 800 4079
2397 2990 0
2357 2982 0
2285 2968 0
2165 2947 69
1951 2908 1696
1523 2845 2845
356 2737 3601
0 2553 3988
0 2217 4079
2129 3548 0
2083 3545 0
2000 3540 0
1856 3533 0
1591 3520 485
959 3499 2369
9 3462 3469
0 3395 3937
0 3259 4079
1578 3895 0
1508 3893 0
1377 3891 0
1126 3888 0
624 3882 0
63 3873 1064
0 3857 3104
0 3831 3840
0 3785 4079
147 4079 0
90 4079 0
4 4079 0
0 4079 0
0 4079 0
0 4079 0
0 4079 1768
0 4079 3615
0 4079 4079
3400 0 0
3386 0 1
3361 0 928
3318 0 1744
3238 0 2511
3074 0 3286
2717 0 3732
1927 0 4044
0 0 4079
3393 6 0
3379 1 0
3353 0 777
3309 0 1677
3227 0 2468
3059 0 3264
2698 0 3725
1898 0 4040
0 0 4079
3380 818 0
3365 779 0
3339 706 448
3295 574 1554
3208 332 2392
3034 46 3225
2666 0 3712
1847 0 4034
0 0 4079
3358 1533 0
3343 1514 0
3315 1482 23
3268 1427 1327
3176 1333 2263
2992 1161 3159
2613 784 3690
1758 78 4025
0 0 4079
3321 2209 0
3305 2196 0
3275 2175 0
3220 2141 790
3122 2084 2034
2922 1987 3030
2525 1818 3652
1604 1497 4009
0 633 4079
3253 2955 0
3233 2947 0
3197 2932 0
3137 2908 0
3019 2869 1574
2800 2804 2782
2373 2695 3584
1313 2506 3981
0 2161 4079
3118 3535 0
3092 3533 0
3046 3528 0
2967 3520 0
2831 3507 277
2582 3485 2289
2099 3447 3445
763 3378 3929
0 3235 4079
2827 3889 0
2794 3888 0
2736 3885 0
2639 3882 0
2473 3876 0
2173 3867 928
1508 3851 3053
147 3824 3830
0 3777 4079
2212 4079 0
2167 4079 0
2087 4079 0
1949 4079 0
1695 4079 0
1105 4079 0
210 4079 1632
0 4079 3599
0 4079 4079
3790 0 0
3784 0 0
3774 0 442
3758 0 1552
3729 0 2391
3679 0 3225
3585 0 3711
3368 0 4034
2590 0 4079
3787 0 0
3781 0 0
3771 0 245
3754 0 1475
3726 0 2345
3675 0 3201
3580 0 3704
3359 0 4031
2570 0 4079
3782 476 0
3776 422 0
3766 328 27
3748 190 1329
3720 41 2264
3668 0 3159
3572 0 3690
3345 0 4025
2535 0 4079
3773 1389 0
3767 1368 0
3756 1331 0
3739 1269 1039
3709 1159 2126
3657 945 3084
3557 463 3667
3320 0 4016
2478 0 4079
3758 2118 0
3752 2105 0
3741 2083 0
3723 2046 346
3693 1986 1877
3638 1884 2941
3534 1702 3627
3279 1345 3999
2382 384 4079
3734 2892 0
3728 2883 0
3716 2868 0
3697 2843 0
3664 2803 1343
3606 2736 2677
3493 2623 3555
3204 2428 3969
2216 2067 4079
3692 3515 0
3685 3512 0
3672 3507 0
3651 3498 0
3615 3485 116
3549 3462 2153
3417 3422 3406
3058 3348 3916
1905 3194 4079
3613 3880 0
3605 3878 0
3589 3876 0
3564 3872 0
3519 3866 0
3436 3857 643
3256 3841 2966
2755 3813 3813
1220 3766 4079
3446 4079 0
3433 4079 0
3410 4079 0
3372 4079 0
3298 4079 0
3157 4079 0
2837 4079 1381
2107 4079 3571
242 4079 4079
4072 0 0
4072 0 0
4071 0 0
4064 0 1159
4051 0 2180
4030 0 3115
3993 0 3676
3919 0 4019
3765 0 4079
4072 0 0
4072 0 0
4070 0 0
4062 0 1043
4050 0 2129
4029 0 3086
3991 0 3668
3917 0 4016
3762 0 4079
4072 23 0
4071 12 0
4068 0 0
4060 0 801
4047 0 2038
4026 0 3032
3988 0 3653
3913 0 4010
3756 0 4079
4071 1109 0
4068 1081 0
4063 1030 0
4056 943 350
4043 776 1879
4021 455 2943
3982 70 3628
3906 0 3999
3747 0 4079
4064 1960 0
4062 1946 0
4057 1922 0
4049 1882 0
4036 1815 1582
4014 1700 2785
3973 1491 3584
3896 1032 3981
3731 119 4079
4053 2786 0
4051 2777 0
4046 2761 0
4038 2735 0
4024 2692 829
4001 2622 2495
3958 2503 3504
3878 2296 3950
3705 1903 4079
4035 3479 0
4032 3476 0
4027 3470 0
4019 3461 0
4005 3446 0
3979 3421 1906
3933 3377 3332
3848 3295 3894
3660 3125 4079
4004 3864 0
4001 3863 0
3995 3860 0
3985 3857 0
3968 3851 0
3940 3840 269
3889 3824 2814
3794 3796 3786
3575 3746 4079
3943 4079 0
3939 4079 0
3932 4079 0
3920 4079 0
3901 4079 0
3867 4079 0
3807 4079 1095
3690 4079 3521
3381 4079 4079
4079 0 0
4079 0 0
4079 0 0
4079 0 149
4079 0 1777
4079 0 2889
4079 0 3612
4079 0 3993
4079 0 4079
4079 0 0
4079 0 0
4079 0 0
4079 0 88
4079 0 1711
4079 0 2853
4079 0 3602
4079 0 3989
4079 0 4079
4079 0 0
4079 0 0
4079 0 0
4079 0 2
4079 0 1589
4079 0 2789
4079 0 3585
4079 0 3981
4079 0 4079
4079 376 0
4079 336 0
4079 266 0
4079 149 0
4079 67 1364
4079 0 2682
4079 0 3556
4079 0 3970
4079 0 4079
4079 1669 0
4079 1652 0
4079 1622 0
4079 1573 0
4079 1489 833
4079 1339 2498
4079 1030 3504
4079 370 3950
4079 0 4079
4079 2603 0
4079 2593 0
4079 2576 0
4079 2548 0
4079 2502 86
4079 2425 2161
4079 2294 3406
4079 2060 3916
4079 1592 4079
4079 3414 0
4079 3410 0
4079 3404 0
4079 3393 0
4079 3376 0
4079 3346 1379
4079 3294 3178
4079 3191 3855
4079 2978 4079
4079 3838 0
4079 3836 0
4079 3834 0
4079 3830 0
4079 3823 0
4079 3813 0
4079 3795 2536
4079 3765 3736
4079 3711 4079
4079 4079 0
4079 4079 0
4079 4079 0
4079 4079 0
4079 4079 0
4079 4079 0
4079 4079 318
4079 4079 3424
4079 4079 4079
