Postproduction/IWLTBAP - Humble/LUTs by IWLTBAP (3DL)/UTILITY/BMDFilm BMPCC to Rec.709/U-BMDFILM-BMPCC-V2-LTR.3dl
# Copyright: (C) Copyright 2010-2018 by IWLTBAP SAS
# Cannot be resold, shared or otherwise redistributed
# Website: https://luts.iwltbap.com
0 256 512 768 1023
0 0 0
0 0 1360
0 0 2676
0 0 3761
0 0 4079
0 1152 0
0 1080 1093
0 850 2566
0 37 3741
0 0 4079
0 2335 0
0 2304 14
0 2218 2242
0 1975 3686
0 1020 4079
0 3564 0
0 3557 0
0 3538 768
0 3482 3499
0 3291 4079
0 4079 0
0 4079 0
0 4079 0
0 4079 1926
0 4079 4079
1396 0 0
1172 0 1303
154 0 2651
0 0 3756
0 0 4079
1281 1107 0
1027 1031 1019
25 784 2539
0 12 3737
0 0 4079
887 2315 0
455 2284 0
0 2198 2210
0 1951 3681
0 962 4079
0 3560 0
0 3553 0
0 3533 703
0 3477 3491
0 3283 4079
0 4079 0
0 4079 0
0 4079 0
0 4079 1885
0 4079 4079
2736 0 0
2641 0 1134
2367 0 2582
1325 0 3744
0 0 4079
2685 976 0
2589 886 776
2307 577 2467
1197 0 3724
0 0 4079
2546 2263 0
2443 2230 0
2138 2142 2124
776 1886 3667
0 800 4079
2129 3548 0
2000 3540 0
1591 3520 485
9 3462 3469
0 3259 4079
147 4079 0
4 4079 0
0 4079 0
0 4079 1768
0 4079 4079
3790 0 0
3774 0 442
3729 0 2391
3585 0 3711
2590 0 4079
3782 476 0
3766 328 27
3720 41 2264
3572 0 3690
2535 0 4079
3758 2118 0
3741 2083 0
3693 1986 1877
3534 1702 3627
2382 384 4079
3692 3515 0
3672 3507 0
3615 3485 116
3417 3422 3406
1905 3194 4079
3446 4079 0
3410 4079 0
3298 4079 0
2837 4079 1381
242 4079 4079
4079 0 0
4079 0 0
4079 0 1777
4079 0 3612
4079 0 4079
4079 0 0
4079 0 0
4079 0 1589
4079 0 3585
4079 0 4079
4079 1669 0
4079 1622 0
4079 1489 833
4079 1030 3504
4079 0 4079
4079 3414 0
4079 3404 0
4079 3376 0
4079 3294 3178
4079 2978 4079
4079 4079 0
4079 4079 0
4079 4079 0
4079 4079 318
4079 4079 4079
