Postproduction/IWLTBAP - Humble/LUTs by IWLTBAP (3DL)/UTILITY/BMDFilm BMPCC to Rec.709/U-BMDFILM-BMPCC-V3-LTR.3dl
# Copyright: (C) Copyright 2010-2018 by IWLTBAP SAS
# Cannot be resold, shared or otherwise redistributed
# Website: https://luts.iwltbap.com
0 128 256 384 512 640 768 896 1023
0 0 0
0 0 489
0 0 1150
0 0 1791
0 0 2523
0 0 3269
0 0 3718
0 0 4051
0 0 4077
0 336 0
0 286 297
0 201 1060
0 78 1732
0 0 2480
0 0 3250
0 0 3710
0 0 4048
0 0 4077
0 945 0
0 920 14
0 874 888
0 796 1626
0 654 2404
0 358 3215
0 0 3696
0 0 4042
0 0 4077
0 1515 0
0 1497 0
0 1469 516
0 1421 1439
0 1340 2278
0 1198 3154
0 930 3674
0 283 4031
0 0 4077
0 2157 0
0 2145 0
0 2124 0
0 2090 1076
0 2034 2059
0 1940 3036
0 1778 3634
0 1484 4014
0 819 4077
0 2918 0
0 2909 0
0 2894 0
0 2870 185
0 2832 1647
0 2766 2795
0 2652 3564
0 2458 3985
0 2111 4077
0 3498 0
0 3496 0
0 3491 0
0 3483 0
0 3468 600
0 3446 2305
0 3407 3425
0 3336 3928
0 3195 4077
0 3877 0
0 3876 0
0 3874 0
0 3870 0
0 3863 0
0 3853 1116
0 3836 3054
0 3807 3822
0 3756 4077
0 4077 0
0 4077 0
0 4077 0
0 4077 0
0 4077 0
0 4077 0
0 4077 1730
0 4077 3579
0 4077 4077
515 0 0
351 0 447
69 0 1130
0 0 1778
0 0 2513
0 0 3264
0 0 3716
0 0 4050
0 0 4077
432 304 0
255 255 250
13 171 1038
0 54 1718
0 0 2470
0 0 3245
0 0 3708
0 0 4047
0 0 4077
268 929 0
106 903 6
0 857 861
0 778 1611
0 632 2394
0 329 3210
0 0 3694
0 0 4041
0 0 4077
38 1504 0
0 1487 0
0 1458 476
0 1410 1422
0 1328 2267
0 1185 3148
0 914 3672
0 261 4031
0 0 4077
0 2149 0
0 2137 0
0 2116 0
0 2082 1054
0 2026 2047
0 1931 3030
0 1770 3632
0 1474 4013
0 799 4077
0 2912 0
0 2903 0
0 2889 0
0 2865 162
0 2828 1632
0 2760 2786
0 2646 3562
0 2452 3984
0 2103 4077
0 3497 0
0 3494 0
0 3489 0
0 3481 0
0 3466 578
0 3444 2294
0 3405 3422
0 3334 3927
0 3192 4077
0 3876 0
0 3875 0
0 3873 0
0 3869 0
0 3863 0
0 3852 1092
0 3835 3047
0 3806 3820
0 3755 4077
0 4077 0
0 4077 0
0 4077 0
0 4077 0
0 4077 0
0 4077 0
0 4077 1714
0 4077 3577
0 4077 4077
1186 0 0
1108 0 370
964 0 1093
673 0 1754
69 0 2495
0 0 3257
0 0 3713
0 0 4049
0 0 4077
1145 251 0
1065 202 171
915 122 999
605 15 1693
37 0 2452
0 0 3237
0 0 3705
0 0 4045
0 0 4077
1072 901 0
987 874 0
824 827 815
475 745 1584
1 593 2376
0 279 3203
0 0 3691
0 0 4039
0 0 4077
943 1486 0
847 1469 0
653 1439 408
249 1390 1393
0 1308 2248
0 1163 3138
0 885 3668
0 225 4029
0 0 4077
690 2136 0
560 2124 0
303 2103 0
11 2069 1015
0 2012 2025
0 1917 3020
0 1754 3628
0 1455 4011
0 764 4077
145 2903 0
45 2894 0
0 2880 0
0 2855 124
0 2818 1606
0 2749 2771
0 2635 3557
0 2440 3982
0 2090 4077
0 3494 0
0 3491 0
0 3486 0
0 3477 0
0 3463 539
0 3440 2275
0 3401 3416
0 3329 3925
0 3186 4077
0 3875 0
0 3874 0
0 3871 0
0 3867 0
0 3861 0
0 3850 1050
0 3833 3035
0 3804 3818
0 3753 4077
0 4077 0
0 4077 0
0 4077 0
0 4077 0
0 4077 0
0 4077 0
0 4077 1688
0 4077 3573
0 4077 4077
1840 0 0
1789 0 238
1698 0 1033
1540 0 1715
1248 0 2468
545 0 3244
0 0 3708
0 0 4047
0 0 4077
1813 166 0
1761 120 61
1668 52 933
1509 0 1653
1209 0 2424
476 0 3224
0 0 3700
0 0 4043
0 0 4077
1765 854 0
1712 827 0
1617 777 735
1452 690 1541
1138 525 2346
369 201 3190
0 0 3686
0 0 4037
0 0 4077
1685 1457 0
1630 1439 0
1530 1409 292
1356 1359 1345
1016 1274 2217
208 1126 3122
0 837 3663
0 170 4027
0 0 4077
1548 2115 0
1488 2103 0
1380 2082 0
1185 2047 948
775 1990 1991
45 1893 2999
0 1728 3622
0 1425 4009
0 707 4077
1300 2888 0
1229 2880 0
1096 2864 0
842 2841 85
304 2801 1563
0 2733 2748
0 2617 3550
0 2421 3979
0 2068 4077
749 3489 0
631 3486 0
416 3480 0
127 3471 0
0 3458 470
0 3435 2245
0 3395 3407
0 3322 3921
0 3176 4077
0 3872 0
0 3871 0
0 3869 0
0 3865 0
0 3859 0
0 3847 981
0 3830 3019
0 3802 3814
0 3750 4077
0 4077 0
0 4077 0
0 4077 0
0 4077 0
0 4077 0
0 4077 0
0 4077 1643
0 4077 3566
0 4077 4077
2587 0 0
2550 0 54
2485 0 927
2377 0 1649
2192 0 2421
1856 0 3223
1118 0 3700
0 0 4043
0 0 4077
2567 49 0
2530 15 0
2465 0 816
2355 0 1585
2169 0 2377
1829 0 3203
1072 0 3691
0 0 4039
0 0 4077
2533 773 0
2495 743 0
2429 688 586
2318 590 1469
2128 404 2298
1781 95 3164
994 0 3677
0 0 4033
0 0 4077
2477 1407 0
2438 1389 0
2370 1358 128
2257 1306 1262
2062 1218 2166
1702 1063 3094
852 751 3654
0 94 4023
0 0 4077
2383 2081 0
2343 2068 0
2272 2046 0
2154 2011 829
1950 1953 1935
1566 1855 2966
605 1686 3613
0 1374 4005
0 613 4077
2223 2863 0
2180 2855 0
2105 2840 0
1978 2817 25
1754 2775 1491
1315 2705 2707
251 2589 3539
0 2391 3974
0 2032 4077
1940 3480 0
1891 3477 0
1804 3471 0
1656 3463 0
1384 3449 346
766 3425 2194
0 3385 3392
0 3310 3916
0 3159 4077
1371 3869 0
1300 3867 0
1170 3865 0
925 3861 0
465 3855 0
29 3843 874
0 3826 2989
0 3797 3807
0 3745 4077
78 4077 0
34 4077 0
0 4077 0
0 4077 0
0 4077 0
0 4077 0
0 4077 1567
0 4077 3555
0 4077 4077
3316 0 0
3300 0 0
3273 0 729
3225 0 1539
3136 0 2345
2956 0 3189
2567 0 3685
1730 0 4037
0 0 4077
3308 0 0
3292 0 0
3264 0 587
3215 0 1471
3124 0 2299
2940 0 3165
2547 0 3677
1701 0 4033
0 0 4077
3293 625 0
3277 588 0
3248 521 295
3199 402 1346
3103 196 2218
2912 5 3122
2512 0 3663
1647 0 4027
0 0 4077
3269 1324 0
3252 1305 0
3221 1272 2
3169 1217 1118
3068 1123 2081
2866 953 3050
2455 595 3638
1557 23 4016
0 0 4077
3227 2023 0
3210 2010 0
3177 1988 0
3116 1952 604
3009 1892 1840
2790 1791 2908
2360 1616 3597
1400 1288 3998
0 462 4077
3153 2826 0
3131 2817 0
3091 2801 0
3026 2775 0
2895 2731 1367
2657 2661 2638
2199 2543 3520
1111 2340 3966
0 1973 4077
3004 3466 0
2976 3463 0
2925 3457 0
2839 3449 0
2691 3434 197
2422 3410 2110
1909 3368 3366
596 3291 3907
0 3133 4077
2687 3862 0
2650 3861 0
2588 3859 0
2483 3855 0
2306 3847 0
1987 3837 748
1303 3819 2933
99 3789 3796
0 3736 4077
2028 4077 0
1980 4077 0
1897 4077 0
1753 4077 0
1491 4077 0
907 4077 0
146 4077 1429
0 4077 3537
0 4077 4077
3751 0 0
3744 0 0
3733 0 289
3715 0 1343
3682 0 2217
3627 0 3122
3521 0 3663
3280 0 4027
2431 0 4077
3747 0 0
3741 0 0
3730 0 134
3711 0 1265
3679 0 2168
3622 0 3095
3516 0 3654
3271 0 4023
2410 0 4077
3741 315 0
3735 269 0
3723 193 1
3705 90 1120
3672 1 2082
3615 0 3049
3506 0 3638
3254 0 4016
2372 0 4077
3732 1180 0
3725 1158 0
3713 1122 0
3693 1059 836
3661 951 1936
3602 746 2967
3491 309 3613
3227 0 4005
2311 0 4077
3716 1928 0
3709 1914 0
3696 1891 0
3676 1853 228
3642 1790 1676
3581 1683 2811
3464 1496 3569
3182 1136 3987
2209 247 4077
3688 2757 0
3681 2747 0
3668 2731 0
3647 2704 0
3610 2660 1136
3545 2588 2524
3419 2466 3488
3099 2257 3952
2033 1875 4077
3641 3443 0
3632 3440 0
3619 3434 0
3595 3425 0
3554 3409 64
3481 3384 1966
3334 3340 3322
2938 3258 3892
1708 3088 4077
3553 3852 0
3543 3850 0
3526 3847 0
3498 3843 0
3448 3837 0
3355 3826 485
3156 3808 2838
2609 3777 3777
1021 3723 4077
3366 4077 0
3352 4077 0
3327 4077 0
3285 4077 0
3203 4077 0
3047 4077 0
2698 4077 1178
1919 4077 3506
192 4077 4077
4070 0 0
4069 0 0
4068 0 0
4060 0 952
4046 0 1994
4022 0 3001
3980 0 3623
3896 0 4009
3723 0 4077
4069 0 0
4069 0 0
4066 0 0
4058 0 840
4044 0 1940
4020 0 2969
3978 0 3614
3894 0 4005
3719 0 4077
4069 0 0
4069 0 0
4064 0 0
4055 0 612
4041 0 1844
4017 0 2910
3974 0 3597
3889 0 3999
3713 0 4077
4068 903 0
4064 876 0
4059 827 0
4050 744 229
4036 587 1680
4011 303 2812
3968 19 3569
3882 0 3987
3703 0 4077
4060 1764 0
4057 1748 0
4052 1723 0
4043 1682 0
4028 1613 1375
4003 1494 2640
3957 1282 3521
3870 831 3966
3685 57 4077
4048 2642 0
4045 2632 0
4039 2614 0
4030 2586 0
4015 2540 646
3989 2464 2328
3940 2337 3431
3850 2116 3931
3656 1704 4077
4028 3403 0
4025 3399 0
4019 3393 0
4009 3383 0
3993 3367 0
3964 3339 1708
3912 3290 3240
3816 3199 3867
3605 3012 4077
3992 3834 0
3989 3833 0
3982 3830 0
3971 3826 0
3951 3819 0
3920 3808 206
3863 3788 2673
3755 3757 3746
3510 3701 4077
3924 4077 0
3919 4077 0
3911 4077 0
3897 4077 0
3876 4077 0
3837 4077 0
3770 4077 898
3639 4077 3450
3294 4077 4077
4077 0 0
4077 0 0
4077 0 0
4077 0 70
4077 0 1574
4077 0 2754
4077 0 3552
4077 0 3980
4077 0 4077
4077 0 0
4077 0 0
4077 0 0
4077 0 24
4077 0 1506
4077 0 2714
4077 0 3541
4077 0 3975
4077 0 4077
4077 0 0
4077 0 0
4077 0 0
4077 0 0
4077 0 1381
4077 0 2645
4077 0 3521
4077 0 3967
4077 0 4077
4077 234 0
4077 201 0
4077 149 0
4077 70 0
4077 10 1156
4077 0 2529
4077 0 3489
4077 0 3953
4077 0 4077
4077 1463 0
4077 1445 0
4077 1415 0
4077 1365 0
4077 1280 648
4077 1130 2332
4077 829 3431
4077 238 3931
4077 0 4077
4077 2444 0
4077 2434 0
4077 2415 0
4077 2385 0
4077 2335 44
4077 2253 1974
4077 2114 3322
4077 1868 3893
4077 1385 4077
4077 3331 0
4077 3327 0
4077 3320 0
4077 3307 0
4077 3288 0
4077 3255 1174
4077 3198 3070
4077 3084 3825
4077 2851 4077
4077 3805 0
4077 3803 0
4077 3801 0
4077 3796 0
4077 3788 0
4077 3776 0
4077 3757 2373
4077 3722 3691
4077 3662 4077
4077 4077 0
4077 4077 0
4077 4077 0
4077 4077 0
4077 4077 0
4077 4077 0
4077 4077 265
4077 4077 3342
4077 4077 4077
