Postproduction/IWLTBAP - Humble/LUTs by IWLTBAP (3DL)/UTILITY/BMDFilm BMPCC to Rec.709/U-BMDFILM-BMPCC-V1-LTR.3dl
# Copyright: (C) Copyright 2010-2018 by IWLTBAP SAS
# Cannot be resold, shared or otherwise redistributed
# Website: https://luts.iwltbap.com
0 128 256 384 512 640 768 896 1023
0 0 0
0 0 425
0 0 1094
0 0 1746
0 0 2491
0 0 3252
0 0 3710
0 0 4050
0 0 4076
0 271 0
0 222 233
0 138 1003
0 27 1686
0 0 2447
0 0 3232
0 0 3702
0 0 4047
0 0 4076
0 886 0
0 860 2
0 814 828
0 735 1578
0 591 2370
0 294 3197
0 0 3688
0 0 4040
0 0 4076
0 1464 0
0 1447 0
0 1418 452
0 1369 1388
0 1287 2242
0 1143 3135
0 871 3665
0 224 4030
0 0 4076
0 2119 0
0 2106 0
0 2085 0
0 2050 1019
0 1993 2019
0 1898 3015
0 1733 3625
0 1433 4013
0 758 4076
0 2894 0
0 2885 0
0 2870 0
0 2846 147
0 2807 1599
0 2739 2769
0 2623 3553
0 2425 3982
0 2071 4076
0 3486 0
0 3483 0
0 3478 0
0 3470 0
0 3455 546
0 3432 2270
0 3393 3411
0 3321 3925
0 3177 4076
0 3873 0
0 3872 0
0 3869 0
0 3865 0
0 3858 0
0 3848 1060
0 3830 3032
0 3801 3816
0 3749 4076
0 4076 0
0 4076 0
0 4076 0
0 4076 0
0 4076 0
0 4076 0
0 4076 1684
0 4076 3569
0 4076 4076
451 0 0
287 0 383
19 0 1073
0 0 1732
0 0 2481
0 0 3248
0 0 3708
0 0 4049
0 0 4076
368 240 0
193 191 187
1 111 980
0 9 1671
0 0 2437
0 0 3228
0 0 3700
0 0 4046
0 0 4076
205 869 0
52 843 0
0 797 802
0 717 1562
0 569 2360
0 265 3192
0 0 3686
0 0 4040
0 0 4076
10 1454 0
0 1437 0
0 1407 413
0 1358 1371
0 1274 2230
0 1130 3129
0 854 3663
0 203 4029
0 0 4076
0 2111 0
0 2099 0
0 2077 0
0 2042 996
0 1985 2006
0 1889 3008
0 1724 3623
0 1423 4012
0 738 4076
0 2888 0
0 2879 0
0 2865 0
0 2840 128
0 2802 1584
0 2733 2760
0 2617 3551
0 2419 3981
0 2064 4076
0 3484 0
0 3481 0
0 3476 0
0 3468 0
0 3454 524
0 3430 2258
0 3391 3408
0 3318 3924
0 3173 4076
0 3872 0
0 3871 0
0 3868 0
0 3864 0
0 3857 0
0 3847 1036
0 3829 3026
0 3800 3815
0 3748 4076
0 4076 0
0 4076 0
0 4076 0
0 4076 0
0 4076 0
0 4076 0
0 4076 1668
0 4076 3567
0 4076 4076
1130 0 0
1052 0 306
905 0 1036
611 0 1708
45 0 2463
0 0 3239
0 0 3705
0 0 4048
0 0 4076
1089 187 0
1008 139 115
855 67 940
542 0 1646
15 0 2419
0 0 3220
0 0 3697
0 0 4044
0 0 4076
1014 841 0
928 814 0
763 766 755
411 684 1535
0 530 2341
0 219 3185
0 0 3683
0 0 4038
0 0 4076
884 1435 0
786 1418 0
591 1388 344
196 1338 1341
0 1254 2211
0 1107 3119
0 825 3659
0 175 4027
0 0 4076
628 2098 0
497 2085 0
246 2064 0
3 2029 957
0 1971 1985
0 1874 2998
0 1708 3619
0 1404 4010
0 703 4076
99 2879 0
17 2870 0
0 2855 0
0 2830 99
0 2792 1558
0 2722 2744
0 2606 3547
0 2407 3979
0 2050 4076
0 3481 0
0 3478 0
0 3473 0
0 3464 0
0 3450 485
0 3427 2239
0 3387 3402
0 3314 3922
0 3167 4076
0 3871 0
0 3869 0
0 3866 0
0 3862 0
0 3856 0
0 3846 993
0 3828 3014
0 3798 3812
0 3746 4076
0 4076 0
0 4076 0
0 4076 0
0 4076 0
0 4076 0
0 4076 0
0 4076 1641
0 4076 3562
0 4076 4076
1795 0 0
1743 0 176
1651 0 975
1491 0 1668
1194 0 2435
483 0 3227
0 0 3700
0 0 4046
0 0 4076
1768 107 0
1715 66 15
1621 7 874
1458 0 1605
1154 0 2390
421 0 3206
0 0 3692
0 0 4042
0 0 4076
1719 794 0
1665 766 0
1568 715 673
1401 627 1492
1082 461 2311
315 147 3171
0 0 3677
0 0 4036
0 0 4076
1638 1405 0
1582 1388 0
1480 1357 238
1303 1306 1292
958 1220 2179
167 1069 3102
0 776 3654
0 130 4025
0 0 4076
1499 2076 0
1438 2063 0
1327 2042 0
1130 2006 889
714 1948 1950
22 1850 2977
0 1682 3613
0 1373 4007
0 645 4076
1247 2864 0
1174 2855 0
1040 2840 0
782 2815 60
257 2775 1514
0 2705 2721
0 2588 3539
0 2388 3976
0 2028 4076
687 3476 0
569 3473 0
359 3468 0
94 3459 0
0 3445 415
0 3421 2208
0 3380 3393
0 3307 3918
0 3157 4076
0 3868 0
0 3866 0
0 3864 0
0 3860 0
0 3853 0
0 3843 923
0 3825 2997
0 3795 3807
0 3743 4076
0 4076 0
0 4076 0
0 4076 0
0 4076 0
0 4076 0
0 4076 0
0 4076 1595
0 4076 3556
0 4076 4076
2557 0 0
2519 0 14
2453 0 868
2343 0 1602
2154 0 2388
1812 0 3205
1062 0 3691
0 0 4042
0 0 4076
2537 8 0
2498 0 0
2432 0 756
2321 0 1537
2130 0 2342
1784 0 3185
1016 0 3683
0 0 4038
0 0 4076
2502 712 0
2463 681 0
2395 626 523
2283 527 1419
2089 340 2262
1736 51 3146
936 0 3669
0 0 4032
0 0 4076
2444 1355 0
2405 1337 0
2335 1305 82
2220 1253 1208
2021 1164 2128
1655 1005 3074
792 690 3644
0 60 4021
0 0 4076
2348 2041 0
2308 2028 0
2236 2006 0
2116 1970 768
1907 1911 1892
1517 1811 2943
551 1639 3603
0 1321 4003
0 550 4076
2186 2839 0
2142 2830 0
2065 2815 0
1936 2791 6
1708 2748 1441
1262 2678 2679
219 2559 3528
0 2356 3971
0 1991 4076
1898 3468 0
1848 3464 0
1760 3459 0
1608 3450 0
1331 3435 292
707 3412 2156
0 3370 3377
0 3294 3912
0 3141 4076
1318 3864 0
1247 3862 0
1114 3860 0
866 3856 0
408 3850 0
13 3839 820
0 3821 2967
0 3791 3801
0 3738 4076
47 4076 0
5 4076 0
0 4076 0
0 4076 0
0 4076 0
0 4076 0
0 4076 1518
0 4076 3544
0 4076 4076
3300 0 0
3284 0 0
3256 0 667
3207 0 1489
3117 0 2310
2933 0 3171
2536 0 3677
1684 0 4036
0 0 4076
3291 0 0
3276 0 0
3247 0 524
3197 0 1420
3104 0 2263
2917 0 3146
2516 0 3669
1654 0 4032
0 0 4076
3277 562 0
3260 525 0
3231 457 238
3181 337 1293
3083 143 2181
2888 0 3103
2481 0 3654
1600 0 4025
0 0 4076
3252 1271 0
3235 1251 0
3204 1218 0
3150 1162 1062
3048 1067 2041
2841 895 3028
2423 532 3629
1508 0 4014
0 0 4076
3210 1982 0
3192 1969 0
3159 1947 0
3096 1910 541
2987 1849 1796
2763 1746 2884
2326 1568 3586
1349 1234 3996
0 400 4076
3133 2800 0
3111 2791 0
3071 2775 0
3004 2748 0
2871 2704 1314
2628 2632 2609
2161 2512 3508
1055 2305 3963
0 1932 4076
2982 3453 0
2953 3450 0
2901 3445 0
2814 3435 0
2663 3421 170
2388 3396 2071
1866 3353 3351
539 3274 3903
0 3114 4076
2658 3857 0
2622 3856 0
2557 3853 0
2451 3849 0
2270 3843 0
1945 3831 693
1250 3814 2909
80 3783 3789
0 3730 4076
1987 4076 0
1939 4076 0
1853 4076 0
1707 4076 0
1441 4076 0
849 4076 0
122 4076 1377
0 4076 3526
0 4076 4076
3744 0 0
3737 0 0
3726 0 231
3706 0 1291
3674 0 2179
3617 0 3102
3509 0 3654
3263 0 4025
2398 0 4076
3741 0 0
3734 0 0
3722 0 89
3703 0 1211
3670 0 2130
3613 0 3075
3504 0 3645
3253 0 4021
2376 0 4076
3734 253 0
3728 209 0
3716 140 0
3696 48 1063
3663 0 2043
3605 0 3028
3495 0 3629
3237 0 4015
2338 0 4076
3724 1124 0
3718 1103 0
3705 1065 0
3685 1002 776
3652 892 1894
3592 684 2944
3478 252 3603
3210 0 4003
2276 0 4076
3707 1885 0
3701 1871 0
3688 1848 0
3668 1809 184
3633 1745 1629
3571 1636 2785
3451 1446 3558
3163 1080 3985
2171 202 4076
3680 2730 0
3672 2720 0
3659 2703 0
3638 2676 0
3600 2631 1080
3534 2557 2492
3405 2433 3475
3079 2220 3950
1992 1831 4076
3632 3430 0
3623 3426 0
3609 3421 0
3585 3411 0
3543 3396 41
3469 3369 1924
3319 3324 3306
2915 3241 3888
1662 3067 4076
3542 3847 0
3532 3845 0
3514 3843 0
3485 3838 0
3435 3831 0
3340 3821 429
3137 3802 2813
2579 3771 3770
963 3716 4076
3352 4076 0
3337 4076 0
3311 4076 0
3268 4076 0
3185 4076 0
3026 4076 0
2670 4076 1123
1876 4076 3494
176 4076 4076
4068 0 0
4068 0 0
4067 0 0
4059 0 894
4044 0 1952
4020 0 2979
3978 0 3613
3892 0 4008
3715 0 4076
4068 0 0
4068 0 0
4066 0 0
4058 0 780
4043 0 1898
4018 0 2946
3975 0 3604
3889 0 4003
3712 0 4076
4068 0 0
4067 0 0
4063 0 0
4054 0 550
4040 0 1800
4015 0 2887
3971 0 3587
3885 0 3996
3704 0 4076
4067 843 0
4064 816 0
4059 767 0
4049 682 186
4035 524 1632
4010 246 2786
3965 0 3559
3878 0 3985
3694 0 4076
4060 1718 0
4056 1703 0
4050 1677 0
4042 1635 0
4026 1564 1322
4001 1444 2611
3955 1228 3509
3865 770 3963
3676 28 4076
4047 2612 0
4044 2602 0
4038 2584 0
4028 2556 0
4013 2509 586
3987 2432 2293
3937 2302 3417
3845 2077 3927
3647 1657 4076
4026 3389 0
4022 3385 0
4017 3379 0
4007 3369 0
3991 3352 0
3961 3323 1662
3908 3273 3222
3810 3181 3863
3595 2990 4076
3990 3829 0
3987 3827 0
3980 3825 0
3968 3820 0
3949 3814 0
3916 3802 185
3858 3783 2645
3748 3750 3739
3498 3693 4076
3920 4076 0
3915 4076 0
3907 4076 0
3893 4076 0
3871 4076 0
3832 4076 0
3764 4076 839
3629 4076 3438
3278 4076 4076
4076 0 0
4076 0 0
4076 0 0
4076 0 32
4076 0 1524
4076 0 2727
4076 0 3541
4076 0 3977
4076 0 4076
4076 0 0
4076 0 0
4076 0 0
4076 0 0
4076 0 1456
4076 0 2687
4076 0 3530
4076 0 3972
4076 0 4076
4076 0 0
4076 0 0
4076 0 0
4076 0 0
4076 0 1330
4076 0 2616
4076 0 3510
4076 0 3964
4076 0 4076
4076 184 0
4076 156 0
4076 109 0
4076 32 0
4076 0 1099
4076 0 2498
4076 0 3476
4076 0 3950
4076 0 4076
4076 1412 0
4076 1394 0
4076 1363 0
4076 1312 0
4076 1226 587
4076 1074 2297
4076 768 3418
4076 195 3927
4076 0 4076
4076 2411 0
4076 2401 0
4076 2382 0
4076 2351 0
4076 2300 25
4076 2217 1932
4076 2075 3306
4076 1824 3888
4076 1333 4076
4076 3315 0
4076 3311 0
4076 3303 0
4076 3292 0
4076 3272 0
4076 3238 1119
4076 3180 3050
4076 3064 3819
4076 2825 4076
4076 3799 0
4076 3797 0
4076 3794 0
4076 3790 0
4076 3782 0
4076 3770 0
4076 3749 2339
4076 3715 3682
4076 3653 4076
4076 4076 0
4076 4076 0
4076 4076 0
4076 4076 0
4076 4076 0
4076 4076 0
4076 4076 251
4076 4076 3326
4076 4076 4076
