Postproduction/IWLTBAP - Humble/LUTs by IWLTBAP (3DL)/UTILITY/BMDFilm BMPCC to Rec.709/U-BMDFILM-BMPCC-V3-LTR.3dl
# Copyright: (C) Copyright 2010-2018 by IWLTBAP SAS
# Cannot be resold, shared or otherwise redistributed
# Website: https://luts.iwltbap.com
0 256 512 768 1023
0 0 0
0 0 1150
0 0 2523
0 0 3718
0 0 4077
0 945 0
0 874 888
0 654 2404
0 0 3696
0 0 4077
0 2157 0
0 2124 0
0 2034 2059
0 1778 3634
0 819 4077
0 3498 0
0 3491 0
0 3468 600
0 3407 3425
0 3195 4077
0 4077 0
0 4077 0
0 4077 0
0 4077 1730
0 4077 4077
1186 0 0
964 0 1093
69 0 2495
0 0 3713
0 0 4077
1072 901 0
824 827 815
1 593 2376
0 0 3691
0 0 4077
690 2136 0
303 2103 0
0 2012 2025
0 1754 3628
0 764 4077
0 3494 0
0 3486 0
0 3463 539
0 3401 3416
0 3186 4077
0 4077 0
0 4077 0
0 4077 0
0 4077 1688
0 4077 4077
2587 0 0
2485 0 927
2192 0 2421
1118 0 3700
0 0 4077
2533 773 0
2429 688 586
2128 404 2298
994 0 3677
0 0 4077
2383 2081 0
2272 2046 0
1950 1953 1935
605 1686 3613
0 613 4077
1940 3480 0
1804 3471 0
1384 3449 346
0 3385 3392
0 3159 4077
78 4077 0
0 4077 0
0 4077 0
0 4077 1567
0 4077 4077
3751 0 0
3733 0 289
3682 0 2217
3521 0 3663
2431 0 4077
3741 315 0
3723 193 1
3672 1 2082
3506 0 3638
2372 0 4077
3716 1928 0
3696 1891 0
3642 1790 1676
3464 1496 3569
2209 247 4077
3641 3443 0
3619 3434 0
3554 3409 64
3334 3340 3322
1708 3088 4077
3366 4077 0
3327 4077 0
3203 4077 0
2698 4077 1178
192 4077 4077
4077 0 0
4077 0 0
4077 0 1574
4077 0 3552
4077 0 4077
4077 0 0
4077 0 0
4077 0 1381
4077 0 3521
4077 0 4077
4077 1463 0
4077 1415 0
4077 1280 648
4077 829 3431
4077 0 4077
4077 3331 0
4077 3320 0
4077 3288 0
4077 3198 3070
4077 2851 4077
4077 4077 0
4077 4077 0
4077 4077 0
4077 4077 265
4077 4077 4077
