Postproduction/IWLTBAP - Humble/LUTs by IWLTBAP (3DL)/UTILITY/BMDFilm BMPCC to Rec.709/U-BMDFILM-BMPCC-V1-LTR.3dl
# Copyright: (C) Copyright 2010-2018 by IWLTBAP SAS
# Cannot be resold, shared or otherwise redistributed
# Website: https://luts.iwltbap.com
0 64 128 192 256 320 384 448 512 576 640 704 768 832 896 960 1023
0 0 0
0 0 28
0 0 425
0 0 775
0 0 1094
0 0 1413
0 0 1746
0 0 2103
0 0 2491
0 0 2907
0 0 3252
0 0 3504
0 0 3710
0 0 3891
0 0 4050
0 0 4076
0 0 4076
0 0 0
0 0 1
0 0 359
0 0 733
0 0 1061
0 0 1387
0 0 1724
0 0 2085
0 0 2475
0 0 2894
0 0 3245
0 0 3499
0 0 3707
0 0 3889
0 0 4049
0 0 4076
0 0 4076
0 271 0
0 253 0
0 222 233
0 185 653
0 138 1003
0 87 1340
0 27 1686
0 0 2052
0 0 2447
0 0 2871
0 0 3232
0 0 3492
0 0 3702
0 0 3886
0 0 4047
0 0 4076
0 0 4076
0 598 0
0 585 0
0 562 94
0 535 546
0 498 929
0 448 1282
0 382 1639
0 289 2013
0 170 2414
0 45 2844
0 0 3217
0 0 3483
0 0 3696
0 0 3882
0 0 4044
0 0 4076
0 0 4076
0 886 0
0 877 0
0 860 2
0 840 388
0 814 828
0 780 1206
0 735 1578
0 675 1962
0 591 2370
0 471 2810
0 294 3197
0 88 3471
0 0 3688
0 0 3876
0 0 4040
0 0 4076
0 0 4076
0 1170 0
0 1163 0
0 1149 0
0 1133 166
0 1113 682
0 1087 1103
0 1053 1496
0 1008 1895
0 949 2315
0 868 2765
0 757 3173
0 591 3455
0 333 3678
0 53 3869
0 0 4036
0 0 4076
0 0 4076
0 1464 0
0 1459 0
0 1447 0
0 1435 5
0 1418 452
0 1396 958
0 1369 1388
0 1333 1808
0 1287 2242
0 1225 2703
0 1143 3135
0 1031 3435
0 871 3665
0 620 3860
0 224 4030
0 0 4076
0 0 4076
0 1778 0
0 1773 0
0 1764 0
0 1753 0
0 1739 132
0 1721 741
0 1698 1238
0 1669 1691
0 1631 2146
0 1581 2623
0 1515 3084
0 1428 3408
0 1311 3648
0 1147 3848
0 902 4022
0 477 4076
0 31 4076
0 2119 0
0 2114 0
0 2106 0
0 2097 0
0 2085 0
0 2070 379
0 2050 1019
0 2025 1530
0 1993 2019
0 1951 2517
0 1898 3015
0 1826 3371
0 1733 3625
0 1607 3833
0 1433 4013
0 1181 4076
0 758 4076
0 2491 0
0 2487 0
0 2480 0
0 2472 0
0 2462 0
0 2449 35
0 2432 655
0 2411 1301
0 2383 1845
0 2348 2377
0 2302 2914
0 2243 3321
0 2165 3595
0 2063 3812
0 1927 3999
0 1740 4076
0 1472 4076
0 2894 0
0 2891 0
0 2885 0
0 2878 0
0 2870 0
0 2860 0
0 2846 147
0 2828 937
0 2807 1599
0 2778 2187
0 2739 2769
0 2688 3248
0 2623 3553
0 2538 3786
0 2425 3982
0 2276 4076
0 2071 4076
0 3236 0
0 3234 0
0 3231 0
0 3227 0
0 3222 0
0 3216 0
0 3208 0
0 3198 331
0 3185 1223
0 3170 1920
0 3146 2563
0 3115 3138
0 3072 3496
0 3016 3749
0 2936 3958
0 2819 4075
0 2660 4076
0 3486 0
0 3485 0
0 3483 0
0 3481 0
0 3478 0
0 3474 0
0 3470 0
0 3463 0
0 3455 546
0 3446 1519
0 3432 2270
0 3415 2955
0 3393 3411
0 3363 3699
0 3321 3925
0 3262 4074
0 3177 4076
0 3692 0
0 3691 0
0 3690 0
0 3688 0
0 3687 0
0 3684 0
0 3681 0
0 3676 0
0 3671 0
0 3665 777
0 3657 1836
0 3645 2652
0 3631 3277
0 3612 3629
0 3587 3879
0 3553 4071
0 3506 4076
0 3873 0
0 3873 0
0 3872 0
0 3871 0
0 3869 0
0 3867 0
0 3865 0
0 3862 0
0 3858 0
0 3854 45
0 3848 1060
0 3840 2181
0 3830 3032
0 3818 3520
0 3801 3816
0 3778 4040
0 3749 4076
0 4036 0
0 4036 0
0 4035 0
0 4034 0
0 4033 0
0 4032 0
0 4031 0
0 4029 0
0 4026 0
0 4022 0
0 4019 119
0 4014 1363
0 4007 2555
0 3998 3336
0 3987 3721
0 3971 3985
0 3951 4076
0 4076 0
0 4076 0
0 4076 0
0 4076 0
0 4076 0
0 4076 0
0 4076 0
0 4076 0
0 4076 0
0 4076 0
0 4076 0
0 4076 168
0 4076 1684
0 4076 2947
0 4076 3569
0 4076 3900
0 4076 4076
37 0 0
2 0 15
0 0 410
0 0 766
0 0 1086
0 0 1407
0 0 1741
0 0 2099
0 0 2488
0 0 2904
0 0 3250
0 0 3503
0 0 3709
0 0 3891
0 0 4050
0 0 4076
0 0 4076
11 0 0
0 0 0
0 0 343
0 0 722
0 0 1053
0 0 1381
0 0 1719
0 0 2080
0 0 2471
0 0 2891
0 0 3244
0 0 3498
0 0 3706
0 0 3889
0 0 4049
0 0 4076
0 0 4076
0 260 0
0 242 0
0 210 216
0 173 641
0 128 995
0 78 1334
0 19 1681
0 0 2048
0 0 2444
0 0 2868
0 0 3231
0 0 3491
0 0 3701
0 0 3885
0 0 4046
0 0 4076
0 0 4076
0 589 0
0 577 0
0 554 80
0 526 533
0 489 920
0 439 1275
0 372 1634
0 278 2008
0 160 2410
0 38 2841
0 0 3215
0 0 3482
0 0 3695
0 0 3881
0 0 4044
0 0 4076
0 0 4076
0 880 0
0 870 0
0 854 0
0 834 372
0 808 818
0 773 1199
0 728 1572
0 668 1957
0 583 2367
0 462 2807
0 283 3195
0 80 3470
0 0 3688
0 0 3876
0 0 4040
0 0 4076
0 0 4076
0 1165 0
0 1157 0
0 1144 0
0 1128 151
0 1108 671
0 1082 1095
0 1048 1491
0 1003 1890
0 943 2311
0 863 2762
0 750 3170
0 583 3454
0 324 3677
0 47 3868
0 0 4036
0 0 4076
0 0 4076
0 1461 0
0 1455 0
0 1443 0
0 1431 1
0 1414 438
0 1392 950
0 1365 1382
0 1329 1803
0 1282 2237
0 1220 2700
0 1138 3133
0 1025 3434
0 865 3664
0 612 3859
0 216 4029
0 0 4076
0 0 4076
0 1775 0
0 1770 0
0 1761 0
0 1750 0
0 1736 121
0 1718 731
0 1695 1231
0 1665 1685
0 1627 2142
0 1577 2619
0 1511 3082
0 1424 3407
0 1306 3647
0 1142 3848
0 896 4022
0 469 4076
0 28 4076
0 2115 0
0 2111 0
0 2104 0
0 2094 0
0 2082 0
0 2067 367
0 2047 1011
0 2022 1525
0 1990 2014
0 1948 2514
0 1894 3012
0 1823 3370
0 1730 3624
0 1603 3832
0 1430 4012
0 1177 4076
0 751 4076
0 2489 0
0 2485 0
0 2478 0
0 2470 0
0 2459 0
0 2446 30
0 2430 644
0 2408 1294
0 2381 1840
0 2345 2373
0 2300 2911
0 2240 3319
0 2163 3594
0 2060 3812
0 1924 3999
0 1736 4076
0 1468 4076
0 2892 0
0 2889 0
0 2883 0
0 2876 0
0 2868 0
0 2857 0
0 2844 139
0 2826 928
0 2805 1594
0 2776 2182
0 2737 2766
0 2686 3246
0 2621 3552
0 2535 3785
0 2423 3982
0 2273 4076
0 2069 4076
0 3235 0
0 3233 0
0 3229 0
0 3226 0
0 3221 0
0 3215 0
0 3207 0
0 3197 321
0 3184 1215
0 3169 1915
0 3145 2558
0 3113 3136
0 3071 3495
0 3014 3749
0 2934 3957
0 2817 4075
0 2658 4076
0 3485 0
0 3484 0
0 3482 0
0 3480 0
0 3477 0
0 3474 0
0 3469 0
0 3463 0
0 3455 538
0 3445 1513
0 3432 2266
0 3415 2952
0 3392 3410
0 3362 3699
0 3320 3924
0 3261 4074
0 3175 4076
0 3691 0
0 3691 0
0 3689 0
0 3688 0
0 3686 0
0 3684 0
0 3681 0
0 3676 0
0 3671 0
0 3665 767
0 3656 1831
0 3645 2649
0 3630 3276
0 3612 3628
0 3586 3879
0 3553 4071
0 3506 4076
0 3873 0
0 3872 0
0 3871 0
0 3870 0
0 3869 0
0 3867 0
0 3864 0
0 3861 0
0 3858 0
0 3854 40
0 3848 1051
0 3840 2176
0 3830 3030
0 3817 3519
0 3800 3816
0 3778 4040
0 3748 4076
0 4036 0
0 4035 0
0 4035 0
0 4034 0
0 4033 0
0 4032 0
0 4031 0
0 4029 0
0 4025 0
0 4022 0
0 4018 116
0 4013 1357
0 4007 2552
0 3997 3335
0 3987 3721
0 3971 3984
0 3951 4076
0 4076 0
0 4076 0
0 4076 0
0 4076 0
0 4076 0
0 4076 0
0 4076 0
0 4076 0
0 4076 0
0 4076 0
0 4076 0
0 4076 166
0 4076 1678
0 4076 2944
0 4076 3568
0 4076 3900
0 4076 4076
451 0 0
395 0 0
287 0 383
157 0 748
19 0 1073
0 0 1396
0 0 1732
0 0 2091
0 0 2481
0 0 2899
0 0 3248
0 0 3501
0 0 3708
0 0 3890
0 0 4049
0 0 4076
0 0 4076
422 0 0
363 0 0
252 0 314
127 0 704
11 0 1040
0 0 1369
0 0 1710
0 0 2073
0 0 2465
0 0 2886
0 0 3240
0 0 3496
0 0 3705
0 0 3888
0 0 4048
0 0 4076
0 0 4076
368 240 0
305 222 0
193 191 187
76 154 621
1 111 980
0 62 1322
0 9 1671
0 0 2040
0 0 2437
0 0 2863
0 0 3228
0 0 3489
0 0 3700
0 0 3885
0 0 4046
0 0 4076
0 0 4076
297 576 0
232 563 0
128 540 56
20 511 510
0 473 905
0 422 1264
0 354 1624
0 258 2000
0 143 2403
0 29 2836
0 0 3212
0 0 3480
0 0 3694
0 0 3881
0 0 4043
0 0 4076
0 0 4076
205 869 0
147 860 0
52 843 0
1 823 345
0 797 802
0 762 1187
0 717 1562
0 655 1949
0 569 2360
0 445 2801
0 265 3192
0 67 3468
0 0 3686
0 0 3875
0 0 4040
0 0 4076
0 0 4076
103 1157 0
50 1149 0
1 1136 0
0 1120 126
0 1100 651
0 1073 1082
0 1039 1481
0 994 1882
0 933 2304
0 852 2755
0 738 3167
0 569 3453
0 307 3676
0 37 3867
0 0 4035
0 0 4076
0 0 4076
10 1454 0
0 1447 0
0 1437 0
0 1423 0
0 1407 413
0 1385 935
0 1358 1371
0 1322 1794
0 1274 2230
0 1213 2694
0 1130 3129
0 1016 3432
0 854 3663
0 598 3858
0 203 4029
0 0 4076
0 0 4076
0 1769 0
0 1764 0
0 1755 0
0 1744 0
0 1730 102
0 1712 712
0 1689 1219
0 1659 1676
0 1620 2134
0 1570 2613
0 1505 3078
0 1417 3405
0 1299 3646
0 1134 3847
0 886 4021
0 455 4076
0 24 4076
0 2111 0
0 2106 0
0 2099 0
0 2089 0
0 2077 0
0 2062 346
0 2042 996
0 2017 1514
0 1985 2006
0 1943 2507
0 1889 3008
0 1818 3368
0 1724 3623
0 1597 3831
0 1423 4012
0 1168 4076
0 738 4076
0 2484 0
0 2480 0
0 2474 0
0 2466 0
0 2455 0
0 2442 22
0 2425 624
0 2404 1283
0 2376 1831
0 2341 2366
0 2295 2906
0 2235 3317
0 2158 3592
0 2055 3811
0 1918 3998
0 1730 4076
0 1461 4076
0 2888 0
0 2885 0
0 2879 0
0 2873 0
0 2865 0
0 2854 0
0 2840 128
0 2822 912
0 2802 1584
0 2772 2175
0 2733 2760
0 2682 3243
0 2617 3551
0 2531 3784
0 2419 3981
0 2268 4076
0 2064 4076
0 3233 0
0 3231 0
0 3228 0
0 3224 0
0 3219 0
0 3213 0
0 3205 0
0 3195 303
0 3183 1202
0 3167 1907
0 3143 2552
0 3111 3132
0 3068 3493
0 3011 3748
0 2930 3957
0 2813 4075
0 2653 4076
0 3484 0
0 3483 0
0 3481 0
0 3479 0
0 3476 0
0 3473 0
0 3468 0
0 3461 0
0 3454 524
0 3444 1503
0 3430 2258
0 3413 2948
0 3391 3408
0 3360 3698
0 3318 3924
0 3260 4074
0 3173 4076
0 3691 0
0 3690 0
0 3689 0
0 3687 0
0 3685 0
0 3683 0
0 3680 0
0 3675 0
0 3670 0
0 3664 751
0 3655 1823
0 3644 2642
0 3630 3272
0 3611 3627
0 3585 3878
0 3551 4070
0 3505 4076
0 3872 0
0 3872 0
0 3871 0
0 3870 0
0 3868 0
0 3866 0
0 3864 0
0 3861 0
0 3857 0
0 3853 32
0 3847 1036
0 3840 2169
0 3829 3026
0 3817 3518
0 3800 3815
0 3777 4039
0 3748 4076
0 4035 0
0 4035 0
0 4035 0
0 4034 0
0 4033 0
0 4032 0
0 4030 0
0 4028 0
0 4025 0
0 4022 0
0 4018 110
0 4013 1344
0 4007 2546
0 3997 3332
0 3986 3720
0 3970 3984
0 3951 4076
0 4076 0
0 4076 0
0 4076 0
0 4076 0
0 4076 0
0 4076 0
0 4076 0
0 4076 0
0 4076 0
0 4076 0
0 4076 0
0 4076 162
0 4076 1668
0 4076 2939
0 4076 3567
0 4076 3899
0 4076 4076
807 0 0
769 0 0
702 0 350
614 0 727
485 0 1057
293 0 1383
65 0 1721
0 0 2082
0 0 2473
0 0 2892
0 0 3244
0 0 3499
0 0 3707
0 0 3889
0 0 4049
0 0 4076
0 0 4076
787 0 0
749 0 0
680 0 277
589 0 681
457 0 1024
261 0 1357
43 0 1699
0 0 2064
0 0 2458
0 0 2880
0 0 3237
0 0 3494
0 0 3704
0 0 3887
0 0 4047
0 0 4076
