Postproduction/IWLTBAP - Humble/LUTs by IWLTBAP (3DL)/UTILITY/BMDFilm BMPCC to Rec.709/U-BMDFILM-BMPCC-V2-LTR.3dl
# Copyright: (C) Copyright 2010-2018 by IWLTBAP SAS
# Cannot be resold, shared or otherwise redistributed
# Website: https://luts.iwltbap.com
0 64 128 192 256 320 384 448 512 576 640 704 768 832 896 960 1023
0 0 0
0 0 195
0 0 672
0 0 1041
0 0 1360
0 0 1670
0 0 1988
0 0 2321
0 0 2676
0 0 3051
0 0 3358
0 0 3580
0 0 3761
0 0 3919
0 0 4056
0 0 4079
0 0 4079
0 125 0
0 105 113
0 70 600
0 29 997
0 8 1328
0 3 1645
0 0 1967
0 0 2303
0 0 2662
0 0 3039
0 0 3352
0 0 3576
0 0 3758
0 0 3917
0 0 4055
0 0 4079
0 0 4079
0 502 0
0 481 11
0 445 457
0 401 914
0 345 1269
0 274 1600
0 185 1931
0 82 2273
0 10 2636
0 0 3019
0 0 3341
0 0 3569
0 0 3754
0 0 3914
0 0 4053
0 0 4079
0 0 4079
0 856 0
0 843 0
0 820 278
0 790 801
0 751 1195
0 698 1544
0 625 1886
0 521 2237
0 379 2605
0 203 2995
0 43 3327
0 0 3561
0 0 3748
0 0 3910
0 0 4051
0 0 4079
0 0 4079
0 1152 0
0 1143 0
0 1126 78
0 1106 630
0 1080 1093
0 1045 1470
0 999 1828
0 937 2189
0 850 2566
0 721 2964
0 525 3309
0 253 3551
0 37 3741
0 0 3905
0 0 4048
0 0 4079
0 0 4079
0 1435 0
0 1427 0
0 1414 1
0 1399 362
0 1379 943
0 1353 1369
0 1319 1751
0 1275 2127
0 1216 2515
0 1135 2924
0 1021 3288
0 848 3537
0 564 3733
0 184 3899
0 0 4044
0 0 4079
0 0 4079
0 1720 0
0 1714 0
0 1704 0
0 1691 69
0 1675 699
0 1655 1225
0 1628 1646
0 1594 2045
0 1548 2448
0 1489 2868
0 1408 3254
0 1297 3519
0 1137 3721
0 878 3891
0 430 4039
0 46 4079
0 0 4079
0 2018 0
0 2013 0
0 2004 0
0 1994 0
0 1981 306
0 1964 1004
0 1942 1500
0 1914 1935
0 1878 2360
0 1831 2795
0 1768 3209
0 1685 3495
0 1572 3706
0 1412 3881
0 1167 4032
0 722 4079
0 137 4079
0 2335 0
0 2331 0
0 2323 0
0 2315 0
0 2304 14
0 2290 612
0 2272 1285
0 2248 1783
0 2218 2242
0 2180 2700
0 2129 3147
0 2063 3463
0 1975 3686
0 1856 3868
0 1690 4024
0 1445 4079
0 1020 4079
0 2676 0
0 2672 0
0 2666 0
0 2659 0
0 2650 0
0 2638 113
0 2622 912
0 2603 1562
0 2578 2080
0 2545 2572
0 2504 3057
0 2449 3419
0 2378 3660
0 2284 3850
0 2157 4012
0 1981 4079
0 1727 4079
0 3039 0
0 3036 0
0 3031 0
0 3025 0
0 3018 0
0 3008 0
0 2996 297
0 2980 1201
0 2961 1848
0 2935 2397
0 2900 2927
0 2855 3354
0 2795 3623
0 2718 3827
0 2616 3997
0 2479 4079
0 2291 4079
0 3343 0
0 3342 0
0 3339 0
0 3336 0
0 3332 0
0 3326 0
0 3319 0
0 3310 534
0 3299 1484
0 3285 2150
0 3264 2740
0 3236 3257
0 3199 3573
0 3148 3795
0 3076 3976
0 2972 4078
0 2829 4079
0 3564 0
0 3563 0
0 3562 0
0 3560 0
0 3557 0
0 3554 0
0 3550 0
0 3545 0
0 3538 768
0 3529 1771
0 3517 2473
0 3502 3094
0 3482 3499
0 3455 3751
0 3419 3947
0 3367 4077
0 3291 4079
0 3745 0
0 3744 0
0 3743 0
0 3742 0
0 3740 0
0 3738 0
0 3735 0
0 3731 0
0 3727 32
0 3721 1029
0 3714 2071
0 3704 2821
0 3691 3380
0 3675 3689
0 3653 3908
0 3623 4074
0 3582 4079
0 3902 0
0 3902 0
0 3901 0
0 3900 0
0 3899 0
0 3897 0
0 3895 0
0 3893 0
0 3890 0
0 3886 123
0 3881 1319
0 3874 2391
0 3865 3163
0 3854 3594
0 3840 3853
0 3820 4048
0 3795 4079
0 4044 0
0 4043 0
0 4043 0
0 4042 0
0 4041 0
0 4040 0
0 4039 0
0 4037 0
0 4035 0
0 4033 0
0 4029 203
0 4025 1618
0 4019 2734
0 4011 3432
0 4001 3771
0 3988 4000
0 3970 4079
0 4079 0
0 4079 0
0 4079 0
0 4079 0
0 4079 0
0 4079 0
0 4079 0
0 4079 0
0 4079 0
0 4079 0
0 4079 0
0 4079 247
0 4079 1926
0 4079 3087
0 4079 3637
0 4079 3926
0 4079 4079
208 0 0
135 0 176
18 0 656
1 0 1031
0 0 1352
0 0 1664
0 0 1983
0 0 2317
0 0 2673
0 0 3048
0 0 3356
0 0 3579
0 0 3760
0 0 3918
0 0 4056
0 0 4079
0 0 4079
169 112 0
96 92 93
9 57 582
0 17 986
0 6 1320
0 2 1639
0 0 1962
0 0 2299
0 0 2658
0 0 3037
0 0 3350
0 0 3575
0 0 3757
0 0 3916
0 0 4055
0 0 4079
0 0 4079
101 489 0
30 468 7
3 432 437
0 388 902
0 332 1261
0 260 1594
0 173 1926
0 72 2269
0 8 2633
0 0 3016
0 0 3339
0 0 3568
0 0 3753
0 0 3913
0 0 4053
0 0 4079
0 0 4079
25 848 0
6 835 0
0 811 257
0 781 787
0 741 1187
0 688 1538
0 614 1881
0 508 2232
0 366 2602
0 191 2992
0 38 3325
0 0 3560
0 0 3748
0 0 3910
0 0 4051
0 0 4079
0 0 4079
7 1146 0
0 1137 0
0 1120 62
0 1100 613
0 1073 1084
0 1039 1463
0 992 1823
0 929 2185
0 841 2563
0 711 2961
0 513 3308
0 242 3550
0 33 3741
0 0 3905
0 0 4048
0 0 4079
0 0 4079
0 1430 0
0 1423 0
0 1410 0
0 1394 342
0 1374 932
0 1348 1361
0 1314 1745
0 1270 2123
0 1210 2511
0 1129 2921
0 1014 3286
0 840 3536
0 553 3732
0 175 3899
0 0 4044
0 0 4079
0 0 4079
0 1716 0
0 1710 0
0 1700 0
0 1687 62
0 1671 683
0 1651 1217
0 1624 1640
0 1590 2041
0 1544 2444
0 1484 2865
0 1403 3252
0 1292 3518
0 1131 3720
0 869 3891
0 421 4038
0 43 4079
0 0 4079
0 2015 0
0 2010 0
0 2001 0
0 1991 0
0 1978 291
0 1961 993
0 1939 1494
0 1911 1930
0 1875 2356
0 1827 2792
0 1765 3207
0 1681 3494
0 1568 3705
0 1407 3880
0 1161 4032
0 713 4079
0 133 4079
0 2332 0
0 2328 0
0 2321 0
0 2312 0
0 2301 11
0 2287 597
0 2269 1277
0 2246 1777
0 2216 2238
0 2177 2696
0 2126 3145
0 2060 3462
0 1972 3685
0 1853 3867
0 1686 4023
0 1440 4079
0 1012 4079
0 2674 0
0 2670 0
0 2664 0
0 2657 0
0 2647 0
0 2635 105
0 2620 899
0 2600 1555
0 2575 2075
0 2543 2568
0 2501 3055
0 2447 3417
0 2375 3659
0 2281 3849
0 2154 4012
0 1978 4079
0 1723 4079
0 3037 0
0 3034 0
0 3030 0
0 3024 0
0 3016 0
0 3006 0
0 2994 284
0 2978 1192
0 2959 1843
0 2933 2393
0 2898 2924
0 2852 3353
0 2793 3623
0 2716 3826
0 2614 3997
0 2477 4079
0 2288 4079
0 3342 0
0 3341 0
0 3338 0
0 3335 0
0 3331 0
0 3325 0
0 3318 0
0 3309 522
0 3297 1477
0 3284 2145
0 3263 2737
0 3235 3255
0 3197 3572
0 3146 3794
0 3075 3976
0 2970 4078
0 2826 4079
0 3564 0
0 3563 0
0 3561 0
0 3559 0
0 3557 0
0 3553 0
0 3549 0
0 3544 0
0 3537 759
0 3528 1765
0 3517 2470
0 3502 3091
0 3482 3497
0 3455 3751
0 3418 3947
0 3366 4077
0 3290 4079
0 3744 0
0 3744 0
0 3742 0
0 3741 0
0 3739 0
0 3737 0
0 3735 0
0 3731 0
0 3727 26
0 3721 1018
0 3713 2066
0 3704 2818
0 3691 3379
0 3674 3689
0 3652 3908
0 3623 4074
0 3582 4079
0 3902 0
0 3902 0
0 3901 0
0 3900 0
0 3899 0
0 3897 0
0 3895 0
0 3893 0
0 3890 0
0 3886 117
0 3880 1310
0 3874 2387
0 3865 3160
0 3854 3593
0 3839 3853
0 3820 4047
0 3794 4079
0 4044 0
0 4043 0
0 4043 0
0 4042 0
0 4041 0
0 4040 0
0 4039 0
0 4037 0
0 4035 0
0 4032 0
0 4029 200
0 4024 1611
0 4018 2730
0 4011 3431
0 4001 3770
0 3988 3999
0 3970 4079
0 4079 0
0 4079 0
0 4079 0
0 4079 0
0 4079 0
0 4079 0
0 4079 0
0 4079 0
0 4079 0
0 4079 0
0 4079 0
0 4079 245
0 4079 1921
0 4079 3084
0 4079 3637
0 4079 3926
0 4079 4079
700 0 0
640 0 142
519 0 627
362 0 1013
170 0 1339
17 0 1654
0 0 1974
0 0 2310
0 0 2667
0 0 3043
0 0 3354
0 0 3577
0 0 3759
0 0 3917
0 0 4056
0 0 4079
0 0 4079
669 90 0
605 70 60
479 36 550
321 9 967
133 5 1306
6 1 1629
0 0 1954
0 0 2292
0 0 2652
0 0 3032
0 0 3348
0 0 3574
0 0 3756
0 0 3916
0 0 4055
0 0 4079
0 0 4079
609 466 0
539 445 3
408 409 402
250 365 881
75 308 1247
2 237 1583
0 151 1917
0 55 2262
0 5 2627
0 0 3012
0 0 3336
0 0 3567
0 0 3752
0 0 3913
0 0 4053
0 0 4079
0 0 4079
530 834 0
455 820 0
323 795 225
172 765 763
27 724 1171
0 669 1526
0 593 1872
0 486 2225
0 343 2596
0 170 2987
0 30 3323
0 0 3559
0 0 3747
0 0 3909
0 0 4050
0 0 4079
0 0 4079
424 1136 0
348 1126 0
218 1110 37
81 1089 583
4 1062 1067
0 1027 1451
0 980 1813
0 916 2177
0 826 2556
0 693 2956
0 491 3305
0 222 3548
0 26 3740
0 0 3904
0 0 4047
0 0 4079
0 0 4079
288 1422 0
215 1415 0
96 1402 0
11 1386 309
0 1366 911
0 1340 1348
0 1305 1735
0 1260 2115
0 1200 2505
0 1118 2915
0 1002 3283
0 824 3535
0 534 3731
0 158 3898
0 0 4043
0 0 4079
0 0 4079
127 1710 0
69 1704 0
9 1693 0
0 1681 48
0 1665 656
0 1644 1202
0 1617 1630
0 1582 2032
0 1537 2438
0 1476 2859
0 1395 3249
0 1283 3517
0 1120 3719
0 854 3890
0 404 4038
0 36 4079
0 0 4079
13 2009 0
4 2004 0
0 1996 0
0 1985 0
0 1972 265
0 1955 973
0 1934 1482
0 1905 1921
0 1869 2349
0 1821 2786
0 1759 3203
0 1675 3493
0 1560 3704
0 1399 3880
0 1151 4031
0 696 4079
0 127 4079
0 2328 0
0 2323 0
0 2316 0
0 2307 0
0 2296 8
0 2282 569
0 2264 1262
0 2241 1768
0 2211 2230
0 2172 2690
0 2121 3141
0 2055 3460
0 1966 3684
0 1847 3866
0 1680 4023
0 1432 4079
0 999 4079
0 2670 0
0 2666 0
0 2660 0
0 2653 0
0 2643 0
0 2631 94
0 2616 879
0 2596 1544
0 2571 2067
0 2539 2562
0 2497 3050
0 2442 3415
0 2371 3657
0 2276 3849
0 2149 4012
0 1972 4079
0 1716 4079
0 3034 0
0 3031 0
0 3026 0
0 3020 0
0 3013 0
0 3003 0
0 2991 263
0 2975 1176
0 2957 1833
0 2930 2387
0 2894 2919
0 2849 3350
0 2790 3621
0 2712 3825
0 2610 3996
0 2472 4079
0 2284 4079
0 3341 0
0 3339 0
0 3336 0
0 3333 0
0 3329 0
0 3323 0
0 3316 0
0 3307 501
0 3297 1464
0 3282 2138
0 3261 2731
0 3233 3252
0 3195 3570
0 3144 3793
0 3072 3975
0 2967 4078
0 2823 4079
0 3563 0
0 3562 0
0 3560 0
0 3558 0
0 3556 0
0 3552 0
0 3548 0
0 3543 0
0 3536 745
0 3527 1755
0 3515 2463
0 3500 3087
0 3480 3496
0 3453 3750
0 3416 3946
0 3364 4077
0 3288 4079
0 3744 0
0 3743 0
0 3742 0
0 3740 0
0 3739 0
0 3737 0
0 3734 0
0 3730 0
0 3726 19
0 3720 1000
0 3712 2058
0 3703 2812
0 3690 3376
0 3674 3687
0 3651 3907
0 3622 4074
0 3581 4079
0 3902 0
0 3901 0
0 3900 0
0 3899 0
0 3898 0
0 3897 0
0 3895 0
0 3892 0
0 3889 0
0 3885 107
0 3880 1294
0 3873 2380
0 3865 3157
0 3853 3592
0 3839 3852
0 3819 4047
0 3794 4079
0 4043 0
0 4043 0
0 4042 0
0 4042 0
0 4041 0
0 4040 0
0 4039 0
0 4037 0
0 4035 0
0 4032 0
0 4028 194
0 4024 1599
0 4018 2725
0 4011 3428
0 4001 3769
0 3987 3999
0 3970 4079
0 4079 0
0 4079 0
0 4079 0
0 4079 0
0 4079 0
0 4079 0
0 4079 0
0 4079 0
0 4079 0
0 4079 0
0 4079 0
0 4079 242
0 4079 1911
0 4079 3079
0 4079 3635
0 4079 3925
0 4079 4079
1072 0 0
1034 0 102
965 0 590
873 0 991
737 0 1323
523 0 1642
224 0 1964
13 0 2301
0 0 2660
0 0 3038
0 0 3351
0 0 3576
0 0 3758
0 0 3917
0 0 4055
0 0 4079
0 0 4079
1052 64 0
1013 44 22
942 13 508
847 7 944
706 3 1290
485 0 1616
191 0 1943
8 0 2284
0 0 2645
0 0 3026
0 0 3345
0 0 3572
0 0 3755
0 0 3915
0 0 4054
0 0 4079
