Postproduction/IWLTBAP - Humble/LUTs by IWLTBAP (3DL)/UTILITY/BMDFilm BMPCC to Rec.709/U-BMDFILM-BMPCC-V3-LTR.3dl
# Copyright: (C) Copyright 2010-2018 by IWLTBAP SAS
# Cannot be resold, shared or otherwise redistributed
# Website: https://luts.iwltbap.com
0 64 128 192 256 320 384 448 512 576 640 704 768 832 896 960 1023
0 0 0
0 0 83
0 0 489
0 0 836
0 0 1150
0 0 1464
0 0 1791
0 0 2142
0 0 2523
0 0 2931
0 0 3269
0 0 3515
0 0 3718
0 0 3895
0 0 4051
0 0 4077
0 0 4077
0 31 0
0 18 23
0 1 424
0 0 794
0 0 1118
0 0 1438
0 0 1770
0 0 2124
0 0 2507
0 0 2918
0 0 3262
0 0 3511
0 0 3715
0 0 3893
0 0 4050
0 0 4077
0 0 4077
0 336 0
0 317 0
0 286 297
0 248 714
0 201 1060
0 143 1392
0 78 1732
0 12 2092
0 0 2480
0 0 2896
0 0 3250
0 0 3504
0 0 3710
0 0 3890
0 0 4048
0 0 4077
0 0 4077
0 660 0
0 648 0
0 625 150
0 598 609
0 562 987
0 513 1335
0 446 1686
0 353 2053
0 231 2447
0 94 2869
0 0 3235
0 0 3495
0 0 3704
0 0 3886
0 0 4045
0 0 4077
0 0 4077
0 945 0
0 936 0
0 920 14
0 899 452
0 874 888
0 841 1261
0 796 1626
0 737 2003
0 654 2404
0 535 2836
0 358 3215
0 134 3483
0 0 3696
0 0 3881
0 0 4042
0 0 4077
0 0 4077
0 1225 0
0 1217 0
0 1204 0
0 1189 221
0 1169 743
0 1143 1159
0 1110 1546
0 1065 1938
0 1007 2349
0 928 2792
0 818 3191
0 654 3468
0 395 3686
0 89 3874
0 0 4037
0 0 4077
0 0 4077
0 1515 0
0 1509 0
0 1497 0
0 1485 22
0 1469 516
0 1447 1017
0 1421 1439
0 1385 1852
0 1340 2278
0 1279 2731
0 1198 3154
0 1088 3448
0 930 3674
0 682 3865
0 283 4031
0 0 4077
0 0 4077
0 1823 0
0 1818 0
0 1809 0
0 1798 0
0 1784 183
0 1767 802
0 1744 1291
0 1715 1737
0 1678 2184
0 1629 2652
0 1565 3104
0 1479 3421
0 1364 3657
0 1202 3853
0 961 4024
0 540 4077
0 65 4077
0 2157 0
0 2153 0
0 2145 0
0 2136 0
0 2124 0
0 2109 441
0 2090 1076
0 2065 1579
0 2034 2059
0 1993 2548
0 1940 3036
0 1870 3386
0 1778 3634
0 1655 3838
0 1484 4014
0 1236 4077
0 819 4077
0 2523 0
0 2519 0
0 2512 0
0 2504 0
0 2494 0
0 2481 59
0 2465 717
0 2444 1354
0 2417 1888
0 2382 2411
0 2337 2938
0 2279 3336
0 2203 3605
0 2103 3818
0 1969 4001
0 1785 4077
0 1522 4077
0 2918 0
0 2915 0
0 2909 0
0 2902 0
0 2894 0
0 2884 0
0 2870 185
0 2853 995
0 2832 1647
0 2804 2224
0 2766 2795
0 2716 3265
0 2652 3564
0 2569 3792
0 2458 3985
0 2311 4077
0 2111 4077
0 3253 0
0 3251 0
0 3248 0
0 3244 0
0 3240 0
0 3234 0
0 3226 0
0 3216 386
0 3203 1276
0 3189 1962
0 3165 2593
0 3135 3157
0 3093 3508
0 3037 3757
0 2959 3960
0 2844 4076
0 2688 4077
0 3498 0
0 3497 0
0 3496 0
0 3493 0
0 3491 0
0 3487 0
0 3483 0
0 3476 0
0 3468 600
0 3458 1568
0 3446 2305
0 3429 2978
0 3407 3425
0 3377 3708
0 3336 3928
0 3279 4075
0 3195 4077
0 3700 0
0 3699 0
0 3698 0
0 3697 0
0 3695 0
0 3693 0
0 3689 0
0 3685 0
0 3680 0
0 3673 836
0 3665 1880
0 3655 2680
0 3640 3293
0 3622 3638
0 3597 3884
0 3564 4072
0 3518 4077
0 3877 0
0 3877 0
0 3876 0
0 3875 0
0 3874 0
0 3872 0
0 3870 0
0 3867 0
0 3863 0
0 3859 69
0 3853 1116
0 3845 2218
0 3836 3054
0 3823 3532
0 3807 3822
0 3785 4041
0 3756 4077
0 4037 0
0 4037 0
0 4036 0
0 4036 0
0 4035 0
0 4033 0
0 4032 0
0 4030 0
0 4028 0
0 4025 0
0 4021 142
0 4015 1415
0 4008 2586
0 4000 3351
0 3989 3729
0 3974 3987
0 3954 4077
0 4077 0
0 4077 0
0 4077 0
0 4077 0
0 4077 0
0 4077 0
0 4077 0
0 4077 0
0 4077 0
0 4077 0
0 4077 0
0 4077 187
0 4077 1730
0 4077 2970
0 4077 3579
0 4077 3904
0 4077 4077
94 0 0
39 0 68
0 0 474
0 0 827
0 0 1142
0 0 1458
0 0 1786
0 0 2138
0 0 2520
0 0 2928
0 0 3267
0 0 3515
0 0 3717
0 0 3895
0 0 4051
0 0 4077
0 0 4077
64 23 0
12 9 11
0 0 408
0 0 784
0 0 1110
0 0 1432
0 0 1765
0 0 2120
0 0 2503
0 0 2915
0 0 3260
0 0 3510
0 0 3715
0 0 3893
0 0 4050
0 0 4077
0 0 4077
15 325 0
0 306 0
0 274 280
0 237 703
0 190 1052
0 133 1386
0 69 1727
0 9 2088
0 0 2476
0 0 2893
0 0 3248
0 0 3503
0 0 3709
0 0 3890
0 0 4047
0 0 4077
0 0 4077
0 652 0
0 640 0
0 617 135
0 590 596
0 553 979
0 503 1329
0 436 1681
0 342 2049
0 220 2443
0 86 2866
0 0 3233
0 0 3494
0 0 3704
0 0 3886
0 0 4045
0 0 4077
0 0 4077
0 939 0
0 930 0
0 913 11
0 893 436
0 868 878
0 834 1254
0 790 1620
0 730 1998
0 646 2400
0 525 2832
0 347 3213
0 126 3482
0 0 3695
0 0 3880
0 0 4041
0 0 4077
0 0 4077
0 1220 0
0 1213 0
0 1199 0
0 1184 206
0 1164 732
0 1138 1151
0 1104 1540
0 1060 1933
0 1001 2345
0 922 2788
0 811 3189
0 645 3467
0 385 3685
0 83 3873
0 0 4037
0 0 4077
0 0 4077
0 1511 0
0 1505 0
0 1494 0
0 1481 18
0 1465 502
0 1444 1008
0 1417 1433
0 1381 1847
0 1335 2274
0 1275 2727
0 1193 3152
0 1082 3447
0 924 3673
0 674 3864
0 275 4031
0 0 4077
0 0 4077
0 1820 0
0 1815 0
0 1806 0
0 1795 0
0 1781 171
0 1764 791
0 1741 1284
0 1712 1732
0 1674 2180
0 1625 2649
0 1561 3102
0 1475 3420
0 1359 3656
0 1197 3852
0 955 4024
0 531 4077
0 63 4077
0 2154 0
0 2150 0
0 2142 0
0 2133 0
0 2121 0
0 2106 427
0 2087 1068
0 2063 1574
0 2031 2054
0 1990 2545
0 1937 3034
0 1867 3384
0 1775 3633
0 1651 3837
0 1480 4013
0 1231 4077
0 811 4077
0 2520 0
0 2517 0
0 2510 0
0 2502 0
0 2492 0
0 2479 54
0 2463 705
0 2441 1347
0 2414 1883
0 2380 2407
0 2335 2935
0 2277 3335
0 2200 3604
0 2100 3818
0 1965 4001
0 1782 4077
0 1518 4077
0 2916 0
0 2912 0
0 2907 0
0 2900 0
0 2892 0
0 2882 0
0 2869 177
0 2851 986
0 2830 1641
0 2802 2220
0 2764 2792
0 2714 3264
0 2650 3563
0 2566 3791
0 2456 3984
0 2309 4077
0 2108 4077
0 3252 0
0 3250 0
0 3247 0
0 3243 0
0 3239 0
0 3233 0
0 3225 0
0 3215 375
0 3202 1269
0 3187 1957
0 3164 2589
0 3133 3155
0 3092 3506
0 3035 3756
0 2956 3960
0 2842 4076
0 2686 4077
0 3498 0
0 3497 0
0 3495 0
0 3493 0
0 3490 0
0 3486 0
0 3482 0
0 3476 0
0 3467 592
0 3458 1563
0 3445 2301
0 3428 2975
0 3406 3424
0 3376 3707
0 3335 3928
0 3278 4075
0 3194 4077
0 3700 0
0 3699 0
0 3698 0
0 3696 0
0 3694 0
0 3692 0
0 3688 0
0 3684 0
0 3679 0
0 3673 826
0 3665 1875
0 3654 2677
0 3640 3292
0 3621 3637
0 3597 3883
0 3563 4071
0 3517 4077
0 3877 0
0 3876 0
0 3875 0
0 3874 0
0 3873 0
0 3872 0
0 3869 0
0 3867 0
0 3863 0
0 3859 64
0 3853 1107
0 3845 2214
0 3835 3051
0 3823 3531
0 3807 3821
0 3784 4041
0 3756 4077
0 4037 0
0 4036 0
0 4036 0
0 4035 0
0 4034 0
0 4033 0
0 4032 0
0 4030 0
0 4027 0
0 4024 0
0 4020 139
0 4015 1408
0 4008 2582
0 4000 3349
0 3989 3728
0 3974 3986
0 3953 4077
0 4077 0
0 4077 0
0 4077 0
0 4077 0
0 4077 0
0 4077 0
0 4077 0
0 4077 0
0 4077 0
0 4077 0
0 4077 0
0 4077 185
0 4077 1724
0 4077 2967
0 4077 3579
0 4077 3903
0 4077 4077
515 0 0
460 0 43
351 0 447
216 0 809
69 0 1130
0 0 1447
0 0 1778
0 0 2130
0 0 2513
0 0 2922
0 0 3264
0 0 3513
0 0 3716
0 0 3894
0 0 4050
0 0 4077
0 0 4077
485 8 0
428 1 2
316 0 378
183 0 765
42 0 1097
0 0 1421
0 0 1756
0 0 2112
0 0 2497
0 0 2910
0 0 3257
0 0 3509
0 0 3713
0 0 3892
0 0 4049
0 0 4077
0 0 4077
432 304 0
369 286 0
255 255 250
130 217 684
13 171 1038
0 115 1375
0 54 1718
0 3 2080
0 0 2470
0 0 2888
0 0 3245
0 0 3501
0 0 3708
0 0 3889
0 0 4047
0 0 4077
0 0 4077
361 639 0
296 626 0
185 603 110
71 574 573
1 537 964
0 486 1317
0 418 1671
0 322 2041
0 201 2436
0 71 2860
0 0 3230
0 0 3492
0 0 3702
0 0 3885
0 0 4044
0 0 4077
0 0 4077
268 929 0
205 920 0
106 903 6
13 883 409
0 857 861
0 823 1241
0 778 1611
0 717 1991
0 632 2394
0 509 2827
0 329 3210
0 112 3480
0 0 3694
0 0 3879
0 0 4041
0 0 4077
0 0 4077
158 1212 0
103 1204 0
18 1191 0
0 1176 181
0 1156 713
0 1130 1138
0 1096 1530
0 1051 1925
0 992 2339
0 911 2782
0 799 3186
0 631 3465
0 368 3684
0 71 3872
0 0 4036
0 0 4077
0 0 4077
38 1504 0
11 1498 0
0 1487 0
0 1474 11
0 1458 476
0 1436 993
0 1410 1422
0 1374 1838
0 1328 2267
0 1267 2721
0 1185 3148
0 1074 3445
0 914 3672
0 661 3864
0 261 4031
0 0 4077
0 0 4077
0 1814 0
0 1809 0
0 1800 0
0 1789 0
0 1775 149
0 1758 773
0 1735 1273
0 1706 1723
0 1668 2173
0 1619 2642
0 1554 3098
0 1468 3418
0 1352 3655
0 1189 3851
0 944 4023
0 517 4077
0 58 4077
0 2149 0
0 2145 0
0 2137 0
0 2128 0
0 2116 0
0 2102 403
0 2082 1054
0 2057 1564
0 2026 2047
0 1985 2538
0 1931 3030
0 1862 3382
0 1770 3632
0 1645 3837
0 1474 4013
0 1223 4077
0 799 4077
0 2516 0
0 2512 0
0 2506 0
0 2498 0
0 2487 0
0 2474 45
0 2458 686
0 2437 1336
0 2410 1875
0 2375 2400
0 2330 2930
0 2272 3332
0 2196 3603
0 2095 3817
0 1960 4001
0 1776 4077
0 1511 4077
0 2912 0
0 2909 0
0 2903 0
0 2897 0
0 2889 0
0 2879 0
0 2865 162
0 2847 971
0 2828 1632
0 2798 2213
0 2760 2786
0 2710 3261
0 2646 3562
0 2562 3790
0 2452 3984
0 2304 4077
0 2103 4077
0 3250 0
0 3248 0
0 3245 0
0 3241 0
0 3237 0
0 3231 0
0 3223 0
0 3213 357
0 3201 1257
0 3185 1949
0 3162 2583
0 3131 3151
0 3089 3505
0 3033 3755
0 2953 3959
0 2838 4076
0 2682 4077
0 3497 0
0 3496 0
0 3494 0
0 3492 0
0 3489 0
0 3485 0
0 3481 0
0 3474 0
0 3466 578
0 3456 1552
0 3444 2294
0 3427 2970
0 3405 3422
0 3375 3706
0 3334 3927
0 3276 4075
0 3192 4077
0 3699 0
0 3698 0
0 3697 0
0 3696 0
0 3694 0
0 3691 0
0 3688 0
0 3684 0
0 3679 0
0 3672 809
0 3664 1866
0 3653 2671
0 3639 3289
0 3620 3636
0 3596 3883
0 3562 4071
0 3516 4077
0 3876 0
0 3876 0
0 3875 0
0 3874 0
0 3873 0
0 3871 0
0 3869 0
0 3866 0
0 3863 0
0 3858 56
0 3852 1092
0 3844 2207
0 3835 3047
0 3822 3529
0 3806 3820
0 3784 4041
0 3755 4077
0 4036 0
0 4036 0
0 4036 0
0 4035 0
0 4034 0
0 4033 0
0 4031 0
0 4029 0
0 4027 0
0 4024 0
0 4020 133
0 4015 1396
0 4008 2576
0 3999 3347
0 3988 3727
0 3973 3986
0 3953 4077
0 4077 0
0 4077 0
0 4077 0
0 4077 0
0 4077 0
0 4077 0
0 4077 0
0 4077 0
0 4077 0
0 4077 0
0 4077 0
0 4077 182
0 4077 1714
0 4077 2962
0 4077 3577
0 4077 3902
0 4077 4077
866 0 0
830 0 16
763 0 415
676 0 788
549 0 1114
357 0 1434
114 0 1767
0 0 2121
0 0 2505
0 0 2916
0 0 3261
0 0 3511
0 0 3715
0 0 3893
0 0 4050
0 0 4077
0 0 4077
847 0 0
810 0 0
742 0 341
652 0 743
521 0 1080
323 0 1408
90 0 1745
0 0 2103
0 0 2489
0 0 2904
0 0 3254
0 0 3507
0 0 3712
0 0 3891
0 0 4049
0 0 4077
