Postproduction/IWLTBAP - Humble/LUTs by IWLTBAP (CUBE)/UTILITY/BMDFilm 4K to Alexa Log-C/U-BMDFILM-4K-ALEXA-LOG-C-LTL.cube
# Copyright: (C) Copyright 2010-2018 by IWLTBAP SAS
# Cannot be resold, shared or otherwise redistributed
# Website: https://luts.iwltbap.com
TITLE "BMDFilm 4K to Alexa Log-C (Utility LOG to Rec.709)"
LUT_3D_SIZE 32
0.000000 0.000000 0.000000
0.065063 0.000000 0.000000
0.155792 0.000000 0.000000
0.213928 0.000000 0.000000
0.253723 0.000000 0.000000
0.284210 0.000000 0.000000
0.308746 0.000000 0.000000
0.330353 0.000000 0.000000
0.350555 0.000000 0.000000
0.370209 0.000000 0.000000
0.389832 0.000000 0.000000
0.409668 0.000000 0.000000
0.429810 0.000000 0.000000
0.450378 0.000000 0.000000
0.471375 0.000000 0.000000
0.492981 0.000000 0.000000
0.515350 0.000000 0.000000
0.536041 0.000000 0.000000
0.553619 0.000000 0.000000
0.569275 0.000000 0.000000
0.583862 0.000000 0.000000
0.597900 0.000000 0.000000
0.611603 0.000000 0.000000
0.626190 0.000000 0.000000
0.641663 0.000000 0.000000
0.658142 0.000000 0.000000
0.677429 0.000000 0.000000
0.699860 0.000000 0.000000
0.725677 0.000000 0.000000
0.763000 0.000000 0.000000
0.864319 0.000000 0.000000
1.000000 0.000000 0.000000
0.000000 0.050476 0.000000
0.053650 0.041992 0.000000
0.149109 0.037170 0.000000
0.210327 0.036804 0.000000
0.251556 0.036438 0.000000
0.282715 0.036072 0.000000
0.307587 0.035645 0.000000
0.329468 0.035187 0.000000
0.349792 0.035187 0.000000
0.369537 0.035187 0.000000
0.389221 0.035187 0.000000
0.409119 0.035187 0.000000
0.429291 0.035187 0.000000
0.449860 0.035187 0.000000
0.470947 0.035187 0.000000
0.492554 0.035187 0.000000
0.514954 0.035187 0.000000
0.535767 0.035187 0.000000
0.553436 0.035187 0.000000
0.569122 0.035187 0.000000
0.583801 0.035187 0.000000
0.597809 0.035187 0.000000
0.611542 0.035187 0.000000
0.626099 0.035187 0.000000
0.641571 0.035187 0.000000
0.658081 0.035187 0.000000
0.677399 0.035187 0.000000
0.699829 0.035187 0.000000
0.725616 0.035187 0.000000
0.762939 0.035187 0.000000
0.864105 0.035187 0.000000
1.000000 0.035187 0.000000
0.000000 0.138855 0.000000
0.042267 0.134033 0.000000
0.142456 0.128143 0.000000
0.206390 0.121185 0.000000
0.249298 0.113464 0.000000
0.281189 0.104797 0.000000
0.306427 0.095001 0.000000
0.328552 0.084229 0.000000
0.348999 0.074432 0.000000
0.368835 0.073181 0.000000
0.388580 0.071869 0.000000
0.408539 0.070374 0.000000
0.428772 0.070312 0.000000
0.449402 0.070312 0.000000
0.470459 0.070312 0.000000
0.492126 0.070312 0.000000
0.514557 0.070312 0.000000
0.535492 0.070312 0.000000
0.553253 0.070312 0.000000
0.569000 0.070312 0.000000
0.583679 0.070312 0.000000
0.597717 0.070312 0.000000
0.611481 0.070312 0.000000
0.626038 0.070312 0.000000
0.641510 0.070312 0.000000
0.658020 0.070312 0.000000
0.677338 0.070312 0.000000
0.699738 0.070312 0.000000
0.725525 0.070312 0.000000
0.762817 0.070312 0.000000
0.863892 0.070312 0.000000
1.000000 0.070312 0.000000
0.000000 0.198456 0.000000
0.037323 0.195343 0.000000
0.135193 0.192078 0.000000
0.201996 0.188446 0.000000
0.246826 0.184143 0.000000
0.279480 0.179199 0.000000
0.305145 0.172577 0.000000
0.327515 0.164215 0.000000
0.348145 0.154999 0.000000
0.368073 0.144623 0.000000
0.387878 0.133026 0.000000
0.407898 0.116394 0.000000
0.428192 0.103180 0.000000
0.448853 0.100739 0.000000
0.470001 0.098450 0.000000
0.491699 0.098114 0.000000
0.514099 0.098114 0.000000
0.535156 0.098114 0.000000
0.553070 0.098114 0.000000
0.568848 0.098114 0.000000
0.583557 0.098114 0.000000
0.597626 0.098114 0.000000
0.611389 0.098114 0.000000
0.625977 0.098114 0.000000
0.641479 0.098114 0.000000
0.657928 0.098114 0.000000
0.677277 0.098114 0.000000
0.699677 0.098114 0.000000
0.725403 0.098114 0.000000
0.762787 0.098114 0.000000
0.863678 0.098114 0.000000
1.000000 0.098114 0.000000
0.000000 0.240723 0.000000
0.036896 0.238617 0.000000
0.125458 0.236450 0.000000
0.196808 0.234070 0.000000
0.243958 0.231354 0.000000
0.277527 0.228180 0.000000
0.303680 0.224579 0.000000
0.326355 0.220398 0.000000
0.347198 0.215515 0.000000
0.367218 0.209198 0.000000
0.387115 0.201111 0.000000
0.407196 0.191315 0.000000
0.427551 0.179688 0.000000
0.448242 0.164429 0.000000
0.469421 0.146484 0.000000
0.491180 0.132721 0.000000
0.513641 0.127411 0.000000
0.534821 0.124634 0.000000
0.552826 0.124634 0.000000
0.568695 0.124634 0.000000
0.583435 0.124634 0.000000
0.597534 0.124634 0.000000
0.611328 0.124634 0.000000
0.625885 0.124634 0.000000
0.641388 0.124634 0.000000
0.657867 0.124634 0.000000
0.677216 0.124634 0.000000
0.699615 0.124634 0.000000
0.725342 0.124634 0.000000
0.762665 0.124634 0.000000
0.863464 0.124634 0.000000
1.000000 0.124634 0.000000
0.000000 0.272797 0.000000
0.036285 0.271576 0.000000
0.113678 0.270325 0.000000
0.190765 0.268677 0.000000
0.240143 0.266785 0.000000
0.275330 0.264587 0.000000
0.302032 0.262146 0.000000
0.325012 0.259277 0.000000
0.346100 0.256012 0.000000
0.366272 0.252258 0.000000
0.386261 0.247894 0.000000
0.406403 0.242615 0.000000
0.426819 0.235535 0.000000
0.447571 0.226959 0.000000
0.468811 0.216339 0.000000
0.490601 0.201569 0.000000
0.513062 0.183685 0.000000
0.534424 0.163666 0.000000
0.552582 0.151459 0.000000
0.568512 0.146942 0.000000
0.583282 0.146942 0.000000
0.597412 0.146942 0.000000
0.611237 0.146942 0.000000
0.625824 0.146942 0.000000
0.641296 0.146942 0.000000
0.657776 0.146942 0.000000
0.677124 0.146942 0.000000
0.699524 0.146942 0.000000
0.725189 0.146942 0.000000
0.762604 0.146942 0.000000
0.863037 0.146942 0.000000
1.000000 0.146942 0.000000
0.000000 0.297699 0.000000
0.035706 0.296783 0.000000
0.100494 0.295807 0.000000
0.183594 0.294769 0.000000
0.235718 0.293579 0.000000
0.272827 0.292236 0.000000
0.300171 0.290588 0.000000
0.323517 0.288635 0.000000
0.344879 0.286407 0.000000
0.365173 0.283875 0.000000
0.385284 0.280945 0.000000
0.405518 0.277588 0.000000
0.425995 0.273682 0.000000
0.446838 0.268921 0.000000
0.468109 0.262390 0.000000
0.489929 0.254486 0.000000
0.512451 0.244812 0.000000
0.533936 0.230469 0.000000
0.552307 0.212311 0.000000
0.568298 0.188782 0.000000
0.583130 0.173950 0.000000
0.597290 0.167603 0.000000
0.611115 0.167603 0.000000
0.625702 0.167603 0.000000
0.641205 0.167603 0.000000
0.657684 0.167603 0.000000
0.677063 0.167603 0.000000
0.699432 0.167603 0.000000
0.725067 0.167603 0.000000
0.762451 0.167603 0.000000
0.862610 0.167603 0.000000
1.000000 0.167603 0.000000
0.000000 0.319336 0.000000
0.035187 0.318573 0.000000
0.086151 0.317810 0.000000
0.174561 0.316956 0.000000
0.230530 0.315979 0.000000
0.269928 0.314911 0.000000
0.298035 0.313690 0.000000
0.321808 0.312317 0.000000
0.343445 0.310760 0.000000
0.363953 0.308838 0.000000
0.384155 0.306641 0.000000
0.404510 0.304169 0.000000
0.425079 0.301270 0.000000
0.445984 0.297974 0.000000
0.467346 0.294159 0.000000
0.489227 0.289398 0.000000
0.511780 0.283386 0.000000
0.533447 0.276154 0.000000
0.551971 0.266663 0.000000
0.568054 0.252747 0.000000
0.582947 0.233032 0.000000
0.597137 0.208344 0.000000
0.611023 0.191772 0.000000
0.625610 0.186127 0.000000
0.641113 0.186127 0.000000
0.657562 0.186127 0.000000
0.676971 0.186127 0.000000
0.699310 0.186127 0.000000
0.724915 0.186127 0.000000
0.762329 0.186127 0.000000
0.862152 0.186127 0.000000
1.000000 0.186127 0.000000
0.000000 0.339264 0.000000
0.035187 0.338623 0.000000
0.074799 0.337982 0.000000
0.161957 0.337280 0.000000
0.224426 0.336456 0.000000
0.265869 0.335541 0.000000
0.295593 0.334534 0.000000
0.319855 0.333405 0.000000
0.341827 0.332062 0.000000
0.362610 0.330597 0.000000
0.382935 0.328918 0.000000
0.403412 0.326965 0.000000
0.424072 0.324677 0.000000
0.445068 0.322083 0.000000
0.466461 0.319092 0.000000
0.488403 0.315643 0.000000
0.511047 0.311615 0.000000
0.532898 0.306580 0.000000
0.551605 0.300568 0.000000
0.567810 0.293243 0.000000
0.582764 0.283203 0.000000
0.596985 0.269775 0.000000
0.610870 0.247864 0.000000
0.625488 0.222687 0.000000
0.640991 0.206696 0.000000
0.657471 0.203003 0.000000
0.676880 0.203003 0.000000
0.699219 0.203003 0.000000
0.724792 0.203003 0.000000
0.762238 0.203003 0.000000
0.861725 0.203003 0.000000
1.000000 0.203003 0.000000
0.000000 0.358398 0.000000
0.035187 0.357819 0.000000
0.073181 0.357239 0.000000
0.147949 0.356628 0.000000
0.217224 0.355927 0.000000
0.261169 0.355133 0.000000
0.292786 0.354248 0.000000
0.317657 0.353241 0.000000
0.339996 0.352142 0.000000
0.361023 0.350861 0.000000
0.381561 0.349426 0.000000
0.402130 0.347809 0.000000
0.422943 0.345947 0.000000
0.444000 0.343842 0.000000
0.465485 0.341370 0.000000
0.487518 0.338531 0.000000
0.510162 0.335297 0.000000
0.532227 0.331543 0.000000
0.551208 0.327057 0.000000
0.567505 0.321655 0.000000
0.582520 0.315155 0.000000
0.596771 0.306976 0.000000
0.610718 0.296234 0.000000
0.625336 0.280579 0.000000
0.640839 0.255554 0.000000
0.657318 0.232605 0.000000
0.676758 0.218811 0.000000
0.699066 0.218811 0.000000
0.724579 0.218811 0.000000
0.762054 0.218811 0.000000
0.861298 0.218811 0.000000
1.000000 0.218811 0.000000
0.000000 0.377167 0.000000
0.035187 0.376678 0.000000
0.071350 0.376160 0.000000
0.132141 0.375610 0.000000
0.207672 0.374969 0.000000
0.255676 0.374268 0.000000
0.289276 0.373474 0.000000
0.315155 0.372589 0.000000
0.337921 0.371613 0.000000
0.359253 0.370483 0.000000
0.379974 0.369232 0.000000
0.400726 0.367798 0.000000
0.421631 0.366180 0.000000
0.442780 0.364349 0.000000
0.464386 0.362274 0.000000
0.486481 0.359894 0.000000
0.509216 0.357117 0.000000
0.531494 0.353973 0.000000
0.550720 0.350342 0.000000
0.567169 0.346130 0.000000
0.582245 0.341034 0.000000
0.596588 0.335022 0.000000
0.610535 0.327698 0.000000
0.625214 0.318268 0.000000
0.640686 0.305725 0.000000
0.657166 0.286652 0.000000
0.676605 0.258453 0.000000
0.698914 0.239136 0.000000
0.724426 0.233154 0.000000
0.761902 0.233154 0.000000
0.860657 0.233154 0.000000
1.000000 0.233154 0.000000
0.000000 0.396088 0.000000
0.035187 0.395630 0.000000
0.070312 0.395172 0.000000
0.112335 0.394653 0.000000
0.194916 0.394104 0.000000
0.249207 0.393463 0.000000
0.285034 0.392731 0.000000
0.312256 0.391937 0.000000
0.335541 0.391022 0.000000
0.357239 0.390015 0.000000
0.378204 0.388885 0.000000
0.399109 0.387573 0.000000
0.420166 0.386139 0.000000
0.441467 0.384491 0.000000
0.463165 0.382629 0.000000
0.485352 0.380524 0.000000
0.508148 0.378113 0.000000
0.530701 0.375397 0.000000
0.550201 0.372253 0.000000
0.566803 0.368652 0.000000
0.581970 0.364471 0.000000
0.596344 0.359589 0.000000
0.610352 0.353760 0.000000
0.625031 0.346802 0.000000
0.640533 0.338135 0.000000
0.657013 0.327057 0.000000
0.676483 0.311646 0.000000
0.698792 0.286224 0.000000
0.724213 0.262573 0.000000
0.761719 0.246948 0.000000
0.859985 0.246948 0.000000
1.000000 0.246948 0.000000
0.000000 0.415314 0.000000
0.035187 0.414886 0.000000
0.070312 0.414459 0.000000
0.102173 0.414001 0.000000
0.179321 0.413452 0.000000
0.240997 0.412903 0.000000
0.280090 0.412231 0.000000
0.308746 0.411499 0.000000
0.332825 0.410675 0.000000
0.354950 0.409729 0.000000
0.376190 0.408722 0.000000
0.397308 0.407532 0.000000
0.418549 0.406219 0.000000
0.439972 0.404724 0.000000
0.461792 0.403046 0.000000
0.484070 0.401123 0.000000
0.506958 0.398987 0.000000
0.529755 0.396515 0.000000
0.549591 0.393738 0.000000
0.566345 0.390564 0.000000
0.581635 0.386902 0.000000
0.596069 0.382690 0.000000
0.610138 0.377747 0.000000
0.624817 0.372009 0.000000
0.640350 0.365173 0.000000
0.656830 0.356842 0.000000
0.676300 0.346497 0.000000
0.698608 0.332611 0.000000
0.723969 0.311737 0.000000
0.761505 0.282959 0.000000
0.859344 0.261627 0.000000
1.000000 0.259186 0.000000
0.000000 0.434845 0.000000
0.035187 0.434448 0.000000
0.070312 0.434052 0.000000
0.099335 0.433624 0.000000
0.158295 0.433136 0.000000
0.229767 0.432617 0.000000
0.274261 0.432007 0.000000
0.304565 0.431305 0.000000
0.329712 0.430573 0.000000
0.352325 0.429718 0.000000
0.373901 0.428741 0.000000
0.395233 0.427704 0.000000
0.416656 0.426483 0.000000
0.438293 0.425140 0.000000
0.460236 0.423615 0.000000
0.482605 0.421875 0.000000
0.505615 0.419922 0.000000
0.528687 0.417725 0.000000
0.548889 0.415222 0.000000
0.565857 0.412354 0.000000
0.581268 0.409088 0.000000
0.595795 0.405365 0.000000
0.609894 0.401062 0.000000
0.624603 0.396057 0.000000
0.640106 0.390228 0.000000
0.656677 0.383362 0.000000
0.676147 0.375092 0.000000
0.698395 0.364960 0.000000
0.723694 0.351929 0.000000
0.761292 0.333588 0.000000
0.858490 0.302338 0.000000
1.000000 0.281219 0.000000
0.000000 0.454803 0.000000
0.035187 0.454437 0.000000
0.070312 0.454071 0.000000
0.098114 0.453674 0.000000
0.138702 0.453217 0.000000
0.215454 0.452728 0.000000
0.266663 0.452179 0.000000
0.299683 0.451538 0.000000
0.325989 0.450836 0.000000
0.349304 0.450073 0.000000
0.371307 0.449158 0.000000
0.392914 0.448181 0.000000
0.414581 0.447083 0.000000
0.436371 0.445831 0.000000
0.458466 0.444427 0.000000
0.481018 0.442841 0.000000
0.504120 0.441071 0.000000
0.527496 0.439056 0.000000
0.548096 0.436768 0.000000
0.565308 0.434204 0.000000
0.580841 0.431244 0.000000
0.595428 0.427887 0.000000
0.609650 0.424072 0.000000
0.624359 0.419678 0.000000
0.639893 0.414551 0.000000
0.656464 0.408600 0.000000
0.675934 0.401642 0.000000
0.698181 0.393280 0.000000
0.723358 0.383148 0.000000
0.761017 0.370392 0.000000
0.857605 0.353271 0.000000
1.000000 0.325592 0.000000
0.000000 0.475250 0.000000
0.035187 0.474884 0.000000
0.070312 0.474548 0.000000
0.098114 0.474182 0.000000
0.128845 0.473785 0.000000
0.194794 0.473297 0.000000
0.256226 0.472809 0.000000
0.293884 0.472229 0.000000
0.321594 0.471558 0.000000
0.345825 0.470825 0.000000
0.368317 0.470032 0.000000
0.390259 0.469116 0.000000
0.412201 0.468079 0.000000
0.434204 0.466919 0.000000
0.456512 0.465637 0.000000
0.479156 0.464172 0.000000
0.502441 0.462524 0.000000
0.526123 0.460693 0.000000
0.547180 0.458588 0.000000
0.564667 0.456238 0.000000
0.580353 0.453583 0.000000
0.595062 0.450531 0.000000
0.609344 0.447083 0.000000
0.624084 0.443115 0.000000
0.639618 0.438568 0.000000
0.656250 0.433350 0.000000
0.675690 0.427246 0.000000
0.697937 0.420135 0.000000
0.723053 0.411621 0.000000
0.760742 0.401367 0.000000
0.856537 0.388611 0.000000
1.000000 0.371948 0.000000
0.000000 0.496307 0.000000
0.035187 0.496002 0.000000
0.070312 0.495697 0.000000
0.098114 0.495331 0.000000
0.124634 0.494965 0.000000
0.170868 0.494507 0.000000
0.242798 0.494019 0.000000
0.286285 0.493469 0.000000
0.316437 0.492859 0.000000
0.341705 0.492188 0.000000
0.364868 0.491425 0.000000
0.387238 0.490570 0.000000
0.409485 0.489624 0.000000
0.431763 0.488556 0.000000
0.454254 0.487366 0.000000
0.477112 0.485992 0.000000
0.500549 0.484497 0.000000
0.524536 0.482758 0.000000
0.546112 0.480835 0.000000
0.563934 0.478699 0.000000
0.579834 0.476227 0.000000
0.594635 0.473450 0.000000
0.609009 0.470306 0.000000
0.623779 0.466705 0.000000
0.639313 0.462616 0.000000
0.656006 0.457916 0.000000
0.675415 0.452515 0.000000
0.697632 0.446228 0.000000
0.722717 0.438904 0.000000
0.760406 0.430206 0.000000
0.855438 0.419769 0.000000
1.000000 0.406891 0.000000
0.000000 0.518066 0.000000
0.035187 0.517792 0.000000
0.070312 0.517487 0.000000
0.098114 0.517151 0.000000
0.124634 0.516785 0.000000
0.152893 0.516388 0.000000
0.222321 0.515930 0.000000
0.276611 0.515411 0.000000
0.310242 0.514832 0.000000
0.336884 0.514191 0.000000
0.360931 0.513489 0.000000
0.383789 0.512695 0.000000
0.406403 0.511780 0.000000
0.428986 0.510773 0.000000
0.451721 0.509644 0.000000
0.474792 0.508392 0.000000
0.498383 0.506989 0.000000
0.522583 0.505432 0.000000
0.544861 0.503632 0.000000
0.563080 0.501617 0.000000
0.579193 0.499359 0.000000
0.594177 0.496765 0.000000
0.608612 0.493866 0.000000
0.623413 0.490570 0.000000
0.639008 0.486847 0.000000
0.655731 0.482574 0.000000
0.675140 0.477692 0.000000
0.697327 0.472076 0.000000
0.722260 0.465607 0.000000
0.760010 0.458008 0.000000
0.854156 0.449066 0.000000
0.999786 0.438354 0.000000
0.000000 0.539490 0.000000
0.035187 0.539246 0.000000
0.070312 0.539001 0.000000
0.098114 0.538757 0.000000
0.124634 0.538483 0.000000
0.146942 0.538177 0.000000
0.194824 0.537811 0.000000
0.262939 0.537415 0.000000
0.302246 0.536957 0.000000
0.331207 0.536469 0.000000
0.356262 0.535858 0.000000
0.379791 0.535217 0.000000
0.402863 0.534485 0.000000
0.425812 0.533661 0.000000
0.448853 0.532715 0.000000
0.472168 0.531555 0.000000
0.495972 0.530243 0.000000
0.520325 0.528748 0.000000
0.543274 0.527069 0.000000
0.562134 0.525177 0.000000
0.578491 0.523071 0.000000
0.593628 0.520691 0.000000
0.608154 0.518005 0.000000
0.623016 0.514954 0.000000
0.638611 0.511505 0.000000
0.655396 0.507568 0.000000
0.674835 0.503143 0.000000
0.696960 0.498047 0.000000
0.721771 0.492188 0.000000
0.759644 0.485443 0.000000
0.852844 0.477539 0.000000
0.998901 0.468323 0.000000
0.000000 0.558167 0.000000
0.035187 0.558044 0.000000
0.070312 0.557861 0.000000
0.098114 0.557709 0.000000
0.124634 0.557526 0.000000
0.146942 0.557312 0.000000
0.175476 0.557068 0.000000
0.242249 0.556793 0.000000
0.292297 0.556488 0.000000
0.324219 0.556152 0.000000
0.350800 0.555786 0.000000
0.375183 0.555328 0.000000
0.398804 0.554840 0.000000
0.422211 0.554260 0.000000
0.445587 0.553589 0.000000
0.469177 0.552856 0.000000
0.493195 0.551910 0.000000
0.517792 0.550842 0.000000
0.541412 0.549652 0.000000
0.561005 0.548248 0.000000
0.577667 0.546631 0.000000
0.593018 0.544769 0.000000
0.607666 0.542603 0.000000
0.622589 0.540009 0.000000
0.638184 0.536804 0.000000
0.655029 0.533173 0.000000
0.674469 0.529053 0.000000
0.696533 0.524384 0.000000
0.721405 0.519043 0.000000
0.759155 0.512909 0.000000
0.851318 0.505859 0.000000
0.997620 0.497650 0.000000
0.000000 0.574402 0.000000
0.035187 0.574310 0.000000
0.070312 0.574188 0.000000
0.098114 0.574066 0.000000
0.124634 0.573944 0.000000
0.146942 0.573792 0.000000
0.167603 0.573608 0.000000
0.213684 0.573425 0.000000
0.277710 0.573212 0.000000
0.315491 0.572968 0.000000
0.344299 0.572693 0.000000
0.369812 0.572388 0.000000
0.394135 0.572021 0.000000
0.418060 0.571625 0.000000
0.441864 0.571167 0.000000
0.465820 0.570648 0.000000
0.490112 0.570068 0.000000
0.514923 0.569427 0.000000
0.539246 0.568665 0.000000
0.559662 0.567780 0.000000
0.576721 0.566742 0.000000
0.592285 0.565521 0.000000
0.607086 0.564087 0.000000
0.622070 0.562378 0.000000
0.637695 0.560272 0.000000
0.654633 0.557678 0.000000
0.674042 0.554657 0.000000
0.696075 0.551025 0.000000
0.721039 0.546448 0.000000
0.758636 0.540802 0.000000
0.849365 0.534393 0.000000
0.996094 0.526947 0.000000
0.000000 0.589447 0.000000
0.035187 0.589355 0.000000
0.070312 0.589264 0.000000
0.098114 0.589172 0.000000
0.124634 0.589081 0.000000
0.146942 0.588959 0.000000
0.167603 0.588806 0.000000
0.192596 0.588684 0.000000
0.254456 0.588501 0.000000
0.303986 0.588318 0.000000
0.336273 0.588135 0.000000
0.363464 0.587891 0.000000
0.388702 0.587616 0.000000
0.413300 0.587311 0.000000
0.437622 0.586975 0.000000
0.461975 0.586609 0.000000
0.486603 0.586151 0.000000
0.511688 0.585693 0.000000
0.536743 0.585114 0.000000
0.558075 0.584473 0.000000
0.575653 0.583740 0.000000
0.591492 0.582916 0.000000
0.606445 0.581909 0.000000
0.621490 0.580780 0.000000
0.637146 0.579437 0.000000
0.654205 0.577820 0.000000
0.673584 0.575928 0.000000
0.695587 0.573639 0.000000
0.720581 0.570679 0.000000
0.758057 0.566925 0.000000
0.847656 0.562286 0.000000
0.994354 0.556549 0.000000
0.000000 0.603821 0.000000
0.035187 0.603760 0.000000
0.070312 0.603668 0.000000
0.098114 0.603607 0.000000
0.124634 0.603516 0.000000
0.146942 0.603424 0.000000
0.167603 0.603333 0.000000
0.186127 0.603210 0.000000
0.226013 0.603088 0.000000
0.287567 0.602936 0.000000
0.326202 0.602753 0.000000
0.355774 0.602570 0.000000
0.382294 0.602356 0.000000
0.407745 0.602112 0.000000
0.432709 0.601837 0.000000
0.457581 0.601532 0.000000
0.482605 0.601196 0.000000
0.507996 0.600830 0.000000
0.533783 0.600372 0.000000
0.556183 0.599884 0.000000
0.574371 0.599335 0.000000
0.590546 0.598694 0.000000
0.605713 0.597931 0.000000
0.620850 0.597076 0.000000
0.636536 0.596069 0.000000
0.653656 0.594940 0.000000
0.673096 0.593628 0.000000
0.695007 0.592072 0.000000
0.720123 0.590179 0.000000
0.757446 0.587891 0.000000
0.845245 0.585052 0.000000
0.992401 0.581421 0.000000
0.000000 0.618164 0.000000
0.035187 0.618103 0.000000
0.070312 0.618042 0.000000
0.098114 0.617981 0.000000
0.124634 0.617920 0.000000
0.146942 0.617828 0.000000
0.167603 0.617737 0.000000
0.186127 0.617615 0.000000
0.206390 0.617493 0.000000
0.259766 0.617371 0.000000
0.312683 0.617218 0.000000
0.346344 0.617035 0.000000
0.374725 0.616882 0.000000
0.401276 0.616638 0.000000
0.427063 0.616425 0.000000
0.452515 0.616150 0.000000
0.478027 0.615845 0.000000
0.503815 0.615509 0.000000
0.530121 0.615143 0.000000
0.553833 0.614685 0.000000
0.572876 0.614197 0.000000
0.589447 0.613617 0.000000
0.604828 0.613068 0.000000
0.620087 0.612396 0.000000
0.635834 0.611633 0.000000
0.653107 0.610748 0.000000
0.672485 0.609772 0.000000
0.694366 0.608582 0.000000
0.719543 0.607208 0.000000
0.756653 0.605560 0.000000
0.842865 0.603607 0.000000
0.990234 0.601227 0.000000
0.000000 0.633057 0.000000
0.035187 0.633026 0.000000
0.070312 0.632965 0.000000
0.098114 0.632904 0.000000
0.124634 0.632843 0.000000
0.146942 0.632782 0.000000
0.167603 0.632690 0.000000
0.186127 0.632599 0.000000
0.203003 0.632507 0.000000
0.233643 0.632385 0.000000
0.291931 0.632263 0.000000
0.334106 0.632141 0.000000
0.365540 0.631958 0.000000
0.393585 0.631805 0.000000
0.420441 0.631622 0.000000
0.446686 0.631409 0.000000
0.472778 0.631134 0.000000
0.499023 0.630859 0.000000
0.525726 0.630585 0.000000
0.550842 0.630219 0.000000
0.571045 0.629822 0.000000
0.588135 0.629364 0.000000
0.603851 0.628845 0.000000
0.619232 0.628265 0.000000
0.635010 0.627625 0.000000
0.652435 0.626862 0.000000
0.671814 0.625977 0.000000
0.693634 0.624969 0.000000
0.718933 0.623810 0.000000
0.755829 0.622467 0.000000
0.839844 0.620850 0.000000
0.987854 0.618958 0.000000
0.000000 0.649719 0.000000
0.035187 0.649658 0.000000
0.070312 0.649658 0.000000
0.098114 0.649567 0.000000
0.124634 0.649506 0.000000
0.146942 0.649445 0.000000
0.167603 0.649384 0.000000
0.186127 0.649292 0.000000
0.203003 0.649200 0.000000
0.218811 0.649078 0.000000
0.261505 0.648987 0.000000
0.317017 0.648834 0.000000
0.353973 0.648682 0.000000
0.384399 0.648529 0.000000
0.412628 0.648346 0.000000
0.439880 0.648102 0.000000
0.466736 0.647888 0.000000
0.493561 0.647644 0.000000
0.520752 0.647339 0.000000
0.547211 0.647003 0.000000
0.568848 0.646606 0.000000
0.586609 0.646210 0.000000
0.602661 0.645721 0.000000
0.618225 0.645172 0.000000
0.634094 0.644562 0.000000
0.651672 0.643829 0.000000
0.671082 0.643036 0.000000
0.692780 0.642120 0.000000
0.718231 0.641052 0.000000
0.754913 0.639832 0.000000
0.836792 0.638397 0.000000
0.985046 0.636719 0.000000
0.000000 0.667999 0.000000
0.035187 0.667938 0.000000
0.070312 0.667877 0.000000
0.098114 0.667847 0.000000
0.124634 0.667786 0.000000
0.146942 0.667694 0.000000
0.167603 0.667633 0.000000
0.186127 0.667542 0.000000
0.203003 0.667450 0.000000
0.218811 0.667328 0.000000
0.237732 0.667206 0.000000
0.288239 0.667053 0.000000
0.338593 0.666931 0.000000
0.373047 0.666748 0.000000
0.403320 0.666565 0.000000
0.431915 0.666351 0.000000
0.459717 0.666138 0.000000
0.487305 0.665863 0.000000
0.515015 0.665558 0.000000
0.542786 0.665222 0.000000
0.566132 0.664825 0.000000
0.584778 0.664429 0.000000
0.601318 0.663940 0.000000
0.617035 0.663391 0.000000
0.633118 0.662781 0.000000
0.650787 0.662079 0.000000
0.670197 0.661285 0.000000
0.691864 0.660370 0.000000
0.717438 0.659332 0.000000
0.753845 0.658142 0.000000
0.833344 0.656830 0.000000
0.982025 0.655487 0.000000
0.000000 0.688049 0.000000
0.035187 0.687988 0.000000
0.070312 0.687927 0.000000
0.098114 0.687866 0.000000
0.124634 0.687805 0.000000
0.146942 0.687714 0.000000
0.167603 0.687653 0.000000
0.186127 0.687531 0.000000
0.203003 0.687439 0.000000
0.218811 0.687317 0.000000
0.233154 0.687195 0.000000
0.262329 0.687042 0.000000
0.314789 0.686859 0.000000
0.358459 0.686676 0.000000
0.391937 0.686462 0.000000
0.422424 0.686218 0.000000
