Postproduction/IWLTBAP - Humble/LUTs by IWLTBAP (CUBE)/UTILITY/BMDFilm 4K to Alexa Log-C/U-BMDFILM-4K-ALEXA-LOG-C-LTL.cube
# Copyright: (C) Copyright 2010-2018 by IWLTBAP SAS
# Cannot be resold, shared or otherwise redistributed
# Website: https://luts.iwltbap.com
TITLE "BMDFilm 4K to Alexa Log-C (Utility LOG to Rec.709)"
LUT_3D_SIZE 8
DOMAIN_MIN 0.000000 0.000000 0.000000
DOMAIN_MAX 0.903226 0.903226 0.903226
0.000000 0.000000 0.000000
0.253723 0.000000 0.000000
0.350555 0.000000 0.000000
0.429810 0.000000 0.000000
0.515350 0.000000 0.000000
0.583862 0.000000 0.000000
0.641663 0.000000 0.000000
0.725677 0.000000 0.000000
0.000000 0.240723 0.000000
0.243958 0.231354 0.000000
0.347198 0.215515 0.000000
0.427551 0.179688 0.000000
0.513641 0.127411 0.000000
0.583435 0.124634 0.000000
0.641388 0.124634 0.000000
0.725342 0.124634 0.000000
0.000000 0.339264 0.000000
0.224426 0.336456 0.000000
0.341827 0.332062 0.000000
0.424072 0.324677 0.000000
0.511047 0.311615 0.000000
0.582764 0.283203 0.000000
0.640991 0.206696 0.000000
0.724792 0.203003 0.000000
0.000000 0.415314 0.000000
0.179321 0.413452 0.000000
0.332825 0.410675 0.000000
0.418549 0.406219 0.000000
0.506958 0.398987 0.000000
0.581635 0.386902 0.000000
0.640350 0.365173 0.000000
0.723969 0.311737 0.000000
0.000000 0.496307 0.000000
0.124634 0.494965 0.000000
0.316437 0.492859 0.000000
0.409485 0.489624 0.000000
0.500549 0.484497 0.000000
0.579834 0.476227 0.000000
0.639313 0.462616 0.000000
0.722717 0.438904 0.000000
0.000000 0.574402 0.000000
0.124634 0.573944 0.000000
0.277710 0.573212 0.000000
0.394135 0.572021 0.000000
0.490112 0.570068 0.000000
0.576721 0.566742 0.000000
0.637695 0.560272 0.000000
0.721039 0.546448 0.000000
0.000000 0.633057 0.000000
0.124634 0.632843 0.000000
0.203003 0.632507 0.000000
0.365540 0.631958 0.000000
0.472778 0.631134 0.000000
0.571045 0.629822 0.000000
0.635010 0.627625 0.000000
0.718933 0.623810 0.000000
0.000000 0.712830 0.000000
0.124634 0.712616 0.000000
0.203003 0.712341 0.000000
0.284515 0.711853 0.000000
0.441803 0.711090 0.000000
0.557983 0.709869 0.000000
0.630798 0.707947 0.000000
0.715515 0.704895 0.000000
0.000000 0.000000 0.257019
0.230469 0.000000 0.255310
0.343384 0.000000 0.252716
0.425079 0.000000 0.248505
0.511780 0.000000 0.241394
0.582947 0.000000 0.227905
0.641113 0.000000 0.200989
0.724915 0.000000 0.137451
0.000000 0.226868 0.218231
0.216156 0.216187 0.215424
0.339661 0.194702 0.210602
0.422699 0.149689 0.201996
0.510010 0.124634 0.187012
0.582458 0.124634 0.159576
0.640839 0.124634 0.128143
0.724579 0.124634 0.124634
0.000000 0.335175 0.124634
0.185364 0.332214 0.124634
0.333862 0.327606 0.124634
0.419128 0.319641 0.124634
0.507385 0.305359 0.124634
0.581757 0.272827 0.124634
0.640381 0.203003 0.124634
0.724091 0.203003 0.124634
0.000000 0.412628 0.124634
0.128845 0.410767 0.124634
0.323853 0.407898 0.124634
0.413391 0.403351 0.124634
0.503265 0.395935 0.124634
0.580597 0.383545 0.124634
0.639740 0.361023 0.124634
0.723267 0.301239 0.124634
0.000000 0.494324 0.124634
0.124634 0.492950 0.124634
0.304871 0.490845 0.124634
0.403961 0.487579 0.124634
0.496704 0.482361 0.124634
0.578705 0.473999 0.124634
0.638733 0.460205 0.124634
0.721954 0.436066 0.124634
0.000000 0.573700 0.124634
0.124634 0.573242 0.124634
0.250885 0.572479 0.124634
0.387909 0.571259 0.124634
0.486084 0.569244 0.124634
0.575500 0.565796 0.124634
0.637085 0.558960 0.124634
0.720551 0.544556 0.124634
0.000000 0.632751 0.124634
0.124634 0.632507 0.124634
0.203003 0.632172 0.124634
0.357178 0.631622 0.124634
0.468353 0.630798 0.124634
0.569458 0.629456 0.124634
0.634338 0.627228 0.124634
0.718414 0.623383 0.124634
0.000000 0.712555 0.124634
0.124634 0.712341 0.124634
0.203003 0.712006 0.124634
0.271179 0.711517 0.124634
0.436310 0.710754 0.124634
0.555328 0.709564 0.124634
0.630127 0.707642 0.124634
0.714935 0.704529 0.124634
0.000000 0.000000 0.353394
0.169800 0.000000 0.352783
0.331390 0.000000 0.351868
0.417664 0.000000 0.350464
0.506317 0.000000 0.348206
0.581451 0.000000 0.344574
0.640228 0.000000 0.338623
0.723877 0.000000 0.328644
0.000000 0.199707 0.342102
0.142548 0.183197 0.341400
0.327148 0.152832 0.340363
0.415192 0.125854 0.338715
0.504547 0.124634 0.336121
0.580963 0.124634 0.331970
0.639954 0.124634 0.325012
0.723480 0.124634 0.312836
0.000000 0.328674 0.321716
0.124695 0.325348 0.320831
0.320160 0.320190 0.319489
0.411377 0.311554 0.317352
0.501862 0.294983 0.313965
0.580200 0.250763 0.308197
0.639557 0.203003 0.298096
0.722931 0.203003 0.277740
0.000000 0.408539 0.266846
0.124634 0.406586 0.264374
0.307953 0.403625 0.260498
0.405304 0.398926 0.254181
0.497620 0.391266 0.244629
0.578949 0.378326 0.227142
0.638855 0.354340 0.206665
0.722107 0.285339 0.203003
0.000000 0.491302 0.203003
0.124634 0.489899 0.203003
0.281921 0.487762 0.203003
0.395264 0.484436 0.203003
0.490845 0.479156 0.203003
0.576965 0.470642 0.203003
0.637817 0.456543 0.203003
0.721100 0.431702 0.203003
0.000000 0.572632 0.203003
0.124634 0.572144 0.203003
0.207611 0.571320 0.203003
0.377899 0.570038 0.203003
0.479889 0.567932 0.203003
0.573486 0.564270 0.203003
0.636108 0.556946 0.203003
0.719757 0.541748 0.203003
0.000000 0.632263 0.203003
0.124634 0.632019 0.203003
0.203003 0.631683 0.203003
0.342865 0.631134 0.203003
0.461487 0.630280 0.203003
0.566864 0.628906 0.203003
0.633331 0.626648 0.203003
0.717621 0.622711 0.203003
0.000000 0.712097 0.203003
0.124634 0.711884 0.203003
0.203003 0.711548 0.203003
0.259186 0.711090 0.203003
0.427704 0.710297 0.203003
0.551086 0.709106 0.203003
0.629059 0.707123 0.203003
0.714111 0.703979 0.203003
0.000000 0.000000 0.433502
0.124634 0.000000 0.433105
0.307922 0.000000 0.432465
0.405365 0.000000 0.431519
0.497620 0.000000 0.430023
0.578979 0.000000 0.427643
0.638855 0.000000 0.423920
0.722107 0.000000 0.417969
0.000000 0.137604 0.426056
0.124634 0.127625 0.425629
0.301727 0.124634 0.424988
0.402618 0.124634 0.423981
0.495758 0.124634 0.422394
0.578430 0.124634 0.419922
0.638580 0.124634 0.416016
0.721771 0.124634 0.409698
0.000000 0.317047 0.414215
0.124634 0.313293 0.413727
0.291534 0.307098 0.413025
0.398468 0.296112 0.411926
0.492950 0.273163 0.410217
0.577576 0.212921 0.407501
0.638153 0.203003 0.403198
0.721375 0.203003 0.396240
0.000000 0.401917 0.393524
0.124634 0.399872 0.392975
0.269287 0.396759 0.392151
0.391724 0.391785 0.390869
0.488495 0.383636 0.388855
0.576233 0.369720 0.385651
0.637451 0.342773 0.380463
0.720825 0.268616 0.371979
0.000000 0.486542 0.351349
0.124634 0.485107 0.350494
0.214386 0.482910 0.349213
0.380463 0.479492 0.347198
0.481415 0.474060 0.343872
0.573975 0.465271 0.338348
0.636353 0.450653 0.328888
0.719971 0.424652 0.310333
0.000000 0.570862 0.259186
0.124634 0.570312 0.259186
0.203003 0.569458 0.259186
0.360291 0.568085 0.259186
0.469849 0.565796 0.259186
0.570038 0.561737 0.259186
0.634583 0.553650 0.259186
0.718567 0.537323 0.259186
0.000000 0.631470 0.259186
0.124634 0.631256 0.259186
0.203003 0.630920 0.259186
0.311462 0.630341 0.259186
0.450226 0.629456 0.259186
0.562164 0.628052 0.259186
0.631866 0.625702 0.259186
0.716370 0.621613 0.259186
0.000000 0.711365 0.259186
0.124634 0.711151 0.259186
0.203003 0.710846 0.259186
0.259186 0.710327 0.259186
0.413086 0.709564 0.259186
0.543274 0.708344 0.259186
0.627380 0.706360 0.259186
0.712769 0.703125 0.259186
0.000000 0.000000 0.519684
0.124634 0.000000 0.519409
0.230896 0.000000 0.519012
0.383575 0.000000 0.518372
0.483368 0.000000 0.517365
0.574615 0.000000 0.515778
0.636658 0.000000 0.513062
0.720184 0.000000 0.508728
0.000000 0.124634 0.514618
0.124634 0.124634 0.514282
0.215790 0.124634 0.513794
0.380310 0.124634 0.513062
0.481354 0.124634 0.511932
0.573944 0.124634 0.510101
0.636353 0.124634 0.507294
0.719940 0.124634 0.502869
0.000000 0.294067 0.506012
0.124634 0.288330 0.505707
0.203003 0.278381 0.505188
0.375275 0.257355 0.504425
0.478302 0.216400 0.503235
0.572968 0.203003 0.501343
0.635864 0.203003 0.498413
0.719574 0.203003 0.493774
0.000000 0.390900 0.492004
0.124634 0.388672 0.491638
0.203003 0.385254 0.491119
0.366943 0.379761 0.490295
0.473511 0.370636 0.489014
0.571320 0.354492 0.487000
0.635101 0.319122 0.483826
0.719025 0.259186 0.478851
0.000000 0.478912 0.468109
0.124634 0.477417 0.467682
0.203003 0.475128 0.467072
0.352142 0.471558 0.466125
0.465790 0.465881 0.464661
0.568542 0.456635 0.462372
0.633942 0.441101 0.458710
0.718109 0.412903 0.452911
0.000000 0.567841 0.421906
0.124634 0.567230 0.421356
0.203003 0.566254 0.420502
0.320526 0.564667 0.419189
0.453094 0.562012 0.417114
0.563507 0.557068 0.413788
0.632233 0.547882 0.408478
0.716705 0.530304 0.399689
0.000000 0.630249 0.300354
0.124634 0.630005 0.300354
0.203003 0.629608 0.300354
0.259186 0.629059 0.300354
0.430878 0.628143 0.300354
0.552826 0.626648 0.300354
0.629456 0.624176 0.300354
0.714386 0.619843 0.300354
0.000000 0.710266 0.300354
0.124634 0.710052 0.300354
0.203003 0.709747 0.300354
0.259186 0.709198 0.300354
0.385651 0.708405 0.300354
0.529755 0.707123 0.300354
0.624512 0.705139 0.300354
0.710632 0.701813 0.300354
0.000000 0.000000 0.585907
0.124634 0.000000 0.585846
0.203003 0.000000 0.585724
0.336212 0.000000 0.585541
0.458740 0.000000 0.585266
0.565918 0.000000 0.584839
0.632965 0.000000 0.584137
0.717285 0.000000 0.583008
0.000000 0.124634 0.584534
0.124634 0.124634 0.584442
0.203003 0.124634 0.584320
0.330292 0.124634 0.584137
0.456421 0.124634 0.583832
0.564972 0.124634 0.583374
0.632690 0.124634 0.582642
0.717041 0.124634 0.581421
0.000000 0.221191 0.582275
0.124634 0.211609 0.582184
0.203003 0.203033 0.582062
0.319763 0.203003 0.581848
0.452911 0.203003 0.581512
0.563507 0.203003 0.581024
0.632233 0.203003 0.580200
0.716644 0.203003 0.578857
0.000000 0.371521 0.578339
0.124634 0.368866 0.578247
0.203003 0.364716 0.578094
0.299774 0.357910 0.577850
0.447266 0.346069 0.577454
0.561035 0.321869 0.576874
0.631500 0.266327 0.575928
0.716034 0.259186 0.574341
0.000000 0.466400 0.570801
0.124634 0.464783 0.570709
0.203003 0.462341 0.570465
0.266846 0.458466 0.570160
0.438080 0.452271 0.569611
0.556549 0.442139 0.568817
0.630341 0.424805 0.567444
0.715088 0.391602 0.565216
0.000000 0.562317 0.551300
0.124634 0.561493 0.551025
0.203003 0.560211 0.550598
0.259186 0.558105 0.549927
0.422394 0.554657 0.548828
0.548523 0.548615 0.547028
0.628448 0.537445 0.544220
0.713593 0.518951 0.539795
0.000000 0.628235 0.496796
0.124634 0.627960 0.496399
0.203003 0.627563 0.495758
0.259186 0.626923 0.494781
0.392914 0.625946 0.493256
0.533173 0.624329 0.490906
0.625244 0.621674 0.487122
0.711121 0.616882 0.481140
0.000000 0.708496 0.333893
0.124634 0.708282 0.333893
0.203003 0.707916 0.333893
0.259186 0.707367 0.333893
0.319794 0.706573 0.333893
0.506927 0.705261 0.333893
0.619415 0.703186 0.333893
0.707123 0.699738 0.333893
0.000000 0.000000 0.643646
0.124634 0.000000 0.643555
0.203003 0.000000 0.643524
0.259186 0.000000 0.643402
0.410004 0.000000 0.643219
0.541687 0.000000 0.642975
0.627075 0.000000 0.642548
0.712524 0.000000 0.641907
0.000000 0.124634 0.642792
0.124634 0.124634 0.642731
0.203003 0.124634 0.642670
0.259186 0.124634 0.642548
0.406586 0.124634 0.642395
0.539917 0.124634 0.642120
0.626709 0.124634 0.641693
0.712219 0.124634 0.641022
0.000000 0.203003 0.641479
0.124634 0.203003 0.641449
0.203003 0.203003 0.641388
0.259186 0.203003 0.641266
0.401276 0.203003 0.641083
0.537201 0.203003 0.640778
0.626129 0.203003 0.640350
0.711792 0.203003 0.639648
0.000000 0.329346 0.639374
0.124634 0.324432 0.639343
0.203003 0.316132 0.639252
0.259186 0.300446 0.639130
0.392426 0.277863 0.638916
0.532959 0.259186 0.638641
0.625214 0.259186 0.638184
0.711121 0.259186 0.637421
0.000000 0.444885 0.635834
0.124634 0.443024 0.635773
0.203003 0.440216 0.635712
0.259186 0.435699 0.635559
0.376770 0.428406 0.635345
0.526184 0.416138 0.635010
0.623779 0.393921 0.634491
0.710052 0.341125 0.633636
0.000000 0.550323 0.630035
0.124634 0.549194 0.629944
0.203003 0.547302 0.629883
0.259186 0.544312 0.629730
0.344513 0.539642 0.629517
0.515350 0.532227 0.629150
0.621399 0.520142 0.628601
0.708374 0.499908 0.627716
0.000000 0.624817 0.618652
0.124634 0.624512 0.618561
0.203003 0.624054 0.618408
0.259186 0.623352 0.618195
0.300354 0.622192 0.617859
0.497101 0.620392 0.617310
0.617218 0.617249 0.616486
0.705688 0.611786 0.615112
0.000000 0.705597 0.581360
0.124634 0.705383 0.581055
0.203003 0.704987 0.580627
0.259186 0.704468 0.579834
0.300354 0.703552 0.578644
0.464142 0.702179 0.576752
0.609619 0.699951 0.573883
0.701202 0.696320 0.569275
0.000000 0.000000 0.729797
0.124634 0.000000 0.729706
0.203003 0.000000 0.729645
0.259186 0.000000 0.729492
0.300354 0.000000 0.729248
0.485352 0.000000 0.728943
0.614288 0.000000 0.728394
0.704071 0.000000 0.727570
0.000000 0.124634 0.728699
0.124634 0.124634 0.728668
0.203003 0.124634 0.728546
0.259186 0.124634 0.728394
0.300354 0.124634 0.728149
0.482910 0.124634 0.727844
0.613708 0.124634 0.727264
0.703735 0.124634 0.726410
0.000000 0.203003 0.726990
0.124634 0.203003 0.726959
0.203003 0.203003 0.726898
0.259186 0.203003 0.726715
0.300354 0.203003 0.726440
0.479218 0.203003 0.726135
0.612854 0.203003 0.725586
0.703217 0.203003 0.724762
0.000000 0.259186 0.724426
0.124634 0.259186 0.724304
0.203003 0.259186 0.724213
0.259186 0.259186 0.724091
0.300354 0.259186 0.723816
0.473328 0.259186 0.723480
0.611542 0.259186 0.722870
0.702454 0.259186 0.721985
0.000000 0.402863 0.720673
0.124634 0.400208 0.720612
0.203003 0.396057 0.720551
0.259186 0.389343 0.720459
0.300354 0.377777 0.720306
0.463684 0.354462 0.720032
0.609344 0.316589 0.719666
0.701172 0.300354 0.719055
0.000000 0.524750 0.716034
0.124634 0.523346 0.716003
0.203003 0.521240 0.715942
0.259186 0.517853 0.715790
0.300354 0.512573 0.715668
0.447205 0.504059 0.715363
0.605560 0.489960 0.714935
0.699188 0.465271 0.714264
0.000000 0.618439 0.707977
0.124634 0.618073 0.707947
0.203003 0.617493 0.707886
0.259186 0.616577 0.707733
0.300354 0.615143 0.707520
0.413940 0.612823 0.707153
0.598175 0.609100 0.706696
0.695923 0.601776 0.705872
0.000000 0.700806 0.692352
0.124634 0.700562 0.692291
0.203003 0.700165 0.692169
0.259186 0.699554 0.691956
0.300354 0.698578 0.691711
0.350769 0.697083 0.691254
0.581543 0.694580 0.690582
0.690460 0.690552 0.689514
