Postproduction/IWLTBAP - Humble/LUTs by IWLTBAP (CUBE)/UTILITY/BMDFilm 4K to Alexa Log-C/U-BMDFILM-4K-ALEXA-LOG-C-LTL.cube
# Copyright: (C) Copyright 2010-2018 by IWLTBAP SAS
# Cannot be resold, shared or otherwise redistributed
# Website: https://luts.iwltbap.com
TITLE "BMDFilm 4K to Alexa Log-C (Utility LOG to Rec.709)"
LUT_3D_SIZE 5
DOMAIN_MIN 0.000000 0.000000 0.000000
DOMAIN_MAX 0.903226 0.903226 0.903226
0.000000 0.000000 0.000000
0.330353 0.000000 0.000000
0.471375 0.000000 0.000000
0.597900 0.000000 0.000000
0.725677 0.000000 0.000000
0.000000 0.319336 0.000000
0.321808 0.312317 0.000000
0.467346 0.294159 0.000000
0.597137 0.208344 0.000000
0.724915 0.186127 0.000000
0.000000 0.454803 0.000000
0.299683 0.451538 0.000000
0.458466 0.444427 0.000000
0.595428 0.427887 0.000000
0.723358 0.383148 0.000000
0.000000 0.589447 0.000000
0.192596 0.588684 0.000000
0.437622 0.586975 0.000000
0.591492 0.582916 0.000000
0.720581 0.570679 0.000000
0.000000 0.712830 0.000000
0.186127 0.712402 0.000000
0.377563 0.711517 0.000000
0.579834 0.709473 0.000000
0.715515 0.704895 0.000000
0.000000 0.000000 0.333069
0.311676 0.000000 0.331604
0.462891 0.000000 0.328461
0.596283 0.000000 0.321045
0.724213 0.000000 0.302277
0.000000 0.308838 0.301880
0.300323 0.300354 0.299622
0.458649 0.277405 0.294678
0.595490 0.186127 0.281799
0.723419 0.186127 0.235718
0.000000 0.450073 0.186127
0.265930 0.446686 0.186127
0.449310 0.439362 0.186127
0.593689 0.422211 0.186127
0.721832 0.374603 0.186127
0.000000 0.588318 0.186127
0.186127 0.587524 0.186127
0.427094 0.585754 0.186127
0.589447 0.581421 0.186127
0.719543 0.568176 0.186127
0.000000 0.712189 0.186127
0.186127 0.711761 0.186127
0.358673 0.710876 0.186127
0.576447 0.708801 0.186127
0.714325 0.704132 0.186127
0.000000 0.000000 0.475586
0.224823 0.000000 0.474854
0.443420 0.000000 0.473297
0.592590 0.000000 0.469910
0.721191 0.000000 0.462433
0.000000 0.277954 0.462250
0.190918 0.262573 0.461456
0.438629 0.210297 0.459778
0.591644 0.186127 0.456146
0.720673 0.186127 0.447998
0.000000 0.439545 0.430023
0.186127 0.435944 0.429047
0.427979 0.428040 0.427002
0.589600 0.409302 0.422455
0.719666 0.353180 0.412140
0.000000 0.585785 0.294464
0.186127 0.584900 0.290527
0.401703 0.582916 0.283997
0.584473 0.578033 0.281281
0.717285 0.562286 0.281281
0.000000 0.710876 0.281281
0.186127 0.710449 0.281281
0.299255 0.709473 0.281281
0.567291 0.707367 0.281281
0.711792 0.702576 0.281281
0.000000 0.000000 0.599792
0.186127 0.000000 0.599670
0.389557 0.000000 0.599365
0.582214 0.000000 0.598755
0.716339 0.000000 0.597412
0.000000 0.186127 0.597382
0.186127 0.186127 0.597229
0.382080 0.186127 0.596924
0.580780 0.186127 0.596252
0.715790 0.186127 0.594757
0.000000 0.413940 0.591492
0.186127 0.409607 0.591309
0.364044 0.399841 0.590942
0.577515 0.375305 0.590088
0.714630 0.283875 0.588196
0.000000 0.579285 0.570862
0.186127 0.578125 0.570465
0.305359 0.575531 0.569580
0.568695 0.568756 0.567505
0.712006 0.545898 0.562561
0.000000 0.707886 0.412354
0.186127 0.707428 0.411163
0.281281 0.706421 0.408600
0.535828 0.704163 0.402802
0.705963 0.699036 0.389038
0.000000 0.000000 0.729797
0.186127 0.000000 0.729645
0.281281 0.000000 0.729370
0.524353 0.000000 0.728821
0.704071 0.000000 0.727570
0.000000 0.186127 0.727570
0.186127 0.186127 0.727386
0.281281 0.186127 0.727112
0.520172 0.186127 0.726501
0.703400 0.186127 0.725189
0.000000 0.315399 0.722504
0.186127 0.307953 0.722382
0.281281 0.286407 0.722046
0.510956 0.281281 0.721558
0.701874 0.281281 0.720642
0.000000 0.554688 0.714478
0.186127 0.552032 0.714325
0.281281 0.546265 0.714111
0.489502 0.533478 0.713654
0.698547 0.502686 0.712585
0.000000 0.700806 0.692352
0.186127 0.700287 0.692230
0.281281 0.699127 0.691864
0.424042 0.696533 0.691101
0.690460 0.690552 0.689514
