Postproduction/IWLTBAP - Humble/LUTs by IWLTBAP (CUBE)/UTILITY/Technicolor CineStyle to Rec.709/U-TECHNICOLOR-CINESTYLE-LTR.cube
# Copyright: (C) Copyright 2010-2018 by IWLTBAP SAS
# Cannot be resold, shared or otherwise redistributed
# Website: https://luts.iwltbap.com
TITLE "Technicolor CineStyle (Utility LOG to Rec.709)"
LUT_3D_SIZE 5
DOMAIN_MIN 0.000000 0.000000 0.000000
DOMAIN_MAX 0.903226 0.903226 0.903226
0.000000 0.000000 0.000000
0.182159 0.000000 0.000000
0.496338 0.000000 0.000000
0.829224 0.000000 0.000000
0.980652 0.000000 0.000000
0.000000 0.139099 0.000000
0.133179 0.133118 0.000000
0.460938 0.109375 0.000000
0.828857 0.081146 0.000000
0.980652 0.075562 0.000000
0.000000 0.405975 0.000000
0.079376 0.418884 0.000000
0.409302 0.409302 0.000000
0.793579 0.387543 0.000000
0.980652 0.384094 0.000000
0.000000 0.729370 0.000000
0.047028 0.747681 0.000000
0.343201 0.749573 0.000000
0.732239 0.732269 0.000000
0.980652 0.727570 0.000000
0.000000 0.980652 0.000000
0.047028 0.980652 0.000000
0.320282 0.980652 0.000000
0.703491 0.980652 0.000000
0.980652 0.980652 0.000000
0.000000 0.000000 0.186523
0.176514 0.000000 0.176544
0.487061 0.000000 0.128204
0.823792 0.000000 0.071228
0.980652 0.000000 0.053375
0.000000 0.134888 0.134949
0.132782 0.132843 0.132812
0.461914 0.111176 0.111328
0.830902 0.084167 0.084167
0.980652 0.079193 0.079285
0.000000 0.408813 0.068756
0.083893 0.422485 0.083893
0.413818 0.413788 0.080536
0.798340 0.392670 0.067688
0.980652 0.389221 0.073639
0.000000 0.734131 0.045502
0.048462 0.752777 0.048157
0.348877 0.755157 0.050293
0.738068 0.738068 0.046875
0.980652 0.733307 0.047333
0.000000 0.980652 0.045227
0.047394 0.980652 0.047333
0.326263 0.980652 0.050079
0.708496 0.980652 0.046295
0.980652 0.980652 0.045166
0.000000 0.000000 0.533905
0.159698 0.000000 0.519897
0.466217 0.000000 0.466217
0.809937 0.000000 0.407776
0.980652 0.000000 0.378021
0.000000 0.121979 0.477051
0.123322 0.123260 0.476349
0.452759 0.104156 0.452759
0.823517 0.078522 0.419556
0.980652 0.074982 0.405640
0.000000 0.402985 0.402985
0.081268 0.417480 0.417450
0.410370 0.410339 0.410370
0.796173 0.390259 0.390289
0.980652 0.387787 0.387817
0.000000 0.732635 0.325684
0.048676 0.751648 0.345367
0.348907 0.754883 0.348877
0.738464 0.738556 0.332672
0.980652 0.733948 0.328796
0.000000 0.980652 0.297913
0.047394 0.980652 0.320007
0.326904 0.980652 0.326874
0.705933 0.980652 0.303436
0.980652 0.980652 0.264587
0.000000 0.000000 0.893311
0.140533 0.000000 0.881805
0.444214 0.000000 0.839996
0.792328 0.000000 0.792206
0.980652 0.000000 0.768646
0.000000 0.107147 0.857178
0.111359 0.111237 0.860992
0.439636 0.093750 0.841797
0.811401 0.069061 0.811340
0.980652 0.065796 0.798645
0.000000 0.392334 0.797943
0.074768 0.407471 0.812714
0.401764 0.401764 0.807373
0.788177 0.382233 0.788177
0.980652 0.379608 0.785767
0.000000 0.724243 0.724182
0.047150 0.743683 0.743530
0.341644 0.747620 0.747650
0.731445 0.731445 0.731415
0.980652 0.726196 0.726349
0.000000 0.980652 0.693390
0.046844 0.980652 0.714966
0.318207 0.980652 0.721436
0.691406 0.980652 0.691406
0.980652 0.980652 0.650391
0.000000 0.000000 0.980652
0.125275 0.000000 0.980652
0.429657 0.000000 0.980652
0.782104 0.000000 0.980652
0.980652 0.000000 0.980652
0.000000 0.100128 0.980652
0.106476 0.106354 0.980652
0.432617 0.090668 0.980652
0.805145 0.066315 0.980652
0.980652 0.063080 0.980652
0.000000 0.388062 0.980652
0.075226 0.403809 0.980652
0.399139 0.399200 0.980652
0.785767 0.379639 0.980652
0.980652 0.376038 0.980652
0.000000 0.720490 0.980652
0.047150 0.740265 0.980652
0.338928 0.744781 0.980652
0.728149 0.728149 0.980652
0.980652 0.722015 0.980652
0.000000 0.980652 0.980652
0.046539 0.980652 0.980652
0.311096 0.980652 0.980652
0.676147 0.980652 0.980652
0.980652 0.980652 0.980652
