Postproduction/IWLTBAP - Humble/LUTs by IWLTBAP (CUBE)/UTILITY/Technicolor CineStyle to Rec.709/U-TECHNICOLOR-CINESTYLE-LTR.cube
# Copyright: (C) Copyright 2010-2018 by IWLTBAP SAS
# Cannot be resold, shared or otherwise redistributed
# Website: https://luts.iwltbap.com
TITLE "Technicolor CineStyle (Utility LOG to Rec.709)"
LUT_3D_SIZE 8
DOMAIN_MIN 0.000000 0.000000 0.000000
DOMAIN_MAX 0.903226 0.903226 0.903226
0.000000 0.000000 0.000000
0.076355 0.000000 0.000000
0.223480 0.000000 0.000000
0.401581 0.000000 0.000000
0.592407 0.000000 0.000000
0.784607 0.000000 0.000000
0.938446 0.000000 0.000000
0.980652 0.000000 0.000000
0.000000 0.065613 0.000000
0.057434 0.057434 0.000000
0.188477 0.043121 0.000000
0.363373 0.028412 0.000000
0.558441 0.026123 0.000000
0.764130 0.025818 0.000000
0.934662 0.025818 0.000000
0.980652 0.025818 0.000000
0.000000 0.170044 0.000000
0.030792 0.168335 0.000000
0.167389 0.167328 0.000000
0.354889 0.155579 0.000000
0.561249 0.140106 0.000000
0.775604 0.124084 0.000000
0.949799 0.117706 0.000000
0.980652 0.115112 0.000000
0.000000 0.321106 0.000000
0.025940 0.325378 0.000000
0.134491 0.331238 0.000000
0.323730 0.323700 0.000000
0.533630 0.311462 0.000000
0.753113 0.297760 0.000000
0.943573 0.291290 0.000000
0.980652 0.290344 0.000000
0.000000 0.494843 0.000000
0.025818 0.501740 0.000000
0.101044 0.511353 0.000000
0.286957 0.508118 0.000000
0.498505 0.498505 0.000000
0.721069 0.486664 0.000000
0.929962 0.478607 0.000000
0.980652 0.480255 0.000000
0.000000 0.681244 0.000000
0.025818 0.690338 0.000000
0.071655 0.701538 0.000000
0.248993 0.702850 0.000000
0.460602 0.695190 0.000000
0.684753 0.684753 0.000000
0.907013 0.675018 0.000000
0.980652 0.677612 0.000000
0.000000 0.874237 0.000000
0.025818 0.884827 0.000000
0.058838 0.896362 0.000000
0.215759 0.901794 0.000000
0.424927 0.896057 0.000000
0.648712 0.886322 0.000000
0.875549 0.875763 0.000000
0.980652 0.877289 0.000000
0.000000 0.980652 0.000000
0.025818 0.980652 0.000000
0.066345 0.980652 0.000000
0.221344 0.980652 0.000000
0.425781 0.980652 0.000000
0.647186 0.980652 0.000000
0.871613 0.980652 0.000000
0.980652 0.980652 0.000000
0.000000 0.000000 0.075897
0.075348 0.000000 0.075378
0.220703 0.000000 0.064026
0.397888 0.000000 0.041504
0.586273 0.000000 0.026764
0.780151 0.000000 0.025818
0.936859 0.000000 0.025818
0.980652 0.000000 0.025818
0.000000 0.062622 0.062683
0.053406 0.053314 0.053406
0.184814 0.040833 0.040833
0.360504 0.028229 0.027985
0.556580 0.026154 0.026062
0.763275 0.025818 0.025818
0.934937 0.025818 0.025818
0.980652 0.025818 0.025818
0.000000 0.168579 0.030334
0.031036 0.167847 0.030975
0.167694 0.167664 0.031830
0.355377 0.156311 0.028107
0.561890 0.141266 0.026245
0.776581 0.125397 0.025940
0.949951 0.119324 0.025940
0.980652 0.117004 0.025940
0.000000 0.321808 0.025818
0.026001 0.326263 0.025970
0.136139 0.332642 0.026154
0.325348 0.325348 0.026001
0.535370 0.313385 0.025879
0.755035 0.299866 0.025818
0.945923 0.293427 0.025818
0.980652 0.292755 0.025818
0.000000 0.496460 0.025818
0.025818 0.503479 0.025818
0.103516 0.513275 0.025818
0.289276 0.510223 0.025818
0.501007 0.500916 0.025818
0.723602 0.489227 0.025818
0.932343 0.481201 0.025818
0.980652 0.483124 0.025818
0.000000 0.683746 0.025818
0.025818 0.692810 0.025818
0.074341 0.704285 0.025818
0.251831 0.705536 0.025818
0.463501 0.698059 0.025818
0.687622 0.687714 0.025818
0.909912 0.677826 0.025818
0.980652 0.680573 0.025818
0.000000 0.877258 0.025818
0.025818 0.887421 0.025818
0.060486 0.899200 0.025818
0.218842 0.904755 0.025818
0.428131 0.899017 0.025818
0.651703 0.889374 0.025818
0.878632 0.878845 0.025818
0.980652 0.880066 0.025818
0.000000 0.980652 0.025818
0.025818 0.980652 0.025818
0.067871 0.980652 0.025818
0.224548 0.980652 0.025818
0.428925 0.980652 0.025818
0.649872 0.980652 0.025818
0.872589 0.980652 0.025818
0.980652 0.980652 0.025818
0.000000 0.000000 0.231079
0.071503 0.000000 0.228851
0.215027 0.000000 0.215057
0.391602 0.000000 0.188110
0.579193 0.000000 0.152710
0.775726 0.000000 0.119019
0.935577 0.000000 0.099304
0.980652 0.000000 0.084625
0.000000 0.057159 0.207977
0.048096 0.048157 0.194031
0.179962 0.037292 0.179993
0.356995 0.027802 0.156738
0.554901 0.026154 0.132477
0.762787 0.025818 0.109955
0.935669 0.025818 0.099670
0.980652 0.025818 0.093292
0.000000 0.166412 0.166443
0.030823 0.166748 0.166779
0.167725 0.167664 0.167725
0.355865 0.157043 0.157043
0.562927 0.142517 0.142639
0.778137 0.127258 0.127380
0.950348 0.121338 0.121552
0.980652 0.119354 0.119476
0.000000 0.322754 0.125458
0.026031 0.327576 0.130829
0.138062 0.334351 0.138062
0.327484 0.327515 0.132721
0.537842 0.316010 0.123444
0.757812 0.302704 0.113373
0.948456 0.296417 0.111053
0.980652 0.295929 0.115295
0.000000 0.498627 0.087799
0.025818 0.506104 0.095978
0.106720 0.516113 0.106750
0.292419 0.513428 0.106384
0.504242 0.504242 0.100739
0.726898 0.492645 0.093445
0.935364 0.484711 0.090637
0.980652 0.486511 0.098083
0.000000 0.686493 0.061493
0.025818 0.695709 0.067291
0.077911 0.707336 0.077911
0.255402 0.708832 0.082123
0.466949 0.701538 0.078278
0.691101 0.691101 0.071960
0.913574 0.681244 0.067200
0.980652 0.683990 0.074280
0.000000 0.880341 0.053436
0.025818 0.890778 0.055725
0.062134 0.902496 0.061829
0.222229 0.908173 0.064392
0.431488 0.902405 0.062286
0.654999 0.892792 0.058868
0.881866 0.882111 0.055511
0.980652 0.883392 0.057587
0.000000 0.980652 0.055786
0.025818 0.980652 0.063171
0.069366 0.980652 0.069153
0.227875 0.980652 0.076324
0.432220 0.980652 0.071716
0.652771 0.980652 0.064514
0.873047 0.980652 0.056396
0.980652 0.980652 0.053070
0.000000 0.000000 0.428070
0.064026 0.000000 0.424286
0.205566 0.000000 0.409485
0.380707 0.000000 0.380707
0.568481 0.000000 0.344177
0.766724 0.000000 0.310547
0.931519 0.000000 0.289459
0.980652 0.000000 0.273102
0.000000 0.047974 0.398865
0.039398 0.039398 0.384735
0.170959 0.030975 0.371857
0.348755 0.026764 0.348816
0.548187 0.026031 0.325012
0.757172 0.025818 0.301758
0.932922 0.025818 0.289093
0.980652 0.025818 0.279724
0.000000 0.160095 0.360565
0.028809 0.161224 0.361023
0.163147 0.163239 0.362488
0.351318 0.152924 0.351379
0.558807 0.138947 0.336121
0.774384 0.124207 0.319153
0.950073 0.118561 0.310333
0.980652 0.117340 0.304749
0.000000 0.318604 0.318665
0.025970 0.323700 0.323853
0.135437 0.330963 0.331116
0.324738 0.324707 0.324738
0.535431 0.313507 0.313629
0.755737 0.300781 0.300842
0.948212 0.294586 0.294678
0.980652 0.294647 0.294861
0.000000 0.496155 0.274445
0.025818 0.503723 0.282471
0.105865 0.514252 0.293030
0.291107 0.511993 0.291138
0.503235 0.503143 0.282867
0.726349 0.492035 0.272278
0.936157 0.484314 0.265198
0.980652 0.486542 0.268372
0.000000 0.685638 0.231201
0.025818 0.695099 0.241089
0.078644 0.706757 0.253113
0.255493 0.708893 0.255493
0.467255 0.701843 0.249023
0.691772 0.691742 0.239624
0.915009 0.682220 0.230743
0.980652 0.685150 0.234802
0.000000 0.881195 0.194519
0.025818 0.891724 0.205658
0.062622 0.903534 0.217834
0.223297 0.909302 0.223297
0.432556 0.903748 0.217346
0.656433 0.894257 0.207764
0.883545 0.883759 0.197754
0.980652 0.885071 0.200287
0.000000 0.980652 0.198303
0.025818 0.980652 0.210205
0.070312 0.980652 0.222198
0.229431 0.980652 0.229431
0.433380 0.980652 0.223999
0.653046 0.980652 0.212128
0.870453 0.980652 0.191315
0.980652 0.980652 0.174408
0.000000 0.000000 0.642517
0.054810 0.000000 0.637177
0.194153 0.000000 0.621979
0.367249 0.000000 0.591492
0.556549 0.000000 0.556580
0.756134 0.000000 0.523651
0.924011 0.000000 0.503143
0.980652 0.000000 0.487427
0.000000 0.036774 0.608032
0.030304 0.030334 0.595520
0.160400 0.028290 0.584290
0.339294 0.026245 0.562622
0.539703 0.025879 0.539703
0.749725 0.025818 0.516937
0.928894 0.025818 0.503876
0.980652 0.025818 0.494690
0.000000 0.152405 0.576080
0.027710 0.154205 0.576660
0.157013 0.157013 0.578918
0.345123 0.147156 0.568024
0.552765 0.133728 0.552765
0.768585 0.119446 0.535614
0.948944 0.113739 0.526062
0.980652 0.112823 0.519989
0.000000 0.312683 0.535400
0.025909 0.318054 0.540588
0.130981 0.325867 0.548126
0.320038 0.319885 0.541992
0.530762 0.309204 0.530762
0.751526 0.296631 0.517792
0.946533 0.290314 0.511017
0.980652 0.290741 0.510681
0.000000 0.491211 0.491211
0.025818 0.499176 0.499115
0.102875 0.509827 0.509766
0.287415 0.507904 0.508026
0.499542 0.499451 0.499512
0.722809 0.488556 0.488525
0.934601 0.480560 0.480530
0.980652 0.483002 0.483063
0.000000 0.681732 0.446777
0.025818 0.691162 0.456757
0.076477 0.703003 0.468414
0.252380 0.705597 0.470917
0.464203 0.698669 0.464172
0.688721 0.688721 0.454132
0.912750 0.679016 0.444427
0.980652 0.681946 0.447571
0.000000 0.878082 0.407288
0.025818 0.888641 0.418457
0.061432 0.900421 0.430634
0.220215 0.906586 0.435913
0.429504 0.901215 0.429474
0.653442 0.891693 0.419128
0.880890 0.881073 0.407867
0.980652 0.882172 0.408386
0.000000 0.980652 0.405823
0.025818 0.980652 0.417908
0.068665 0.980652 0.430145
0.226624 0.980652 0.436676
0.430023 0.980652 0.430023
0.648041 0.980652 0.414612
0.863098 0.980652 0.388824
0.980652 0.980652 0.368744
0.000000 0.000000 0.853516
0.045166 0.000000 0.848297
0.182220 0.000000 0.835266
0.353455 0.000000 0.807190
0.544312 0.000000 0.776001
0.745178 0.000000 0.745178
0.916199 0.000000 0.726166
0.980652 0.000000 0.712402
0.000000 0.029236 0.822510
0.027679 0.027771 0.812134
0.149231 0.026642 0.803070
0.329529 0.026093 0.784241
0.530731 0.025818 0.763031
0.741547 0.025818 0.741547
0.924042 0.025818 0.728973
0.980652 0.025818 0.720825
0.000000 0.144440 0.798767
0.026672 0.146698 0.800140
0.150330 0.150269 0.803314
0.338318 0.140961 0.793243
0.545990 0.127930 0.778687
0.761902 0.113831 0.761902
0.945404 0.108093 0.752411
0.980652 0.107544 0.747040
0.000000 0.306000 0.761688
0.025848 0.311707 0.766876
0.126129 0.319794 0.774994
0.314484 0.314484 0.769562
0.525391 0.303955 0.758911
0.746460 0.291443 0.746429
0.943939 0.284851 0.739532
0.980652 0.285767 0.739807
0.000000 0.485443 0.719757
0.025818 0.493500 0.727570
0.099243 0.504272 0.738342
0.282806 0.503143 0.737274
0.494812 0.494843 0.729034
0.718384 0.484009 0.718353
0.932220 0.475677 0.710175
0.980652 0.478271 0.712952
0.000000 0.676544 0.676483
0.025818 0.686310 0.686310
0.073456 0.698090 0.698090
0.248138 0.700989 0.701080
0.459808 0.694336 0.694336
0.684418 0.684387 0.684418
0.909393 0.674561 0.674530
0.980652 0.677460 0.677429
0.000000 0.873688 0.637054
0.025818 0.884247 0.647980
0.059753 0.896210 0.660034
0.215820 0.902496 0.665771
0.424896 0.897003 0.659393
0.648926 0.887543 0.648895
0.876740 0.876709 0.637543
0.980652 0.877411 0.637390
0.000000 0.980652 0.634644
0.025818 0.980652 0.646362
0.066559 0.980652 0.658539
0.221985 0.980652 0.665131
0.424530 0.980652 0.658081
0.640106 0.980652 0.640106
0.853119 0.980652 0.611908
0.980652 0.980652 0.592651
0.000000 0.000000 0.954834
0.039581 0.000000 0.954834
0.173492 0.000000 0.954803
0.344269 0.000000 0.952118
0.536041 0.000000 0.940857
0.737579 0.000000 0.923218
0.911713 0.000000 0.911743
0.980652 0.000000 0.905792
0.000000 0.027527 0.954041
0.026459 0.026520 0.952911
0.142517 0.026306 0.952057
0.323334 0.026062 0.949554
0.525116 0.025818 0.939056
0.736237 0.025818 0.926910
0.920898 0.025818 0.920898
0.980652 0.025818 0.919739
0.000000 0.140198 0.952148
0.026459 0.142853 0.952698
0.147247 0.147156 0.953613
0.334656 0.138214 0.952484
0.541870 0.125275 0.950806
0.757751 0.111053 0.947174
0.943085 0.104889 0.943115
0.980652 0.104156 0.943878
0.000000 0.302216 0.943512
0.025818 0.308197 0.948486
0.124329 0.316772 0.951111
0.311615 0.311707 0.951019
0.522308 0.301056 0.949615
0.743256 0.288605 0.944153
0.942963 0.281097 0.943207
0.980652 0.281677 0.948761
0.000000 0.481537 0.923065
0.025818 0.489929 0.929596
0.097717 0.500824 0.938965
0.279724 0.499878 0.941223
0.491455 0.491425 0.938446
0.714783 0.480194 0.933685
0.930389 0.471313 0.930634
0.980652 0.473816 0.936188
0.000000 0.672089 0.897247
0.025818 0.681854 0.907257
0.071411 0.693787 0.919037
0.244476 0.697021 0.924316
0.455658 0.690277 0.920502
0.680206 0.680267 0.913300
0.905731 0.669922 0.905640
0.980652 0.672638 0.909760
0.000000 0.868988 0.868347
0.025818 0.879608 0.878998
0.058075 0.891510 0.890930
0.211426 0.898163 0.897583
0.420135 0.892761 0.892334
0.644104 0.883148 0.882904
0.872070 0.872162 0.872040
0.980652 0.872162 0.872101
0.000000 0.980652 0.869110
0.025818 0.980652 0.880676
0.064270 0.980652 0.892670
0.216858 0.980652 0.899353
0.417755 0.980652 0.891846
0.630524 0.980652 0.871643
0.842163 0.980652 0.842194
0.980652 0.980652 0.824860
0.000000 0.000000 0.980652
0.033508 0.000000 0.980652
0.163330 0.000000 0.980652
0.335175 0.000000 0.980652
0.527924 0.000000 0.980652
0.730804 0.000000 0.980652
0.908356 0.000000 0.980652
0.980652 0.000000 0.980652
0.000000 0.026398 0.980652
0.026276 0.026306 0.980652
0.136139 0.026276 0.980652
0.317688 0.025970 0.980652
0.520081 0.025818 0.980652
0.732025 0.025818 0.980652
0.919434 0.025818 0.980652
0.980652 0.025818 0.980652
0.000000 0.136444 0.980652
0.026337 0.139557 0.980652
0.144501 0.144409 0.980652
0.331512 0.136169 0.980652
0.538635 0.123718 0.980652
0.754822 0.109863 0.980652
0.942230 0.103485 0.980652
0.980652 0.103088 0.980652
0.000000 0.299591 0.980652
0.025818 0.305786 0.980652
0.123810 0.314667 0.980652
0.310242 0.310242 0.980652
0.520966 0.300018 0.980652
0.742279 0.287659 0.980652
0.944366 0.279968 0.980652
0.980652 0.281067 0.980652
0.000000 0.479950 0.980652
0.025818 0.488373 0.980652
0.098663 0.499481 0.980652
0.279388 0.499268 0.980652
0.491150 0.491028 0.980652
0.714752 0.480225 0.980652
0.931671 0.470978 0.980652
0.980652 0.473267 0.980652
0.000000 0.671509 0.980652
0.025818 0.681488 0.980652
0.072906 0.693329 0.980652
0.244812 0.696960 0.980652
0.455872 0.690521 0.980652
0.680389 0.680389 0.980652
0.906372 0.669891 0.980652
0.980652 0.672028 0.980652
0.000000 0.868652 0.980652
0.025818 0.879547 0.980652
0.058594 0.891357 0.980652
0.211365 0.897980 0.980652
0.419647 0.892639 0.980652
0.643433 0.882629 0.980652
0.871399 0.871460 0.980652
0.980652 0.869965 0.980652
0.000000 0.980652 0.980652
0.025818 0.980652 0.980652
0.063782 0.980652 0.980652
0.215271 0.980652 0.980652
0.413635 0.980652 0.980652
0.623352 0.980652 0.980652
0.834686 0.980652 0.980652
0.980652 0.980652 0.980652
