Postproduction/IWLTBAP - Humble/LUTs by IWLTBAP (CUBE)/UTILITY/Technicolor CineStyle to Rec.709/U-TECHNICOLOR-CINESTYLE-LTR.cube
# Copyright: (C) Copyright 2010-2018 by IWLTBAP SAS
# Cannot be resold, shared or otherwise redistributed
# Website: https://luts.iwltbap.com
TITLE "Technicolor CineStyle (Utility LOG to Rec.709)"
LUT_3D_SIZE 32
0.000000 0.000000 0.000000
0.006683 0.000000 0.000000
0.021881 0.000000 0.000000
0.050537 0.000000 0.000000
0.076355 0.000000 0.000000
0.106415 0.000000 0.000000
0.142761 0.000000 0.000000
0.182159 0.000000 0.000000
0.223480 0.000000 0.000000
0.266174 0.000000 0.000000
0.310120 0.000000 0.000000
0.355377 0.000000 0.000000
0.401581 0.000000 0.000000
0.448608 0.000000 0.000000
0.496338 0.000000 0.000000
0.544312 0.000000 0.000000
0.592407 0.000000 0.000000
0.640228 0.000000 0.000000
0.688019 0.000000 0.000000
0.736206 0.000000 0.000000
0.784607 0.000000 0.000000
0.829224 0.000000 0.000000
0.867096 0.000000 0.000000
0.903625 0.000000 0.000000
0.938446 0.000000 0.000000
0.959290 0.000000 0.000000
0.967743 0.000000 0.000000
0.974182 0.000000 0.000000
0.980652 0.000000 0.000000
0.987091 0.000000 0.000000
0.993561 0.000000 0.000000
1.000000 0.000000 0.000000
0.000000 0.006561 0.000000
0.006439 0.006439 0.000000
0.017700 0.006439 0.000000
0.045319 0.006439 0.000000
0.070038 0.006439 0.000000
0.098480 0.006439 0.000000
0.133179 0.006439 0.000000
0.171082 0.006439 0.000000
0.211365 0.006439 0.000000
0.253204 0.006439 0.000000
0.296509 0.006439 0.000000
0.340912 0.006439 0.000000
0.386200 0.006439 0.000000
0.432037 0.006439 0.000000
0.478119 0.006439 0.000000
0.524689 0.006439 0.000000
0.572296 0.006439 0.000000
0.620789 0.006439 0.000000
0.669830 0.006439 0.000000
0.719238 0.006439 0.000000
0.768646 0.006439 0.000000
0.816010 0.006439 0.000000
0.856781 0.006439 0.000000
0.893585 0.006439 0.000000
0.931488 0.006439 0.000000
0.958130 0.006439 0.000000
0.967743 0.006439 0.000000
0.974182 0.006439 0.000000
0.980652 0.006439 0.000000
0.987091 0.006439 0.000000
0.993561 0.006439 0.000000
1.000000 0.006439 0.000000
0.000000 0.017090 0.000000
0.006439 0.015381 0.000000
0.014038 0.014008 0.000000
0.040283 0.013916 0.000000
0.063660 0.013855 0.000000
0.090729 0.013672 0.000000
0.123840 0.013428 0.000000
0.161255 0.013153 0.000000
0.200562 0.012970 0.000000
0.241577 0.012939 0.000000
0.283691 0.012909 0.000000
0.326691 0.012909 0.000000
0.370789 0.012909 0.000000
0.416382 0.012909 0.000000
0.463379 0.012909 0.000000
0.511292 0.012909 0.000000
0.560028 0.012909 0.000000
0.609467 0.012909 0.000000
0.659363 0.012909 0.000000
0.709564 0.012909 0.000000
0.759979 0.012909 0.000000
0.809052 0.012909 0.000000
0.852051 0.012909 0.000000
0.889709 0.012909 0.000000
0.928558 0.012909 0.000000
0.957611 0.012909 0.000000
0.967743 0.012909 0.000000
0.974182 0.012909 0.000000
0.980652 0.012909 0.000000
0.987091 0.012909 0.000000
0.993561 0.012909 0.000000
1.000000 0.012909 0.000000
0.000000 0.042633 0.000000
0.006439 0.039978 0.000000
0.013824 0.037872 0.000000
0.036743 0.036743 0.000000
0.059967 0.036285 0.000000
0.086090 0.034973 0.000000
0.117798 0.031830 0.000000
0.153870 0.027405 0.000000
0.191925 0.022980 0.000000
0.231781 0.020538 0.000000
0.273682 0.019867 0.000000
0.317413 0.019562 0.000000
0.362671 0.019440 0.000000
0.409302 0.019379 0.000000
0.457001 0.019348 0.000000
0.505737 0.019348 0.000000
0.555298 0.019348 0.000000
0.605469 0.019348 0.000000
0.656067 0.019348 0.000000
0.707153 0.019348 0.000000
0.758453 0.019348 0.000000
0.808685 0.019348 0.000000
0.853271 0.019348 0.000000
0.891663 0.019348 0.000000
0.929840 0.019348 0.000000
0.957764 0.019348 0.000000
0.967743 0.019348 0.000000
0.974182 0.019348 0.000000
0.980652 0.019348 0.000000
0.987091 0.019348 0.000000
0.993561 0.019348 0.000000
1.000000 0.019348 0.000000
0.000000 0.065613 0.000000
0.006439 0.062622 0.000000
0.013519 0.059906 0.000000
0.034698 0.058289 0.000000
0.057434 0.057434 0.000000
0.082275 0.055389 0.000000
0.113098 0.052032 0.000000
0.149200 0.047791 0.000000
0.188477 0.043121 0.000000
0.229767 0.038147 0.000000
0.272797 0.033264 0.000000
0.317352 0.029846 0.000000
0.363373 0.028412 0.000000
0.410645 0.027283 0.000000
0.458954 0.026520 0.000000
0.508179 0.026245 0.000000
0.558441 0.026123 0.000000
0.609375 0.026031 0.000000
0.660706 0.025879 0.000000
0.712341 0.025818 0.000000
0.764130 0.025818 0.000000
0.814728 0.025818 0.000000
0.859406 0.025818 0.000000
0.897980 0.025818 0.000000
0.934662 0.025818 0.000000
0.958557 0.025818 0.000000
0.967743 0.025818 0.000000
0.974182 0.025818 0.000000
0.980652 0.025818 0.000000
0.987091 0.025818 0.000000
0.993561 0.025818 0.000000
1.000000 0.025818 0.000000
0.000000 0.088013 0.000000
0.006439 0.084564 0.000000
0.013123 0.080963 0.000000
0.029205 0.079193 0.000000
0.052063 0.078674 0.000000
0.077850 0.077728 0.000000
0.109192 0.075409 0.000000
0.145935 0.072021 0.000000
0.185974 0.068085 0.000000
0.228058 0.063721 0.000000
0.271912 0.059204 0.000000
0.317322 0.054535 0.000000
0.364258 0.049744 0.000000
0.412445 0.045074 0.000000
0.461761 0.041351 0.000000
0.512024 0.039154 0.000000
0.562958 0.037720 0.000000
0.614349 0.036316 0.000000
0.666229 0.034821 0.000000
0.718323 0.033661 0.000000
0.770355 0.033264 0.000000
0.821167 0.033112 0.000000
0.866089 0.033051 0.000000
0.904602 0.033081 0.000000
0.939728 0.033051 0.000000
0.959442 0.033051 0.000000
0.967743 0.033020 0.000000
0.974182 0.032959 0.000000
0.980652 0.032928 0.000000
0.987091 0.032898 0.000000
0.993561 0.032837 0.000000
1.000000 0.032806 0.000000
0.000000 0.111450 0.000000
0.006439 0.108154 0.000000
0.012939 0.105469 0.000000
0.023315 0.104492 0.000000
0.045380 0.104736 0.000000
0.071686 0.104523 0.000000
0.103271 0.103149 0.000000
0.140350 0.100555 0.000000
0.181122 0.097137 0.000000
0.224182 0.093506 0.000000
0.268982 0.089661 0.000000
0.315460 0.085724 0.000000
0.363464 0.081665 0.000000
0.412567 0.077515 0.000000
0.462555 0.073242 0.000000
0.513367 0.068909 0.000000
0.564911 0.064575 0.000000
0.617035 0.060211 0.000000
0.669495 0.056061 0.000000
0.722107 0.052399 0.000000
0.774628 0.050110 0.000000
0.826050 0.048706 0.000000
0.871887 0.047913 0.000000
0.910736 0.047974 0.000000
0.944427 0.047852 0.000000
0.960266 0.047577 0.000000
0.967743 0.047302 0.000000
0.974182 0.046906 0.000000
0.980652 0.046600 0.000000
0.987091 0.046204 0.000000
0.993561 0.045776 0.000000
1.000000 0.045502 0.000000
0.000000 0.139099 0.000000
0.006439 0.136322 0.000000
0.012909 0.134216 0.000000
0.020203 0.133698 0.000000
0.037476 0.134766 0.000000
0.063995 0.135406 0.000000
0.095856 0.134796 0.000000
0.133179 0.133118 0.000000
0.174713 0.130585 0.000000
0.218750 0.127563 0.000000
0.264526 0.124329 0.000000
0.311798 0.120880 0.000000
0.360443 0.117218 0.000000
0.410278 0.113342 0.000000
0.460938 0.109375 0.000000
0.512482 0.105255 0.000000
0.564667 0.101105 0.000000
0.617340 0.096954 0.000000
0.670441 0.092865 0.000000
0.723572 0.088837 0.000000
0.776642 0.084869 0.000000
0.828857 0.081146 0.000000
0.876038 0.078979 0.000000
0.915649 0.078796 0.000000
0.948059 0.078522 0.000000
0.960938 0.077850 0.000000
0.967743 0.077087 0.000000
0.974182 0.076233 0.000000
0.980652 0.075562 0.000000
0.987091 0.074768 0.000000
0.993561 0.074005 0.000000
1.000000 0.073425 0.000000
0.000000 0.170044 0.000000
0.006439 0.167786 0.000000
0.012909 0.166443 0.000000
0.019592 0.166534 0.000000
0.030792 0.168335 0.000000
0.056549 0.169861 0.000000
0.088440 0.170227 0.000000
0.125519 0.169373 0.000000
0.167389 0.167328 0.000000
0.211731 0.164856 0.000000
0.258057 0.162018 0.000000
0.305817 0.158966 0.000000
0.354889 0.155579 0.000000
0.405121 0.151917 0.000000
0.456390 0.148102 0.000000
0.508453 0.144135 0.000000
0.561249 0.140106 0.000000
0.614471 0.136047 0.000000
0.668091 0.131989 0.000000
0.721832 0.127991 0.000000
0.775604 0.124084 0.000000
0.828766 0.120392 0.000000
0.877563 0.117981 0.000000
0.918243 0.117767 0.000000
0.949799 0.117706 0.000000
0.961304 0.117096 0.000000
0.967743 0.116455 0.000000
0.974182 0.115784 0.000000
0.980652 0.115112 0.000000
0.987091 0.114380 0.000000
0.993561 0.113708 0.000000
1.000000 0.113220 0.000000
0.000000 0.204224 0.000000
0.006439 0.202454 0.000000
0.012909 0.201874 0.000000
0.019440 0.202667 0.000000
0.028107 0.204987 0.000000
0.049438 0.207001 0.000000
0.081268 0.207916 0.000000
0.117828 0.207733 0.000000
0.159485 0.206268 0.000000
0.204193 0.204193 0.000000
0.250641 0.201721 0.000000
0.298645 0.198792 0.000000
0.347961 0.195679 0.000000
0.398438 0.192291 0.000000
0.449951 0.188690 0.000000
0.502380 0.184906 0.000000
0.555511 0.181091 0.000000
0.609131 0.177246 0.000000
0.663147 0.173279 0.000000
0.717346 0.169373 0.000000
0.771606 0.165588 0.000000
0.825470 0.161896 0.000000
0.875763 0.159271 0.000000
0.917908 0.158875 0.000000
0.949799 0.159027 0.000000
0.961304 0.158478 0.000000
0.967743 0.157867 0.000000
0.974182 0.157257 0.000000
0.980652 0.156525 0.000000
0.987091 0.155884 0.000000
0.993561 0.155304 0.000000
1.000000 0.154755 0.000000
0.000000 0.241333 0.000000
0.006439 0.239990 0.000000
0.012909 0.239929 0.000000
0.019348 0.241089 0.000000
0.026733 0.243652 0.000000
0.042816 0.246063 0.000000
0.074280 0.247375 0.000000
0.110229 0.247681 0.000000
0.151367 0.246704 0.000000
0.196014 0.244873 0.000000
0.242706 0.242676 0.000000
0.290833 0.240112 0.000000
0.340393 0.237152 0.000000
0.391083 0.234039 0.000000
0.442841 0.230591 0.000000
0.495483 0.227081 0.000000
0.548920 0.223480 0.000000
0.602783 0.219757 0.000000
0.657074 0.216003 0.000000
0.711609 0.212250 0.000000
0.766205 0.208618 0.000000
0.820618 0.205048 0.000000
0.872101 0.202271 0.000000
0.915894 0.201691 0.000000
0.948761 0.202026 0.000000
0.961212 0.201691 0.000000
0.967743 0.201111 0.000000
0.974182 0.200653 0.000000
0.980652 0.199951 0.000000
0.987091 0.199402 0.000000
0.993561 0.198853 0.000000
1.000000 0.198242 0.000000
0.000000 0.280426 0.000000
0.006439 0.279510 0.000000
0.012909 0.279724 0.000000
0.019348 0.281097 0.000000
0.026123 0.283875 0.000000
0.038239 0.286407 0.000000
0.067169 0.288116 0.000000
0.102570 0.288879 0.000000
0.142975 0.288422 0.000000
0.187592 0.286865 0.000000
0.234222 0.284790 0.000000
0.282593 0.282532 0.000000
0.332214 0.279877 0.000000
0.383087 0.276886 0.000000
0.434998 0.273804 0.000000
0.487823 0.270386 0.000000
0.541534 0.266968 0.000000
0.595734 0.263458 0.000000
0.650360 0.259796 0.000000
0.705048 0.256226 0.000000
0.760010 0.252686 0.000000
0.814789 0.249207 0.000000
0.867401 0.246368 0.000000
0.912750 0.245605 0.000000
0.946533 0.246155 0.000000
0.960907 0.246002 0.000000
0.967743 0.245575 0.000000
0.974182 0.245239 0.000000
0.980652 0.244690 0.000000
0.987091 0.244202 0.000000
0.993561 0.243805 0.000000
1.000000 0.243256 0.000000
0.000000 0.321106 0.000000
0.006439 0.320343 0.000000
0.012909 0.320801 0.000000
0.019348 0.322388 0.000000
0.025940 0.325378 0.000000
0.035950 0.328064 0.000000
0.059906 0.330139 0.000000
0.094818 0.331299 0.000000
0.134491 0.331238 0.000000
0.178802 0.330078 0.000000
0.225586 0.328247 0.000000
0.273895 0.326050 0.000000
0.323730 0.323700 0.000000
0.374664 0.320953 0.000000
0.426788 0.317932 0.000000
0.479767 0.314819 0.000000
0.533630 0.311462 0.000000
0.588074 0.308136 0.000000
0.642853 0.304626 0.000000
0.697998 0.301147 0.000000
0.753113 0.297760 0.000000
0.808228 0.294434 0.000000
0.861786 0.291565 0.000000
0.908844 0.290497 0.000000
0.943573 0.291290 0.000000
0.960358 0.291260 0.000000
0.967743 0.291016 0.000000
0.974182 0.290741 0.000000
0.980652 0.290344 0.000000
0.987091 0.289948 0.000000
0.993561 0.289642 0.000000
1.000000 0.289215 0.000000
0.000000 0.363007 0.000000
0.006439 0.362335 0.000000
0.012909 0.363007 0.000000
0.019348 0.364807 0.000000
0.025818 0.367981 0.000000
0.033966 0.370819 0.000000
0.052917 0.373138 0.000000
0.087158 0.374695 0.000000
0.125946 0.375092 0.000000
0.169861 0.374237 0.000000
0.216614 0.372742 0.000000
0.265045 0.370819 0.000000
0.314789 0.368500 0.000000
0.366028 0.366028 0.000000
0.418213 0.363159 0.000000
0.471466 0.360107 0.000000
0.525360 0.357025 0.000000
0.579926 0.353729 0.000000
0.634949 0.350464 0.000000
0.690308 0.347137 0.000000
0.745728 0.343781 0.000000
0.801086 0.340576 0.000000
0.855377 0.337708 0.000000
0.904236 0.336334 0.000000
0.940460 0.337097 0.000000
0.959839 0.337372 0.000000
0.967743 0.337250 0.000000
0.974182 0.337067 0.000000
0.980652 0.336823 0.000000
0.987091 0.336517 0.000000
0.993561 0.336243 0.000000
1.000000 0.335907 0.000000
0.000000 0.405975 0.000000
0.006439 0.405426 0.000000
0.012909 0.406250 0.000000
0.019348 0.408325 0.000000
0.025818 0.411621 0.000000
0.032990 0.414551 0.000000
0.047729 0.416962 0.000000
0.079376 0.418884 0.000000
0.117523 0.419769 0.000000
0.160675 0.419312 0.000000
0.207397 0.417999 0.000000
0.255859 0.416321 0.000000
0.305725 0.414185 0.000000
0.356903 0.411835 0.000000
0.409302 0.409302 0.000000
0.462585 0.406403 0.000000
0.516815 0.403351 0.000000
0.571533 0.400269 0.000000
0.626709 0.397125 0.000000
0.682281 0.393921 0.000000
0.737885 0.390717 0.000000
0.793579 0.387543 0.000000
0.848419 0.384644 0.000000
0.898865 0.382935 0.000000
0.937225 0.383545 0.000000
0.959290 0.384186 0.000000
0.967743 0.384186 0.000000
0.974182 0.384125 0.000000
0.980652 0.384094 0.000000
0.987091 0.383881 0.000000
0.993561 0.383575 0.000000
1.000000 0.383301 0.000000
0.000000 0.449951 0.000000
0.006439 0.449554 0.000000
0.012909 0.450592 0.000000
0.019348 0.452789 0.000000
0.025818 0.456207 0.000000
0.032623 0.459259 0.000000
0.044586 0.461700 0.000000
0.071747 0.463898 0.000000
0.109192 0.465179 0.000000
0.151489 0.465240 0.000000
0.197998 0.464142 0.000000
0.246490 0.462677 0.000000
0.296387 0.460754 0.000000
0.347626 0.458496 0.000000
0.400055 0.456024 0.000000
0.453461 0.453430 0.000000
0.507721 0.450623 0.000000
0.562714 0.447601 0.000000
0.618011 0.444519 0.000000
0.673798 0.441498 0.000000
0.729736 0.438293 0.000000
0.785522 0.435303 0.000000
0.841064 0.432404 0.000000
0.892975 0.430389 0.000000
0.933807 0.430695 0.000000
0.958740 0.431610 0.000000
0.967743 0.431793 0.000000
0.974182 0.431824 0.000000
0.980652 0.431885 0.000000
0.987091 0.431793 0.000000
0.993561 0.431610 0.000000
1.000000 0.431335 0.000000
0.000000 0.494843 0.000000
0.006439 0.494537 0.000000
0.012909 0.495728 0.000000
0.019348 0.498138 0.000000
0.025818 0.501740 0.000000
0.032379 0.504852 0.000000
0.041931 0.507385 0.000000
0.064484 0.509766 0.000000
0.101044 0.511353 0.000000
0.142487 0.511810 0.000000
0.188507 0.511139 0.000000
0.237000 0.509766 0.000000
0.286957 0.508118 0.000000
0.338196 0.506073 0.000000
0.390625 0.503784 0.000000
0.444122 0.501282 0.000000
0.498505 0.498505 0.000000
0.553528 0.495667 0.000000
0.609131 0.492645 0.000000
0.664917 0.489716 0.000000
0.721069 0.486664 0.000000
0.777100 0.483734 0.000000
0.833099 0.480835 0.000000
0.886292 0.478699 0.000000
0.929962 0.478607 0.000000
0.958191 0.479706 0.000000
0.967743 0.480042 0.000000
0.974182 0.480164 0.000000
0.980652 0.480255 0.000000
0.987091 0.480255 0.000000
0.993561 0.480194 0.000000
1.000000 0.480011 0.000000
0.000000 0.540375 0.000000
0.006439 0.540314 0.000000
0.012909 0.541656 0.000000
0.019348 0.544250 0.000000
0.025818 0.548004 0.000000
0.032257 0.551208 0.000000
0.040222 0.553772 0.000000
0.058502 0.556244 0.000000
0.093231 0.558197 0.000000
0.133667 0.559082 0.000000
0.179077 0.558624 0.000000
0.227417 0.557495 0.000000
0.277405 0.555939 0.000000
0.328674 0.554169 0.000000
0.381165 0.552002 0.000000
0.434753 0.549652 0.000000
0.489136 0.547058 0.000000
0.544312 0.544312 0.000000
0.599976 0.541473 0.000000
0.655945 0.538452 0.000000
0.712158 0.535492 0.000000
0.768494 0.532623 0.000000
0.824646 0.529785 0.000000
0.878937 0.527496 0.000000
0.925537 0.527100 0.000000
0.957123 0.528351 0.000000
0.967743 0.528748 0.000000
0.974182 0.528931 0.000000
0.980652 0.529114 0.000000
0.987091 0.529144 0.000000
0.993561 0.529144 0.000000
1.000000 0.529083 0.000000
0.000000 0.586700 0.000000
0.006439 0.586914 0.000000
0.012909 0.588318 0.000000
0.019348 0.590973 0.000000
0.025818 0.594879 0.000000
0.032257 0.598175 0.000000
0.039520 0.600800 0.000000
0.054474 0.603271 0.000000
0.085663 0.605560 0.000000
0.125244 0.606903 0.000000
0.169830 0.606842 0.000000
0.217926 0.605896 0.000000
0.267853 0.604431 0.000000
0.319061 0.602722 0.000000
0.371460 0.600769 0.000000
0.425079 0.598511 0.000000
0.479675 0.595978 0.000000
0.534912 0.593353 0.000000
0.590698 0.590698 0.000000
0.646820 0.587860 0.000000
0.703094 0.584839 0.000000
0.759613 0.581940 0.000000
0.815979 0.579254 0.000000
0.871063 0.576752 0.000000
0.920197 0.576019 0.000000
0.954651 0.577393 0.000000
0.967621 0.577881 0.000000
0.974182 0.578094 0.000000
0.980652 0.578369 0.000000
0.987091 0.578369 0.000000
0.993561 0.578461 0.000000
1.000000 0.578461 0.000000
0.000000 0.633667 0.000000
0.006439 0.634033 0.000000
0.012909 0.635559 0.000000
0.019348 0.638367 0.000000
0.025818 0.642395 0.000000
0.032257 0.645782 0.000000
0.039124 0.648438 0.000000
0.051270 0.650879 0.000000
0.078278 0.653290 0.000000
0.117065 0.654999 0.000000
0.160767 0.655457 0.000000
0.208557 0.654724 0.000000
0.258423 0.653473 0.000000
0.309601 0.651886 0.000000
0.361908 0.649994 0.000000
0.415436 0.647797 0.000000
0.470062 0.645477 0.000000
0.525391 0.642883 0.000000
0.581268 0.640228 0.000000
0.637543 0.637543 0.000000
0.694061 0.634644 0.000000
0.750488 0.631805 0.000000
0.807098 0.628998 0.000000
0.862885 0.626495 0.000000
0.913940 0.625214 0.000000
0.950897 0.626465 0.000000
0.967194 0.627319 0.000000
0.974182 0.627625 0.000000
0.980652 0.627808 0.000000
0.987091 0.627991 0.000000
0.993561 0.628143 0.000000
1.000000 0.628113 0.000000
0.000000 0.681244 0.000000
0.006439 0.681580 0.000000
0.012909 0.683350 0.000000
0.019348 0.686279 0.000000
0.025818 0.690338 0.000000
0.032257 0.693939 0.000000
0.038818 0.696625 0.000000
0.048523 0.699097 0.000000
0.071655 0.701538 0.000000
0.109467 0.703491 0.000000
0.151978 0.704315 0.000000
0.199280 0.703949 0.000000
0.248993 0.702850 0.000000
0.300201 0.701355 0.000000
0.352539 0.699646 0.000000
0.405945 0.697601 0.000000
0.460602 0.695190 0.000000
0.515869 0.692780 0.000000
0.571869 0.690186 0.000000
0.628204 0.687531 0.000000
0.684753 0.684753 0.000000
0.741486 0.681946 0.000000
0.798004 0.679199 0.000000
0.854370 0.676575 0.000000
0.907013 0.675018 0.000000
0.946747 0.675751 0.000000
0.966614 0.676971 0.000000
0.974182 0.677307 0.000000
0.980652 0.677612 0.000000
0.987091 0.677795 0.000000
0.993561 0.677979 0.000000
1.000000 0.677948 0.000000
0.000000 0.729370 0.000000
0.006439 0.729736 0.000000
0.012909 0.731567 0.000000
0.019348 0.734619 0.000000
0.025818 0.738647 0.000000
0.032257 0.742340 0.000000
0.038696 0.745148 0.000000
0.047028 0.747681 0.000000
0.066681 0.750214 0.000000
0.102295 0.752380 0.000000
0.143799 0.753479 0.000000
0.190216 0.753387 0.000000
0.239716 0.752472 0.000000
0.290863 0.751221 0.000000
0.343201 0.749573 0.000000
0.396637 0.747681 0.000000
0.451050 0.745361 0.000000
0.506378 0.742950 0.000000
0.562408 0.740479 0.000000
0.618774 0.737854 0.000000
0.675537 0.735107 0.000000
0.732239 0.732269 0.000000
0.789124 0.729523 0.000000
0.845612 0.726990 0.000000
0.899597 0.725067 0.000000
0.942383 0.725342 0.000000
0.966034 0.726715 0.000000
0.974182 0.727173 0.000000
0.980652 0.727570 0.000000
0.987091 0.727753 0.000000
0.993561 0.727905 0.000000
1.000000 0.727997 0.000000
0.000000 0.777740 0.000000
0.006439 0.778351 0.000000
0.012909 0.780243 0.000000
0.019348 0.783295 0.000000
0.025818 0.787476 0.000000
0.032257 0.791107 0.000000
0.038696 0.793976 0.000000
0.046387 0.796509 0.000000
0.063141 0.799072 0.000000
0.095612 0.801514 0.000000
0.136139 0.802887 0.000000
0.181610 0.803101 0.000000
0.230774 0.802399 0.000000
0.281708 0.801178 0.000000
0.333984 0.799713 0.000000
0.387390 0.797852 0.000000
0.441803 0.795685 0.000000
0.497070 0.793243 0.000000
0.553009 0.790833 0.000000
0.609528 0.788269 0.000000
0.666290 0.785553 0.000000
0.723206 0.782745 0.000000
0.780029 0.780029 0.000000
0.836884 0.777374 0.000000
0.891785 0.775360 0.000000
0.937744 0.775055 0.000000
0.965454 0.776520 0.000000
0.974182 0.777161 0.000000
0.980652 0.777496 0.000000
0.987091 0.777740 0.000000
0.993561 0.777771 0.000000
1.000000 0.777985 0.000000
0.000000 0.826355 0.000000
0.006439 0.827057 0.000000
0.012909 0.829102 0.000000
0.019348 0.832306 0.000000
0.025818 0.836487 0.000000
0.032257 0.840118 0.000000
0.038696 0.842957 0.000000
0.045990 0.845520 0.000000
0.060242 0.848053 0.000000
0.089569 0.850586 0.000000
0.129150 0.852386 0.000000
0.173492 0.852905 0.000000
0.222260 0.852356 0.000000
0.272949 0.851379 0.000000
0.325134 0.849945 0.000000
0.378387 0.848175 0.000000
0.432678 0.846069 0.000000
0.487946 0.843750 0.000000
0.543945 0.841309 0.000000
0.600342 0.838806 0.000000
0.657074 0.836090 0.000000
0.714050 0.833374 0.000000
0.771118 0.830627 0.000000
0.827942 0.827972 0.000000
0.883636 0.825562 0.000000
0.932739 0.824890 0.000000
0.964630 0.826385 0.000000
0.974182 0.827057 0.000000
0.980652 0.827484 0.000000
0.987091 0.827606 0.000000
0.993561 0.827820 0.000000
1.000000 0.827942 0.000000
0.000000 0.874237 0.000000
0.006439 0.875183 0.000000
0.012909 0.877319 0.000000
0.019348 0.880646 0.000000
0.025818 0.884827 0.000000
0.032257 0.888397 0.000000
0.038696 0.891235 0.000000
0.045807 0.893890 0.000000
0.058838 0.896362 0.000000
0.086212 0.898895 0.000000
0.124878 0.901031 0.000000
0.167938 0.902069 0.000000
0.215759 0.901794 0.000000
0.266174 0.900909 0.000000
0.317932 0.899689 0.000000
0.370911 0.897980 0.000000
0.424927 0.896057 0.000000
0.479950 0.893890 0.000000
0.535797 0.891571 0.000000
0.592102 0.889099 0.000000
0.648712 0.886322 0.000000
0.705627 0.883667 0.000000
0.762573 0.881012 0.000000
0.819550 0.878296 0.000000
0.875549 0.875763 0.000000
0.927155 0.874603 0.000000
0.962921 0.875885 0.000000
0.974182 0.876831 0.000000
0.980652 0.877289 0.000000
0.987091 0.877441 0.000000
0.993561 0.877625 0.000000
1.000000 0.877777 0.000000
0.000000 0.920074 0.000000
0.006439 0.921204 0.000000
0.012909 0.923462 0.000000
0.019348 0.926636 0.000000
0.025818 0.930267 0.000000
0.032257 0.932831 0.000000
0.038696 0.934937 0.000000
0.046173 0.936951 0.000000
0.060638 0.938904 0.000000
0.089111 0.940918 0.000000
0.127136 0.942780 0.000000
0.168945 0.943909 0.000000
0.215607 0.944092 0.000000
0.265381 0.943512 0.000000
0.316711 0.942719 0.000000
0.369171 0.941589 0.000000
0.422699 0.940247 0.000000
0.477173 0.938721 0.000000
0.532379 0.936981 0.000000
0.588196 0.935089 0.000000
0.644409 0.933105 0.000000
0.700989 0.930969 0.000000
0.757599 0.928864 0.000000
0.814026 0.926758 0.000000
0.870178 0.924683 0.000000
0.922913 0.923370 0.000000
0.961090 0.924286 0.000000
0.973999 0.925262 0.000000
0.980652 0.925629 0.000000
0.987091 0.925964 0.000000
0.993561 0.926056 0.000000
1.000000 0.926056 0.000000
0.000000 0.955963 0.000000
0.006439 0.957153 0.000000
0.012909 0.959076 0.000000
0.019348 0.961639 0.000000
0.025818 0.963867 0.000000
0.032257 0.964233 0.000000
0.038696 0.964539 0.000000
0.046661 0.964844 0.000000
0.063690 0.965118 0.000000
0.095032 0.965393 0.000000
0.133057 0.965698 0.000000
0.173859 0.965942 0.000000
0.219604 0.966003 0.000000
0.269104 0.965973 0.000000
0.320190 0.965851 0.000000
0.372650 0.965729 0.000000
0.426117 0.965546 0.000000
0.480347 0.965332 0.000000
0.535248 0.965118 0.000000
0.590790 0.964844 0.000000
0.646790 0.964539 0.000000
0.702942 0.964264 0.000000
0.759277 0.963959 0.000000
0.815460 0.963654 0.000000
0.871429 0.963257 0.000000
0.924561 0.962769 0.000000
0.962799 0.962891 0.000000
0.973846 0.963104 0.000000
0.980652 0.963226 0.000000
0.987091 0.963287 0.000000
0.993561 0.963318 0.000000
1.000000 0.963318 0.000000
0.000000 0.973206 0.000000
0.006439 0.973358 0.000000
0.012909 0.973602 0.000000
0.019348 0.973907 0.000000
0.025818 0.974182 0.000000
0.032257 0.974182 0.000000
0.038696 0.974182 0.000000
0.046844 0.974182 0.000000
0.065186 0.974182 0.000000
0.098175 0.974182 0.000000
0.136261 0.974182 0.000000
0.176208 0.974182 0.000000
0.220825 0.974182 0.000000
0.269745 0.974182 0.000000
0.320679 0.974182 0.000000
0.373016 0.974182 0.000000
0.426575 0.974182 0.000000
