Postproduction/IWLTBAP - Humble/Manual install for Lightroom and Capture One/COSTYLE/F-8700-STD.costyle
<?xml version="1.0"?>
<SL Engine="1000">
	<E K="ICCProfile" V="F-8700-STD.icc" />
	<E K="Name" V="F-8700-STD" />
	<E K="UUID" V="B6668D2C-89BC-473F-B40E-63E64D54B810" />
</SL>
