Postproduction/IWLTBAP - Humble/Manual install for Lightroom and Capture One/COSTYLE/F-8700-V2-STD.costyle
<?xml version="1.0"?>
<SL Engine="1000">
	<E K="ICCProfile" V="F-8700-V2-STD.icc" />
	<E K="Name" V="F-8700-V2-STD" />
	<E K="UUID" V="F19DA089-5B4B-4ACC-B10F-078C0E540204" />
</SL>
