Postproduction/IWLTBAP - Humble/Manual install for Lightroom and Capture One/COSTYLE/IWLTBAP Arapaho - Standard.costyle
<?xml version="1.0"?>
<SL Engine="1000">
	<E K="ICCProfile" V="IWLTBAP Arapaho - Standard.icc" />
	<E K="Name" V="IWLTBAP Arapaho - Standard" />
	<E K="UUID" V="658EEE37-51B4-4087-935D-5106D4BB0590" />
</SL>
