Postproduction/IWLTBAP - Humble/Manual install for Lightroom and Capture One/COSTYLE/IWLTBAP Humble - Standard.costyle
<?xml version="1.0"?>
<SL Engine="1000">
	<E K="ICCProfile" V="IWLTBAP Humble - Standard.icc" />
	<E K="Name" V="IWLTBAP Humble - Standard" />
	<E K="UUID" V="92F1D78C-D393-487D-8A58-A4D7467B455F" />
</SL>
