Postproduction/IWLTBAP - Humble/Manual install for Lightroom and Capture One/COSTYLE/IWLTBAP Sedona - Standar.costyle
<?xml version="1.0"?>
<SL Engine="1000">
	<E K="ICCProfile" V="IWLTBAP Sedona - Standard.icc" />
	<E K="Name" V="IWLTBAP Sedona - Standar" />
	<E K="UUID" V="CD4CBA2E-0129-4896-A8BC-B2B1F1D16EB6" />
</SL>
