Postproduction/IWLTBAP - Humble/Manual install for Lightroom and Capture One/COSTYLE/IWLTBAP Aspen - Standard.costyle
<?xml version="1.0"?>
<SL Engine="1000">
	<E K="ICCProfile" V="IWLTBAP Aspen - Standard.icc" />
	<E K="Name" V="IWLTBAP Aspen - Standard" />
	<E K="UUID" V="416A080B-78E8-4829-AAC7-C56CEAB72037" />
</SL>
