Postproduction/IWLTBAP - Humble/LUTs by IWLTBAP (3DL)/UTILITY/DJI D-Log to Rec.709/U-DJI-DLOG-V1-LTR.3dl
# Copyright: (C) Copyright 2010-2018 by IWLTBAP SAS
# Cannot be resold, shared or otherwise redistributed
# Website: https://luts.iwltbap.com
0 64 128 192 256 320 384 448 512 576 640 704 768 832 896 960 1023
0 0 0
0 0 103
0 0 289
0 0 499
0 0 781
0 0 1104
0 0 1474
0 0 1892
0 0 2342
0 0 2796
0 0 3217
0 0 3530
0 0 3704
0 0 3807
0 0 3904
0 0 4000
0 0 4095
0 92 0
0 89 89
0 89 268
0 88 472
0 86 746
0 86 1065
0 86 1429
0 85 1844
0 85 2290
0 85 2741
0 85 3168
0 85 3497
0 85 3702
0 85 3807
0 85 3904
0 85 4000
0 85 4095
0 261 0
0 256 86
0 253 253
0 251 452
0 244 721
0 232 1037
0 218 1399
0 200 1810
0 185 2253
0 177 2701
0 174 3129
0 173 3470
0 173 3697
0 172 3807
0 172 3904
0 172 4000
0 172 4095
0 442 0
0 436 86
0 431 233
0 427 428
0 419 691
0 407 1006
0 393 1367
0 376 1778
0 358 2223
0 338 2674
0 320 3108
0 308 3459
0 300 3692
0 291 3807
0 286 3904
0 283 4000
0 280 4095
0 643 0
0 637 85
0 635 187
0 634 373
0 629 630
0 621 947
0 609 1311
0 594 1727
0 578 2177
0 562 2634
0 546 3074
0 536 3442
0 529 3687
0 523 3807
0 516 3904
0 510 4000
0 504 4095
0 890 0
0 887 85
0 886 173
0 888 313
0 886 565
0 880 880
0 872 1247
0 860 1666
0 847 2120
0 833 2581
0 820 3027
0 810 3413
0 806 3679
0 800 3807
0 795 3904
0 789 4000
0 784 4095
0 1189 0
0 1188 85
0 1189 172
0 1192 276
0 1193 505
0 1189 815
0 1182 1182
0 1173 1602
0 1161 2057
0 1149 2522
0 1137 2971
0 1127 3372
0 1124 3662
0 1120 3806
0 1115 3904
0 1111 4000
0 1107 4095
0 1538 0
0 1537 85
0 1539 172
0 1543 264
0 1545 445
0 1543 744
0 1538 1109
0 1530 1530
0 1519 1986
0 1508 2453
0 1497 2905
0 1488 3319
0 1484 3630
0 1481 3805
0 1478 3904
0 1474 4000
0 1471 4095
0 1919 0
0 1918 85
0 1921 172
0 1925 262
0 1928 394
0 1928 670
0 1924 1032
0 1917 1451
0 1908 1908
0 1898 2377
0 1888 2832
0 1879 3254
0 1875 3591
0 1873 3801
0 1870 3904
0 1867 4000
0 1864 4095
0 2311 0
0 2311 85
0 2315 172
0 2320 262
0 2323 367
0 2325 600
0 2322 954
0 2317 1373
0 2309 1830
0 2299 2299
0 2290 2757
0 2281 3185
0 2276 3547
0 2275 3790
0 2273 3904
0 2271 4000
0 2268 4095
0 2698 0
0 2699 85
0 2703 172
0 2709 262
0 2712 358
0 2715 543
0 2714 882
0 2709 1298
0 2702 1755
0 2693 2225
0 2685 2684
0 2676 3116
0 2670 3499
0 2670 3772
0 2668 3904
0 2666 4000
0 2664 4095
0 3068 0
0 3069 85
0 3073 172
0 3079 262
0 3083 357
0 3086 503
0 3087 819
0 3083 1232
0 3076 1687
0 3069 2158
0 3060 2618
0 3052 3052
0 3046 3449
0 3045 3748
0 3044 3904
0 3042 4000
0 3041 4095
0 3420 0
0 3421 85
0 3426 172
0 3432 262
0 3436 357
0 3439 485
0 3441 771
0 3438 1177
0 3433 1630
0 3426 2100
0 3418 2561
0 3410 2996
0 3404 3402
0 3402 3721
0 3402 3902
0 3400 4000
0 3400 4095
0 3731 0
0 3732 85
0 3736 172
0 3742 262
0 3745 357
0 3748 496
0 3751 778
0 3750 1170
0 3746 1619
0 3742 2086
0 3736 2546
0 3730 2980
0 3725 3389
0 3723 3724
0 3724 3901
0 3724 4000
0 3724 4095
0 3903 0
0 3903 85
0 3903 172
0 3903 262
0 3904 357
0 3904 506
0 3904 796
0 3904 1174
0 3904 1621
0 3904 2087
0 3903 2547
0 3903 2983
0 3903 3394
0 3902 3745
0 3902 3903
0 3902 4000
0 3902 4095
0 4000 0
0 4000 85
0 4000 172
0 4000 262
0 4000 357
0 4000 514
0 4000 809
0 4000 1172
0 4000 1614
0 4000 2079
0 4000 2538
0 4000 2975
0 4000 3389
0 4000 3748
0 4000 3904
0 4000 4000
0 4000 4095
0 4095 0
0 4095 85
0 4095 172
0 4095 262
0 4095 357
0 4095 520
0 4095 819
0 4095 1171
0 4095 1607
0 4095 2070
0 4095 2529
0 4095 2966
0 4095 3381
0 4095 3746
0 4095 3904
0 4095 4000
0 4095 4095
102 0 0
101 0 101
101 0 285
101 0 494
97 0 773
92 0 1096
88 0 1463
88 0 1881
87 0 2330
86 0 2782
85 0 3206
85 0 3522
85 0 3703
85 0 3807
85 0 3904
85 0 4000
85 0 4095
86 86 0
86 86 86
85 85 259
84 84 463
83 83 740
82 82 1059
82 82 1424
82 82 1838
82 82 2283
82 82 2734
82 82 3162
82 82 3493
82 82 3705
82 82 3809
82 82 3907
82 82 4003
85 85 4095
86 247 0
85 243 85
85 240 240
84 236 440
82 226 710
82 213 1026
82 197 1387
82 182 1797
82 174 2240
82 171 2688
82 170 3117
82 169 3462
82 169 3696
82 169 3809
82 169 3907
82 169 4003
85 172 4095
85 424 0
83 421 83
83 416 216
83 414 414
82 404 679
82 390 996
82 375 1358
82 358 1770
82 339 2215
82 320 2667
82 303 3102
82 292 3456
82 285 3694
82 280 3809
82 278 3907
82 275 4003
85 277 4095
85 630 0
82 632 82
82 630 180
82 630 363
82 626 626
82 612 945
82 598 1311
82 582 1727
82 565 2177
82 549 2635
82 534 3077
82 523 3447
82 518 3691
82 511 3809
82 505 3907
82 499 4003
85 500 4095
85 883 0
82 888 82
82 888 170
82 890 308
82 889 561
82 883 883
82 869 1252
82 855 1672
82 840 2126
82 825 2588
82 811 3035
82 801 3422
82 797 3684
82 792 3809
82 787 3907
82 781 4003
85 782 4095
85 1186 0
82 1193 82
82 1194 169
82 1198 273
82 1199 502
82 1196 814
82 1189 1189
82 1174 1610
82 1159 2066
82 1146 2531
82 1133 2981
82 1122 3383
82 1119 3671
82 1115 3809
82 1110 3907
82 1105 4003
85 1106 4095
85 1537 0
82 1544 82
82 1547 169
82 1551 262
82 1553 444
82 1552 742
82 1547 1112
82 1538 1539
82 1524 1996
82 1510 2464
82 1497 2916
82 1487 3331
82 1483 3642
82 1480 3808
82 1476 3907
82 1472 4003
85 1472 4095
85 1919 0
82 1928 82
82 1930 169
82 1935 260
82 1939 394
82 1939 668
82 1935 1032
82 1929 1456
82 1920 1920
82 1906 2389
82 1893 2845
82 1883 3268
82 1878 3603
82 1875 3805
82 1872 3907
82 1869 4003
85 1867 4095
85 2314 0
82 2323 82
82 2326 169
82 2332 260
82 2335 367
82 2337 600
82 2335 954
82 2329 1376
82 2321 1838
82 2312 2312
82 2300 2770
82 2289 3199
82 2283 3562
82 2282 3797
82 2279 3907
82 2276 4003
85 2273 4095
85 2703 0
82 2712 82
82 2716 169
82 2721 260
82 2725 357
82 2728 545
82 2728 882
82 2723 1301
82 2716 1761
82 2708 2236
82 2699 2699
82 2688 3131
82 2681 3514
82 2679 3780
82 2677 3907
82 2675 4003
85 2670 4095
85 3073 0
82 3084 82
82 3087 169
82 3093 260
82 3097 355
82 3100 505
82 3101 820
82 3097 1235
82 3091 1693
82 3084 2167
82 3075 2631
82 3068 3067
82 3059 3466
82 3057 3762
82 3055 3907
82 3053 4003
85 3047 4095
85 3426 0
82 3436 82
82 3441 169
82 3447 260
82 3451 354
82 3454 485
82 3457 774
82 3454 1180
82 3449 1636
82 3441 2109
82 3434 2572
82 3426 3010
82 3419 3418
82 3417 3735
82 3415 3906
82 3414 4003
85 3406 4095
85 3738 0
82 3747 82
82 3750 169
82 3756 260
82 3759 355
82 3761 498
82 3763 781
82 3762 1174
82 3760 1626
82 3756 2095
82 3751 2557
82 3745 2994
82 3740 3404
82 3738 3739
82 3738 3905
82 3737 4003
85 3731 4095
85 3903 0
82 3906 82
82 3906 169
82 3907 260
82 3907 355
82 3907 509
82 3907 800
82 3907 1178
82 3907 1626
82 3907 2095
82 3907 2557
82 3906 2995
82 3906 3409
82 3906 3756
82 3906 3906
82 3906 4003
85 3903 4095
85 4000 0
82 4003 82
82 4003 169
82 4003 260
82 4003 356
82 4003 519
82 4003 813
82 4003 1176
82 4003 1620
82 4003 2086
82 4003 2548
82 4003 2987
82 4003 3402
82 4003 3755
82 4003 3907
82 4003 4003
85 4000 4095
85 4095 0
85 4095 85
85 4095 172
85 4095 262
85 4095 358
85 4095 530
85 4095 828
85 4095 1179
85 4095 1614
85 4095 2076
85 4095 2535
85 4095 2972
85 4095 3387
85 4095 3746
85 4095 3904
85 4095 4000
85 4095 4095
289 0 0
287 0 102
287 0 287
286 0 494
281 0 773
272 0 1095
260 0 1462
246 0 1879
229 0 2327
211 0 2778
196 0 3201
191 0 3519
187 0 3703
183 0 3807
179 0 3904
177 0 4000
176 0 4095
260 86 0
256 85 85
255 85 255
252 84 458
243 83 734
231 82 1052
217 82 1416
199 82 1828
184 82 2273
175 82 2722
172 82 3151
170 82 3485
170 82 3703
169 82 3809
169 82 3907
169 82 4003
172 85 4095
240 240 0
235 235 85
230 229 230
226 226 428
215 215 696
199 199 1018
178 178 1389
170 170 1801
166 166 2241
165 165 2689
164 164 3120
164 164 3466
164 164 3700
164 164 3814
164 164 3912
164 164 4008
172 172 4095
217 413 0
210 410 83
206 406 206
204 404 404
195 394 668
183 379 991
172 360 1363
169 342 1778
166 323 2224
165 305 2677
164 290 3112
164 280 3466
164 275 3700
164 273 3814
164 271 3912
164 270 4008
172 278 4095
184 625 0
180 628 82
178 625 178
179 626 361
178 622 623
173 609 947
167 591 1324
166 572 1743
165 555 2195
165 539 2654
164 523 3095
164 513 3463
164 508 3700
164 502 3814
164 496 3912
164 490 4008
172 504 4095
173 885 0
171 890 82
168 894 168
168 897 309
168 897 564
168 891 892
165 874 1270
164 854 1694
164 837 2149
164 821 2612
164 806 3059
164 796 3443
164 791 3695
164 786 3814
164 781 3912
164 776 4008
172 790 4095
172 1193 0
169 1199 82
164 1213 164
164 1217 270
164 1218 503
164 1215 821
164 1208 1209
164 1184 1633
164 1164 2091
164 1147 2557
164 1133 3007
164 1122 3408
164 1118 3686
164 1113 3814
164 1108 3912
164 1104 4008
172 1116 4095
172 1546 0
169 1553 82
164 1569 164
164 1574 258
164 1576 443
164 1576 744
164 1570 1122
164 1562 1562
164 1538 2022
164 1520 2491
164 1505 2944
164 1493 3358
164 1488 3663
164 1484 3814
164 1480 3912
164 1476 4008
172 1483 4095
172 1930 0
169 1938 82
164 1956 164
164 1961 256
164 1965 392
164 1965 669
164 1962 1038
164 1955 1471
164 1946 1946
164 1924 2417
164 1908 2873
164 1895 3296
164 1889 3625
164 1886 3812
164 1882 3912
164 1878 4008
172 1880 4095
172 2326 0
169 2335 82
164 2353 164
164 2359 255
164 2363 364
164 2365 602
164 2363 958
164 2358 1387
164 2350 1857
164 2341 2340
164 2323 2800
164 2309 3228
164 2301 3587
164 2298 3808
164 2294 3912
164 2291 4008
172 2287 4095
172 2716 0
169 2725 82
164 2744 164
164 2750 255
164 2754 353
164 2757 546
164 2757 886
164 2752 1310
164 2745 1777
164 2737 2259
164 2728 2728
164 2714 3160
164 2704 3542
164 2701 3795
164 2697 3912
164 2694 4008
172 2685 4095
172 3088 0
169 3098 82
164 3117 164
164 3123 255
164 3127 351
164 3130 508
164 3132 825
164 3128 1243
164 3122 1707
164 3114 2188
164 3106 2657
164 3098 3098
164 3086 3495
164 3083 3781
164 3080 3912
164 3076 4008
172 3063 4095
172 3442 0
169 3451 82
164 3471 164
164 3477 255
164 3482 350
164 3485 485
164 3487 780
164 3485 1188
164 3480 1649
164 3473 2128
164 3465 2597
164 3457 3038
164 3450 3449
164 3445 3759
164 3443 3912
164 3439 4008
172 3422 4095
172 3751 0
169 3758 82
164 3774 164
164 3777 255
164 3778 351
164 3779 501
164 3780 791
164 3780 1185
164 3779 1642
164 3777 2117
164 3774 2583
164 3770 3024
164 3766 3437
164 3764 3764
164 3763 3911
164 3761 4008
172 3744 4095
172 3904 0
169 3907 82
164 3912 164
164 3912 255
164 3912 352
164 3912 515
164 3912 808
164 3912 1188
164 3912 1641
164 3912 2115
164 3912 2581
164 3912 3023
164 3912 3439
164 3912 3775
164 3912 3912
164 3911 4008
172 3904 4095
172 4000 0
169 4003 82
164 4008 164
164 4008 255
164 4008 352
164 4008 524
164 4008 821
164 4008 1186
164 4008 1633
164 4008 2105
164 4008 2570
164 4008 3012
164 4008 3430
164 4008 3772
164 4008 3911
164 4008 4008
172 4000 4095
172 4095 0
172 4095 85
172 4095 172
172 4095 262
172 4095 359
172 4095 546
172 4095 846
172 4095 1197
172 4095 1632
172 4095 2094
172 4095 2552
172 4095 2989
172 4095 3403
172 4095 3752
172 4095 3904
172 4095 4000
172 4095 4095
500 0 0
496 0 102
495 0 287
494 0 494
488 0 773
478 0 1095
465 0 1461
449 0 1877
431 0 2323
411 0 2774
393 0 3198
382 0 3516
372 0 3703
362 0 3807
352 0 3904
341 0 4000
332 0 4095
460 86 0
458 84 84
455 84 250
454 84 454
443 82 729
428 82 1046
413 82 1410
394 82 1822
374 82 2266
352 82 2714
332 82 3143
318 82 3480
307 82 3703
297 82 3809
290 82 3907
283 82 4003
