Postproduction/IWLTBAP - Humble/LUTs by IWLTBAP (3DL)/UTILITY/DJI D-Log to Rec.709/U-DJI-DLOG-V2-LTR.3dl
# Copyright: (C) Copyright 2010-2018 by IWLTBAP SAS
# Cannot be resold, shared or otherwise redistributed
# Website: https://luts.iwltbap.com
0 128 256 384 512 640 768 896 1023
0 0 0
0 0 384
0 0 943
0 0 1485
0 0 2016
0 0 2530
0 0 3037
0 0 3544
0 0 4029
0 381 0
0 376 344
0 361 920
0 331 1467
0 279 1998
0 201 2514
0 88 3032
0 0 3539
0 0 4029
0 932 0
0 925 194
0 919 864
0 907 1433
0 889 1967
0 860 2491
0 825 3017
0 783 3523
0 730 4019
0 1460 0
0 1456 0
0 1450 752
0 1442 1363
0 1428 1918
0 1409 2454
0 1389 2979
0 1365 3502
0 1338 4004
0 1975 0
0 1972 0
0 1963 553
0 1957 1266
0 1950 1851
0 1935 2400
0 1922 2939
0 1903 3466
0 1883 3981
0 2488 0
0 2481 0
0 2476 133
0 2472 1114
0 2462 1753
0 2453 2331
0 2441 2884
0 2431 3418
0 2410 3947
0 2997 0
0 2994 0
0 2986 0
0 2980 890
0 2976 1628
0 2968 2240
0 2959 2814
0 2946 3371
0 2933 3915
0 3515 0
0 3509 0
0 3501 0
0 3498 434
0 3492 1452
0 3488 2123
0 3480 2728
0 3473 3302
0 3460 3864
0 4036 0
0 4033 0
0 4029 0
0 4028 0
0 4022 1197
0 4016 1977
0 4012 2622
0 4007 3225
0 3997 3803
497 0 0
481 0 377
433 0 945
304 0 1484
70 0 2010
0 0 2530
0 0 3036
0 0 3540
0 0 4033
360 341 0
337 339 338
253 325 915
80 289 1459
0 233 1987
0 140 2510
0 38 3025
0 0 3535
0 0 4029
0 910 0
0 905 183
0 897 854
0 883 1417
0 865 1957
0 837 2482
0 803 3002
0 758 3513
0 698 4018
0 1442 0
0 1438 0
0 1429 746
0 1420 1350
0 1411 1907
0 1392 2443
0 1372 2968
0 1347 3490
0 1316 4003
0 1961 0
0 1955 0
0 1945 541
0 1941 1251
0 1930 1837
0 1920 2387
0 1904 2928
0 1885 3454
0 1864 3981
0 2474 0
0 2467 0
0 2459 130
0 2456 1106
0 2445 1745
0 2436 2320
0 2424 2873
0 2411 3412
0 2395 3952
0 2984 0
0 2978 0
0 2973 0
0 2968 866
0 2962 1610
0 2954 2224
0 2943 2800
0 2934 3359
0 2920 3907
0 3500 0
0 3499 0
0 3495 0
0 3486 393
0 3480 1436
0 3476 2113
0 3469 2718
0 3459 3293
0 3448 3860
0 4028 0
0 4027 0
0 4026 0
0 4019 0
0 4014 1176
0 4011 1959
0 4006 2607
0 4001 3211
0 3992 3799
1161 0 0
1154 0 359
1139 0 924
1097 0 1472
1038 0 2001
933 0 2518
792 0 3025
533 0 3532
211 0 4028
868 237 46
1092 174 319
1068 151 900
1029 103 1450
960 46 1980
854 3 2500
695 0 3016
388 0 3526
23 0 4025
882 853 0
870 849 146
842 840 839
784 826 1405
690 804 1943
533 774 2467
202 736 2987
0 685 3505
0 622 4012
138 1406 0
142 1398 0
121 1392 728
85 1382 1336
0 1372 1891
0 1351 2428
0 1330 2953
0 1304 3477
0 1272 3993
0 1930 0
0 1921 0
0 1916 518
0 1907 1234
0 1899 1821
0 1888 2374
0 1871 2913
0 1852 3443
0 1834 3971
0 2446 0
0 2440 0
0 2434 106
0 2426 1088
0 2418 1724
0 2408 2306
0 2397 2859
0 2384 3402
0 2367 3941
0 2965 0
0 2956 0
0 2953 0
0 2942 847
0 2937 1597
0 2931 2212
0 2921 2790
0 2909 3345
0 2899 3902
0 3485 0
0 3479 0
0 3475 0
0 3470 337
0 3465 1415
0 3461 2096
0 3450 2700
0 3441 3285
0 3433 3852
0 4015 0
0 4012 0
0 4011 0
0 4008 0
0 4001 1157
0 3995 1946
0 3991 2599
0 3983 3204
0 3977 3793
1802 0 0
1796 0 320
1789 0 911
1763 0 1463
1727 0 1991
1675 0 2508
1604 0 3022
1515 0 3524
1405 0 4022
1680 0 0
1748 0 275
1736 0 884
1716 0 1433
1675 0 1967
1625 0 2489
1557 0 3006
1460 0 3517
1336 0 4020
1629 739 0
1544 750 169
1607 725 826
1579 706 1392
1542 680 1931
1485 646 2459
1404 597 2980
1298 534 3494
1156 445 4005
1379 1336 0
1375 1332 0
1351 1327 703
1321 1317 1316
1265 1304 1874
1197 1286 2415
1093 1262 2941
945 1235 3464
731 1196 3984
817 1881 0
821 1869 0
785 1864 478
724 1858 1213
621 1846 1802
415 1834 2355
237 1817 2896
13 1798 3427
0 1779 3958
0 2404 0
0 2399 0
0 2393 79
0 2383 1062
0 2378 1704
0 2368 2284
0 2358 2842
0 2343 3386
0 2327 3926
0 2928 0
0 2923 0
0 2916 0
0 2910 817
0 2906 1575
0 2896 2193
0 2887 2773
0 2878 3335
0 2862 3891
0 3455 0
0 3450 0
0 3447 0
0 3440 305
0 3435 1392
0 3429 2075
0 3423 2687
0 3416 3269
0 3403 3842
0 3993 0
0 3991 0
0 3987 0
0 3984 0
0 3981 1125
0 3973 1922
0 3969 2580
0 3962 3189
0 3956 3782
2424 0 0
2421 0 257
2418 0 889
2403 0 1440
2379 0 1975
2337 0 2498
2290 0 3008
2236 0 3516
2170 0 4019
2391 0 0
2385 0 207
2370 0 863
2356 0 1418
2331 0 1953
2297 0 2478
2249 0 2994
2193 0 3508
2118 0 4016
1994 584 0
1830 621 277
2276 498 794
2258 485 1371
2235 434 1909
2197 382 2440
2152 290 2965
2089 199 3481
2006 112 4001
2141 1236 0
2126 1233 0
1987 1250 779
2087 1215 1299
2060 1200 1857
2022 1179 2398
1971 1152 2928
1899 1121 3455
1812 1083 3976
1861 1812 0
1854 1803 0
1841 1797 429
1817 1788 1189
1784 1780 1784
1731 1767 2337
1673 1749 2882
1585 1728 3416
1474 1704 3947
1379 2351 0
1372 2343 0
1359 2334 44
1321 2329 1031
1274 2320 1684
1198 2310 2263
1099 2297 2820
944 2283 3370
696 2263 3915
116 2877 0
104 2872 0
111 2864 0
101 2859 774
78 2854 1543
51 2846 2167
0 2838 2749
0 2829 3314
0 2813 3873
0 3410 0
0 3410 0
0 3405 0
0 3400 249
0 3396 1368
0 3389 2054
0 3381 2665
0 3372 3249
0 3364 3828
0 3959 0
0 3956 0
0 3952 0
0 3951 0
0 3946 1092
0 3940 1901
0 3933 2557
0 3931 3166
0 3925 3769
3042 0 0
3037 0 159
3030 0 853
3023 0 1424
3010 0 1963
2975 0 2486
2941 0 3001
2896 0 3510
2855 0 4017
3013 0 0
3007 0 100
2996 0 825
2985 0 1391
2966 0 1934
2940 0 2461
2906 0 2984
2866 0 3499
2812 0 4010
2325 176 0
2618 164 73
2920 80 759
2904 73 1349
2885 44 1895
2861 9 2432
2828 0 2956
2781 0 3475
2729 0 3995
2819 1080 0
2761 1085 0
2337 1180 882
2777 1062 1274
2756 1046 1836
2732 1020 2379
2697 990 2915
2650 951 3442
2590 907 3969
2628 1714 0
2620 1707 0
2608 1701 354
2452 1722 1274
2561 1684 1764
2537 1669 2319
2495 1652 2865
2446 1628 3404
2383 1601 3941
2345 2278 0
2338 2272 0
2329 2266 13
2308 2259 998
2279 2251 1659
2248 2239 2247
2195 2228 2806
2140 2213 3355
2065 2192 3904
1890 2819 0
1885 2816 0
1871 2811 0
1854 2801 726
1814 2797 1517
1774 2788 2146
1702 2779 2728
1619 2767 3293
1518 2750 3856
998 3361 0
1003 3355 0
956 3351 0
921 3345 168
849 3341 1324
707 3334 2020
434 3325 2634
233 3317 3223
108 3306 3806
0 3912 0
0 3906 0
0 3908 0
0 3905 0
0 3899 1046
0 3893 1864
0 3890 2529
0 3883 3142
0 3877 3748
3652 0 0
3642 0 36
3645 0 817
3635 0 1396
3623 0 1943
3600 0 2471
3570 0 2987
3536 0 3500
3502 0 4011
3620 0 0
3618 0 3
3612 0 784
3602 0 1368
3589 0 1916
3568 0 2449
3543 0 2976
3510 0 3489
3467 0 4006
3537 0 0
3552 0 0
3550 0 707
3537 0 1318
3528 0 1869
3505 0 2411
3476 0 2939
3443 0 3464
3403 0 3987
3259 887 0
3032 923 0
2930 959 777
3433 807 1241
3417 790 1816
3399 755 2363
3375 703 2901
3336 657 3434
3293 575 3961
3321 1583 0
3321 1572 0
3172 1593 391
2832 1674 1382
3270 1549 1739
3248 1534 2301
3224 1511 2849
3191 1487 3389
3144 1458 3929
3118 2186 0
3111 2180 0
3105 2171 0
3090 2164 962
2923 2189 1753
3043 2147 2228
3013 2131 2788
2973 2117 3343
2926 2097 3894
2824 2751 0
2820 2745 0
2814 2739 0
2798 2731 666
2778 2727 1491
2746 2717 2127
2709 2708 2711
2666 2698 3284
2613 2678 3849
2399 3302 0
2386 3298 0
2376 3298 0
2357 3289 95
2339 3282 1290
2301 3277 1995
2257 3268 2621
2196 3261 3202
2116 3248 3790
1672 3859 0
1668 3855 0
1644 3853 0
1611 3852 0
1581 3845 991
1521 3841 1831
1444 3835 2497
1344 3827 3117
1198 3818 3722
4094 0 0
4094 0 0
4094 0 765
4093 0 1366
4092 0 1921
4089 0 2456
4084 0 2977
4079 0 3492
4073 0 4009
4093 0 0
4092 0 0
4092 0 722
4090 0 1338
4088 0 1893
4084 0 2429
4078 0 2957
4072 0 3478
4061 0 4001
4082 0 0
4081 0 0
4080 0 646
4078 0 1287
4075 0 1850
4070 0 2396
4061 0 2925
4054 0 3459
4039 0 3981
3222 519 0
3112 534 0
3936 329 515
4046 260 1202
4037 214 1788
4033 123 2338
4024 83 2879
4003 60 3418
3971 0 3951
3987 1398 0
3969 1392 0
3472 1492 482
3409 1515 1315
3947 1363 1715
3935 1341 2281
3911 1320 2828
3887 1285 3376
3850 1254 3924
3838 2063 0
3828 2058 0
3825 2048 0
3594 2088 1120
3325 2147 1860
3771 2026 2205
3751 2009 2772
3726 1990 3327
3689 1968 3883
3614 2662 0
3610 2655 0
3605 2650 0
3596 2642 589
3574 2636 1467
3405 2660 2230
3524 2619 2696
3497 2604 3265
3464 2588 3838
3321 3231 0
3315 3227 0
3309 3222 0
3295 3219 49
3286 3212 1259
3264 3204 1974
3232 3195 2599
3191 3188 3195
3151 3178 3781
2904 3799 0
2892 3799 0
2879 3798 0
2865 3795 0
2845 3791 937
2831 3781 1803
2787 3778 2476
2744 3773 3104
2696 3765 3711
4095 0 0
4095 0 0
4095 0 689
4095 0 1332
4095 0 1900
4095 0 2435
4095 0 2960
4095 0 3483
4095 0 4001
4095 0 0
4095 0 0
4095 0 647
4095 0 1301
4095 0 1866
4095 0 2411
4095 0 2944
4095 0 3468
4095 0 3992
4095 0 0
4095 0 0
4095 0 551
4095 0 1246
4095 0 1823
4095 0 2372
4095 0 2908
4095 0 3442
4095 0 3974
4018 0 0
4095 0 0
4095 0 349
4095 0 1159
4095 0 1759
4095 0 2320
4095 0 2866
4095 0 3405
4095 0 3944
4095 1144 0
4095 1151 0
3751 1308 415
4059 1185 1146
4095 1076 1672
4095 1048 2251
4095 1019 2809
4095 975 3358
4095 930 3910
4095 1902 0
4095 1895 0
4095 1891 0
3868 2027 1302
3917 2020 1808
4095 1861 2181
4095 1847 2747
4095 1825 3310
4095 1799 3871
4095 2544 0
4095 2537 0
4095 2531 0
4095 2527 501
4063 2572 1657
3832 2626 2338
4093 2503 2674
4095 2487 3250
4093 2470 3827
4071 3139 0
4069 3138 0
4066 3135 0
4064 3128 7
4064 3123 1213
4055 3117 1956
3909 3143 2704
4021 3101 3179
4008 3086 3767
3835 3731 0
3827 3728 0
3823 3727 0
3814 3724 0
3802 3720 871
3796 3711 1771
3763 3705 2454
3732 3695 3089
3694 3685 3694
