Postproduction/IWLTBAP - Humble/LUTs by IWLTBAP (3DL)/UTILITY/DJI D-Log to Rec.709/U-DJI-DLOG-V2-LTR.3dl
# Copyright: (C) Copyright 2010-2018 by IWLTBAP SAS
# Cannot be resold, shared or otherwise redistributed
# Website: https://luts.iwltbap.com
0 256 512 768 1023
0 0 0
0 0 943
0 0 2016
0 0 3037
0 0 4029
0 932 0
0 919 864
0 889 1967
0 825 3017
0 730 4019
0 1975 0
0 1963 553
0 1950 1851
0 1922 2939
0 1883 3981
0 2997 0
0 2986 0
0 2976 1628
0 2959 2814
0 2933 3915
0 4036 0
0 4029 0
0 4022 1197
0 4012 2622
0 3997 3803
1161 0 0
1139 0 924
1038 0 2001
792 0 3025
211 0 4028
882 853 0
842 840 839
690 804 1943
202 736 2987
0 622 4012
0 1930 0
0 1916 518
0 1899 1821
0 1871 2913
0 1834 3971
0 2965 0
0 2953 0
0 2937 1597
0 2921 2790
0 2899 3902
0 4015 0
0 4011 0
0 4001 1157
0 3991 2599
0 3977 3793
2424 0 0
2418 0 889
2379 0 1975
2290 0 3008
2170 0 4019
1994 584 0
2276 498 794
2235 434 1909
2152 290 2965
2006 112 4001
1861 1812 0
1841 1797 429
1784 1780 1784
1673 1749 2882
1474 1704 3947
116 2877 0
111 2864 0
78 2854 1543
0 2838 2749
0 2813 3873
0 3959 0
0 3952 0
0 3946 1092
0 3933 2557
0 3925 3769
3652 0 0
3645 0 817
3623 0 1943
3570 0 2987
3502 0 4011
3537 0 0
3550 0 707
3528 0 1869
3476 0 2939
3403 0 3987
3321 1583 0
3172 1593 391
3270 1549 1739
3224 1511 2849
3144 1458 3929
2824 2751 0
2814 2739 0
2778 2727 1491
2709 2708 2711
2613 2678 3849
1672 3859 0
1644 3853 0
1581 3845 991
1444 3835 2497
1198 3818 3722
4095 0 0
4095 0 689
4095 0 1900
4095 0 2960
4095 0 4001
4095 0 0
4095 0 551
4095 0 1823
4095 0 2908
4095 0 3974
4095 1144 0
3751 1308 415
4095 1076 1672
4095 1019 2809
4095 930 3910
4095 2544 0
4095 2531 0
4063 2572 1657
4093 2503 2674
4093 2470 3827
3835 3731 0
3823 3727 0
3802 3720 871
3763 3705 2454
3694 3685 3694
