Postproduction/IWLTBAP - Humble/LUTs by IWLTBAP (3DL)/UTILITY/DJI D-Log to Rec.709/U-DJI-DLOG-V1-LTR.3dl
# Copyright: (C) Copyright 2010-2018 by IWLTBAP SAS
# Cannot be resold, shared or otherwise redistributed
# Website: https://luts.iwltbap.com
0 128 256 384 512 640 768 896 1023
0 0 0
0 0 289
0 0 781
0 0 1474
0 0 2342
0 0 3217
0 0 3704
0 0 3904
0 0 4095
0 261 0
0 253 253
0 244 721
0 218 1399
0 185 2253
0 174 3129
0 173 3697
0 172 3904
0 172 4095
0 643 0
0 635 187
0 629 630
0 609 1311
0 578 2177
0 546 3074
0 529 3687
0 516 3904
0 504 4095
0 1189 0
0 1189 172
0 1193 505
0 1182 1182
0 1161 2057
0 1137 2971
0 1124 3662
0 1115 3904
0 1107 4095
0 1919 0
0 1921 172
0 1928 394
0 1924 1032
0 1908 1908
0 1888 2832
0 1875 3591
0 1870 3904
0 1864 4095
0 2698 0
0 2703 172
0 2712 358
0 2714 882
0 2702 1755
0 2685 2684
0 2670 3499
0 2668 3904
0 2664 4095
0 3420 0
0 3426 172
0 3436 357
0 3441 771
0 3433 1630
0 3418 2561
0 3404 3402
0 3402 3902
0 3400 4095
0 3903 0
0 3903 172
0 3904 357
0 3904 796
0 3904 1621
0 3903 2547
0 3903 3394
0 3902 3903
0 3902 4095
0 4095 0
0 4095 172
0 4095 357
0 4095 819
0 4095 1607
0 4095 2529
0 4095 3381
0 4095 3904
0 4095 4095
289 0 0
287 0 287
281 0 773
260 0 1462
229 0 2327
196 0 3201
187 0 3703
179 0 3904
176 0 4095
240 240 0
230 229 230
215 215 696
178 178 1389
166 166 2241
164 164 3120
164 164 3700
164 164 3912
172 172 4095
184 625 0
178 625 178
178 622 623
167 591 1324
165 555 2195
164 523 3095
164 508 3700
164 496 3912
172 504 4095
172 1193 0
164 1213 164
164 1218 503
164 1208 1209
164 1164 2091
164 1133 3007
164 1118 3686
164 1108 3912
172 1116 4095
172 1930 0
164 1956 164
164 1965 392
164 1962 1038
164 1946 1946
164 1908 2873
164 1889 3625
164 1882 3912
172 1880 4095
172 2716 0
164 2744 164
164 2754 353
164 2757 886
164 2745 1777
164 2728 2728
164 2704 3542
164 2697 3912
172 2685 4095
172 3442 0
164 3471 164
164 3482 350
164 3487 780
164 3480 1649
164 3465 2597
164 3450 3449
164 3443 3912
172 3422 4095
172 3904 0
164 3912 164
164 3912 352
164 3912 808
164 3912 1641
164 3912 2581
164 3912 3439
164 3912 3912
172 3904 4095
172 4095 0
172 4095 172
172 4095 359
172 4095 846
172 4095 1632
172 4095 2552
172 4095 3403
172 4095 3904
172 4095 4095
769 0 0
763 0 270
754 0 754
728 0 1440
690 0 2302
649 0 3179
623 0 3702
597 0 3904
571 0 4095
679 212 0
671 198 198
659 188 659
615 170 1352
567 165 2212
524 164 3100
501 164 3698
481 164 3912
484 172 4095
622 622 0
625 625 179
620 620 620
592 592 1322
543 542 2229
491 490 3165
466 466 3731
459 459 3930
524 524 4095
528 1213 0
520 1235 164
522 1235 522
516 1227 1227
480 1179 2141
441 1127 3093
425 1100 3726
428 1092 3930
492 1144 4095
423 1960 0
411 1987 164
395 2015 395
396 2013 1055
389 1998 1998
364 1947 2960
355 1915 3694
361 1901 3930
418 1913 4095
364 2750 0
358 2779 164
339 2838 339
340 2842 879
339 2830 1813
338 2813 2812
332 2776 3626
334 2754 3930
367 2721 4095
358 3476 0
351 3507 164
330 3577 330
330 3584 770
330 3578 1676
330 3563 2671
330 3549 3548
331 3523 3930
358 3459 4095
360 3904 0
353 3912 164
332 3930 332
332 3930 809
332 3930 1666
332 3930 2645
332 3930 3528
332 3930 3930
359 3904 4095
360 4095 0
361 4095 172
361 4095 361
364 4095 883
362 4095 1671
360 4095 2590
359 4095 3438
359 4095 3904
358 4095 4095
1414 0 0
1404 0 207
1393 0 681
1366 0 1365
1324 0 2225
1277 0 3105
1245 0 3689
1217 0 3904
1193 0 4095
1299 175 0
1305 167 167
1298 167 570
1276 165 1276
1214 164 2144
1167 164 3041
1141 164 3685
1121 164 3912
1121 172 4095
1281 583 0
1299 576 167
1295 575 575
1285 559 1285
1230 514 2193
1169 466 3135
1137 444 3728
1123 441 3930
1176 506 4095
1195 1195 0
1218 1218 164
1219 1219 513
1198 1198 1198
1154 1154 2113
1105 1105 3069
1077 1077 3723
1062 1062 3931
1139 1140 4095
1070 1960 0
1067 1989 164
1062 2020 404
1049 2003 1049
1036 1989 1989
992 1942 2955
966 1912 3704
956 1897 3931
1041 1925 4095
938 2766 0
928 2797 164
898 2859 343
890 2847 890
882 2837 1820
867 2820 2820
840 2787 3647
836 2771 3931
927 2743 4095
837 3502 0
828 3533 164
793 3605 330
782 3602 782
776 3595 1684
762 3580 2682
749 3566 3565
744 3549 3931
834 3485 4095
865 3904 0
858 3912 164
832 3930 335
814 3931 814
811 3931 1671
796 3931 2659
781 3931 3550
779 3931 3931
851 3904 4095
885 4095 0
891 4095 172
902 4095 371
905 4095 905
897 4095 1683
873 4095 2592
845 4095 3430
824 4095 3904
809 4095 4095
2207 0 0
2192 0 173
2178 0 567
2146 0 1244
2105 0 2105
2062 0 2997
2035 0 3647
2011 0 3904
1990 0 4095
2092 172 0
2109 164 164
2106 164 469
2086 164 1156
2054 164 2054
2002 164 2961
1975 164 3642
1956 164 3912
1947 172 4095
2113 526 0
2139 509 164
2153 500 500
2145 489 1193
2129 461 2129
2066 414 3074
2028 394 3721
2004 395 3930
2013 464 4095
2046 1152 0
2076 1151 164
2099 1151 467
2079 1136 1136
2070 1113 2070
2020 1065 3030
1989 1038 3720
1971 1025 3931
1994 1106 4095
1929 1929 0
1958 1959 164
1988 1988 389
1974 1973 1021
1933 1932 1933
1886 1886 2900
1857 1857 3680
1841 1841 3923
1901 1901 4095
1799 2744 0
1808 2776 164
1821 2838 341
1811 2827 875
1774 2789 1774
1758 2773 2773
1726 2740 3619
1714 2727 3923
1783 2727 4095
1688 3488 0
1691 3521 164
1691 3596 330
1680 3593 776
1643 3560 1643
1626 3545 2640
1611 3532 3530
1596 3517 3923
1671 3476 4095
1685 3904 0
1688 3912 164
1686 3930 334
1671 3931 816
1632 3923 1632
1613 3923 2621
1593 3923 3516
1584 3923 3923
1648 3904 4095
1665 4095 0
1664 4095 172
1666 4095 361
1657 4095 873
1635 4095 1635
1600 4095 2537
1567 4095 3373
1545 4095 3904
1533 4095 4095
3010 0 0
2996 0 172
2988 0 450
2964 0 1125
2929 0 1990
2891 0 2891
2867 0 3581
2847 0 3904
2830 0 4095
2932 172 0
2951 164 164
2952 164 396
2937 164 1059
2911 164 1949
2882 164 2882
2853 164 3595
2835 164 3912
2815 172 4095
2979 467 0
3005 448 164
3044 422 421
3035 416 1099
3026 393 2021
3003 376 3003
2961 361 3693
2928 363 3930
2890 420 4095
2935 1102 0
2967 1093 164
3013 1079 416
2998 1066 1066
2992 1043 1989
2981 1016 2981
2950 988 3711
2929 976 3931
2890 1062 4095
2832 1888 0
2864 1899 164
2924 1914 360
2909 1903 964
2867 1870 1870
2860 1846 2860
2829 1815 3663
2814 1801 3923
2808 1864 4095
2709 2709 0
2740 2740 164
2801 2801 337
2791 2791 845
2754 2754 1738
2709 2709 2709
2676 2676 3567
2662 2662 3915
2694 2694 4095
2598 3457 0
2618 3489 164
2665 3563 330
2656 3560 747
2620 3527 1607
2574 3484 2574
2559 3469 3469
2543 3454 3915
2581 3445 4095
2587 3904 0
2603 3912 164
2639 3930 332
2632 3931 780
2592 3923 1585
2537 3915 2536
2510 3915 3426
2492 3915 3915
2522 3904 4095
2521 4095 0
2512 4095 172
2509 4095 357
2499 4095 785
2483 4095 1547
2456 4095 2456
2428 4095 3301
2408 4095 3902
2395 4095 4095
3627 0 0
3621 0 172
3619 0 400
3607 0 1055
3583 0 1921
3557 0 2828
3542 0 3543
3533 0 3904
3526 0 4095
3601 172 0
3619 164 164
3622 164 379
3617 164 1010
3602 164 1896
3582 164 2827
3570 164 3570
3560 164 3912
3542 172 4095
3654 446 0
3673 431 164
3707 396 394
3704 393 1046
3697 375 1962
3686 356 2941
3679 349 3679
3661 350 3930
3614 399 4095
3655 1077 0
3679 1067 164
3714 1043 400
3709 1031 1031
3710 1011 1949
3709 977 2938
3705 965 3705
3699 951 3931
3650 1033 4095
3605 1860 0
3633 1867 164
3685 1873 352
3682 1863 934
3656 1830 1830
3656 1803 2813
3654 1786 3654
3646 1770 3923
3606 1833 4095
3523 2678 0
3554 2700 164
3623 2749 331
3622 2741 807
3590 2702 1693
3548 2662 2662
3542 2642 3542
3530 2628 3915
3519 2662 4095
3424 3424 0
3456 3456 164
3531 3532 329
3526 3527 721
3493 3493 1571
3449 3449 2538
3415 3415 3414
3398 3398 3909
3410 3410 4095
3407 3904 0
3431 3912 164
3484 3930 331
3477 3931 721
3434 3923 1511
3376 3915 2459
3326 3909 3326
3304 3909 3909
3306 3904 4095
3299 4095 0
3297 4095 172
3299 4095 357
3295 4095 717
3281 4095 1474
3255 4095 2382
3228 4095 3228
3207 4095 3898
3195 4095 4095
3904 0 0
3904 0 172
3904 0 379
3904 0 1006
3904 0 1875
3904 0 2788
3904 0 3526
3904 0 3904
3904 0 4095
3904 172 0
3912 164 164
3912 164 372
3912 164 980
3912 164 1864
3912 164 2796
3912 164 3560
3912 164 3912
3904 172 4095
3904 438 0
3912 424 164
3928 386 384
3928 385 1014
3930 371 1926
3930 357 2896
3930 351 3662
3930 349 3930
3904 400 4095
3904 1073 0
3912 1062 164
3928 1031 405
3925 1019 1019
3926 1002 1933
3930 970 2915
3931 954 3709
3931 951 3931
3904 1036 4095
3904 1864 0
3912 1867 164
3930 1866 361
3926 1857 937
3919 1825 1826
3921 1801 2805
3923 1778 3659
3923 1777 3923
3904 1839 4095
3904 2684 0
3912 2701 164
3930 2735 335
3930 2732 823
3921 2697 1694
3912 2659 2658
3914 2637 3538
3915 2632 3915
3904 2665 4095
3904 3426 0
3912 3452 164
3930 3509 331
3931 3514 730
3923 3482 1559
3914 3435 2525
3908 3402 3402
3909 3392 3909
3904 3402 4095
3904 3904 0
3912 3912 164
3930 3930 331
3931 3931 674
3923 3923 1453
3915 3915 2400
3908 3908 3268
3902 3902 3902
3901 3901 4095
3900 4095 0
3899 4095 172
3900 4095 357
3900 4095 674
3899 4095 1421
3897 4095 2327
3889 4095 3173
3878 4095 3878
3873 4095 4095
4095 0 0
4095 0 172
4095 0 364
4095 0 970
4095 0 1840
4095 0 2757
4095 0 3515
4095 0 3904
4095 0 4095
4095 172 0
4095 172 172
4095 172 380
4095 172 976
4095 172 1846
4095 172 2765
4095 172 3542
4095 172 3904
4095 172 4095
4095 431 0
4095 434 172
4095 442 441
4095 441 1061
4095 428 1930
4095 411 2849
4095 402 3619
4095 401 3904
4095 401 4095
4095 1067 0
4095 1072 172
4095 1081 473
4095 1083 1083
4095 1071 1952
4095 1053 2877
4095 1039 3660
4095 1038 3904
4095 1034 4095
4095 1863 0
4095 1869 172
4095 1880 426
4095 1885 1013
4095 1875 1875
4095 1859 2803
4095 1845 3624
4095 1843 3904
4095 1841 4095
4095 2686 0
4095 2692 172
4095 2703 372
4095 2709 915
4095 2702 1759
4095 2687 2687
4095 2672 3531
4095 2669 3904
4095 2666 4095
4095 3428 0
4095 3434 172
4095 3445 358
4095 3450 825
4095 3445 1638
4095 3428 2561
4095 3408 3408
4095 3398 3904
4095 3389 4095
4095 3904 0
4095 3904 172
4095 3904 357
4095 3904 733
4095 3904 1497
4095 3903 2404
4095 3901 3245
4095 3899 3899
4095 3897 4095
4095 4095 0
4095 4095 172
4095 4095 357
4095 4095 658
4095 4095 1393
4095 4095 2298
4095 4095 3145
4095 4095 3867
4095 4095 4095
