Postproduction/IWLTBAP - Humble/LUTs by IWLTBAP (3DL)/UTILITY/DJI D-Log to Rec.709/U-DJI-DLOG-V2-LTR.3dl
# Copyright: (C) Copyright 2010-2018 by IWLTBAP SAS
# Cannot be resold, shared or otherwise redistributed
# Website: https://luts.iwltbap.com
0 64 128 192 256 320 384 448 512 576 640 704 768 832 896 960 1023
0 0 0
0 0 112
0 0 384
0 0 670
0 0 943
0 0 1213
0 0 1485
0 0 1752
0 0 2016
0 0 2277
0 0 2530
0 0 2784
0 0 3037
0 0 3287
0 0 3544
0 0 3787
0 0 4029
0 113 0
0 111 98
0 104 375
0 92 661
0 76 938
0 53 1214
0 33 1482
0 10 1748
0 0 2012
0 0 2273
0 0 2528
0 0 2787
0 0 3045
0 0 3293
0 0 3548
0 0 3797
0 0 4033
0 381 0
0 382 53
0 376 344
0 370 636
0 361 920
0 349 1194
0 331 1467
0 307 1735
0 279 1998
0 245 2258
0 201 2514
0 151 2773
0 88 3032
0 32 3284
0 0 3539
0 0 3790
0 0 4029
0 661 0
0 657 0
0 655 290
0 652 608
0 644 897
0 637 1177
0 626 1452
0 614 1720
0 600 1987
0 582 2248
0 560 2504
0 535 2765
0 507 3024
0 473 3275
0 433 3532
0 381 3783
0 317 4025
0 932 0
0 928 0
0 925 194
0 923 558
0 919 864
0 914 1152
0 907 1433
0 898 1701
0 889 1967
0 873 2230
0 860 2491
0 844 2757
0 825 3017
0 805 3268
0 783 3523
0 759 3775
0 730 4019
0 1195 0
0 1193 0
0 1191 47
0 1188 486
0 1184 817
0 1181 1118
0 1174 1407
0 1168 1677
0 1161 1947
0 1148 2215
0 1138 2476
0 1127 2740
0 1114 2995
0 1099 3250
0 1083 3513
0 1067 3763
0 1045 4012
0 1460 0
0 1459 0
0 1456 0
0 1454 368
0 1450 752
0 1447 1069
0 1442 1363
0 1434 1644
0 1428 1918
0 1420 2190
0 1409 2454
0 1400 2718
0 1389 2979
0 1377 3236
0 1365 3502
0 1353 3752
0 1338 4004
0 1718 0
0 1719 0
0 1714 0
0 1712 190
0 1706 666
0 1703 1012
0 1700 1319
0 1693 1607
0 1689 1888
0 1682 2160
0 1674 2429
0 1667 2696
0 1660 2962
0 1649 3221
0 1640 3481
0 1628 3737
0 1615 3994
0 1975 0
0 1974 0
0 1972 0
0 1968 0
0 1963 553
0 1961 938
0 1957 1266
0 1953 1567
0 1950 1851
0 1941 2129
0 1935 2400
0 1930 2673
0 1922 2939
0 1911 3199
0 1903 3466
0 1894 3724
0 1883 3981
0 2236 0
0 2232 0
0 2229 0
0 2225 0
0 2224 367
0 2222 843
0 2218 1195
0 2210 1510
0 2207 1806
0 2200 2093
0 2196 2368
0 2191 2645
0 2184 2914
0 2174 3173
0 2168 3444
0 2160 3704
0 2150 3968
0 2488 0
0 2486 0
0 2481 0
0 2477 0
0 2476 133
0 2474 717
0 2472 1114
0 2465 1442
0 2462 1753
0 2459 2048
0 2453 2331
0 2446 2611
0 2441 2884
0 2437 3148
0 2431 3418
0 2420 3681
0 2410 3947
0 2742 0
0 2743 0
0 2739 0
0 2735 0
0 2731 0
0 2729 538
0 2726 1015
0 2723 1373
0 2720 1697
0 2715 1998
0 2712 2287
0 2706 2572
0 2700 2850
0 2695 3122
0 2690 3397
0 2680 3664
0 2670 3932
0 2997 0
0 2997 0
0 2994 0
0 2990 0
0 2986 0
0 2983 242
0 2980 890
0 2978 1290
0 2976 1628
0 2971 1944
0 2968 2240
0 2964 2531
0 2959 2814
0 2951 3089
0 2946 3371
0 2942 3645
0 2933 3915
0 3253 0
0 3253 0
0 3246 0
0 3245 0
0 3241 0
0 3241 46
0 3239 719
0 3234 1178
0 3232 1546
0 3228 1877
0 3224 2183
0 3222 2483
0 3218 2772
0 3212 3053
0 3206 3338
0 3202 3615
0 3195 3888
0 3515 0
0 3513 0
0 3509 0
0 3507 0
0 3501 0
0 3500 0
0 3498 434
0 3494 1044
0 3492 1452
0 3493 1803
0 3488 2123
0 3483 2432
0 3480 2728
0 3477 3016
0 3473 3302
0 3465 3585
0 3460 3864
0 3773 0
0 3773 0
0 3769 0
0 3768 0
0 3763 0
0 3762 0
0 3763 34
0 3758 857
0 3757 1336
0 3754 1717
0 3750 2055
0 3748 2376
0 3744 2679
0 3740 2970
0 3737 3265
0 3730 3553
0 3727 3838
0 4036 0
0 4037 0
0 4033 0
0 4032 0
0 4029 0
0 4027 0
0 4028 0
0 4023 559
0 4022 1197
0 4017 1620
0 4016 1977
0 4014 2311
0 4012 2622
0 4009 2923
0 4007 3225
0 4000 3516
0 3997 3803
166 0 0
162 0 109
135 0 381
96 0 661
38 0 939
0 0 1213
0 0 1484
0 0 1751
0 0 2015
0 0 2275
0 0 2528
0 0 2784
0 0 3040
0 0 3290
0 0 3544
0 0 3790
0 0 4034
101 97 0
94 95 96
71 89 373
30 81 656
0 63 937
0 42 1208
0 22 1477
0 3 1743
0 0 2005
0 0 2267
0 0 2526
0 0 2786
0 0 3037
0 0 3290
0 0 3546
0 0 3795
0 0 4035
0 371 0
0 371 51
0 368 346
0 361 639
0 351 921
0 337 1195
0 319 1466
0 293 1731
0 265 1993
0 230 2257
0 185 2516
0 136 2777
0 77 3031
0 21 3285
0 0 3540
0 0 3788
0 0 4031
0 653 0
0 651 0
0 647 291
0 644 605
0 638 895
0 629 1173
0 620 1446
0 607 1716
0 590 1981
0 573 2244
0 556 2502
0 528 2759
0 497 3017
0 462 3273
0 419 3530
0 370 3782
0 300 4026
0 925 0
0 925 0
0 921 189
0 917 558
0 912 861
0 907 1145
0 900 1423
0 891 1694
0 879 1963
0 868 2228
0 855 2485
0 839 2746
0 820 3006
0 800 3262
0 774 3518
0 747 3772
0 716 4020
0 1190 0
0 1190 0
0 1185 44
0 1182 481
0 1178 814
0 1173 1109
0 1169 1396
0 1163 1672
0 1153 1942
0 1144 2210
0 1132 2471
0 1121 2732
0 1108 2991
0 1093 3249
0 1074 3508
0 1057 3764
0 1036 4014
0 1456 0
0 1452 0
0 1449 0
0 1444 370
0 1440 753
0 1437 1066
0 1433 1359
0 1429 1642
0 1422 1915
0 1415 2185
0 1405 2451
0 1392 2716
0 1382 2975
0 1371 3235
0 1360 3495
0 1345 3754
0 1331 4006
0 1716 0
0 1710 0
0 1708 0
0 1706 194
0 1702 666
0 1697 1007
0 1694 1313
0 1689 1603
0 1684 1883
0 1678 2157
0 1670 2424
0 1660 2691
0 1651 2957
0 1641 3215
0 1632 3475
0 1620 3735
0 1606 3995
0 1972 0
0 1968 0
0 1964 0
0 1961 0
0 1957 546
0 1955 932
0 1952 1256
0 1947 1555
0 1941 1842
0 1935 2122
0 1930 2393
0 1923 2665
0 1915 2931
0 1905 3195
0 1897 3461
0 1889 3723
0 1876 3983
0 2229 0
0 2225 0
0 2221 0
0 2219 0
0 2216 362
0 2213 838
0 2210 1191
0 2204 1506
0 2200 1801
0 2194 2087
0 2187 2362
0 2182 2637
0 2176 2905
0 2168 3172
0 2161 3442
0 2154 3706
0 2144 3971
0 2483 0
0 2478 0
0 2478 0
0 2474 0
0 2470 134
0 2468 714
0 2466 1112
0 2460 1446
0 2457 1752
0 2453 2045
0 2445 2327
0 2438 2604
0 2432 2876
0 2427 3146
0 2420 3419
0 2413 3686
0 2404 3952
0 2739 0
0 2736 0
0 2734 0
0 2732 0
0 2726 0
0 2725 525
0 2723 1006
0 2719 1367
0 2714 1689
0 2709 1992
0 2706 2281
0 2699 2565
0 2694 2841
0 2689 3114
0 2682 3389
0 2675 3661
0 2667 3932
0 2994 0
0 2991 0
0 2989 0
0 2987 0
0 2983 0
0 2979 222
0 2977 879
0 2973 1280
0 2969 1617
0 2966 1936
0 2962 2233
0 2958 2524
0 2952 2805
0 2946 3082
0 2942 3362
0 2936 3639
0 2929 3912
0 3246 0
0 3245 0
0 3243 0
0 3242 0
0 3240 0
0 3236 35
0 3232 703
0 3228 1171
0 3226 1538
0 3222 1873
0 3217 2182
0 3214 2483
0 3213 2771
0 3205 3052
0 3200 3336
0 3194 3615
0 3189 3892
0 3509 0
0 3509 0
0 3507 0
0 3503 0
0 3500 0
0 3496 0
0 3492 398
0 3490 1031
0 3488 1443
0 3486 1797
0 3482 2118
0 3479 2426
0 3476 2722
0 3473 3010
0 3467 3297
0 3463 3581
0 3456 3862
0 3771 0
0 3768 0
0 3767 0
0 3765 0
0 3761 0
0 3760 0
0 3756 32
0 3753 846
0 3752 1331
0 3750 1710
0 3749 2047
0 3743 2365
0 3741 2669
0 3738 2964
0 3735 3258
0 3730 3545
0 3725 3831
0 4035 0
0 4032 0
0 4031 0
0 4031 0
0 4027 0
0 4025 0
0 4024 0
0 4022 541
0 4018 1186
0 4017 1610
0 4017 1965
0 4015 2300
0 4010 2616
0 4008 2918
0 4003 3217
0 4000 3512
0 3997 3804
497 0 0
493 0 103
481 0 377
466 0 663
433 0 945
384 0 1216
304 0 1484
202 0 1749
70 0 2010
0 0 2272
0 0 2530
0 0 2783
0 0 3036
0 0 3290
0 0 3540
0 0 3787
0 0 4033
376 74 26
464 50 88
455 44 368
430 37 650
400 24 930
347 8 1202
263 0 1473
150 0 1739
12 0 2002
0 0 2263
0 0 2522
0 0 2780
0 0 3035
0 0 3288
0 0 3543
0 0 3791
0 0 4033
360 341 0
350 343 45
337 339 338
312 332 634
253 325 915
180 310 1188
80 289 1459
0 263 1724
0 233 1987
0 195 2250
0 140 2510
0 94 2771
0 38 3025
0 0 3278
0 0 3535
0 0 3783
0 0 4029
33 634 0
26 633 0
5 630 281
0 625 602
0 620 890
0 612 1171
0 601 1446
0 589 1711
0 570 1974
0 552 2238
0 533 2498
0 505 2759
0 476 3014
0 438 3269
0 392 3524
0 334 3776
0 263 4024
0 910 0
0 909 0
0 905 183
0 903 549
0 897 854
0 889 1140
0 883 1417
0 875 1689
0 865 1957
0 853 2221
0 837 2482
0 820 2742
0 803 3002
0 783 3255
0 758 3513
0 729 3767
0 698 4018
0 1177 0
0 1177 0
0 1172 38
0 1170 474
0 1165 809
0 1158 1104
0 1154 1388
0 1148 1664
0 1141 1932
0 1131 2202
0 1119 2466
0 1107 2729
0 1094 2985
0 1079 3240
0 1061 3501
0 1044 3757
0 1021 4011
0 1442 0
0 1441 0
0 1438 0
0 1434 358
0 1429 746
0 1424 1057
0 1420 1350
0 1416 1632
0 1411 1907
0 1400 2175
0 1392 2443
0 1383 2710
0 1372 2968
0 1360 3228
0 1347 3490
0 1333 3747
0 1316 4003
0 1703 0
0 1699 0
0 1696 0
0 1694 189
0 1689 660
0 1686 1001
0 1683 1306
0 1677 1596
0 1671 1877
0 1666 2151
0 1657 2417
0 1651 2685
0 1641 2949
0 1630 3208
0 1620 3470
0 1609 3732
0 1595 3993
0 1961 0
0 1957 0
0 1955 0
0 1950 0
0 1945 541
0 1943 926
0 1941 1251
0 1937 1552
0 1930 1837
0 1926 2115
0 1920 2387
0 1912 2660
0 1904 2928
0 1893 3192
0 1885 3454
0 1874 3719
0 1864 3981
0 2221 0
0 2217 0
0 2211 0
0 2208 0
0 2206 345
0 2202 832
0 2200 1183
0 2196 1498
0 2190 1792
0 2185 2077
0 2178 2355
0 2173 2632
0 2166 2902
0 2157 3168
0 2150 3432
0 2140 3700
0 2132 3965
0 2474 0
0 2471 0
0 2467 0
0 2463 0
0 2459 130
0 2457 708
0 2456 1106
0 2452 1439
0 2445 1745
0 2442 2038
0 2436 2320
0 2429 2598
0 2424 2873
0 2419 3141
0 2411 3412
0 2402 3681
0 2395 3952
0 2729 0
0 2726 0
0 2723 0
0 2721 0
0 2717 0
0 2713 518
0 2711 1001
0 2708 1362
0 2704 1683
0 2698 1985
0 2695 2276
0 2689 2562
0 2685 2837
0 2680 3112
0 2673 3388
0 2665 3661
0 2657 3932
0 2984 0
0 2981 0
0 2978 0
0 2978 0
0 2973 0
0 2970 197
0 2968 866
0 2966 1270
0 2962 1610
0 2956 1928
0 2954 2224
0 2948 2517
0 2943 2800
0 2939 3080
0 2934 3359
0 2929 3635
0 2920 3907
0 3237 0
0 3236 0
0 3233 0
0 3232 0
0 3231 0
0 3227 22
0 3225 691
0 3224 1164
0 3220 1529
0 3218 1862
0 3212 2170
0 3207 2472
0 3202 2762
0 3197 3046
0 3191 3326
0 3187 3604
0 3181 3882
0 3500 0
0 3499 0
0 3499 0
0 3496 0
0 3495 0
0 3491 0
0 3486 393
0 3484 1026
0 3480 1436
0 3478 1789
0 3476 2113
0 3473 2422
0 3469 2718
0 3466 3007
0 3459 3293
0 3455 3576
0 3448 3860
0 3762 0
0 3761 0
0 3760 0
0 3760 0
0 3757 0
0 3754 0
0 3751 28
0 3749 834
0 3745 1321
0 3743 1702
0 3741 2041
0 3739 2361
0 3736 2665
0 3733 2960
0 3727 3256
0 3723 3544
0 3716 3830
0 4028 0
0 4028 0
0 4027 0
0 4027 0
0 4026 0
0 4021 0
0 4019 0
0 4017 514
0 4014 1176
0 4012 1601
0 4011 1959
0 4009 2292
0 4006 2607
0 4004 2911
0 4001 3211
0 3998 3507
0 3992 3799
834 0 0
829 0 90
822 0 370
814 0 657
799 0 938
771 0 1210
733 0 1478
688 0 1744
633 0 2003
552 0 2266
436 0 2523
297 0 2777
90 0 3030
0 0 3283
0 0 3535
0 0 3785
0 0 4031
752 2 0
811 0 76
803 0 361
790 0 646
774 0 926
750 0 1199
715 0 1469
665 0 1734
599 0 1999
520 0 2260
400 0 2518
253 0 2779
26 0 3033
0 0 3283
0 0 3537
0 0 3788
