Postproduction/IWLTBAP - Humble/LUTs by IWLTBAP (3DL)/UTILITY/DJI D-Log to Rec.709/U-DJI-DLOG-V1-LTR.3dl
# Copyright: (C) Copyright 2010-2018 by IWLTBAP SAS
# Cannot be resold, shared or otherwise redistributed
# Website: https://luts.iwltbap.com
0 256 512 768 1023
0 0 0
0 0 781
0 0 2342
0 0 3704
0 0 4095
0 643 0
0 629 630
0 578 2177
0 529 3687
0 504 4095
0 1919 0
0 1928 394
0 1908 1908
0 1875 3591
0 1864 4095
0 3420 0
0 3436 357
0 3433 1630
0 3404 3402
0 3400 4095
0 4095 0
0 4095 357
0 4095 1607
0 4095 3381
0 4095 4095
769 0 0
754 0 754
690 0 2302
623 0 3702
571 0 4095
622 622 0
620 620 620
543 542 2229
466 466 3731
524 524 4095
423 1960 0
395 2015 395
389 1998 1998
355 1915 3694
418 1913 4095
358 3476 0
330 3577 330
330 3578 1676
330 3549 3548
358 3459 4095
360 4095 0
361 4095 361
362 4095 1671
359 4095 3438
358 4095 4095
2207 0 0
2178 0 567
2105 0 2105
2035 0 3647
1990 0 4095
2113 526 0
2153 500 500
2129 461 2129
2028 394 3721
2013 464 4095
1929 1929 0
1988 1988 389
1933 1932 1933
1857 1857 3680
1901 1901 4095
1688 3488 0
1691 3596 330
1643 3560 1643
1611 3532 3530
1671 3476 4095
1665 4095 0
1666 4095 361
1635 4095 1635
1567 4095 3373
1533 4095 4095
3627 0 0
3619 0 400
3583 0 1921
3542 0 3543
3526 0 4095
3654 446 0
3707 396 394
3697 375 1962
3679 349 3679
3614 399 4095
3605 1860 0
3685 1873 352
3656 1830 1830
3654 1786 3654
3606 1833 4095
3424 3424 0
3531 3532 329
3493 3493 1571
3415 3415 3414
3410 3410 4095
3299 4095 0
3299 4095 357
3281 4095 1474
3228 4095 3228
3195 4095 4095
4095 0 0
4095 0 364
4095 0 1840
4095 0 3515
4095 0 4095
4095 431 0
4095 442 441
4095 428 1930
4095 402 3619
4095 401 4095
4095 1863 0
4095 1880 426
4095 1875 1875
4095 1845 3624
4095 1841 4095
4095 3428 0
4095 3445 358
4095 3445 1638
4095 3408 3408
4095 3389 4095
4095 4095 0
4095 4095 357
4095 4095 1393
4095 4095 3145
4095 4095 4095
