Postproduction/IWLTBAP - Humble/LUTs by IWLTBAP (3DL)/UTILITY/Generic Rec.709 to LOG/U-9090-RTL.3dl
# Copyright: (C) Copyright 2010-2018 by IWLTBAP SAS
# Cannot be resold, shared or otherwise redistributed
# Website: https://luts.iwltbap.com
0 64 128 192 256 320 384 448 512 576 640 704 768 832 896 960 1023
402 402 402
401 401 548
398 398 695
394 394 844
391 391 993
393 393 1141
396 396 1290
400 400 1439
404 404 1588
409 409 1737
413 413 1887
418 418 2036
423 423 2186
428 428 2335
433 433 2485
438 438 2635
444 444 2785
438 582 438
443 587 587
440 586 734
435 584 881
433 582 1028
435 584 1175
438 587 1323
442 590 1472
446 594 1620
450 598 1769
455 603 1918
460 607 2067
465 612 2217
470 617 2366
475 622 2516
480 627 2665
485 632 2815
474 762 474
480 768 623
484 773 773
481 772 919
479 771 1065
481 772 1211
484 774 1358
487 776 1506
491 780 1654
495 784 1802
500 788 1951
504 793 2100
509 797 2249
514 802 2398
519 807 2547
524 812 2697
529 817 2846
513 942 513
518 948 659
524 954 808
528 959 959
527 958 1104
529 958 1249
532 959 1395
535 961 1541
539 965 1689
543 968 1837
547 972 1985
552 976 2133
556 981 2282
561 985 2431
566 990 2580
571 995 2729
576 1000 2878
557 1121 557
562 1127 699
568 1132 846
573 1138 994
578 1143 1143
580 1143 1288
582 1144 1432
585 1146 1578
589 1148 1725
593 1151 1872
597 1155 2019
601 1159 2167
606 1163 2316
610 1168 2464
615 1172 2613
620 1177 2761
624 1182 2910
606 1299 606
611 1305 744
617 1311 886
622 1316 1032
627 1322 1179
632 1327 1327
635 1328 1472
637 1329 1616
641 1331 1762
644 1334 1908
648 1338 2055
652 1341 2202
657 1345 2350
661 1350 2498
666 1354 2646
671 1359 2795
675 1363 2943
657 1477 657
662 1483 791
667 1489 929
673 1495 1072
678 1500 1217
683 1506 1364
688 1511 1511
691 1512 1655
694 1514 1800
698 1517 1945
701 1520 2092
705 1523 2238
710 1527 2385
714 1531 2533
718 1535 2681
723 1540 2829
728 1545 2977
710 1655 710
715 1661 839
721 1667 975
726 1673 1115
731 1678 1257
736 1684 1402
741 1690 1548
746 1695 1695
749 1697 1839
752 1699 1984
756 1702 2129
760 1705 2275
764 1709 2422
768 1712 2569
772 1716 2716
777 1721 2863
781 1725 3012
765 1834 765
770 1839 890
775 1845 1022
780 1851 1159
785 1857 1299
790 1862 1442
795 1868 1587
800 1874 1733
805 1879 1879
808 1881 2023
812 1884 2168
815 1887 2313
819 1890 2459
823 1894 2605
828 1897 2752
832 1902 2899
836 1906 3046
820 2012 820
825 2017 942
830 2023 1071
835 2029 1205
840 2035 1343
845 2040 1484
850 2046 1627
855 2052 1771
860 2058 1917
865 2063 2063
868 2066 2207
872 2068 2351
876 2071 2497
880 2075 2642
884 2078 2788
888 2082 2935
892 2087 3082
877 2190 877
882 2196 995
887 2201 1121
892 2207 1253
897 2213 1388
901 2219 1527
906 2224 1668
911 2230 1811
916 2236 1956
921 2242 2101
926 2247 2247
929 2250 2391
933 2253 2535
937 2256 2680
941 2259 2826
945 2263 2972
949 2267 3119
934 2368 934
939 2374 1049
944 2380 1173
949 2385 1301
954 2391 1435
958 2397 1572
963 2402 1711
968 2408 1853
973 2414 1995
978 2420 2140
983 2425 2285
987 2431 2431
991 2434 2575
995 2437 2719
998 2440 2864
1002 2444 3009
1006 2448 3156
992 2546 992
997 2552 1105
1002 2558 1225
1006 2563 1351
1011 2569 1483
1016 2575 1617
1021 2581 1755
1026 2586 1895
1031 2592 2037
1035 2598 2180
1040 2604 2324
1045 2609 2469
1050 2615 2615
1053 2618 2759
1057 2621 2903
1061 2624 3048
1064 2628 3193
1051 2724 1051
1056 2730 1160
1060 2736 1278
1065 2742 1402
1070 2747 1531
1074 2753 1664
1079 2759 1800
1084 2765 1939
1089 2770 2079
1093 2776 2221
1098 2782 2364
1103 2787 2508
1108 2793 2653
1112 2798 2799
1116 2802 2943
1120 2805 3087
1123 2809 3232
1110 2902 1110
1114 2908 1217
1119 2914 1332
1124 2920 1454
1129 2925 1581
1133 2931 1712
1138 2937 1846
1143 2943 1983
1147 2948 2122
1152 2954 2263
1157 2960 2405
1161 2965 2548
1166 2971 2692
1170 2977 2837
1175 2983 2983
1179 2986 3126
1182 2989 3270
1169 3081 1169
1174 3086 1274
1179 3092 1387
1183 3098 1507
1188 3104 1632
1192 3109 1761
1197 3115 1894
1201 3121 2029
1206 3126 2166
1211 3132 2305
1215 3138 2446
1220 3143 2589
1225 3149 2732
1229 3155 2876
1234 3161 3021
1239 3166 3166
1242 3169 3310
1229 3259 1229
1234 3265 1332
1238 3270 1442
1243 3276 1560
1247 3282 1683
1252 3287 1811
1257 3293 1941
1261 3299 2075
1266 3305 2211
1270 3310 2349
1275 3316 2489
1279 3322 2630
1284 3327 2772
1289 3333 2916
1293 3339 3060
1298 3344 3205
1303 3350 3350
559 421 421
567 421 567
566 418 714
564 414 862
562 411 1010
564 413 1158
567 416 1306
570 420 1455
574 424 1604
578 429 1753
583 433 1902
587 438 2052
592 443 2201
597 448 2351
602 453 2501
607 458 2650
612 463 2800
601 601 458
603 603 603
599 599 751
593 593 899
588 588 1047
587 587 1194
589 589 1342
591 591 1490
594 594 1638
598 598 1787
602 602 1936
606 606 2085
610 610 2234
615 615 2383
620 619 2533
624 624 2682
629 629 2831
636 781 494
636 786 636
641 791 791
634 786 938
630 781 1084
629 780 1230
630 780 1377
632 782 1524
635 784 1672
638 787 1820
642 791 1969
646 795 2117
651 799 2266
655 803 2415
660 808 2564
664 813 2713
669 817 2862
672 960 532
669 967 669
674 973 823
678 977 977
675 973 1123
674 971 1268
675 970 1414
677 971 1560
680 973 1707
683 975 1855
686 978 2002
690 982 2151
695 986 2299
699 990 2448
703 994 2596
708 999 2745
713 1003 2894
712 1138 576
707 1146 707
711 1152 857
717 1158 1010
722 1162 1162
722 1159 1307
722 1158 1451
724 1158 1597
726 1159 1743
729 1161 1890
733 1164 2037
737 1167 2185
741 1171 2333
745 1175 2481
749 1179 2629
754 1183 2778
759 1188 2927
757 1316 624
750 1324 750
755 1330 896
760 1336 1045
766 1342 1196
770 1346 1346
771 1345 1491
773 1344 1635
775 1345 1780
778 1346 1926
781 1349 2073
785 1352 2220
789 1355 2367
793 1358 2515
797 1362 2663
801 1367 2811
806 1371 2960
803 1494 675
796 1502 796
800 1508 938
806 1514 1084
811 1520 1232
817 1525 1381
822 1530 1530
823 1530 1675
825 1530 1819
828 1531 1964
831 1533 2110
834 1535 2256
838 1538 2403
842 1542 2550
846 1545 2698
851 1549 2845
855 1553 2994
852 1672 728
844 1680 844
849 1686 982
854 1692 1125
859 1698 1270
865 1703 1417
870 1709 1566
875 1714 1714
877 1714 1858
880 1715 2002
883 1716 2147
886 1718 2293
889 1721 2439
893 1724 2586
897 1728 2733
901 1731 2880
906 1735 3028
902 1850 782
894 1858 894
899 1864 1029
904 1870 1168
909 1876 1311
915 1881 1456
920 1887 1603
925 1893 1750
930 1898 1898
933 1899 2042
935 1900 2186
939 1901 2331
942 1904 2476
946 1907 2622
950 1910 2769
954 1913 2916
958 1917 3063
954 2028 837
946 2036 946
950 2042 1077
956 2048 1214
961 2054 1354
966 2059 1497
971 2065 1641
977 2071 1787
982 2077 1934
987 2081 2081
989 2083 2225
992 2084 2370
996 2086 2514
999 2089 2660
1003 2092 2806
1007 2095 2952
1011 2099 3099
1007 2206 894
999 2214 999
1003 2220 1127
1008 2226 1261
1014 2231 1398
1019 2237 1539
1024 2243 1682
1029 2249 1826
1034 2254 1972
1039 2260 2118
1044 2265 2265
1047 2267 2409
1050 2269 2553
1054 2271 2698
1058 2273 2843
1061 2277 2989
1065 2280 3135
1061 2384 951
1053 2392 1053
1057 2398 1178
1062 2403 1309
1067 2409 1444
1073 2415 1583
1078 2421 1724
1083 2426 1866
1088 2432 2011
1093 2438 2156
1098 2444 2302
1103 2449 2449
1106 2451 2593
1109 2453 2737
1113 2455 2881
1117 2458 3026
1120 2461 3172
1116 2563 1008
1108 2570 1108
1112 2576 1230
1117 2581 1359
1122 2587 1491
1127 2593 1628
1132 2599 1767
1137 2604 1908
1142 2610 2051
1147 2616 2195
1153 2622 2340
1158 2627 2486
1162 2633 2633
1166 2635 2776
1169 2637 2920
1173 2639 3065
1176 2642 3210
1172 2740 1067
1163 2748 1163
1168 2753 1283
1173 2759 1409
1178 2765 1540
1183 2771 1674
1188 2776 1811
1193 2782 1951
1198 2788 2092
1203 2794 2235
1208 2799 2379
1213 2805 2524
1218 2811 2670
1223 2816 2816
1226 2819 2960
1229 2821 3104
1233 2824 3248
1228 2919 1125
1220 2926 1220
1224 2931 1337
1229 2937 1461
1234 2943 1589
1239 2949 1722
1244 2954 1857
1249 2960 1995
1254 2966 2135
1259 2971 2276
1264 2977 2419
1269 2983 2563
1274 2989 2708
1279 2994 2854
1284 3000 3000
1287 3002 3143
1290 3005 3287
1285 3097 1185
1277 3103 1277
1281 3109 1392
1286 3115 1513
1291 3121 1639
1296 3126 1770
1301 3132 1904
1306 3138 2040
1311 3143 2178
1316 3149 2319
1320 3155 2460
1325 3161 2603
1330 3166 2747
1335 3172 2892
1340 3178 3037
1345 3183 3183
1348 3186 3327
1343 3274 1244
1335 3281 1335
1339 3287 1447
1344 3293 1566
1349 3299 1690
1353 3304 1819
1358 3310 1951
1363 3316 2086
1368 3321 2223
1373 3327 2362
1377 3333 2502
1382 3338 2644
1387 3344 2787
1392 3350 2931
1397 3356 3076
1402 3361 3221
1407 3367 3367
719 439 439
726 441 583
733 440 733
732 435 881
731 433 1028
732 434 1176
734 438 1324
737 442 1472
741 446 1621
745 450 1770
749 455 1919
754 460 2068
758 464 2217
763 469 2367
768 474 2516
773 479 2666
778 484 2816
757 617 481
762 622 622
769 619 770
765 612 918
761 607 1065
759 607 1212
760 608 1359
761 610 1507
764 613 1655
767 616 1804
771 620 1952
775 625 2101
779 629 2250
783 633 2399
788 638 2548
793 643 2697
797 648 2847
799 800 515
804 805 656
805 805 805
798 798 954
791 791 1102
787 787 1249
786 786 1396
786 786 1543
787 787 1690
790 789 1838
792 792 1987
796 796 2135
799 799 2283
803 803 2432
808 807 2581
812 812 2730
816 816 2879
835 979 553
836 985 688
835 990 835
839 994 994
832 987 1141
829 982 1286
827 979 1432
827 978 1579
828 979 1726
830 980 1873
833 982 2021
836 985 2168
839 988 2316
843 992 2465
847 996 2613
851 1000 2762
856 1004 2911
871 1157 596
871 1164 726
867 1170 867
872 1176 1024
876 1180 1180
874 1175 1326
872 1171 1470
871 1169 1616
872 1169 1762
874 1170 1908
876 1171 2055
879 1174 2203
883 1176 2350
887 1180 2498
890 1183 2646
895 1187 2795
899 1191 2943
912 1334 644
909 1342 769
904 1349 904
909 1355 1057
915 1361 1212
919 1365 1365
918 1361 1510
918 1358 1654
918 1357 1799
920 1357 1945
922 1359 2091
925 1361 2238
928 1363 2385
932 1366 2532
936 1369 2680
940 1373 2828
944 1377 2976
955 1512 695
951 1520 814
945 1527 945
950 1533 1094
955 1539 1245
961 1545 1398
966 1549 1549
966 1547 1694
966 1545 1838
968 1544 1983
970 1545 2128
972 1546 2274
975 1548 2421
979 1551 2568
982 1554 2715
986 1557 2862
991 1561 3010
1000 1689 747
995 1698 862
989 1705 989
993 1711 1134
999 1717 1282
1005 1723 1432
1010 1728 1583
1015 1733 1733
1016 1732 1877
1017 1730 2021
1019 1730 2166
1021 1731 2311
1024 1733 2457
1027 1735 2603
1031 1738 2750
1035 1741 2897
1039 1745 3044
1047 1867 801
1042 1875 912
1035 1883 1035
1039 1889 1177
1045 1895 1322
1050 1901 1469
1056 1906 1618
1061 1912 1768
1066 1916 1917
1067 1916 2061
1069 1916 2204
1071 1916 2349
1074 1917 2494
1077 1919 2640
1081 1922 2786
1084 1924 2933
1088 1928 3080
1095 2045 855
1090 2053 963
1082 2061 1083
1087 2067 1221
1092 2072 1364
1098 2078 1509
1103 2084 1655
1108 2090 1803
1114 2095 1952
1119 2100 2100
1121 2100 2244
1123 2100 2388
1125 2101 2532
1128 2103 2677
1132 2105 2823
1135 2107 2969
1139 2110 3115
1145 2223 911
1139 2231 1016
1132 2238 1132
1136 2244 1267
1141 2250 1407
1147 2256 1550
1152 2262 1695
1157 2267 1841
1163 2273 1988
1168 2279 2136
1173 2284 2284
1175 2284 2428
1178 2285 2571
1181 2286 2716
1184 2288 2861
1187 2290 3006
1191 2293 3152
1196 2401 968
1190 2409 1070
1183 2416 1183
1187 2422 1315
1192 2428 1453
1197 2434 1593
1203 2439 1736
1208 2445 1880
1213 2451 2026
1218 2456 2172
1224 2462 2320
1229 2467 2467
1231 2468 2611
1234 2469 2754
1237 2470 2899
1240 2472 3044
1244 2475 3189
1248 2579 1025
1242 2586 1124
1234 2594 1234
1239 2600 1364
1244 2605 1499
1249 2611 1638
1254 2617 1778
1259 2623 1921
1265 2628 2065
1270 2634 2210
1275 2640 2356
1281 2646 2504
1285 2651 2651
1288 2652 2794
1291 2653 2938
1294 2655 3082
1298 2657 3227
1301 2757 1083
1295 2764 1180
1287 2771 1287
1291 2777 1414
1297 2783 1547
1302 2789 1683
1307 2794 1822
1312 2800 1963
1317 2806 2105
1322 2812 2249
1328 2817 2394
1333 2823 2540
1338 2829 2687
1343 2834 2834
1346 2835 2977
1349 2837 3121
1352 2839 3265
1355 2935 1142
1349 2942 1236
1341 2949 1341
1345 2955 1466
1350 2960 1596
1355 2966 1730
1360 2972 1867
1366 2978 2006
1371 2983 2147
1376 2989 2290
1381 2995 2434
1386 3001 2578
1391 3006 2724
1397 3012 2871
1401 3017 3017
1404 3019 3161
1408 3020 3304
1410 3113 1201
1403 3120 1293
1396 3126 1396
1400 3132 1518
1405 3138 1646
1410 3144 1778
1415 3149 1913
1420 3155 2050
1425 3161 2190
1430 3167 2331
1435 3172 2474
1440 3178 2618
1445 3184 2762
1450 3189 2908
1456 3195 3054
1461 3201 3201
1464 3202 3344
1465 3291 1260
1458 3297 1350
1451 3304 1451
1455 3310 1571
1460 3315 1697
1465 3321 1827
1470 3327 1960
1475 3333 2096
1480 3338 2234
1485 3344 2374
1490 3350 2515
1495 3355 2658
1500 3361 2802
1505 3367 2946
1510 3373 3091
1515 3378 3238
1520 3384 3384
881 456 456
887 459 600
893 460 748
899 458 899
899 456 1047
899 458 1194
901 461 1341
904 465 1489
907 469 1638
911 473 1786
915 477 1935
919 482 2084
924 487 2234
928 491 2383
933 496 2532
938 501 2682
943 506 2831
917 635 498
922 640 640
929 640 784
936 634 936
932 629 1084
930 628 1230
930 629 1377
931 631 1524
933 634 1672
936 638 1820
939 641 1969
943 645 2117
946 650 2266
951 654 2415
955 659 2564
960 664 2713
