Postproduction/IWLTBAP - Humble/LUTs by IWLTBAP (3DL)/UTILITY/Generic Rec.709 to LOG/U-9091-RTL.3dl
# Copyright: (C) Copyright 2010-2018 by IWLTBAP SAS
# Cannot be resold, shared or otherwise redistributed
# Website: https://luts.iwltbap.com
0 64 128 192 256 320 384 448 512 576 640 704 768 832 896 960 1023
193 193 193
193 193 954
253 253 1373
328 344 1672
438 454 1931
547 547 2149
666 650 2314
775 759 2429
875 859 2529
946 929 2600
1008 998 2668
1086 1091 2793
1148 1160 2891
1210 1210 3037
1255 1255 3208
1270 1270 3396
1285 1285 3629
255 909 255
346 892 894
452 893 1354
618 909 1672
733 915 1915
800 957 2107
879 994 2277
960 1043 2389
1014 1076 2482
1063 1125 2559
1101 1147 2643
1179 1220 2751
1238 1269 2878
1285 1301 3034
1301 1317 3176
1332 1347 3380
1347 1362 3629
393 1369 377
501 1339 896
564 1309 1309
732 1264 1612
889 1263 1869
1001 1265 2046
1084 1279 2206
1146 1310 2337
1186 1327 2435
1234 1335 2512
1249 1337 2596
1298 1376 2720
1345 1409 2828
1362 1424 2977
1393 1439 3143
1423 1454 3350
1423 1469 3613
502 1630 502
683 1614 930
763 1584 1266
830 1553 1553
958 1506 1809
1093 1504 1983
1216 1515 2154
1316 1537 2290
1342 1540 2399
1376 1540 2481
1391 1540 2580
1438 1561 2689
1469 1579 2813
1484 1591 2960
1499 1593 3130
1512 1608 3348
1500 1623 3613
682 1839 670
814 1823 965
935 1809 1265
974 1789 1519
1052 1770 1774
1145 1727 1965
1269 1726 2136
1372 1726 2272
1457 1750 2381
1517 1751 2466
1532 1742 2549
1579 1758 2658
1598 1762 2782
1610 1765 2926
1610 1774 3103
1610 1778 3360
1594 1778 3613
815 1982 810
929 1993 1010
1053 1968 1280
1152 1961 1516
1187 1949 1732
1217 1918 1934
1331 1903 2095
1430 1888 2241
1508 1886 2366
1585 1891 2451
1645 1897 2545
1692 1912 2654
1703 1922 2767
1703 1929 2911
1703 1934 3088
1701 1933 3353
1644 1918 3602
949 2122 949
1033 2137 1116
1162 2124 1313
1271 2109 1531
1331 2104 1726
1336 2088 1903
1409 2073 2063
1499 2048 2210
1570 2034 2335
1633 2026 2436
1692 2026 2529
1743 2037 2644
1775 2052 2752
1784 2063 2899
1771 2063 3083
1768 2063 3348
1690 2057 3597
1080 2252 1080
1142 2252 1201
1239 2238 1364
1348 2236 1549
1432 2224 1751
1460 2220 1902
1492 2220 2048
1546 2204 2195
1623 2164 2319
1693 2149 2414
1742 2140 2523
1765 2140 2629
1796 2151 2750
1824 2166 2909
1822 2172 3083
1804 2173 3348
1702 2188 3606
1205 2361 1188
1250 2361 1289
1335 2347 1421
1441 2337 1583
1526 2333 1766
1580 2320 1910
1600 2320 2042
1639 2319 2180
1670 2288 2296
1732 2273 2414
1797 2264 2523
1812 2264 2622
1839 2268 2750
1847 2280 2909
1845 2282 3089
1803 2296 3349
1678 2296 3621
1306 2462 1297
1337 2446 1367
1412 2446 1483
1512 2433 1637
1603 2430 1802
1692 2430 1946
1717 2430 2054
1732 2421 2156
1747 2406 2281
1788 2398 2407
1828 2389 2522
1843 2384 2622
1858 2382 2750
1867 2385 2909
1852 2400 3099
1772 2406 3355
1647 2421 3629
1415 2539 1415
1430 2539 1461
1491 2529 1554
1583 2523 1693
1664 2523 1821
1757 2512 1961
1789 2507 2069
1804 2507 2172
1819 2507 2274
1844 2507 2389
1859 2507 2513
1874 2507 2622
1885 2497 2746
1873 2500 2903
1821 2515 3083
1739 2536 3349
1594 2551 3629
1504 2638 1509
1519 2633 1550
1575 2633 1637
1650 2625 1714
1715 2622 1859
1778 2611 1976
1840 2606 2084
1861 2606 2179
1876 2606 2272
1891 2606 2389
1900 2606 2508
1900 2606 2617
1896 2606 2746
1868 2609 2890
1793 2642 3083
1701 2687 3350
1505 2707 3650
1582 2762 1594
1593 2731 1609
1624 2730 1654
1684 2730 1759
1726 2730 1863
1805 2730 1976
1851 2724 2092
1888 2718 2190
1895 2722 2276
1898 2730 2389
1907 2746 2507
1907 2718 2606
1903 2718 2746
1853 2749 2893
1783 2782 3083
1637 2832 3351
1393 2866 3665
1644 2906 1641
1641 2874 1656
1658 2873 1701
1715 2873 1773
1749 2873 1879
1805 2873 1992
1848 2873 2086
1869 2873 2185
1873 2873 2288
1873 2876 2389
1873 2890 2510
1870 2876 2609
1866 2876 2746
1816 2893 2893
1702 2926 3086
1537 2992 3353
1213 3069 3677
1686 3063 1672
1672 3032 1672
1700 3031 1716
1731 3031 1792
1761 3031 1883
1803 3031 1990
1821 3017 2084
1827 3017 2177
1817 3025 2276
1799 3040 2387
1788 3055 2511
1783 3062 2624
1757 3049 2750
1749 3050 2897
1650 3083 3099
1414 3163 3367
925 3274 3679
1685 3268 1685
1685 3237 1685
1698 3250 1729
1729 3252 1805
1744 3252 1870
1774 3252 1958
1769 3252 2052
1754 3261 2145
1703 3268 2239
1655 3275 2355
1637 3306 2486
1590 3316 2638
1559 3313 2783
1541 3301 2941
1499 3305 3101
1243 3383 3369
249 3509 3712
1654 3517 1654
1654 3486 1669
1654 3499 1700
1667 3501 1773
1682 3501 1855
1675 3512 1917
1644 3517 2005
1604 3517 2099
1518 3525 2200
1401 3540 2292
1305 3571 2445
1243 3581 2616
1180 3585 2802
1102 3597 2989
1020 3597 3192
843 3617 3416
48 3758 3758
970 177 193
910 268 925
835 315 1342
790 407 1656
790 488 1927
805 578 2149
849 681 2314
887 781 2420
953 874 2513
1023 952 2591
1070 1023 2674
1148 1106 2798
1206 1175 2918
1254 1210 3034
1286 1270 3192
1301 1284 3411
1331 1300 3644
894 908 285
910 908 910
897 910 1339
898 913 1656
930 928 1900
962 961 2091
1021 1004 2262
1044 1058 2382
1091 1091 2482
1125 1125 2552
1178 1162 2657
1237 1236 2782
1284 1284 2891
1301 1316 3031
1332 1332 3162
1363 1347 3396
1393 1362 3644
852 1355 392
914 1339 896
945 1295 1309
1005 1278 1613
1054 1266 1827
1102 1265 2041
1178 1293 2204
1216 1310 2320
1249 1327 2429
1280 1342 2527
1303 1351 2611
1360 1391 2721
1372 1424 2843
1393 1439 2973
1408 1454 3131
1425 1469 3364
1440 1484 3613
839 1630 517
918 1599 914
1021 1568 1279
1030 1550 1568
1104 1521 1793
1206 1504 1983
1315 1541 2167
1359 1550 2287
1391 1553 2396
1407 1553 2496
1422 1555 2573
1469 1576 2704
1484 1588 2812
1499 1594 2956
1531 1608 3116
1545 1622 3350
1532 1625 3599
871 1839 685
978 1835 992
1072 1805 1280
1133 1789 1525
1167 1773 1761
1258 1742 1949
1342 1738 2136
1430 1741 2256
1512 1753 2365
1548 1758 2466
1563 1742 2549
1598 1763 2661
1613 1774 2797
1628 1774 2941
1641 1777 3097
1640 1778 3348
1613 1778 3597
933 1997 814
1041 2008 1041
1150 1966 1284
1241 1963 1521
1278 1949 1742
1298 1933 1934
1387 1913 2105
1468 1903 2241
1559 1901 2350
1629 1902 2435
1676 1902 2545
1707 1912 2654
1722 1918 2767
1731 1918 2914
1721 1918 3097
1707 1918 3348
1690 1918 3597
1039 2137 964
1131 2142 1121
1216 2108 1324
1333 2106 1546
1395 2106 1741
1414 2104 1903
1461 2088 2088
1531 2048 2225
1601 2034 2334
1671 2031 2430
1723 2031 2534
1775 2032 2654
1806 2036 2762
1815 2057 2906
1784 2057 3096
1770 2057 3348
1736 2057 3597
1133 2252 1080
1217 2267 1211
1295 2252 1378
1401 2238 1564
1494 2227 1766
1523 2226 1902
1546 2225 2058
1590 2195 2210
1654 2179 2319
1717 2149 2429
1755 2140 2520
1811 2145 2644
1827 2159 2752
1839 2171 2899
1837 2180 3096
1805 2186 3348
1739 2172 3597
1235 2361 1204
1305 2376 1304
1381 2353 1436
1479 2347 1598
1576 2333 1798
1623 2329 1919
1639 2329 2032
1654 2319 2164
1701 2303 2296
1756 2280 2421
1805 2273 2513
1843 2264 2629
1858 2268 2750
1867 2279 2909
1858 2290 3096
1803 2303 3348
1685 2288 3598
1337 2462 1305
1383 2461 1382
1458 2446 1498
1538 2433 1645
1627 2430 1810
1697 2430 1938
1743 2420 2062
1754 2414 2162
1763 2406 2280
1812 2398 2398
1843 2391 2513
1858 2382 2622
1869 2386 2746
1875 2397 2894
1859 2415 3092
1787 2430 3357
1662 2428 3620
1430 2554 1399
1476 2554 1476
1532 2523 1563
1595 2523 1680
1680 2511 1833
1767 2507 1961
1809 2513 2078
1826 2513 2178
1834 2507 2280
1859 2506 2383
1874 2497 2507
1889 2497 2616
1896 2497 2744
1876 2500 2894
1840 2515 3083
1755 2545 3349
1603 2566 3629
1524 2653 1493
1560 2648 1560
1591 2622 1637
1657 2622 1719
1715 2610 1847
1793 2606 1971
1850 2611 2085
1876 2616 2179
1891 2613 2280
1899 2606 2374
1915 2606 2493
1910 2606 2601
1906 2610 2719
1873 2624 2892
1832 2642 3098
1701 2687 3353
1505 2707 3629
1609 2762 1582
1598 2746 1582
1642 2745 1668
1712 2732 1773
1761 2730 1866
1809 2730 1976
1851 2724 2086
1888 2718 2183
1903 2718 2280
1910 2721 2374
1913 2730 2497
1921 2729 2610
1907 2729 2734
1857 2749 2893
1786 2782 3083
1637 2832 3350
1393 2866 3649
1656 2903 1641
1656 2887 1671
1700 2886 1702
1732 2875 1789
1774 2873 1882
1821 2873 1992
1857 2873 2086
1881 2873 2185
1888 2873 2285
1889 2876 2382
1885 2876 2497
1880 2876 2621
1866 2876 2734
1844 2893 2892
1745 2926 3098
1552 2991 3365
1228 3053 3664
1672 3047 1656
1687 3031 1684
1715 3031 1717
1744 3031 1792
1763 3031 1881
1816 3031 1990
1836 3032 2076
1842 3032 2161
1823 3033 2262
1815 3040 2382
1799 3055 2497
1785 3065 2624
1768 3062 2747
1749 3052 2895
1650 3083 3099
1430 3163 3367
944 3258 3679
1686 3267 1669
1700 3251 1685
1714 3236 1729
1730 3249 1805
1760 3252 1870
1775 3252 1958
1779 3262 2052
1769 3267 2145
1718 3269 2238
1663 3276 2355
1638 3306 2486
1621 3317 2639
1574 3317 2780
1554 3316 2927
1500 3318 3102
1246 3368 3369
326 3509 3712
1669 3501 1638
1669 3485 1669
1683 3485 1700
1698 3498 1773
1701 3501 1855
1690 3512 1917
1675 3517 2005
1619 3526 2099
1533 3540 2185
1416 3555 2307
1320 3571 2445
1258 3586 2616
1195 3596 2786
1130 3597 2976
1035 3599 3207
873 3617 3416
63 3758 3758
1419 207 207
1386 343 864
1323 377 1325
1221 453 1642
1142 534 1901
1109 639 2119
1082 733 2284
1078 817 2390
1092 905 2491
1139 983 2576
1186 1060 2682
1236 1132 2782
1283 1190 2891
1303 1238 3034
1347 1271 3192
1376 1286 3397
1391 1315 3645
1400 863 300
1370 910 894
1310 896 1325
1265 912 1629
1203 943 1857
1200 977 2071
1192 1020 2237
1191 1073 2366
1200 1122 2474
1218 1155 2559
1266 1193 2643
1313 1252 2766
1360 1285 2876
1373 1317 3015
1393 1347 3160
1407 1362 3380
1425 1377 3629
1325 1309 408
1295 1295 897
1281 1281 1281
1281 1279 1569
1269 1279 1823
1267 1290 2013
1305 1307 2198
1326 1326 2325
1341 1333 2421
1358 1358 2512
1373 1367 2612
1392 1406 2720
1423 1425 2830
1441 1440 2972
1481 1467 3131
1483 1469 3364
1485 1483 3613
1206 1584 532
1236 1581 929
1266 1552 1277
1283 1537 1537
1312 1521 1776
1353 1532 1980
1415 1545 2141
1436 1551 2290
1467 1561 2399
1482 1560 2497
1491 1556 2580
1531 1578 2689
1542 1589 2811
1561 1594 2955
1574 1610 3116
1577 1624 3350
1564 1624 3613
1160 1809 686
1219 1821 977
1267 1788 1281
1324 1773 1534
1345 1758 1758
1389 1756 1949
1465 1756 2122
1530 1756 2256
1566 1756 2365
1611 1751 2466
1620 1742 2563
1638 1763 2670
1640 1774 2780
1645 1774 2929
1660 1778 3097
1671 1778 3348
1656 1778 3599
1156 1979 826
1220 1983 1056
1296 1963 1299
1384 1961 1535
1405 1949 1742
1425 1931 1918
1500 1919 2105
1563 1916 2241
1625 1916 2350
1679 1916 2449
1721 1916 2534
1738 1923 2657
1749 1934 2771
1752 1929 2925
1763 1918 3097
1750 1918 3337
1706 1918 3586
1182 2124 955
1250 2124 1118
1329 2122 1329
1408 2107 1537
1481 2094 1742
1511 2089 1913
1532 2079 2089
1606 2048 2226
1660 2046 2326
1715 2046 2434
1769 2046 2523
1820 2050 2630
1831 2061 2762
1830 2063 2913
1815 2057 3087
1788 2057 3334
1759 2057 3597
1263 2252 1094
1311 2267 1213
1378 2252 1380
1478 2239 1565
1562 2227 1751
1597 2223 1913
1614 2210 2048
1652 2195 2204
1707 2180 2319
1748 2156 2405
1794 2154 2520
1843 2154 2624
1858 2161 2753
1870 2166 2900
1854 2179 3083
1819 2171 3334
1756 2163 3597
1341 2361 1218
1381 2368 1290
1435 2353 1435
1519 2340 1599
1610 2324 1770
1672 2320 1918
1700 2318 2046
1715 2312 2178
1754 2304 2304
1794 2273 2400
1835 2266 2499
1858 2264 2622
1873 2268 2742
1882 2272 2893
1867 2280 3091
1817 2281 3335
1708 2288 3605
1405 2462 1320
1451 2446 1397
1499 2446 1507
1577 2446 1633
1663 2432 1802
1729 2419 1930
1780 2414 2054
1809 2414 2172
1817 2406 2280
1843 2398 2398
1888 2383 2500
1898 2382 2615
1900 2386 2734
1897 2398 2893
1873 2400 3090
1795 2408 3335
1677 2421 3620
1491 2541 1413
1523 2530 1471
1570 2529 1572
1639 2523 1680
1698 2517 1821
1776 2507 1950
1845 2507 2077
1874 2504 2179
1881 2499 2280
1881 2500 2390
1913 2505 2507
1909 2497 2608
1915 2497 2734
1903 2508 2893
1851 2515 3083
1785 2530 3341
1618 2551 3629
1566 2640 1502
1592 2638 1545
1637 2631 1621
1683 2623 1727
1746 2622 1838
1808 2611 1962
1870 2606 2079
1891 2606 2179
1906 2606 2280
1921 2606 2380
1931 2606 2497
1941 2606 2606
1937 2606 2732
1898 2625 2893
1836 2640 3083
1731 2663 3349
1525 2707 3629
1624 2746 1578
1628 2746 1596
1668 2732 1668
1716 2745 1762
1789 2732 1869
1828 2719 1976
1881 2716 2094
1918 2714 2193
1925 2718 2286
1928 2718 2380
1937 2718 2497
1937 2718 2606
1933 2732 2734
1883 2747 2893
1813 2772 3087
1668 2818 3353
1427 2866 3649
1660 2890 1630
1686 2890 1656
1717 2872 1701
1749 2870 1776
1791 2873 1883
1837 2865 1976
1878 2862 2091
1899 2862 2190
1903 2870 2285
1905 2876 2382
1900 2880 2497
1900 2888 2611
1896 2888 2744
1848 2893 2893
1750 2926 3099
1584 2978 3366
1273 3056 3664
1702 3033 1668
1702 3045 1685
1730 3019 1728
1774 3019 1804
1793 3029 1883
1831 3031 1976
1851 3031 2067
1857 3033 2161
1833 3039 2262
1823 3047 2373
1821 3051 2495
1802 3051 2622
1798 3053 2748
1764 3063 2895
1680 3083 3101
1463 3163 3368
1008 3272 3694
1715 3251 1669
1715 3252 1698
1729 3249 1729
1760 3250 1791
1775 3252 1869
1790 3252 1958
1794 3252 2052
1784 3261 2145
1751 3269 2238
1694 3289 2339
1652 3306 2470
1623 3317 2627
1604 3317 2780
1569 3317 2927
1515 3319 3115
1278 3369 3382
445 3523 3712
1684 3485 1638
1699 3499 1669
1700 3485 1700
1713 3498 1745
1728 3501 1823
1721 3501 1901
1706 3511 2001
1659 3517 2090
1570 3541 2176
1447 3556 2276
1351 3571 2431
1289 3586 2616
1227 3597 2786
1145 3597 2987
1052 3599 3192
904 3618 3416
64 3772 3758
1811 267 280
1779 436 847
1731 471 1279
1640 531 1627
1492 621 1870
1425 715 2104
1366 798 2269
1316 879 2384
1299 966 2489
1299 1036 2574
1327 1104 2671
1358 1171 2769
1389 1221 2881
1404 1256 3034
1438 1300 3192
1453 1315 3383
1468 1330 3632
1779 821 360
1719 897 894
1685 928 1282
1612 930 1598
1506 947 1839
1469 1005 2069
1415 1052 2222
1383 1090 2352
1371 1138 2460
1366 1178 2545
1389 1233 2643
1420 1283 2761
1434 1315 2859
1440 1330 3003
1469 1362 3160
1483 1377 3380
