Postproduction/IWLTBAP - Humble/LUTs by IWLTBAP (3DL)/UTILITY/Generic Rec.709 to LOG/U-9091-RTL.3dl
# Copyright: (C) Copyright 2010-2018 by IWLTBAP SAS
# Cannot be resold, shared or otherwise redistributed
# Website: https://luts.iwltbap.com
0 128 256 384 512 640 768 896 1023
193 193 193
253 253 1373
438 454 1931
666 650 2314
875 859 2529
1008 998 2668
1148 1160 2891
1255 1255 3208
1285 1285 3629
393 1369 377
564 1309 1309
889 1263 1869
1084 1279 2206
1186 1327 2435
1249 1337 2596
1345 1409 2828
1393 1439 3143
1423 1469 3613
682 1839 670
935 1809 1265
1052 1770 1774
1269 1726 2136
1457 1750 2381
1532 1742 2549
1598 1762 2782
1610 1774 3103
1594 1778 3613
949 2122 949
1162 2124 1313
1331 2104 1726
1409 2073 2063
1570 2034 2335
1692 2026 2529
1775 2052 2752
1771 2063 3083
1690 2057 3597
1205 2361 1188
1335 2347 1421
1526 2333 1766
1600 2320 2042
1670 2288 2296
1797 2264 2523
1839 2268 2750
1845 2282 3089
1678 2296 3621
1415 2539 1415
1491 2529 1554
1664 2523 1821
1789 2507 2069
1819 2507 2274
1859 2507 2513
1885 2497 2746
1821 2515 3083
1594 2551 3629
1582 2762 1594
1624 2730 1654
1726 2730 1863
1851 2724 2092
1895 2722 2276
1907 2746 2507
1903 2718 2746
1783 2782 3083
1393 2866 3665
1686 3063 1672
1700 3031 1716
1761 3031 1883
1821 3017 2084
1817 3025 2276
1788 3055 2511
1757 3049 2750
1650 3083 3099
925 3274 3679
1654 3517 1654
1654 3499 1700
1682 3501 1855
1644 3517 2005
1518 3525 2200
1305 3571 2445
1180 3585 2802
1020 3597 3192
48 3758 3758
1419 207 207
1323 377 1325
1142 534 1901
1082 733 2284
1092 905 2491
1186 1060 2682
1283 1190 2891
1347 1271 3192
1391 1315 3645
1325 1309 408
1281 1281 1281
1269 1279 1823
1305 1307 2198
1341 1333 2421
1373 1367 2612
1423 1425 2830
1481 1467 3131
1485 1483 3613
1160 1809 686
1267 1788 1281
1345 1758 1758
1465 1756 2122
1566 1756 2365
1620 1742 2563
1640 1774 2780
1660 1778 3097
1656 1778 3599
1182 2124 955
1329 2122 1329
1481 2094 1742
1532 2079 2089
1660 2046 2326
1769 2046 2523
1831 2061 2762
1815 2057 3087
1759 2057 3597
1341 2361 1218
1435 2353 1435
1610 2324 1770
1700 2318 2046
1754 2304 2304
1835 2266 2499
1873 2268 2742
1867 2280 3091
1708 2288 3605
1491 2541 1413
1570 2529 1572
1698 2517 1821
1845 2507 2077
1881 2499 2280
1913 2505 2507
1915 2497 2734
1851 2515 3083
1618 2551 3629
1624 2746 1578
1668 2732 1668
1789 2732 1869
1881 2716 2094
1925 2718 2286
1937 2718 2497
1933 2732 2734
1813 2772 3087
1427 2866 3649
1702 3033 1668
1730 3019 1728
1793 3029 1883
1851 3031 2067
1833 3039 2262
1821 3051 2495
1798 3053 2748
1680 3083 3101
1008 3272 3694
1684 3485 1638
1700 3485 1700
1728 3501 1823
1706 3511 2001
1570 3541 2176
1351 3571 2431
1227 3597 2786
1052 3599 3192
64 3772 3758
2116 345 329
2009 620 1221
1851 703 1851
1664 891 2238
1526 1036 2477
1505 1150 2652
1514 1237 2874
1560 1315 3180
1578 1345 3629
1981 1172 486
1873 1263 1263
1792 1281 1776
1700 1327 2170
1632 1373 2403
1606 1407 2596
1620 1453 2816
1640 1499 3129
1654 1515 3599
1790 1758 719
1760 1758 1277
1758 1754 1747
1774 1774 2110
1778 1774 2365
1762 1770 2553
1778 1782 2786
1778 1796 3109
1782 1794 3597
1606 2110 978
1666 2108 1329
1742 2089 1742
1805 2079 2085
1855 2075 2324
1897 2063 2519
1919 2067 2756
1909 2063 3089
1855 2048 3597
1594 2353 1220
1662 2339 1451
1774 2333 1795
1869 2316 2073
1891 2304 2300
1949 2272 2501
1983 2284 2746
1959 2288 3083
1831 2268 3613
1636 2529 1427
1712 2523 1572
1821 2517 1833
1945 2507 2085
1981 2501 2284
2005 2497 2501
1995 2497 2738
1941 2513 3083
1708 2539 3639
1730 2750 1570
1776 2730 1670
1867 2730 1859
1951 2716 2092
2003 2718 2280
2011 2730 2497
1999 2734 2734
1881 2770 3091
1534 2846 3661
1791 3031 1656
1835 3031 1732
1893 3031 1885
1931 3043 2077
1921 3045 2254
1883 3061 2479
1861 3065 2750
1760 3089 3101
1144 3260 3696
1791 3497 1638
1805 3501 1698
1823 3501 1827
1813 3513 1991
1686 3541 2176
1463 3583 2417
1333 3597 2774
1174 3613 3192
92 3774 3758
2501 486 502
2377 897 1200
2312 908 1714
2198 1036 2202
1983 1160 2439
1879 1263 2642
1833 1357 2848
1835 1393 3165
1859 1391 3629
2409 1052 594
2270 1233 1253
2230 1313 1728
2140 1373 2140
1995 1407 2377
1913 1469 2573
1883 1516 2812
1871 1546 3129
1899 1546 3603
2268 1656 769
2202 1684 1267
2128 1744 1744
2106 1768 2094
2030 1788 2347
1985 1797 2551
1965 1805 2778
1991 1811 3097
1991 1799 3597
2096 2073 1014
2089 2073 1335
2073 2073 1752
2079 2079 2079
2079 2079 2329
2073 2073 2519
2073 2079 2746
2073 2077 3087
2057 2053 3603
1927 2335 1228
1963 2322 1461
2015 2316 1782
2081 2312 2073
2096 2304 2304
2118 2288 2505
2122 2292 2746
2098 2288 3081
2015 2264 3613
1897 2523 1431
1917 2523 1574
2011 2513 1833
2079 2503 2079
2124 2497 2292
2130 2491 2497
2130 2503 2744
2055 2503 3083
1885 2519 3635
1907 2736 1566
1953 2730 1670
2017 2730 1871
2079 2730 2090
2114 2726 2288
2120 2730 2487
2106 2734 2734
2001 2764 3083
1710 2818 3649
1951 3031 1648
1997 3033 1732
2034 3031 1883
2067 3033 2075
2057 3041 2268
2003 3055 2485
1983 3073 2764
1893 3095 3099
1389 3248 3696
1973 3501 1638
1999 3501 1698
1999 3511 1823
1989 3527 1989
1895 3543 2166
1674 3587 2391
1526 3623 2748
1383 3623 3184
399 3758 3768
2762 618 626
2638 1008 1219
2585 1124 1634
2575 1222 2104
2409 1293 2401
2236 1387 2604
2148 1441 2834
2136 1478 3137
2168 1470 3621
2700 1020 719
2585 1237 1259
2503 1391 1692
2497 1447 2075
2369 1485 2363
2236 1548 2571
2168 1564 2794
2174 1608 3111
2198 1594 3599
2610 1534 867
2531 1618 1297
2429 1738 1738
2399 1790 2065
2333 1803 2329
2254 1825 2539
2216 1839 2766
2222 1837 3095
2252 1819 3581
2469 1981 1056
2439 2009 1357
2379 2019 1742
2335 2073 2073
2304 2081 2318
2276 2079 2523
2266 2079 2744
2274 2079 3087
2290 2055 3605
2304 2304 1244
2312 2304 1469
2304 2296 1786
2296 2302 2073
2304 2296 2304
2296 2296 2497
2288 2296 2734
2288 2286 3081
2264 2264 3621
2178 2521 1439
2200 2507 1588
2230 2501 1837
2266 2497 2079
2304 2497 2304
2298 2491 2497
2284 2493 2736
2238 2491 3091
2110 2481 3635
2160 2730 1582
2174 2730 1670
2228 2726 1883
2266 2726 2083
2272 2730 2288
2278 2726 2483
2256 2734 2734
2184 2760 3101
1955 2790 3673
2170 3031 1656
2200 3039 1730
2238 3033 1887
2258 3041 2069
2254 3049 2254
2190 3073 2463
2152 3079 2734
2090 3085 3099
1698 3220 3712
2224 3509 1622
2240 3517 1700
2252 3537 1831
2246 3541 1989
2160 3573 2160
1983 3619 2385
1770 3637 2718
1642 3637 3171
1108 3774 3774
2973 757 757
2854 1088 1251
2790 1321 1656
2770 1393 1997
2722 1431 2349
2577 1495 2577
2489 1535 2820
2461 1564 3113
2509 1548 3607
2927 1040 843
2839 1275 1289
2726 1504 1712
2708 1562 2017
2662 1566 2314
2541 1612 2555
2471 1638 2778
2473 1656 3099
2525 1638 3589
2843 1443 968
2778 1580 1337
2680 1738 1742
2630 1833 2043
2604 1837 2298
2523 1849 2527
2483 1863 2764
2485 1863 3091
2569 1835 3597
2744 1879 1134
2692 1915 1391
2617 1985 1758
2561 2057 2073
2537 2096 2296
2507 2096 2513
2497 2096 2734
2515 2077 3085
2579 2063 3597
2640 2236 1309
2596 2242 1485
2557 2260 1784
2531 2276 2073
2497 2296 2304
2497 2304 2497
2501 2292 2744
2511 2286 3089
2549 2256 3615
2497 2507 1453
2507 2497 1596
2491 2491 1837
2497 2485 2079
2491 2489 2304
2491 2481 2491
2491 2491 2736
2489 2479 3083
2465 2465 3641
2435 2714 1594
2437 2730 1686
2461 2724 1867
2481 2718 2090
2483 2718 2284
2477 2730 2487
2473 2722 2734
2425 2746 3099
2258 2738 3681
2441 3037 1656
2449 3047 1730
2471 3049 1891
2493 3049 2061
2489 3057 2254
2461 3083 2457
2395 3083 2726
2335 3085 3085
2042 3190 3704
2525 3539 1622
2541 3549 1700
2541 3567 1823
2525 3571 1983
2485 3611 2166
2375 3641 2369
2124 3667 2668
1997 3683 3142
1644 3774 3774
3144 907 903
3051 1166 1293
2939 1497 1726
2937 1556 1983
2911 1570 2252
2868 1598 2531
2778 1626 2790
2780 1642 3109
2866 1610 3597
3097 1074 968
3031 1307 1319
2911 1578 1726
2879 1664 1997
2848 1678 2252
2838 1690 2517
2762 1718 2764
2768 1718 3095
2866 1686 3581
3047 1437 1056
2973 1552 1355
2871 1726 1742
2820 1865 2043
2806 1887 2264
2792 1887 2517
2762 1887 2754
2782 1889 3093
2891 1851 3597
2951 1801 1184
2901 1861 1429
2840 1959 1776
2774 2057 2067
2754 2106 2288
2742 2096 2507
2734 2096 2734
2782 2094 3081
2905 2053 3597
2879 2148 1361
2834 2170 1516
2786 2216 1811
2738 2258 2079
2730 2296 2288
2718 2304 2491
2734 2288 2726
2782 2282 3083
2891 2236 3621
2788 2441 1478
2764 2451 1622
2744 2473 1835
2724 2481 2079
2714 2493 2280
2730 2481 2481
2734 2481 2734
2750 2479 3083
2800 2445 3645
2714 2718 1594
2718 2718 1686
2730 2718 1883
2714 2724 2083
2718 2730 2272
2718 2734 2477
2734 2734 2730
2730 2732 3099
2686 2702 3677
2722 3049 1656
2738 3049 1732
2750 3049 1885
2744 3051 2059
2760 3067 2238
2750 3087 2459
2702 3095 2712
2666 3095 3099
2467 3130 3716
2882 3585 1638
2882 3601 1694
2882 3601 1823
2876 3607 1973
2846 3641 2160
2784 3665 2369
2638 3698 2642
2421 3712 3099
2204 3790 3778
3330 1016 1016
3254 1247 1339
3159 1544 1742
3127 1658 1985
3115 1674 2226
3101 1690 2497
3073 1704 2776
3065 1704 3095
3238 1656 3595
3300 1152 1062
3238 1355 1355
3147 1610 1742
3091 1746 2017
3077 1757 2232
3073 1771 2481
3057 1781 2760
3079 1779 3081
3224 1718 3583
3240 1441 1136
3196 1568 1415
3119 1747 1760
3059 1903 2059
3033 1921 2260
3031 1917 2497
3029 1931 2752
3065 1917 3081
3240 1855 3593
3194 1770 1275
3147 1845 1475
3087 1943 1797
3025 2063 2063
3013 2110 2282
3011 2108 2497
3013 2102 2746
3065 2084 3067
3246 2036 3607
3125 2102 1391
3087 2142 1546
3057 2204 1819
3019 2244 2079
2999 2294 2288
3009 2286 2497
3003 2286 2746
3081 2254 3083
3240 2222 3621
3055 2413 1515
3057 2431 1640
3029 2463 1847
3013 2491 2079
3013 2497 2282
3021 2491 2475
3037 2479 2744
3087 2463 3099
3236 2415 3651
3027 2718 1610
3029 2718 1702
3023 2730 1871
3015 2730 2077
3015 2732 2270
3035 2734 2465
3053 2732 2718
3083 2714 3099
3173 2684 3683
3049 3065 1670
3051 3051 1732
3063 3053 1895
3051 3061 2052
3067 3069 2252
3071 3089 2445
3085 3085 2700
3083 3083 3083
3069 3069 3712
3288 3631 1636
3288 3647 1682
3290 3659 1817
3290 3663 1957
3276 3679 2134
3270 3712 2353
3190 3728 2652
3039 3746 3053
2850 3790 3790
3549 1108 1092
3487 1309 1371
3425 1574 1742
3372 1728 2021
3372 1742 2240
3372 1751 2497
3376 1767 2750
3393 1765 3081
3581 1686 3581
3517 1214 1124
3457 1385 1387
3411 1638 1756
3358 1815 2057
3356 1813 2262
3372 1827 2497
3374 1829 2764
3378 1811 3081
3597 1749 3597
3501 1457 1212
3459 1572 1433
3409 1762 1770
3358 1923 2069
3352 1951 2268
3356 1951 2509
3360 1951 2762
3378 1933 3067
3597 1871 3597
3491 1768 1311
3439 1829 1505
3393 1959 1805
3346 2057 2063
3348 2108 2296
3356 2108 2503
3356 2102 2762
3376 2090 3067
3613 2011 3613
3445 2088 1437
3407 2140 1576
3384 2200 1823
3354 2258 2071
3348 2272 2288
3372 2256 2497
3376 2256 2762
3417 2254 3089
3653 2176 3637
3415 2413 1532
3391 2437 1640
3389 2467 1857
3362 2491 2063
3378 2513 2280
3411 2491 2481
3431 2449 2750
3477 2447 3113
3667 2385 3651
3389 2734 1610
3405 2750 1716
3397 2774 1871
3393 2782 2075
3401 2774 2268
3447 2760 2477
3509 2714 2730
3553 2686 3115
3681 2638 3681
3425 3081 1670
3425 3083 1744
3427 3099 1895
3435 3099 2046
3467 3121 2238
3525 3132 2431
3557 3127 2686
3621 3085 3083
3744 3053 3744
3710 3694 1590
3726 3710 1666
3726 3710 1758
3742 3720 1941
3758 3726 2112
3780 3748 2327
3774 3774 2622
3790 3774 3037
3790 3790 3806
