Postproduction/IWLTBAP - Humble/LUTs by IWLTBAP (3DL)/UTILITY/Generic Rec.709 to LOG/U-9090-RTL.3dl
# Copyright: (C) Copyright 2010-2018 by IWLTBAP SAS
# Cannot be resold, shared or otherwise redistributed
# Website: https://luts.iwltbap.com
0 128 256 384 512 640 768 896 1023
402 402 402
398 398 695
391 391 993
396 396 1290
404 404 1588
413 413 1887
423 423 2186
433 433 2485
444 444 2785
474 762 474
484 773 773
479 771 1065
484 774 1358
491 780 1654
500 788 1951
509 797 2249
519 807 2547
529 817 2846
557 1121 557
568 1132 846
578 1143 1143
582 1144 1432
589 1148 1725
597 1155 2019
606 1163 2316
615 1172 2613
624 1182 2910
657 1477 657
667 1489 929
678 1500 1217
688 1511 1511
694 1514 1800
701 1520 2092
710 1527 2385
718 1535 2681
728 1545 2977
765 1834 765
775 1845 1022
785 1857 1299
795 1868 1587
805 1879 1879
812 1884 2168
819 1890 2459
828 1897 2752
836 1906 3046
877 2190 877
887 2201 1121
897 2213 1388
906 2224 1668
916 2236 1956
926 2247 2247
933 2253 2535
941 2259 2826
949 2267 3119
992 2546 992
1002 2558 1225
1011 2569 1483
1021 2581 1755
1031 2592 2037
1040 2604 2324
1050 2615 2615
1057 2621 2903
1064 2628 3193
1110 2902 1110
1119 2914 1332
1129 2925 1581
1138 2937 1846
1147 2948 2122
1157 2960 2405
1166 2971 2692
1175 2983 2983
1182 2989 3270
1229 3259 1229
1238 3270 1442
1247 3282 1683
1257 3293 1941
1266 3305 2211
1275 3316 2489
1284 3327 2772
1293 3339 3060
1303 3350 3350
719 439 439
733 440 733
731 433 1028
734 438 1324
741 446 1621
749 455 1919
758 464 2217
768 474 2516
778 484 2816
799 800 515
805 805 805
791 791 1102
786 786 1396
787 787 1690
792 792 1987
799 799 2283
808 807 2581
816 816 2879
871 1157 596
867 1170 867
876 1180 1180
872 1171 1470
872 1169 1762
876 1171 2055
883 1176 2350
890 1183 2646
899 1191 2943
955 1512 695
945 1527 945
955 1539 1245
966 1549 1549
966 1545 1838
970 1545 2128
975 1548 2421
982 1554 2715
991 1561 3010
1047 1867 801
1035 1883 1035
1045 1895 1322
1056 1906 1618
1066 1916 1917
1069 1916 2204
1074 1917 2494
1081 1922 2786
1088 1928 3080
1145 2223 911
1132 2238 1132
1141 2250 1407
1152 2262 1695
1163 2273 1988
1173 2284 2284
1178 2285 2571
1184 2288 2861
1191 2293 3152
1248 2579 1025
1234 2594 1234
1244 2605 1499
1254 2617 1778
1265 2628 2065
1275 2640 2356
1285 2651 2651
1291 2653 2938
1298 2657 3227
1355 2935 1142
1341 2949 1341
1350 2960 1596
1360 2972 1867
1371 2983 2147
1381 2995 2434
1391 3006 2724
1401 3017 3017
1408 3020 3304
1465 3291 1260
1451 3304 1451
1460 3315 1697
1470 3327 1960
1480 3338 2234
1490 3350 2515
1500 3361 2802
1510 3373 3091
1520 3384 3384
1041 474 474
1054 480 764
1065 481 1065
1067 485 1359
1072 493 1655
1079 501 1952
1088 510 2250
1097 520 2549
1107 530 2847
1113 831 560
1123 841 842
1138 832 1139
1130 826 1432
1128 827 1726
1131 832 2020
1137 838 2317
1144 846 2613
1152 855 2911
1194 1194 640
1207 1207 907
1208 1209 1209
1194 1194 1506
1185 1185 1799
1183 1183 2092
1185 1185 2386
1190 1190 2681
1196 1196 2977
1267 1548 737
1272 1564 985
1270 1575 1270
1278 1584 1584
1270 1573 1875
1267 1567 2165
1269 1566 2457
1272 1569 2750
1278 1573 3044
1349 1903 840
1348 1919 1073
1342 1932 1342
1352 1944 1647
1362 1954 1954
1359 1946 2242
1360 1943 2531
1363 1944 2821
1368 1947 3114
1437 2257 949
1433 2273 1168
1424 2288 1424
1434 2299 1719
1445 2311 2019
1455 2321 2321
1456 2317 2608
1459 2315 2896
1463 2317 3186
1530 2613 1062
1524 2628 1270
1514 2642 1514
1523 2654 1799
1534 2665 2092
1545 2677 2389
1556 2687 2687
1558 2685 2973
1563 2685 3261
1628 2968 1177
1621 2982 1376
1609 2996 1609
1618 3008 1885
1629 3019 2171
1640 3031 2462
1651 3042 2757
1662 3053 3053
1666 3052 3339
1729 3324 1294
1721 3337 1484
1709 3350 1709
1718 3362 1977
1729 3373 2256
1739 3384 2541
1750 3396 2831
1761 3407 3123
1771 3419 3419
1362 518 518
1374 527 802
1386 533 1097
1397 538 1397
1401 545 1692
1408 553 1987
1415 562 2284
1424 571 2582
1434 581 2880
1431 868 602
1443 876 876
1457 878 1166
1469 872 1469
1466 872 1762
1466 876 2056
1470 882 2351
1477 890 2647
1484 899 2944
1506 1225 692
1517 1235 961
1526 1245 1246
1542 1235 1542
1531 1225 1836
1526 1222 2128
1525 1224 2421
1528 1228 2715
1533 1234 3010
1586 1586 782
1601 1601 1027
1611 1612 1309
1611 1612 1613
1598 1598 1909
1588 1588 2201
1584 1584 2493
1583 1583 2785
1585 1585 3078
1661 1939 884
1669 1956 1115
1674 1970 1381
1673 1979 1673
1682 1988 1988
1673 1976 2278
1668 1968 2567
1666 1965 2857
1668 1965 3149
1741 2293 990
1745 2309 1209
1745 2324 1462
1742 2336 1742
1752 2348 2049
1762 2357 2357
1758 2348 2645
1756 2343 2932
1757 2341 3221
1827 2648 1101
1828 2663 1309
1825 2677 1551
1820 2691 1820
1830 2702 2118
1841 2714 2421
1852 2724 2724
1850 2717 3010
1851 2714 3296
1918 3003 1215
1916 3017 1414
1911 3031 1646
1905 3044 1905
1914 3056 2195
1926 3067 2491
1937 3079 2789
1947 3089 3089
1948 3085 3374
2012 3358 1330
2009 3371 1521
2002 3384 1744
1995 3397 1995
2004 3408 2277
2015 3420 2567
2026 3431 2860
2037 3442 3156
2049 3454 3454
1683 569 569
1695 578 845
1706 587 1135
1718 594 1430
1729 601 1729
1735 608 2024
1742 617 2320
1750 626 2616
1759 635 2914
1750 910 650
1763 913 913
1776 919 1200
1788 922 1497
1800 921 1800
1800 924 2093
1802 930 2387
1807 937 2682
1814 945 2978
1821 1262 740
1835 1270 997
1845 1280 1280
1860 1280 1569
1872 1270 1873
1866 1266 2165
1863 1267 2457
1864 1271 2750
1868 1277 3044
1898 1617 832
1911 1628 1080
1921 1640 1364
1929 1649 1650
1945 1639 1946
1934 1628 2238
1926 1623 2529
1923 1622 2821
1923 1624 3113
1977 1977 931
1993 1993 1159
2006 2006 1422
2015 2015 1712
2014 2016 2016
2004 2004 2312
1993 1993 2603
1987 1987 2893
1985 1985 3184
2053 2330 1035
2063 2346 1252
2072 2361 1504
2077 2373 1781
2078 2382 2078
2087 2391 2391
2078 2379 2680
2071 2370 2968
2069 2366 3256
2133 2684 1144
2140 2699 1351
2144 2714 1592
2145 2727 1858
2145 2738 2145
2156 2750 2452
2166 2760 2760
2161 2750 3046
2158 2743 3331
2218 3038 1255
2221 3052 1454
2222 3066 1686
2221 3080 1942
2220 3092 2220
2231 3103 2520
2242 3115 2822
2253 3125 3125
2250 3117 3409
2306 3392 1370
2307 3405 1561
2306 3419 1784
2303 3432 2032
2301 3444 2301
2312 3455 2594
2323 3467 2890
2334 3478 3189
2346 3489 3489
2005 625 625
2016 635 893
2028 644 1177
2039 652 1468
2051 660 1764
2062 668 2062
2069 676 2356
2076 685 2652
2085 694 2949
2070 956 703
2084 954 954
2096 962 1239
2107 968 1531
2119 973 1829
2130 975 2130
2132 981 2424
2136 988 2718
2142 996 3013
2139 1302 790
2153 1307 1037
2165 1315 1315
2177 1319 1602
2190 1319 1898
2202 1313 2202
2199 1313 2494
2198 1317 2786
2200 1322 3080
2212 1654 886
2225 1663 1127
2237 1673 1399
2247 1685 1685
2262 1684 1972
2275 1672 2275
2267 1666 2567
2262 1665 2857
2260 1666 3148
2289 2010 979
2304 2021 1207
2316 2032 1476
2323 2043 1767
2332 2053 2053
2348 2044 2349
2337 2033 2640
2328 2027 2929
2324 2024 3219
2368 2368 1083
2384 2384 1298
2398 2398 1547
2410 2410 1822
2418 2418 2117
2418 2419 2419
2410 2410 2714
2400 2400 3003
2394 2394 3292
2445 2721 1189
2456 2736 1396
2466 2751 1635
2474 2765 1900
2480 2776 2185
2484 2784 2484
2493 2793 2793
2485 2783 3081
2478 2774 3367
2524 3074 1299
2532 3089 1497
2538 3103 1728
2543 3116 1983
2547 3128 2259
2551 3139 2551
2562 3150 2856
2573 3161 3161
2567 3151 3445
2608 3428 1412
2613 3441 1602
2616 3454 1825
2618 3467 2072
2621 3480 2340
2624 3491 2624
2635 3502 2923
2647 3514 3223
2659 3525 3525
2326 685 685
2338 695 944
2349 704 1222
2361 713 1509
2372 722 1801
2383 730 2097
2394 738 2394
2402 746 2689
2410 755 2985
2391 1005 760
2404 1001 1001
2416 1009 1280
2427 1017 1569
2439 1024 1864
2451 1030 2161
2462 1034 2462
2465 1041 2755
2470 1049 3049
2458 1345 845
2471 1347 1081
2484 1352 1352
2496 1358 1638
2508 1362 1931
2520 1364 2229
2532 1362 2532
2531 1365 2824
2532 1370 3116
2528 1694 937
2542 1700 1169
2554 1708 1436
2566 1719 1719
2578 1722 2005
2592 1720 2300
2604 1712 2604
2598 1710 2894
2595 1711 3185
2602 2046 1035
2616 2056 1263
2628 2066 1524
2639 2077 1803
2649 2089 2089
2664 2089 2375
2677 2076 2678
2668 2069 2967
2661 2067 3256
2680 2402 1131
2694 2413 1343
2708 2424 1593
2719 2435 1876
2726 2447 2171
2735 2457 2457
2751 2450 2751
2741 2440 3041
2732 2434 3328
2759 2759 1237
2774 2774 1442
2789 2789 1680
2802 2802 1943
2813 2813 2226
2820 2821 2522
2822 2823 2823
2816 2816 3115
2809 2809 3403
2836 3112 1345
2847 3126 1543
2857 3140 1772
2867 3154 2026
2875 3166 2301
2883 3177 2591
2890 3185 2890
2900 3195 3195
2894 3187 3480
2916 3465 1456
2923 3478 1646
2930 3491 1868
2937 3504 2114
2943 3516 2381
2950 3528 2664
2958 3538 2958
2970 3550 3259
2982 3561 3561
2648 748 748
2659 758 998
2671 767 1270
2682 776 1552
2693 785 1842
2705 793 2135
2716 802 2430
2727 810 2727
2735 818 3022
2712 1058 821
2725 1051 1051
2736 1060 1325
2747 1069 1610
2759 1077 1901
2770 1084 2196
2782 1091 2494
2793 1097 2793
2798 1104 3086
2777 1392 902
2791 1391 1130
2803 1393 1393
2815 1400 1676
2827 1407 1966
2839 1411 2261
2850 1415 2560
2862 1416 2862
2862 1420 3153
2847 1736 992
2860 1739 1216
2872 1745 1475
2884 1755 1755
2896 1760 2040
2908 1762 2331
2921 1761 2629
2932 1757 2932
2928 1758 3222
2918 2085 1087
2931 2092 1308
2944 2101 1562
2955 2112 1838
2966 2124 2124
2979 2127 2409
2992 2124 2702
3005 2114 3005
2997 2111 3293
2993 2438 1186
3006 2447 1401
3019 2458 1653
3030 2469 1925
3040 2481 2208
3051 2493 2493
3065 2494 2779
3079 2483 3079
3069 2476 3366
3071 2793 1285
3085 2804 1486
3098 2815 1722
3111 2825 1987
3121 2837 2278
3128 2850 2575
3137 2860 2861
3153 2857 3153
3145 2849 3440
3150 3150 1394
3164 3164 1590
3178 3178 1817
3192 3191 2070
3204 3204 2344
3214 3214 2632
3222 3222 2929
3226 3226 3226
3224 3224 3516
3226 3502 1502
3237 3515 1692
3248 3528 1912
3257 3541 2158
3267 3554 2424
3277 3565 2706
3286 3576 2999
3296 3585 3296
3308 3596 3596
2970 814 814
2981 823 1055
2992 832 1320
3004 841 1598
3015 850 1884
3026 859 2174
3038 868 2468
3049 876 2763
3060 884 3060
3033 1114 884
3045 1105 1105
3056 1114 1373
3068 1123 1654
3079 1132 1942
3091 1140 2234
3102 1148 2529
3113 1155 2826
3125 1162 3125
3098 1441 963
3110 1437 1182
3123 1437 1437
3134 1445 1717
3146 1453 2005
3157 1459 2297
3169 1465 2592
3180 1470 2891
3192 1473 3192
3165 1780 1049
3178 1782 1266
3190 1785 1518
3202 1792 1792
3214 1799 2076
3226 1804 2366
3237 1807 2660
3249 1808 2958
3261 1806 3261
3235 2126 1142
3248 2131 1356
3260 2138 1604
3272 2147 1875
3283 2159 2159
3295 2164 2443
3307 2165 2733
3320 2163 3029
3332 2157 3332
3308 2477 1241
3321 2484 1451
3333 2493 1695
3345 2503 1962
3356 2516 2242
3367 2529 2529
3379 2531 2812
3392 2529 3103
3405 2520 3405
3383 2829 1340
3396 2838 1543
3408 2848 1783
3420 2860 2050
3431 2872 2329
3441 2885 2612
3452 2897 2898
3465 2899 3181
3479 2891 3479
3461 3184 1442
3474 3195 1634
3487 3205 1858
3500 3215 2108
3511 3226 2385
3521 3239 2682
3529 3253 2979
3540 3264 3264
3554 3264 3554
3541 3541 1551
3554 3554 1740
3567 3567 1959
3580 3580 2203
3592 3592 2468
3604 3604 2748
3614 3614 3040
3623 3623 3336
3629 3629 3629
