Postproduction/IWLTBAP - Humble/LUTs by IWLTBAP (3DL)/UTILITY/Generic Rec.709 to LOG/U-9090-RTL.3dl
# Copyright: (C) Copyright 2010-2018 by IWLTBAP SAS
# Cannot be resold, shared or otherwise redistributed
# Website: https://luts.iwltbap.com
0 256 512 768 1023
402 402 402
391 391 993
404 404 1588
423 423 2186
444 444 2785
557 1121 557
578 1143 1143
589 1148 1725
606 1163 2316
624 1182 2910
765 1834 765
785 1857 1299
805 1879 1879
819 1890 2459
836 1906 3046
992 2546 992
1011 2569 1483
1031 2592 2037
1050 2615 2615
1064 2628 3193
1229 3259 1229
1247 3282 1683
1266 3305 2211
1284 3327 2772
1303 3350 3350
1041 474 474
1065 481 1065
1072 493 1655
1088 510 2250
1107 530 2847
1194 1194 640
1208 1209 1209
1185 1185 1799
1185 1185 2386
1196 1196 2977
1349 1903 840
1342 1932 1342
1362 1954 1954
1360 1943 2531
1368 1947 3114
1530 2613 1062
1514 2642 1514
1534 2665 2092
1556 2687 2687
1563 2685 3261
1729 3324 1294
1709 3350 1709
1729 3373 2256
1750 3396 2831
1771 3419 3419
1683 569 569
1706 587 1135
1729 601 1729
1742 617 2320
1759 635 2914
1821 1262 740
1845 1280 1280
1872 1270 1873
1863 1267 2457
1868 1277 3044
1977 1977 931
2006 2006 1422
2014 2016 2016
1993 1993 2603
1985 1985 3184
2133 2684 1144
2144 2714 1592
2145 2738 2145
2166 2760 2760
2158 2743 3331
2306 3392 1370
2306 3419 1784
2301 3444 2301
2323 3467 2890
2346 3489 3489
2326 685 685
2349 704 1222
2372 722 1801
2394 738 2394
2410 755 2985
2458 1345 845
2484 1352 1352
2508 1362 1931
2532 1362 2532
2532 1370 3116
2602 2046 1035
2628 2066 1524
2649 2089 2089
2677 2076 2678
2661 2067 3256
2759 2759 1237
2789 2789 1680
2813 2813 2226
2822 2823 2823
2809 2809 3403
2916 3465 1456
2930 3491 1868
2943 3516 2381
2958 3538 2958
2982 3561 3561
2970 814 814
2992 832 1320
3015 850 1884
3038 868 2468
3060 884 3060
3098 1441 963
3123 1437 1437
3146 1453 2005
3169 1465 2592
3192 1473 3192
3235 2126 1142
3260 2138 1604
3283 2159 2159
3307 2165 2733
3332 2157 3332
3383 2829 1340
3408 2848 1783
3431 2872 2329
3452 2897 2898
3479 2891 3479
3541 3541 1551
3567 3567 1959
3592 3592 2468
3614 3614 3040
3629 3629 3629
