Postproduction/IWLTBAP - Humble/LUTs by IWLTBAP (3DL)/UTILITY/Generic Rec.709 to LOG/U-9091-RTL.3dl
# Copyright: (C) Copyright 2010-2018 by IWLTBAP SAS
# Cannot be resold, shared or otherwise redistributed
# Website: https://luts.iwltbap.com
0 256 512 768 1023
193 193 193
438 454 1931
875 859 2529
1148 1160 2891
1285 1285 3629
682 1839 670
1052 1770 1774
1457 1750 2381
1598 1762 2782
1594 1778 3613
1205 2361 1188
1526 2333 1766
1670 2288 2296
1839 2268 2750
1678 2296 3621
1582 2762 1594
1726 2730 1863
1895 2722 2276
1903 2718 2746
1393 2866 3665
1654 3517 1654
1682 3501 1855
1518 3525 2200
1180 3585 2802
48 3758 3758
2116 345 329
1851 703 1851
1526 1036 2477
1514 1237 2874
1578 1345 3629
1790 1758 719
1758 1754 1747
1778 1774 2365
1778 1782 2786
1782 1794 3597
1594 2353 1220
1774 2333 1795
1891 2304 2300
1983 2284 2746
1831 2268 3613
1730 2750 1570
1867 2730 1859
2003 2718 2280
1999 2734 2734
1534 2846 3661
1791 3497 1638
1823 3501 1827
1686 3541 2176
1333 3597 2774
92 3774 3758
2762 618 626
2585 1124 1634
2409 1293 2401
2148 1441 2834
2168 1470 3621
2610 1534 867
2429 1738 1738
2333 1803 2329
2216 1839 2766
2252 1819 3581
2304 2304 1244
2304 2296 1786
2304 2296 2304
2288 2296 2734
2264 2264 3621
2160 2730 1582
2228 2726 1883
2272 2730 2288
2256 2734 2734
1955 2790 3673
2224 3509 1622
2252 3537 1831
2160 3573 2160
1770 3637 2718
1108 3774 3774
3144 907 903
2939 1497 1726
2911 1570 2252
2778 1626 2790
2866 1610 3597
3047 1437 1056
2871 1726 1742
2806 1887 2264
2762 1887 2754
2891 1851 3597
2879 2148 1361
2786 2216 1811
2730 2296 2288
2734 2288 2726
2891 2236 3621
2714 2718 1594
2730 2718 1883
2718 2730 2272
2734 2734 2730
2686 2702 3677
2882 3585 1638
2882 3601 1823
2846 3641 2160
2638 3698 2642
2204 3790 3778
3549 1108 1092
3425 1574 1742
3372 1742 2240
3376 1767 2750
3581 1686 3581
3501 1457 1212
3409 1762 1770
3352 1951 2268
3360 1951 2762
3597 1871 3597
3445 2088 1437
3384 2200 1823
3348 2272 2288
3376 2256 2762
3653 2176 3637
3389 2734 1610
3397 2774 1871
3401 2774 2268
3509 2714 2730
3681 2638 3681
3710 3694 1590
3726 3710 1758
3758 3726 2112
3774 3774 2622
3790 3790 3806
