Postproduction/IWLTBAP - Humble/LUTs by IWLTBAP (3DL)/UTILITY/Generic Rec.709 to LOG/U-9999-RTL.3dl
# Copyright: (C) Copyright 2010-2018 by IWLTBAP SAS
# Cannot be resold, shared or otherwise redistributed
# Website: https://luts.iwltbap.com
0 64 128 192 256 320 384 448 512 576 640 704 768 832 896 960 1023
501 501 501
533 533 760
565 565 999
597 597 1209
628 628 1391
660 660 1548
691 691 1687
722 722 1818
752 752 1951
782 782 2094
812 812 2253
840 840 2429
869 869 2618
897 897 2819
924 924 3028
950 950 3244
976 976 3465
533 760 533
535 761 761
565 790 999
597 820 1209
628 849 1391
660 878 1548
691 907 1687
722 934 1818
752 961 1951
782 988 2094
812 1014 2253
840 1039 2429
869 1064 2618
897 1088 2819
924 1111 3028
950 1134 3244
976 1157 3465
565 999 565
565 999 790
567 1001 1001
597 1025 1209
628 1051 1391
660 1076 1548
691 1101 1687
722 1125 1818
752 1149 1951
782 1172 2094
812 1194 2253
840 1216 2429
869 1237 2618
897 1258 2819
924 1278 3028
950 1297 3244
976 1317 3465
597 1209 597
597 1209 820
597 1209 1025
600 1212 1212
628 1232 1391
660 1254 1548
691 1275 1687
722 1295 1818
752 1315 1951
782 1335 2094
812 1354 2253
840 1372 2429
869 1390 2618
897 1408 2819
924 1425 3028
950 1441 3244
976 1458 3465
628 1391 628
628 1391 849
628 1391 1051
628 1391 1232
632 1394 1394
660 1410 1548
691 1428 1687
722 1446 1818
752 1463 1951
782 1479 2094
812 1495 2253
840 1511 2429
869 1526 2618
897 1541 2819
924 1556 3028
950 1571 3244
976 1585 3465
660 1548 660
660 1548 878
660 1548 1076
660 1548 1254
660 1548 1410
664 1551 1551
691 1564 1687
722 1579 1818
752 1594 1951
782 1608 2094
812 1622 2253
840 1636 2429
869 1650 2618
897 1664 2819
924 1677 3028
950 1690 3244
976 1704 3465
691 1687 691
691 1687 907
691 1687 1101
691 1687 1275
691 1687 1428
691 1687 1564
696 1690 1690
722 1701 1818
752 1715 1951
782 1728 2094
812 1741 2253
840 1754 2429
869 1768 2618
897 1781 2819
924 1794 3028
950 1807 3244
976 1821 3465
722 1818 722
722 1818 934
722 1818 1125
722 1818 1295
722 1818 1446
722 1818 1579
722 1818 1701
726 1820 1820
752 1832 1951
782 1845 2094
812 1858 2253
840 1872 2429
869 1885 2618
897 1899 2819
924 1913 3028
950 1927 3244
976 1942 3465
752 1951 752
752 1951 961
752 1951 1149
752 1951 1315
752 1951 1463
752 1951 1594
752 1951 1715
752 1951 1832
757 1953 1953
782 1965 2094
812 1979 2253
840 1994 2429
869 2009 2618
897 2024 2819
924 2040 3028
950 2056 3244
976 2072 3465
782 2094 782
782 2094 988
782 2094 1172
782 2094 1335
782 2094 1479
782 2094 1608
782 2094 1728
782 2094 1845
782 2094 1965
787 2096 2096
812 2110 2253
840 2127 2429
869 2144 2618
897 2161 2819
924 2179 3028
950 2197 3244
976 2215 3465
812 2253 812
812 2253 1014
812 2253 1194
812 2253 1354
812 2253 1495
812 2253 1622
812 2253 1741
812 2253 1858
812 2253 1979
812 2253 2110
816 2256 2256
840 2272 2429
869 2291 2618
897 2311 2819
924 2330 3028
950 2350 3244
976 2371 3465
840 2429 840
840 2429 1039
840 2429 1216
840 2429 1372
840 2429 1511
840 2429 1636
840 2429 1754
840 2429 1872
840 2429 1994
840 2429 2127
840 2429 2272
845 2432 2432
869 2450 2618
897 2471 2819
924 2492 3028
950 2514 3244
976 2536 3465
869 2618 869
869 2618 1064
869 2618 1237
869 2618 1390
869 2618 1526
869 2618 1650
869 2618 1768
869 2618 1885
869 2618 2009
869 2618 2144
869 2618 2291
869 2618 2450
872 2621 2621
897 2641 2819
924 2663 3028
950 2687 3244
976 2710 3465
897 2819 897
897 2819 1088
897 2819 1258
897 2819 1408
897 2819 1541
897 2819 1664
897 2819 1781
897 2819 1899
897 2819 2024
897 2819 2161
897 2819 2311
897 2819 2471
897 2819 2641
900 2821 2821
924 2843 3028
950 2867 3244
976 2891 3465
924 3028 924
924 3028 1111
924 3028 1278
924 3028 1425
924 3028 1556
924 3028 1677
924 3028 1794
924 3028 1913
924 3028 2040
924 3028 2179
924 3028 2330
924 3028 2492
924 3028 2663
924 3028 2843
926 3030 3030
950 3054 3244
976 3079 3465
950 3244 950
950 3244 1134
950 3244 1297
950 3244 1441
950 3244 1571
950 3244 1690
950 3244 1807
950 3244 1927
950 3244 2056
950 3244 2197
950 3244 2350
950 3244 2514
950 3244 2687
950 3244 2867
950 3244 3054
952 3245 3245
976 3270 3465
976 3465 976
976 3465 1157
976 3465 1317
976 3465 1458
976 3465 1585
976 3465 1704
976 3465 1821
976 3465 1942
976 3465 2072
976 3465 2215
976 3465 2371
976 3465 2536
976 3465 2710
976 3465 2891
976 3465 3079
976 3465 3270
976 3465 3465
760 533 533
761 535 761
790 565 999
820 597 1209
849 628 1391
878 660 1548
907 691 1687
934 722 1818
961 752 1951
988 782 2094
1014 812 2253
1039 840 2429
1064 869 2618
1088 897 2819
1111 924 3028
1134 950 3244
1157 976 3465
761 761 535
790 790 790
818 818 1024
848 848 1230
877 877 1409
905 905 1563
933 933 1701
960 960 1831
987 987 1964
1012 1012 2109
1038 1038 2271
1062 1062 2449
1087 1087 2640
1110 1110 2842
1133 1133 3052
1156 1156 3269
1178 1178 3491
790 999 565
818 1024 818
822 1027 1027
849 1051 1231
878 1076 1410
906 1101 1564
934 1125 1701
961 1149 1832
988 1172 1965
1014 1194 2110
1039 1216 2272
1063 1237 2450
1088 1258 2641
1111 1278 2843
1134 1298 3053
1156 1316 3270
1179 1335 3492
820 1209 597
848 1230 848
849 1231 1051
852 1234 1234
878 1253 1410
906 1275 1564
934 1295 1701
961 1315 1832
988 1335 1965
1014 1354 2110
1039 1373 2272
1063 1390 2450
1088 1408 2641
1111 1425 2843
1134 1441 3053
1156 1458 3270
1179 1473 3492
849 1391 628
877 1409 877
878 1410 1076
878 1410 1253
882 1412 1412
906 1428 1564
934 1445 1701
961 1462 1832
988 1479 1965
1014 1495 2110
1039 1511 2272
1063 1526 2450
1088 1541 2641
1111 1556 2843
1134 1571 3053
1156 1585 3270
1179 1599 3492
878 1548 660
905 1563 905
906 1564 1101
906 1564 1275
906 1564 1428
910 1566 1566
934 1579 1701
961 1594 1832
988 1608 1965
1014 1622 2110
1039 1636 2272
1063 1650 2450
1088 1664 2641
1111 1677 2843
1134 1690 3053
1156 1704 3270
1179 1717 3492
907 1687 691
933 1701 933
934 1701 1125
934 1701 1295
934 1701 1445
934 1701 1579
938 1703 1703
961 1715 1832
988 1728 1965
1014 1741 2110
1039 1754 2272
1063 1768 2450
1088 1781 2641
1111 1794 2843
1134 1807 3053
1156 1821 3270
1179 1834 3492
934 1818 722
960 1831 960
961 1832 1149
961 1832 1315
961 1832 1462
961 1832 1594
961 1832 1715
966 1834 1834
988 1845 1965
1014 1858 2110
1039 1872 2272
1063 1885 2450
1088 1899 2641
1111 1913 2843
1134 1927 3053
1156 1942 3270
1179 1956 3492
961 1951 752
987 1964 987
988 1965 1172
988 1965 1335
988 1965 1479
988 1965 1608
988 1965 1728
988 1965 1845
992 1967 1967
1014 1979 2110
1039 1994 2272
1063 2009 2450
1088 2024 2641
1111 2040 2843
1134 2056 3053
1156 2072 3270
1179 2089 3492
988 2094 782
1012 2109 1012
1014 2110 1194
1014 2110 1354
1014 2110 1495
1014 2110 1622
1014 2110 1741
1014 2110 1858
1014 2110 1979
1018 2113 2113
1039 2127 2272
1063 2144 2450
1088 2161 2641
1111 2179 2843
1134 2197 3053
1156 2216 3270
1179 2234 3492
1014 2253 812
1038 2271 1038
1039 2272 1216
1039 2272 1373
1039 2272 1511
1039 2272 1636
1039 2272 1754
1039 2272 1872
1039 2272 1994
1039 2272 2127
1043 2275 2275
1063 2291 2450
1088 2311 2641
1111 2330 2843
1134 2350 3053
1156 2371 3270
1179 2391 3492
1039 2429 840
1062 2449 1062
1063 2450 1237
1063 2450 1390
1063 2450 1526
1063 2450 1650
1063 2450 1768
1063 2450 1885
1063 2450 2009
1063 2450 2144
1063 2450 2291
1067 2453 2453
1088 2471 2641
1111 2492 2843
1134 2514 3053
1156 2536 3270
1179 2558 3492
1064 2618 869
1087 2640 1087
1088 2641 1258
1088 2641 1408
1088 2641 1541
1088 2641 1664
1088 2641 1781
1088 2641 1899
1088 2641 2024
1088 2641 2161
1088 2641 2311
1088 2641 2471
1091 2644 2644
1111 2664 2843
1134 2687 3053
1156 2710 3270
1179 2734 3492
1088 2819 897
1110 2842 1110
1111 2843 1278
1111 2843 1425
1111 2843 1556
1111 2843 1677
1111 2843 1794
1111 2843 1913
1111 2843 2040
1111 2843 2179
1111 2843 2330
1111 2843 2492
1111 2843 2664
1114 2845 2845
1134 2867 3053
1156 2891 3270
1179 2916 3492
1111 3028 924
1133 3052 1133
1134 3053 1298
1134 3053 1441
1134 3053 1571
1134 3053 1690
1134 3053 1807
1134 3053 1927
1134 3053 2056
1134 3053 2197
1134 3053 2350
1134 3053 2514
1134 3053 2687
1134 3053 2867
1136 3055 3055
1156 3079 3270
1179 3104 3492
1134 3244 950
1156 3269 1156
1156 3270 1316
1156 3270 1458
1156 3270 1585
1156 3270 1704
1156 3270 1821
1156 3270 1942
1156 3270 2072
1156 3270 2216
1156 3270 2371
1156 3270 2536
1156 3270 2710
1156 3270 2891
1156 3270 3079
1157 3271 3271
1179 3297 3492
1157 3465 976
1178 3491 1178
1179 3492 1335
1179 3492 1473
1179 3492 1599
1179 3492 1717
1179 3492 1834
1179 3492 1956
1179 3492 2089
1179 3492 2234
1179 3492 2391
1179 3492 2558
1179 3492 2734
1179 3492 2916
1179 3492 3104
1179 3492 3297
1179 3492 3492
999 565 565
999 565 790
1001 567 1001
1025 597 1209
1051 628 1391
1076 660 1548
1101 691 1687
1125 722 1818
1149 752 1951
1172 782 2094
1194 812 2253
1216 840 2429
1237 869 2618
1258 897 2819
1278 924 3028
1297 950 3244
1317 976 3465
999 790 565
1024 818 818
1027 822 1027
1051 849 1231
1076 878 1410
1101 906 1564
1125 934 1701
1149 961 1832
1172 988 1965
1194 1014 2110
1216 1039 2272
1237 1063 2450
1258 1088 2641
1278 1111 2843
1298 1134 3053
1316 1156 3270
1335 1179 3492
1001 1001 567
1027 1027 822
1050 1050 1050
1074 1074 1252
1099 1099 1426
1123 1123 1577
1147 1147 1714
1170 1170 1844
1192 1192 1978
1214 1214 2125
1235 1235 2290
1256 1256 2469
1276 1276 2662
1296 1296 2865
1315 1315 3077
1333 1333 3294
1351 1351 3516
1025 1209 597
1051 1231 849
1074 1252 1074
1079 1256 1256
1101 1275 1428
1125 1295 1579
1148 1315 1715
1172 1335 1845
1194 1354 1979
1216 1372 2127
1237 1390 2291
1258 1408 2471
1278 1425 2664
1297 1441 2867
1316 1458 3079
1335 1473 3296
1353 1489 3518
1051 1391 628
1076 1410 878
1099 1426 1099
1101 1428 1275
1104 1430 1430
1125 1445 1579
1148 1462 1715
1172 1479 1845
1194 1495 1979
1216 1511 2127
1237 1526 2291
1258 1541 2471
1278 1556 2664
1297 1571 2867
1316 1585 3079
1335 1599 3296
1353 1612 3518
1076 1548 660
1101 1564 906
1123 1577 1123
1125 1579 1295
1125 1579 1445
1128 1581 1581
1148 1594 1715
1172 1608 1845
1194 1622 1979
1216 1636 2127
1237 1650 2291
1258 1664 2471
1278 1677 2664
1297 1690 2867
1316 1704 3079
1335 1717 3296
1353 1730 3518
1101 1687 691
1125 1701 934
1147 1714 1147
1148 1715 1315
1148 1715 1462
1148 1715 1594
1152 1717 1717
1172 1728 1845
1194 1741 1979
1216 1754 2127
1237 1768 2291
1258 1781 2471
1278 1794 2664
1297 1807 2867
1316 1821 3079
1335 1834 3296
1353 1848 3518
1125 1818 722
1149 1832 961
1170 1844 1170
1172 1845 1335
1172 1845 1479
1172 1845 1608
1172 1845 1728
1175 1847 1847
1194 1858 1979
1216 1872 2127
1237 1885 2291
1258 1899 2471
1278 1913 2664
1297 1927 2867
1316 1942 3079
1335 1956 3296
1353 1971 3518
1149 1951 752
1172 1965 988
1192 1978 1192
1194 1979 1354
1194 1979 1495
1194 1979 1622
1194 1979 1741
1194 1979 1858
1197 1982 1982
1216 1994 2127
1237 2009 2291
1258 2024 2471
1278 2040 2664
1297 2056 2867
1316 2072 3079
1335 2089 3296
1353 2106 3518
1172 2094 782
1194 2110 1014
1214 2125 1214
1216 2127 1372
1216 2127 1511
1216 2127 1636
1216 2127 1754
1216 2127 1872
1216 2127 1994
1219 2129 2129
1237 2144 2291
1258 2161 2471
1278 2179 2664
1297 2197 2867
1316 2216 3079
1335 2234 3296
1353 2254 3518
1194 2253 812
1216 2272 1039
1235 2290 1235
1237 2291 1390
1237 2291 1526
1237 2291 1650
1237 2291 1768
1237 2291 1885
1237 2291 2009
1237 2291 2144
1240 2294 2294
1258 2311 2471
1278 2330 2664
1297 2350 2867
1316 2371 3079
1335 2391 3296
1353 2412 3518
1216 2429 840
1237 2450 1063
1256 2469 1256
1258 2471 1408
1258 2471 1541
1258 2471 1664
1258 2471 1781
1258 2471 1899
1258 2471 2024
1258 2471 2161
1258 2471 2311
1261 2474 2474
1278 2492 2664
1297 2514 2867
1316 2536 3079
1335 2558 3296
1353 2581 3518
1237 2618 869
1258 2641 1088
1276 2662 1276
1278 2664 1425
1278 2664 1556
1278 2664 1677
1278 2664 1794
1278 2664 1913
1278 2664 2040
1278 2664 2179
1278 2664 2330
1278 2664 2492
1280 2667 2667
1297 2687 2867
1316 2710 3079
1335 2734 3296
1353 2757 3518
1258 2819 897
1278 2843 1111
1296 2865 1296
1297 2867 1441
1297 2867 1571
1297 2867 1690
1297 2867 1807
1297 2867 1927
1297 2867 2056
1297 2867 2197
1297 2867 2350
1297 2867 2514
1297 2867 2687
1299 2870 2870
1316 2891 3079
1335 2916 3296
1353 2941 3518
1278 3028 924
1298 3053 1134
1315 3077 1315
1316 3079 1458
1316 3079 1585
1316 3079 1704
1316 3079 1821
1316 3079 1942
1316 3079 2072
1316 3079 2216
1316 3079 2371
1316 3079 2536
1316 3079 2710
1316 3079 2891
1318 3081 3081
1335 3104 3296
1353 3130 3518
1297 3244 950
1316 3270 1156
1333 3294 1333
1335 3296 1473
1335 3296 1599
1335 3296 1717
1335 3296 1834
1335 3296 1956
1335 3296 2089
1335 3296 2234
1335 3296 2391
1335 3296 2558
1335 3296 2734
1335 3296 2916
1335 3296 3104
1336 3297 3297
1353 3323 3518
1317 3465 976
1335 3492 1179
1351 3516 1351
1353 3518 1489
1353 3518 1612
1353 3518 1730
1353 3518 1848
1353 3518 1971
1353 3518 2106
1353 3518 2254
1353 3518 2412
1353 3518 2581
1353 3518 2757
1353 3518 2941
1353 3518 3130
1353 3518 3323
1353 3518 3518
1209 597 597
1209 597 820
1209 597 1025
1212 600 1212
1232 628 1391
1254 660 1548
1275 691 1687
1295 722 1818
1315 752 1951
1335 782 2094
1354 812 2253
1372 840 2429
1390 869 2618
1408 897 2819
1425 924 3028
1441 950 3244
1458 976 3465
1209 820 597
1230 848 848
1231 849 1051
1234 852 1234
1253 878 1410
1275 906 1564
1295 934 1701
1315 961 1832
1335 988 1965
1354 1014 2110
1373 1039 2272
1390 1063 2450
1408 1088 2641
1425 1111 2843
1441 1134 3053
1458 1156 3270
