Postproduction/IWLTBAP - Humble/LUTs by IWLTBAP (3DL)/UTILITY/Generic Rec.709 to LOG/U-9999-RTL.3dl
# Copyright: (C) Copyright 2010-2018 by IWLTBAP SAS
# Cannot be resold, shared or otherwise redistributed
# Website: https://luts.iwltbap.com
0 128 256 384 512 640 768 896 1023
501 501 501
565 565 999
628 628 1391
691 691 1687
752 752 1951
812 812 2253
869 869 2618
924 924 3028
976 976 3465
565 999 565
567 1001 1001
628 1051 1391
691 1101 1687
752 1149 1951
812 1194 2253
869 1237 2618
924 1278 3028
976 1317 3465
628 1391 628
628 1391 1051
632 1394 1394
691 1428 1687
752 1463 1951
812 1495 2253
869 1526 2618
924 1556 3028
976 1585 3465
691 1687 691
691 1687 1101
691 1687 1428
696 1690 1690
752 1715 1951
812 1741 2253
869 1768 2618
924 1794 3028
976 1821 3465
752 1951 752
752 1951 1149
752 1951 1463
752 1951 1715
757 1953 1953
812 1979 2253
869 2009 2618
924 2040 3028
976 2072 3465
812 2253 812
812 2253 1194
812 2253 1495
812 2253 1741
812 2253 1979
816 2256 2256
869 2291 2618
924 2330 3028
976 2371 3465
869 2618 869
869 2618 1237
869 2618 1526
869 2618 1768
869 2618 2009
869 2618 2291
872 2621 2621
924 2663 3028
976 2710 3465
924 3028 924
924 3028 1278
924 3028 1556
924 3028 1794
924 3028 2040
924 3028 2330
924 3028 2663
926 3030 3030
976 3079 3465
976 3465 976
976 3465 1317
976 3465 1585
976 3465 1821
976 3465 2072
976 3465 2371
976 3465 2710
976 3465 3079
976 3465 3465
999 565 565
1001 567 1001
1051 628 1391
1101 691 1687
1149 752 1951
1194 812 2253
1237 869 2618
1278 924 3028
1317 976 3465
1001 1001 567
1050 1050 1050
1099 1099 1426
1147 1147 1714
1192 1192 1978
1235 1235 2290
1276 1276 2662
1315 1315 3077
1351 1351 3516
1051 1391 628
1099 1426 1099
1104 1430 1430
1148 1462 1715
1194 1495 1979
1237 1526 2291
1278 1556 2664
1316 1585 3079
1353 1612 3518
1101 1687 691
1147 1714 1147
1148 1715 1462
1152 1717 1717
1194 1741 1979
1237 1768 2291
1278 1794 2664
1316 1821 3079
1353 1848 3518
1149 1951 752
1192 1978 1192
1194 1979 1495
1194 1979 1741
1197 1982 1982
1237 2009 2291
1278 2040 2664
1316 2072 3079
1353 2106 3518
1194 2253 812
1235 2290 1235
1237 2291 1526
1237 2291 1768
1237 2291 2009
1240 2294 2294
1278 2330 2664
1316 2371 3079
1353 2412 3518
1237 2618 869
1276 2662 1276
1278 2664 1556
1278 2664 1794
1278 2664 2040
1278 2664 2330
1280 2667 2667
1316 2710 3079
1353 2757 3518
1278 3028 924
1315 3077 1315
1316 3079 1585
1316 3079 1821
1316 3079 2072
1316 3079 2371
1316 3079 2710
1318 3081 3081
1353 3130 3518
1317 3465 976
1351 3516 1351
1353 3518 1612
1353 3518 1848
1353 3518 2106
1353 3518 2412
1353 3518 2757
1353 3518 3130
1353 3518 3518
1391 628 628
1391 628 1051
1394 632 1394
1428 691 1687
1463 752 1951
1495 812 2253
1526 869 2618
1556 924 3028
1585 976 3465
1391 1051 628
1426 1099 1099
1430 1104 1430
1462 1148 1715
1495 1194 1979
1526 1237 2291
1556 1278 2664
1585 1316 3079
1612 1353 3518
1394 1394 632
1430 1430 1104
1462 1462 1462
1493 1493 1739
1524 1524 2007
1554 1554 2328
1583 1583 2707
1611 1611 3126
1638 1638 3569
1428 1687 691
1462 1715 1148
1493 1739 1493
1497 1743 1743
1526 1768 2009
1556 1794 2331
1585 1821 2710
1612 1848 3130
1639 1875 3572
1463 1951 752
1495 1979 1194
1524 2007 1524
1526 2009 1768
1529 2011 2011
1556 2040 2331
1585 2072 2710
1612 2106 3130
1639 2142 3572
1495 2253 812
1526 2291 1237
1554 2328 1554
1556 2331 1794
1556 2331 2040
1558 2334 2334
1585 2371 2710
1612 2412 3130
1639 2455 3572
1526 2618 869
1556 2664 1278
1583 2707 1583
1585 2710 1821
1585 2710 2072
1585 2710 2371
1586 2713 2713
1612 2757 3130
1639 2805 3572
1556 3028 924
1585 3079 1316
1611 3126 1611
1612 3130 1848
1612 3130 2106
1612 3130 2412
1612 3130 2757
1614 3132 3132
1639 3181 3572
1585 3465 976
1612 3518 1353
1638 3569 1638
1639 3572 1875
1639 3572 2142
1639 3572 2455
1639 3572 2805
1639 3572 3181
1639 3572 3572
1687 691 691
1687 691 1101
1687 691 1428
1690 696 1690
1715 752 1951
1741 812 2253
1768 869 2618
1794 924 3028
1821 976 3465
1687 1101 691
1714 1147 1147
1715 1148 1462
1717 1152 1717
1741 1194 1979
1768 1237 2291
1794 1278 2664
1821 1316 3079
1848 1353 3518
1687 1428 691
1715 1462 1148
1739 1493 1493
1743 1497 1743
1768 1526 2009
1794 1556 2331
1821 1585 2710
1848 1612 3130
1875 1639 3572
1690 1690 696
1717 1717 1152
1743 1743 1497
1767 1767 1767
1792 1792 2038
1819 1819 2368
1846 1846 2754
1873 1873 3177
1902 1902 3621
1715 1951 752
1741 1979 1194
1768 2009 1526
1792 2038 1792
1796 2043 2043
1821 2072 2371
1848 2106 2757
1876 2142 3181
1904 2178 3626
1741 2253 812
1768 2291 1237
1794 2331 1556
1819 2368 1819
1821 2371 2072
1823 2374 2374
1848 2412 2757
1876 2455 3181
1904 2499 3626
1768 2618 869
1794 2664 1278
1821 2710 1585
1846 2754 1846
1848 2757 2106
1848 2757 2412
1850 2760 2760
1876 2805 3181
1904 2854 3626
1794 3028 924
1821 3079 1316
1848 3130 1612
1873 3177 1873
1876 3181 2142
1876 3181 2455
1876 3181 2805
1877 3183 3183
1904 3233 3626
1821 3465 976
1848 3518 1353
1875 3572 1639
1902 3621 1902
1904 3626 2178
1904 3626 2499
1904 3626 2854
1904 3626 3233
1904 3626 3626
1951 752 752
1951 752 1149
1951 752 1463
1951 752 1715
1953 757 1953
1979 812 2253
2009 869 2618
2040 924 3028
2072 976 3465
1951 1149 752
1978 1192 1192
1979 1194 1495
1979 1194 1741
1982 1197 1982
2009 1237 2291
2040 1278 2664
2072 1316 3079
2106 1353 3518
1951 1463 752
1979 1495 1194
2007 1524 1524
2009 1526 1768
2011 1529 2011
2040 1556 2331
2072 1585 2710
2106 1612 3130
2142 1639 3572
1951 1715 752
1979 1741 1194
2009 1768 1526
2038 1792 1792
2043 1796 2043
2072 1821 2371
2106 1848 2757
2142 1876 3181
2178 1904 3626
1953 1953 757
1982 1982 1197
2011 2011 1529
2043 2043 1796
2073 2073 2073
2104 2104 2409
2139 2139 2802
2175 2175 3229
2213 2213 3675
1979 2253 812
2009 2291 1237
2040 2331 1556
2072 2371 1821
2104 2409 2104
2109 2416 2416
2142 2455 2806
2179 2499 3233
2216 2543 3679
2009 2618 869
2040 2664 1278
2072 2710 1585
2106 2757 1848
2139 2802 2139
2142 2806 2455
2144 2809 2809
2179 2854 3233
2216 2904 3679
2040 3028 924
2072 3079 1316
2106 3130 1612
2142 3181 1876
2175 3229 2175
2179 3233 2499
2179 3233 2854
2180 3235 3235
2216 3285 3679
2072 3465 976
2106 3518 1353
2142 3572 1639
2178 3626 1904
2213 3675 2213
2216 3679 2543
2216 3679 2904
2216 3679 3285
2216 3679 3679
2253 812 812
2253 812 1194
2253 812 1495
2253 812 1741
2253 812 1979
2256 816 2256
2291 869 2618
2330 924 3028
2371 976 3465
2253 1194 812
2290 1235 1235
2291 1237 1526
2291 1237 1768
2291 1237 2009
2294 1240 2294
2330 1278 2664
2371 1316 3079
2412 1353 3518
2253 1495 812
2291 1526 1237
2328 1554 1554
2331 1556 1794
2331 1556 2040
2334 1558 2334
2371 1585 2710
2412 1612 3130
2455 1639 3572
2253 1741 812
2291 1768 1237
2331 1794 1556
2368 1819 1819
2371 1821 2072
2374 1823 2374
2412 1848 2757
2455 1876 3181
2499 1904 3626
2253 1979 812
2291 2009 1237
2331 2040 1556
2371 2072 1821
2409 2104 2104
2416 2109 2416
2455 2142 2806
2499 2179 3233
2543 2216 3679
2256 2256 816
2294 2294 1240
2334 2334 1558
2374 2374 1823
2416 2416 2109
2455 2455 2455
2496 2496 2851
2540 2540 3281
2585 2585 3729
2291 2618 869
2330 2664 1278
2371 2710 1585
2412 2757 1848
2455 2806 2142
2496 2851 2496
2502 2857 2857
2544 2904 3285
2589 2954 3733
2330 3028 924
2371 3079 1316
2412 3130 1612
2455 3181 1876
2499 3233 2179
2540 3281 2540
2544 3285 2904
2545 3288 3288
2589 3338 3733
2371 3465 976
2412 3518 1353
2455 3572 1639
2499 3626 1904
2543 3679 2216
2585 3729 2585
2589 3733 2954
2589 3733 3338
2589 3733 3733
2618 869 869
2618 869 1237
2618 869 1526
2618 869 1768
2618 869 2009
2618 869 2291
2621 872 2621
2663 924 3028
2710 976 3465
2618 1237 869
2662 1276 1276
2664 1278 1556
2664 1278 1794
2664 1278 2040
2664 1278 2330
2667 1280 2667
2710 1316 3079
2757 1353 3518
2618 1526 869
2664 1556 1278
2707 1583 1583
2710 1585 1821
2710 1585 2072
2710 1585 2371
2713 1586 2713
2757 1612 3130
2805 1639 3572
2618 1768 869
2664 1794 1278
2710 1821 1585
2754 1846 1846
2757 1848 2106
2757 1848 2412
2760 1850 2760
2805 1876 3181
2854 1904 3626
2618 2009 869
2664 2040 1278
2710 2072 1585
2757 2106 1848
2802 2139 2139
2806 2142 2455
2809 2144 2809
2854 2179 3233
2904 2216 3679
2618 2291 869
2664 2330 1278
2710 2371 1585
2757 2412 1848
2806 2455 2142
2851 2496 2496
2857 2502 2857
2904 2544 3285
2954 2589 3733
2621 2621 872
2667 2667 1280
2713 2713 1586
2760 2760 1850
2809 2809 2144
2857 2857 2502
2904 2904 2904
2951 2951 3335
3001 3001 3784
2663 3028 924
2710 3079 1316
2757 3130 1612
2805 3181 1876
2854 3233 2179
2904 3285 2544
2951 3335 2951
2956 3340 3340
3004 3391 3787
2710 3465 976
2757 3518 1353
2805 3572 1639
2854 3626 1904
2904 3679 2216
2954 3733 2589
3001 3784 3001
3004 3787 3391
3004 3787 3787
3028 924 924
3028 924 1278
3028 924 1556
3028 924 1794
3028 924 2040
3028 924 2330
3028 924 2663
3030 926 3030
3079 976 3465
3028 1278 924
3077 1315 1315
3079 1316 1585
3079 1316 1821
3079 1316 2072
3079 1316 2371
3079 1316 2710
3081 1318 3081
3130 1353 3518
3028 1556 924
3079 1585 1316
3126 1611 1611
3130 1612 1848
3130 1612 2106
3130 1612 2412
3130 1612 2757
3132 1614 3132
3181 1639 3572
3028 1794 924
3079 1821 1316
3130 1848 1612
3177 1873 1873
3181 1876 2142
3181 1876 2455
3181 1876 2805
3183 1877 3183
3233 1904 3626
3028 2040 924
3079 2072 1316
3130 2106 1612
3181 2142 1876
3229 2175 2175
3233 2179 2499
3233 2179 2854
3235 2180 3235
3285 2216 3679
3028 2330 924
3079 2371 1316
3130 2412 1612
3181 2455 1876
3233 2499 2179
3281 2540 2540
3285 2544 2904
3288 2545 3288
3338 2589 3733
3028 2663 924
3079 2710 1316
3130 2757 1612
3181 2805 1876
3233 2854 2179
3285 2904 2544
3335 2951 2951
3340 2956 3340
3391 3004 3787
3030 3030 926
3081 3081 1318
3132 3132 1614
3183 3183 1877
3235 3235 2180
3288 3288 2545
3340 3340 2956
3392 3392 3392
3442 3442 3839
3079 3465 976
3130 3518 1353
3181 3572 1639
3233 3626 1904
3285 3679 2216
3338 3733 2589
3391 3787 3004
3442 3839 3442
3444 3841 3841
3465 976 976
3465 976 1317
3465 976 1585
3465 976 1821
3465 976 2072
3465 976 2371
3465 976 2710
3465 976 3079
3465 976 3465
3465 1317 976
3516 1351 1351
3518 1353 1612
3518 1353 1848
3518 1353 2106
3518 1353 2412
3518 1353 2757
3518 1353 3130
3518 1353 3518
3465 1585 976
3518 1612 1353
3569 1638 1638
3572 1639 1875
3572 1639 2142
3572 1639 2455
3572 1639 2805
3572 1639 3181
3572 1639 3572
3465 1821 976
3518 1848 1353
3572 1875 1639
3621 1902 1902
3626 1904 2178
3626 1904 2499
3626 1904 2854
3626 1904 3233
3626 1904 3626
3465 2072 976
3518 2106 1353
3572 2142 1639
3626 2178 1904
3675 2213 2213
3679 2216 2543
3679 2216 2904
3679 2216 3285
3679 2216 3679
3465 2371 976
3518 2412 1353
3572 2455 1639
3626 2499 1904
3679 2543 2216
3729 2585 2585
3733 2589 2954
3733 2589 3338
3733 2589 3733
3465 2710 976
3518 2757 1353
3572 2805 1639
3626 2854 1904
3679 2904 2216
3733 2954 2589
3784 3001 3001
3787 3004 3391
3787 3004 3787
3465 3079 976
3518 3130 1353
3572 3181 1639
3626 3233 1904
3679 3285 2216
3733 3338 2589
3787 3391 3004
3839 3442 3442
3841 3444 3841
3465 3465 976
3518 3518 1353
3572 3572 1639
3626 3626 1904
3679 3679 2216
3733 3733 2589
3787 3787 3004
3841 3841 3444
3896 3896 3896
