Postproduction/IWLTBAP - Humble/LUTs by IWLTBAP (3DL)/UTILITY/Generic Rec.709 to LOG/U-9998-RTL.3dl
# Copyright: (C) Copyright 2010-2018 by IWLTBAP SAS
# Cannot be resold, shared or otherwise redistributed
# Website: https://luts.iwltbap.com
0 64 128 192 256 320 384 448 512 576 640 704 768 832 896 960 1023
239 239 239
268 268 494
289 289 749
307 307 992
326 326 1188
345 345 1359
364 364 1521
382 382 1686
399 399 1859
415 415 2032
432 432 2190
450 450 2326
468 468 2442
487 487 2548
506 506 2647
525 525 2742
543 543 2838
371 590 371
382 600 602
394 612 840
405 622 1069
419 636 1255
434 650 1416
450 665 1570
464 679 1727
479 693 1892
493 706 2058
507 720 2210
524 736 2340
541 753 2452
559 770 2554
577 788 2650
595 805 2742
613 823 2835
446 877 446
456 886 670
467 895 900
477 904 1121
490 916 1301
505 929 1457
520 943 1607
534 957 1759
549 970 1919
563 983 2080
578 997 2227
594 1011 2353
611 1027 2462
628 1043 2560
646 1060 2653
663 1076 2742
680 1093 2832
522 1148 522
532 1156 740
542 1164 963
552 1172 1178
565 1183 1352
579 1195 1503
593 1208 1648
607 1220 1794
620 1231 1949
633 1242 2104
645 1253 2245
659 1265 2366
673 1278 2470
688 1291 2564
703 1304 2651
717 1317 2736
731 1330 2821
619 1388 619
628 1394 831
635 1399 1045
643 1405 1252
653 1413 1419
664 1422 1564
675 1431 1702
686 1440 1842
696 1448 1990
705 1455 2138
714 1463 2273
725 1471 2388
736 1481 2487
747 1490 2576
759 1500 2660
770 1510 2741
781 1520 2822
704 1589 704
709 1591 908
714 1594 1115
719 1596 1314
726 1601 1475
734 1607 1614
742 1613 1746
751 1619 1881
758 1625 2024
765 1630 2167
773 1636 2298
782 1642 2409
792 1650 2505
801 1658 2591
812 1667 2672
822 1675 2750
832 1684 2829
767 1758 767
771 1759 966
774 1759 1167
778 1760 1361
784 1764 1517
791 1768 1652
798 1774 1781
805 1778 1913
812 1782 2051
818 1787 2191
825 1791 2318
833 1798 2427
842 1804 2520
851 1811 2604
861 1819 2683
870 1826 2759
880 1834 2836
816 1912 816
820 1912 1011
823 1912 1208
826 1912 1398
831 1915 1550
837 1919 1682
844 1923 1808
851 1927 1936
857 1931 2072
863 1934 2209
869 1938 2333
877 1944 2440
885 1950 2531
894 1957 2613
904 1964 2690
912 1971 2764
922 1978 2839
854 2059 854
858 2059 1045
860 2058 1238
863 2058 1424
868 2060 1574
874 2063 1702
881 2068 1826
887 2071 1952
893 2074 2085
899 2078 2219
906 2081 2341
914 2087 2445
922 2093 2535
931 2099 2615
940 2106 2691
949 2112 2764
958 2120 2838
889 2200 889
892 2199 1076
895 2199 1266
898 2198 1449
904 2201 1595
910 2204 1722
916 2208 1843
923 2211 1967
929 2214 2098
936 2218 2229
942 2221 2349
950 2226 2451
959 2232 2539
967 2238 2618
977 2245 2693
986 2252 2765
996 2259 2838
932 2334 932
935 2334 1116
939 2334 1303
942 2333 1482
947 2336 1626
954 2339 1751
961 2343 1870
968 2347 1992
974 2350 2120
981 2353 2250
989 2357 2368
997 2362 2468
1006 2368 2555
1015 2375 2633
1025 2382 2707
1036 2389 2778
1045 2396 2849
991 2463 991
994 2462 1171
998 2462 1355
1002 2462 1532
1008 2465 1674
1016 2469 1797
1023 2473 1914
1031 2477 2034
1038 2481 2161
1045 2484 2288
1054 2489 2405
1062 2494 2504
1072 2501 2589
1083 2508 2667
1093 2515 2739
1105 2522 2809
1115 2529 2880
1065 2588 1065
1069 2588 1243
1074 2588 1424
1079 2589 1599
1086 2592 1738
1094 2596 1860
1103 2601 1975
1111 2605 2093
1119 2609 2218
1128 2613 2343
1136 2618 2458
1147 2624 2556
1157 2631 2639
1168 2638 2716
1180 2646 2787
1191 2653 2856
1202 2661 2926
1152 2713 1152
1158 2714 1328
1163 2714 1506
1169 2715 1678
1177 2719 1815
1186 2723 1934
1195 2728 2048
1204 2732 2164
1213 2736 2286
1222 2741 2409
1231 2746 2521
1242 2752 2617
1253 2759 2700
1264 2765 2774
1276 2773 2844
1288 2781 2912
1299 2788 2979
1249 2836 1249
1255 2837 1421
1261 2838 1597
1267 2839 1764
1276 2843 1899
1285 2847 2016
1295 2852 2127
1305 2857 2241
1313 2861 2361
1323 2865 2481
1333 2870 2590
1343 2876 2684
1354 2882 2764
1366 2890 2837
1377 2896 2905
1389 2904 2971
1401 2911 3037
1350 2958 1350
1356 2958 1519
1363 2959 1690
1370 2961 1854
1378 2963 1986
1387 2968 2100
1397 2973 2209
1406 2977 2319
1416 2981 2436
1424 2985 2553
1434 2990 2660
1445 2995 2751
1455 3001 2829
1466 3008 2900
1478 3015 2966
1488 3021 3030
1500 3028 3094
1450 3074 1450
1457 3075 1615
1463 3076 1782
1469 3077 1942
1478 3080 2070
1486 3083 2181
1495 3088 2287
1505 3092 2395
1513 3095 2508
1522 3099 2622
1531 3103 2726
1541 3108 2814
1551 3114 2890
1562 3120 2959
1571 3126 3023
1582 3132 3085
1591 3138 3147
524 297 297
539 313 537
553 328 783
566 342 1020
582 358 1212
599 375 1379
615 392 1538
632 409 1700
647 425 1871
662 440 2041
677 456 2197
693 473 2331
710 491 2445
728 509 2550
746 527 2647
763 545 2741
781 563 2836
615 612 395
626 623 625
636 632 859
646 643 1085
659 655 1268
673 670 1428
687 684 1581
701 698 1736
715 712 1900
729 725 2064
743 740 2215
759 756 2344
775 772 2455
793 790 2556
810 807 2650
828 825 2742
845 842 2834
681 894 467
691 904 690
700 912 917
711 922 1137
723 933 1314
737 947 1469
751 960 1617
766 974 1768
779 987 1927
793 1000 2086
806 1013 2232
822 1028 2357
838 1043 2464
854 1059 2562
870 1075 2653
887 1091 2741
903 1106 2829
750 1162 542
760 1171 759
769 1178 979
778 1186 1192
790 1197 1364
803 1208 1513
816 1220 1656
828 1231 1800
839 1241 1953
850 1251 2105
862 1262 2245
874 1273 2364
887 1285 2467
900 1297 2559
914 1309 2646
927 1322 2729
939 1333 2812
836 1396 633
843 1400 841
849 1405 1054
856 1410 1258
864 1417 1423
874 1425 1566
883 1433 1702
892 1441 1840
900 1448 1986
909 1454 2133
917 1461 2266
927 1470 2380
937 1479 2478
947 1488 2566
958 1498 2649
968 1507 2729
979 1516 2809
907 1587 708
911 1589 910
915 1591 1116
919 1593 1313
926 1597 1472
933 1603 1609
940 1609 1741
947 1615 1875
954 1620 2016
961 1625 2158
968 1630 2288
976 1637 2398
985 1644 2493
994 1652 2579
1004 1661 2659
1013 1669 2736
1023 1677 2814
962 1751 767
966 1752 964
968 1752 1164
971 1753 1357
977 1757 1512
983 1761 1646
990 1766 1774
996 1771 1904
1002 1775 2042
1008 1779 2181
1014 1784 2307
1022 1790 2415
1030 1796 2507
1039 1804 2591
1048 1811 2669
1057 1818 2745
1066 1826 2821
1006 1903 815
1009 1903 1008
1011 1903 1203
1014 1903 1392
1019 1906 1544
1024 1910 1674
1031 1914 1800
1037 1918 1927
1043 1922 2062
1048 1925 2198
1054 1930 2322
1062 1935 2427
1069 1941 2518
1078 1948 2600
1087 1955 2676
1096 1962 2750
1105 1969 2825
1040 2049 852
1043 2049 1041
1044 2048 1233
1047 2048 1418
1052 2050 1567
1058 2054 1695
1064 2058 1818
1070 2061 1943
1076 2065 2075
1081 2068 2208
1087 2072 2330
1095 2077 2434
1103 2083 2522
1111 2090 2603
1120 2097 2678
1129 2103 2751
1138 2111 2824
1071 2189 887
1074 2189 1073
1076 2188 1261
1079 2188 1443
1084 2191 1589
1090 2194 1715
1097 2198 1836
1103 2201 1959
1109 2205 2089
1115 2208 2220
1121 2212 2339
1129 2217 2441
1137 2223 2528
1146 2230 2607
1155 2237 2682
1164 2243 2753
1174 2251 2826
1111 2324 930
1115 2324 1113
1117 2323 1299
1121 2323 1478
1126 2326 1621
1132 2329 1745
1139 2333 1864
1146 2337 1985
1152 2341 2113
1159 2345 2242
1166 2349 2359
1174 2354 2460
1183 2360 2546
1192 2367 2624
1202 2374 2697
1212 2382 2768
1222 2389 2839
1168 2454 990
1172 2454 1171
1176 2454 1354
1179 2454 1529
1185 2457 1671
1193 2461 1793
1200 2465 1910
1208 2469 2030
1215 2473 2156
1222 2477 2282
1230 2482 2398
1239 2487 2497
1249 2494 2582
1259 2501 2659
1270 2509 2731
1281 2517 2801
1291 2524 2872
1242 2581 1068
1246 2581 1245
1251 2581 1425
1256 2582 1599
1262 2585 1738
1270 2590 1858
1279 2594 1974
1287 2599 2091
1295 2604 2215
1303 2608 2340
1312 2613 2454
1322 2619 2551
1332 2625 2634
1343 2633 2710
1354 2640 2781
1365 2648 2850
1377 2656 2919
1328 2706 1157
1334 2707 1332
1338 2708 1509
1344 2709 1680
1352 2713 1816
1360 2717 1935
1369 2722 2048
1378 2727 2163
1387 2731 2285
1395 2736 2407
1404 2741 2518
1415 2747 2614
1425 2754 2696
1436 2761 2769
1448 2769 2839
1459 2776 2906
1471 2784 2974
1422 2830 1255
1428 2832 1427
1434 2833 1601
1440 2834 1768
1448 2838 1902
1457 2842 2018
1466 2847 2128
1476 2852 2241
1484 2856 2360
1493 2860 2479
1502 2865 2588
1512 2871 2680
1523 2878 2760
1534 2885 2833
1545 2892 2900
1556 2900 2966
1567 2906 3031
1520 2952 1358
1526 2952 1525
1532 2954 1695
1539 2955 1858
1546 2958 1988
1555 2963 2102
1564 2967 2210
1573 2971 2320
1582 2976 2436
1590 2980 2551
1599 2984 2657
1609 2990 2747
1619 2996 2825
1630 3002 2895
1641 3009 2961
1651 3016 3024
1662 3023 3088
1616 3068 1457
1622 3069 1621
1627 3069 1786
1633 3070 1945
1641 3073 2072
1649 3077 2182
1658 3082 2287
1667 3086 2394
1675 3089 2507
1683 3093 2620
1691 3097 2722
1700 3102 2810
1709 3107 2885
1719 3113 2953
1729 3119 3017
1739 3126 3079
1748 3131 3140
788 331 331
801 345 567
811 357 808
822 369 1041
836 385 1231
851 401 1395
866 417 1552
880 433 1711
894 448 1880
908 462 2047
922 478 2202
937 494 2333
953 511 2447
969 529 2550
986 546 2646
1004 565 2740
1021 583 2834
861 633 417
870 642 644
879 652 876
888 661 1100
900 674 1281
913 688 1439
927 702 1591
940 716 1745
954 730 1907
966 744 2070
980 759 2219
995 774 2347
1011 791 2457
1027 807 2557
1045 825 2651
1061 842 2741
1078 860 2833
919 911 488
927 920 708
936 929 934
946 938 1151
958 950 1328
971 963 1481
984 977 1628
998 990 1777
1010 1003 1934
1023 1015 2092
1036 1029 2236
1050 1043 2359
1065 1057 2465
1080 1073 2561
1094 1087 2651
1109 1102 2737
1123 1115 2823
980 1176 561
988 1183 775
996 1191 993
1004 1198 1204
1014 1207 1373
1025 1218 1520
1036 1228 1661
1047 1239 1804
1057 1248 1954
1067 1258 2105
1077 1267 2243
1088 1278 2360
1100 1289 2461
1111 1300 2552
1123 1311 2637
1134 1322 2719
1145 1333 2801
1052 1400 643
1057 1404 849
1062 1408 1060
1067 1412 1261
1074 1418 1424
1082 1425 1564
1090 1433 1699
1098 1439 1836
1105 1446 1980
1112 1452 2125
1120 1459 2258
1129 1467 2371
1138 1475 2467
1147 1484 2555
1157 1493 2636
1167 1502 2715
1177 1511 2795
1111 1583 711
1114 1585 911
1116 1586 1114
1120 1588 1310
1125 1592 1468
1132 1597 1604
1139 1603 1734
1145 1608 1867
1151 1614 2007
1157 1618 2148
1163 1624 2277
1171 1630 2387
1179 1637 2480
1188 1645 2565
1197 1653 2645
1206 1661 2722
1215 1670 2799
1159 1743 766
1161 1744 962
1163 1744 1160
1165 1745 1352
1170 1749 1505
1176 1753 1638
1182 1758 1766
1188 1762 1895
1193 1767 2032
1199 1770 2170
1205 1775 2295
1212 1781 2403
1219 1788 2494
1228 1795 2577
1236 1802 2655
1245 1810 2730
1254 1817 2806
1197 1894 812
1199 1894 1004
1201 1893 1198
1203 1894 1386
1207 1896 1536
1213 1900 1666
1219 1905 1791
1224 1909 1918
1230 1912 2052
1235 1916 2186
1241 1920 2310
1248 1926 2415
1255 1932 2505
1263 1939 2586
1272 1945 2662
1280 1953 2736
1289 1960 2810
1227 2038 849
1229 2038 1037
1230 2037 1228
1233 2038 1412
1237 2040 1559
1242 2044 1687
1248 2048 1809
1254 2051 1934
1259 2055 2065
1265 2058 2198
1271 2062 2319
1278 2068 2422
1285 2074 2510
1294 2080 2590
1302 2087 2665
1311 2094 2738
1320 2102 2811
1255 2179 885
1257 2178 1070
1259 2178 1257
1262 2178 1438
1266 2180 1583
1272 2184 1708
1278 2188 1828
1284 2192 1950
1290 2195 2080
1296 2199 2210
1302 2203 2329
1309 2208 2430
1317 2214 2517
1326 2221 2596
1335 2228 2670
1344 2235 2742
1353 2242 2814
1293 2314 929
1296 2314 1111
1298 2313 1296
1301 2314 1473
1306 2317 1616
1312 2320 1740
1319 2325 1858
1326 2329 1978
1332 2332 2106
1338 2336 2234
1345 2340 2351
1353 2346 2451
1362 2353 2537
1371 2360 2615
1381 2367 2688
1391 2374 2758
1401 2382 2829
1348 2444 991
1351 2445 1170
1355 2445 1352
1358 2446 1527
1364 2449 1668
1371 2453 1790
1379 2457 1907
1386 2462 2026
1393 2466 2151
1400 2470 2277
1408 2475 2392
1417 2481 2491
1427 2488 2576
1437 2495 2652
1447 2503 2724
1458 2511 2794
1468 2518 2864
1420 2573 1071
1424 2573 1247
1429 2574 1427
1434 2576 1599
1440 2579 1737
1448 2584 1858
1456 2588 1972
1464 2593 2089
1472 2598 2213
1480 2602 2336
1488 2607 2449
1498 2614 2546
1508 2621 2629
1518 2628 2705
1529 2636 2775
1540 2644 2844
1551 2652 2912
1505 2700 1163
1510 2701 1336
1515 2702 1512
1520 2704 1682
1527 2707 1818
1536 2712 1936
1544 2717 2048
1553 2722 2163
1561 2726 2284
1570 2731 2405
1578 2736 2515
1588 2742 2610
1598 2749 2691
1609 2757 2765
1620 2764 2834
1631 2772 2900
1642 2780 2968
1597 2825 1262
1602 2826 1433
1607 2827 1605
1613 2829 1771
1621 2832 1904
1629 2837 2019
1638 2842 2129
1647 2847 2241
1655 2851 2359
1663 2855 2477
1672 2860 2585
1681 2866 2677
1692 2873 2756
1702 2880 2828
1713 2887 2895
1724 2895 2960
1734 2902 3025
1691 2946 1365
1696 2947 1531
1702 2948 1700
1707 2949 1861
1715 2952 1991
1723 2957 2103
1732 2961 2210
1740 2966 2319
1748 2970 2434
1756 2974 2549
1764 2978 2654
1773 2984 2744
1783 2990 2820
1793 2997 2890
1803 3003 2956
1813 3010 3018
1824 3017 3082
1781 3061 1463
1787 3062 1626
1792 3062 1790
1797 3064 1947
1805 3067 2074
1812 3071 2183
1820 3075 2287
1828 3079 2393
1835 3082 2504
1843 3086 2616
1850 3090 2718
1858 3094 2805
1867 3100 2880
1876 3106 2947
1886 3112 3011
1896 3118 3072
1904 3124 3133
1037 361 361
1047 373 594
1056 384 832
1066 397 1062
1078 410 1248
1092 426 1411
1105 441 1565
1118 457 1723
1130 471 1889
1143 485 2056
1156 500 2208
1170 516 2338
1185 533 2450
1202 551 2553
1218 569 2648
1235 587 2741
1251 605 2834
1095 653 439
1104 663 665
1111 672 894
1120 682 1117
1131 694 1296
1144 709 1453
1157 723 1603
1170 737 1756
1182 751 1917
1195 765 2078
1208 779 2226
1222 795 2353
1237 811 2462
1253 828 2561
1269 845 2653
1285 862 2743
