Postproduction/IWLTBAP - Humble/LUTs by IWLTBAP (3DL)/UTILITY/Generic Rec.709 to LOG/U-9998-RTL.3dl
# Copyright: (C) Copyright 2010-2018 by IWLTBAP SAS
# Cannot be resold, shared or otherwise redistributed
# Website: https://luts.iwltbap.com
0 128 256 384 512 640 768 896 1023
239 239 239
289 289 749
326 326 1188
364 364 1521
399 399 1859
432 432 2190
468 468 2442
506 506 2647
543 543 2838
446 877 446
467 895 900
490 916 1301
520 943 1607
549 970 1919
578 997 2227
611 1027 2462
646 1060 2653
680 1093 2832
619 1388 619
635 1399 1045
653 1413 1419
675 1431 1702
696 1448 1990
714 1463 2273
736 1481 2487
759 1500 2660
781 1520 2822
767 1758 767
774 1759 1167
784 1764 1517
798 1774 1781
812 1782 2051
825 1791 2318
842 1804 2520
861 1819 2683
880 1834 2836
854 2059 854
860 2058 1238
868 2060 1574
881 2068 1826
893 2074 2085
906 2081 2341
922 2093 2535
940 2106 2691
958 2120 2838
932 2334 932
939 2334 1303
947 2336 1626
961 2343 1870
974 2350 2120
989 2357 2368
1006 2368 2555
1025 2382 2707
1045 2396 2849
1065 2588 1065
1074 2588 1424
1086 2592 1738
1103 2601 1975
1119 2609 2218
1136 2618 2458
1157 2631 2639
1180 2646 2787
1202 2661 2926
1249 2836 1249
1261 2838 1597
1276 2843 1899
1295 2852 2127
1313 2861 2361
1333 2870 2590
1354 2882 2764
1377 2896 2905
1401 2911 3037
1450 3074 1450
1463 3076 1782
1478 3080 2070
1495 3088 2287
1513 3095 2508
1531 3103 2726
1551 3114 2890
1571 3126 3023
1591 3138 3147
788 331 331
811 357 808
836 385 1231
866 417 1552
894 448 1880
922 478 2202
953 511 2447
986 546 2646
1021 583 2834
919 911 488
936 929 934
958 950 1328
984 977 1628
1010 1003 1934
1036 1029 2236
1065 1057 2465
1094 1087 2651
1123 1115 2823
1052 1400 643
1062 1408 1060
1074 1418 1424
1090 1433 1699
1105 1446 1980
1120 1459 2258
1138 1475 2467
1157 1493 2636
1177 1511 2795
1159 1743 766
1163 1744 1160
1170 1749 1505
1182 1758 1766
1193 1767 2032
1205 1775 2295
1219 1788 2494
1236 1802 2655
1254 1817 2806
1227 2038 849
1230 2037 1228
1237 2040 1559
1248 2048 1809
1259 2055 2065
1271 2062 2319
1285 2074 2510
1302 2087 2665
1320 2102 2811
1293 2314 929
1298 2313 1296
1306 2317 1616
1319 2325 1858
1332 2332 2106
1345 2340 2351
1362 2353 2537
1381 2367 2688
1401 2382 2829
1420 2573 1071
1429 2574 1427
1440 2579 1737
1456 2588 1972
1472 2598 2213
1488 2607 2449
1508 2621 2629
1529 2636 2775
1551 2652 2912
1597 2825 1262
1607 2827 1605
1621 2832 1904
1638 2842 2129
1655 2851 2359
1672 2860 2585
1692 2873 2756
1713 2887 2895
1734 2902 3025
1781 3061 1463
1792 3062 1790
1805 3067 2074
1820 3075 2287
1835 3082 2504
1850 3090 2718
1867 3100 2880
1886 3112 3011
1904 3124 3133
1244 398 398
1260 420 864
1279 444 1275
1303 474 1588
1327 502 1908
1352 532 2224
1380 565 2465
1412 601 2661
1443 637 2845
1338 958 541
1352 975 980
1370 996 1366
1393 1021 1660
1413 1044 1959
1433 1066 2252
1456 1091 2475
1481 1117 2655
1504 1143 2823
1424 1414 668
1428 1419 1076
1436 1427 1433
1449 1440 1703
1461 1452 1979
1472 1463 2251
1487 1478 2457
1504 1495 2624
1521 1513 2779
1501 1740 775
1503 1741 1164
1508 1745 1504
1518 1754 1761
1527 1762 2024
1537 1771 2284
1550 1783 2481
1566 1797 2640
1581 1812 2789
1554 2030 856
1556 2030 1230
1561 2033 1558
1571 2041 1805
1581 2048 2059
1591 2056 2309
1605 2068 2499
1621 2082 2652
1638 2096 2797
1611 2307 940
1616 2308 1303
1623 2311 1620
1636 2320 1860
1648 2329 2106
1661 2338 2349
1677 2351 2533
1696 2367 2683
1715 2382 2823
1734 2571 1090
1742 2574 1443
1753 2579 1750
1768 2589 1982
1783 2599 2220
1798 2609 2454
1817 2623 2632
1837 2639 2776
1857 2654 2911
1902 2825 1287
1911 2827 1625
1923 2833 1920
1938 2843 2142
1953 2852 2368
1968 2861 2591
1986 2874 2759
2005 2888 2896
2025 2902 3024
2069 3058 1485
2078 3059 1806
2088 3063 2085
2101 3071 2295
2114 3078 2509
2127 3085 2719
2142 3095 2878
2158 3106 3006
2174 3117 3126
1598 476 476
1611 496 933
1627 519 1337
1649 548 1645
1671 577 1959
1693 606 2269
1720 639 2506
1749 674 2698
1778 710 2878
1668 1022 612
1678 1037 1041
1691 1053 1418
1708 1075 1704
1724 1095 1995
1739 1113 2281
1757 1134 2497
1776 1156 2671
1795 1178 2834
1709 1441 705
1711 1445 1106
1717 1452 1457
1727 1463 1722
1736 1474 1994
1746 1484 2262
1759 1499 2465
1774 1515 2629
1789 1532 2783
1767 1755 801
1767 1755 1185
1771 1759 1522
1779 1768 1775
1788 1776 2035
1796 1785 2292
1808 1797 2486
1823 1811 2644
1837 1826 2791
1809 2041 880
1810 2041 1251
1815 2045 1576
1825 2053 1821
1834 2061 2072
1843 2070 2320
1857 2082 2508
1872 2097 2660
1889 2112 2803
1863 2321 970
1867 2322 1330
1874 2327 1645
1886 2337 1883
1898 2346 2126
1911 2356 2367
1927 2370 2549
1945 2386 2698
1964 2402 2837
1983 2589 1129
1991 2592 1478
2001 2598 1782
2015 2609 2011
2029 2619 2246
2043 2629 2476
2061 2643 2652
2080 2659 2794
2099 2675 2927
2141 2842 1328
2149 2845 1662
2160 2850 1952
2173 2860 2170
2187 2869 2393
2201 2878 2612
2217 2890 2777
2234 2904 2912
2252 2918 3037
2293 3069 1519
2300 3071 1836
2308 3074 2110
2320 3081 2316
2331 3088 2527
2341 3094 2733
2354 3104 2889
2369 3114 3016
2383 3125 3134
1950 548 548
1960 568 999
1974 591 1396
1995 621 1698
2014 649 2007
2034 677 2311
2058 709 2543
2083 742 2730
2107 774 2905
1989 1074 669
1995 1085 1090
2003 1099 1458
2015 1116 1736
2026 1132 2019
2036 1147 2298
2050 1165 2509
2066 1185 2679
2082 1205 2839
1994 1462 734
1993 1465 1130
1996 1471 1476
2005 1481 1738
2012 1492 2005
2020 1502 2270
2031 1515 2470
2045 1531 2631
2059 1547 2783
2034 1767 824
2034 1767 1204
2036 1771 1537
2044 1780 1787
2051 1789 2044
2058 1797 2299
2070 1810 2491
2083 1824 2646
2097 1839 2792
2068 2052 904
2069 2052 1272
2073 2056 1593
2082 2065 1836
2091 2074 2084
2100 2084 2330
2113 2097 2517
2128 2112 2668
2144 2128 2810
2119 2335 1002
2122 2337 1358
2129 2343 1670
2141 2354 1906
2153 2364 2147
2165 2375 2385
2180 2389 2566
2198 2405 2712
2216 2422 2850
2235 2606 1168
2241 2610 1513
2250 2616 1813
2263 2627 2039
2276 2638 2270
2289 2648 2498
2305 2662 2670
2323 2678 2810
2341 2694 2942
2381 2857 1367
2387 2860 1695
2396 2865 1981
2408 2874 2195
2420 2883 2414
2432 2892 2630
2446 2904 2793
2461 2917 2924
2477 2930 3048
2516 3078 1550
2521 3079 1861
2527 3081 2131
2536 3088 2333
2545 3094 2540
2555 3100 2744
2566 3109 2897
2578 3118 3021
2590 3128 3137
2288 621 621
2296 640 1064
2308 664 1455
2326 692 1751
2342 718 2053
2357 743 2349
2375 771 2573
2395 800 2755
2416 829 2925
2291 1116 717
2291 1123 1128
2294 1133 1488
2303 1148 1759
2311 1162 2037
2319 1175 2311
2330 1192 2518
2343 1210 2686
2357 1229 2842
2267 1481 762
2265 1484 1152
2266 1489 1494
2272 1499 1752
2278 1509 2016
2285 1519 2278
2295 1532 2475
2307 1547 2634
2319 1563 2784
2294 1779 848
2292 1780 1224
2294 1784 1553
2300 1793 1801
2307 1802 2055
2313 1811 2307
2324 1824 2497
2336 1839 2651
2350 1854 2795
2321 2064 931
2321 2066 1295
2325 2071 1613
2333 2081 1854
2342 2090 2100
2350 2101 2344
2363 2114 2529
2378 2130 2679
2393 2147 2820
2369 2352 1037
2372 2356 1390
2379 2362 1699
2390 2373 1932
2401 2384 2171
2412 2396 2406
2427 2411 2584
2443 2427 2729
2460 2444 2865
2478 2625 1209
2483 2629 1549
2491 2636 1845
2502 2647 2068
2514 2657 2296
2526 2668 2520
2540 2682 2690
2556 2697 2827
2573 2712 2956
2611 2872 1405
2615 2875 1728
2622 2880 2009
2632 2889 2220
2642 2897 2435
2652 2905 2647
2665 2917 2807
2679 2929 2937
2692 2941 3058
2729 3085 1577
2731 3086 1884
2736 3088 2150
2744 3094 2349
2751 3099 2552
2758 3105 2752
2767 3112 2903
2778 3122 3026
2789 3131 3140
2556 707 707
2561 725 1143
2569 745 1524
2581 769 1812
2593 791 2105
2605 813 2395
2619 837 2613
2634 861 2788
2649 885 2952
2520 1163 768
2518 1169 1173
2519 1177 1527
2525 1190 1794
2531 1202 2067
2537 1214 2337
2546 1230 2540
2558 1248 2705
2570 1266 2859
2479 1513 802
2475 1515 1188
2475 1520 1525
2481 1530 1780
2486 1539 2041
2491 1549 2299
2500 1562 2494
2511 1577 2652
2523 1593 2800
2497 1807 885
2495 1808 1257
2496 1812 1583
2502 1822 1829
2507 1831 2081
2514 1840 2329
2524 1853 2518
2536 1869 2671
2549 1884 2814
2521 2093 972
2521 2095 1333
2524 2101 1649
2533 2112 1888
2541 2122 2132
2550 2133 2373
2562 2148 2557
2576 2165 2705
2592 2182 2845
2567 2384 1087
2570 2389 1437
2576 2396 1742
2587 2408 1973
2597 2419 2208
2608 2431 2440
2622 2446 2617
2637 2462 2760
2653 2479 2894
2670 2657 1263
2674 2661 1598
2681 2667 1889
2691 2678 2109
2702 2689 2333
2712 2699 2553
2725 2712 2720
2740 2727 2856
2755 2742 2982
2790 2898 1452
2793 2900 1770
2799 2905 2046
2808 2913 2254
2816 2921 2466
2825 2929 2674
2835 2939 2831
2847 2950 2958
2860 2962 3077
2894 3102 1613
2894 3102 1914
2897 3104 2176
2904 3109 2372
2910 3114 2573
2916 3119 2771
2924 3126 2919
2934 3135 3040
2943 3144 3152
2776 792 792
2777 806 1218
2782 823 1591
2791 844 1872
2798 861 2157
2804 878 2438
2815 898 2650
2827 920 2821
2840 941 2981
2709 1213 822
2705 1217 1221
2704 1224 1570
2709 1236 1833
2713 1248 2102
2718 1259 2368
2726 1274 2569
2737 1291 2731
2748 1308 2883
2656 1552 848
2651 1553 1230
2651 1558 1563
2655 1568 1815
2659 1577 2073
2664 1587 2329
2672 1600 2521
2683 1615 2677
2694 1631 2823
2668 1842 930
2666 1844 1299
2666 1848 1622
2672 1858 1865
2677 1868 2115
2683 1878 2361
2693 1891 2548
2705 1907 2700
2718 1924 2842
2691 2131 1023
2691 2134 1382
2695 2141 1695
2703 2152 1931
2711 2163 2173
2719 2175 2412
2732 2191 2593
2746 2208 2741
2761 2225 2879
2737 2425 1147
2739 2430 1492
2744 2437 1794
2754 2449 2021
2764 2461 2254
2774 2473 2482
2787 2487 2656
2802 2504 2797
2817 2521 2929
2832 2695 1322
2835 2699 1652
2840 2705 1939
2850 2715 2155
2859 2726 2375
2868 2735 2592
2880 2748 2756
2894 2762 2889
2907 2777 3013
2940 2928 1502
2942 2930 1816
2946 2934 2087
2954 2941 2291
2961 2949 2499
2968 2956 2704
2977 2965 2858
2988 2976 2984
2999 2987 3100
3030 3123 1650
3030 3122 1948
3032 3124 2207
3037 3129 2400
3042 3133 2598
3047 3137 2793
3054 3144 2940
3063 3153 3059
3072 3162 3170
2976 869 869
2972 878 1284
2972 889 1647
2977 906 1921
2982 921 2201
2987 937 2477
2995 954 2684
3006 974 2852
3017 994 3009
2884 1260 874
2879 1264 1268
2877 1270 1612
2881 1282 1871
2884 1292 2137
2887 1303 2399
2894 1317 2597
2904 1334 2757
2914 1351 2907
2822 1590 894
2817 1592 1272
2816 1598 1603
2820 1607 1852
2823 1616 2107
2827 1626 2359
2835 1640 2550
2846 1655 2705
2856 1671 2850
2831 1880 978
2828 1882 1344
2828 1888 1664
2833 1898 1905
2839 1908 2152
2845 1919 2397
2855 1933 2582
2867 1950 2732
2880 1967 2873
2854 2172 1079
2853 2177 1434
2857 2184 1744
2865 2196 1978
2873 2208 2218
2881 2220 2453
2893 2236 2633
2907 2253 2778
2921 2271 2915
2897 2468 1208
2898 2473 1550
2903 2480 1847
2912 2492 2071
2921 2504 2300
2930 2516 2525
2942 2530 2696
2956 2547 2835
2970 2563 2964
2983 2733 1380
2986 2737 1706
2990 2743 1988
2998 2752 2200
3006 2762 2417
3014 2771 2630
3025 2783 2791
3037 2797 2921
3049 2810 3044
3080 2957 1550
3080 2959 1859
3083 2962 2126
3089 2969 2327
3095 2976 2532
3101 2982 2733
3108 2990 2885
3118 3000 3007
3128 3010 3122
3157 3144 1687
3156 3142 1981
3157 3143 2236
3161 3148 2427
3166 3152 2623
3170 3157 2816
3176 3163 2961
3185 3171 3078
3193 3179 3188
