Postproduction/IWLTBAP - Humble/LUTs by IWLTBAP (3DL)/UTILITY/Generic Rec.709 to LOG/U-9998-RTL.3dl
# Copyright: (C) Copyright 2010-2018 by IWLTBAP SAS
# Cannot be resold, shared or otherwise redistributed
# Website: https://luts.iwltbap.com
0 256 512 768 1023
239 239 239
326 326 1188
399 399 1859
468 468 2442
543 543 2838
619 1388 619
653 1413 1419
696 1448 1990
736 1481 2487
781 1520 2822
854 2059 854
868 2060 1574
893 2074 2085
922 2093 2535
958 2120 2838
1065 2588 1065
1086 2592 1738
1119 2609 2218
1157 2631 2639
1202 2661 2926
1450 3074 1450
1478 3080 2070
1513 3095 2508
1551 3114 2890
1591 3138 3147
1244 398 398
1279 444 1275
1327 502 1908
1380 565 2465
1443 637 2845
1424 1414 668
1436 1427 1433
1461 1452 1979
1487 1478 2457
1521 1513 2779
1554 2030 856
1561 2033 1558
1581 2048 2059
1605 2068 2499
1638 2096 2797
1734 2571 1090
1753 2579 1750
1783 2599 2220
1817 2623 2632
1857 2654 2911
2069 3058 1485
2088 3063 2085
2114 3078 2509
2142 3095 2878
2174 3117 3126
1950 548 548
1974 591 1396
2014 649 2007
2058 709 2543
2107 774 2905
1994 1462 734
1996 1471 1476
2012 1492 2005
2031 1515 2470
2059 1547 2783
2068 2052 904
2073 2056 1593
2091 2074 2084
2113 2097 2517
2144 2128 2810
2235 2606 1168
2250 2616 1813
2276 2638 2270
2305 2662 2670
2341 2694 2942
2516 3078 1550
2527 3081 2131
2545 3094 2540
2566 3109 2897
2590 3128 3137
2556 707 707
2569 745 1524
2593 791 2105
2619 837 2613
2649 885 2952
2479 1513 802
2475 1520 1525
2486 1539 2041
2500 1562 2494
2523 1593 2800
2521 2093 972
2524 2101 1649
2541 2122 2132
2562 2148 2557
2592 2182 2845
2670 2657 1263
2681 2667 1889
2702 2689 2333
2725 2712 2720
2755 2742 2982
2894 3102 1613
2897 3104 2176
2910 3114 2573
2924 3126 2919
2943 3144 3152
2976 869 869
2972 889 1647
2982 921 2201
2995 954 2684
3017 994 3009
2822 1590 894
2816 1598 1603
2823 1616 2107
2835 1640 2550
2856 1671 2850
2854 2172 1079
2857 2184 1744
2873 2208 2218
2893 2236 2633
2921 2271 2915
2983 2733 1380
2990 2743 1988
3006 2762 2417
3025 2783 2791
3049 2810 3044
3157 3144 1687
3157 3143 2236
3166 3152 2623
3176 3163 2961
3193 3179 3188
