Postproduction/IWLTBAP - Humble/LUTs by IWLTBAP (3DL)/UTILITY/Generic Rec.709 to LOG/U-9999-RTL.3dl
# Copyright: (C) Copyright 2010-2018 by IWLTBAP SAS
# Cannot be resold, shared or otherwise redistributed
# Website: https://luts.iwltbap.com
0 256 512 768 1023
501 501 501
628 628 1391
752 752 1951
869 869 2618
976 976 3465
628 1391 628
632 1394 1394
752 1463 1951
869 1526 2618
976 1585 3465
752 1951 752
752 1951 1463
757 1953 1953
869 2009 2618
976 2072 3465
869 2618 869
869 2618 1526
869 2618 2009
872 2621 2621
976 2710 3465
976 3465 976
976 3465 1585
976 3465 2072
976 3465 2710
976 3465 3465
1391 628 628
1394 632 1394
1463 752 1951
1526 869 2618
1585 976 3465
1394 1394 632
1462 1462 1462
1524 1524 2007
1583 1583 2707
1638 1638 3569
1463 1951 752
1524 2007 1524
1529 2011 2011
1585 2072 2710
1639 2142 3572
1526 2618 869
1583 2707 1583
1585 2710 2072
1586 2713 2713
1639 2805 3572
1585 3465 976
1638 3569 1638
1639 3572 2142
1639 3572 2805
1639 3572 3572
1951 752 752
1951 752 1463
1953 757 1953
2009 869 2618
2072 976 3465
1951 1463 752
2007 1524 1524
2011 1529 2011
2072 1585 2710
2142 1639 3572
1953 1953 757
2011 2011 1529
2073 2073 2073
2139 2139 2802
2213 2213 3675
2009 2618 869
2072 2710 1585
2139 2802 2139
2144 2809 2809
2216 2904 3679
2072 3465 976
2142 3572 1639
2213 3675 2213
2216 3679 2904
2216 3679 3679
2618 869 869
2618 869 1526
2618 869 2009
2621 872 2621
2710 976 3465
2618 1526 869
2707 1583 1583
2710 1585 2072
2713 1586 2713
2805 1639 3572
2618 2009 869
2710 2072 1585
2802 2139 2139
2809 2144 2809
2904 2216 3679
2621 2621 872
2713 2713 1586
2809 2809 2144
2904 2904 2904
3001 3001 3784
2710 3465 976
2805 3572 1639
2904 3679 2216
3001 3784 3001
3004 3787 3787
3465 976 976
3465 976 1585
3465 976 2072
3465 976 2710
3465 976 3465
3465 1585 976
3569 1638 1638
3572 1639 2142
3572 1639 2805
3572 1639 3572
3465 2072 976
3572 2142 1639
3675 2213 2213
3679 2216 2904
3679 2216 3679
3465 2710 976
3572 2805 1639
3679 2904 2216
3784 3001 3001
3787 3004 3787
3465 3465 976
3572 3572 1639
3679 3679 2216
3787 3787 3004
3896 3896 3896
