Postproduction/IWLTBAP - Humble/LUTs by IWLTBAP (3DL)/UTILITY/Alexa Log-C to Rec.709/U-ALEXA-LOG-C-V5-LTR.3dl
# Copyright: (C) Copyright 2010-2018 by IWLTBAP SAS
# Cannot be resold, shared or otherwise redistributed
# Website: https://luts.iwltbap.com
0 256 512 768 1023
0 0 0
0 0 661
0 0 2602
0 0 4074
0 0 4095
0 722 0
0 635 621
0 0 2594
0 0 4074
0 0 4095
0 2762 0
0 2748 0
0 2517 2475
0 1883 4025
0 1722 4095
0 4095 0
0 4095 0
0 4095 2192
0 3971 3897
0 3923 4095
0 4095 0
0 4095 0
0 4095 2128
0 4095 3875
0 4095 4079
782 0 0
754 0 670
152 0 2602
0 0 4074
0 0 4095
651 708 0
619 620 623
15 0 2594
0 0 4074
0 0 4095
0 2762 0
0 2748 0
0 2516 2475
0 1880 4028
0 1719 4095
0 4095 0
0 4095 0
0 4095 2192
0 3971 3897
0 3923 4095
0 4095 0
0 4095 0
0 4095 2128
0 4095 3875
0 4095 4079
2939 0 153
2931 0 727
2867 0 2614
2717 0 4080
2690 0 4095
2917 497 44
2914 358 684
2847 0 2602
2696 0 4077
2665 0 4095
2567 2734 0
2563 2718 0
2479 2483 2483
2290 1826 4032
2252 1657 4095
1305 4095 0
1285 4095 0
1021 4095 2201
607 3952 3905
558 3905 4095
886 4095 0
875 4095 0
636 4095 2142
276 4095 3879
249 4095 4095
4095 0 414
4095 0 833
4095 0 2634
4095 0 4086
4095 0 4095
4095 0 340
4095 0 797
4095 0 2625
4095 0 4086
4095 0 4095
4095 2669 0
4095 2655 4
4095 2410 2510
4095 1705 4042
4095 1508 4095
4043 4095 0
4037 4095 0
4002 4095 2231
3914 3914 3915
3898 3865 4095
3972 4095 0
3972 4095 0
3925 4095 2173
3834 4095 3891
3816 4095 4095
4095 0 450
4095 0 854
4095 0 2634
4095 0 4089
4095 0 4095
4095 0 373
4095 0 819
4095 0 2631
4095 0 4086
4095 0 4095
4095 2658 0
4095 2642 19
4095 2395 2511
4095 1683 4044
4095 1480 4095
4095 4095 0
4095 4095 0
4095 4095 2235
4095 3907 3921
4095 3863 4095
4095 4095 0
4095 4095 0
4095 4095 2180
4095 4095 3895
4095 4095 4095
