Postproduction/IWLTBAP - Humble/LUTs by IWLTBAP (3DL)/UTILITY/Alexa Log-C to Rec.709/U-ALEXA-LOG-C-V2-LTR.3dl
# Copyright: (C) Copyright 2010-2018 by IWLTBAP SAS
# Cannot be resold, shared or otherwise redistributed
# Website: https://luts.iwltbap.com
0 128 256 384 512 640 768 896 1023
0 0 0
0 0 452
0 0 1023
0 0 1881
0 0 2769
0 0 3376
0 0 3690
0 0 3736
0 0 3751
0 490 0
0 373 351
0 203 971
0 0 1856
0 0 2764
0 0 3375
0 0 3690
0 0 3736
0 0 3751
0 1069 0
0 1012 205
0 921 890
0 522 1819
0 0 2756
0 0 3374
0 0 3690
0 0 3736
0 0 3751
0 1943 0
0 1917 0
0 1877 545
0 1736 1693
0 1149 2730
0 0 3369
0 0 3690
0 0 3736
0 0 3751
0 2813 0
0 2807 0
0 2798 0
0 2770 1187
0 2667 2634
0 2072 3352
0 0 3688
0 0 3736
0 0 3751
0 3403 0
0 3402 0
0 3400 0
0 3395 0
0 3377 2124
0 3312 3291
0 2908 3682
0 0 3736
0 0 3751
0 3699 0
0 3699 0
0 3699 0
0 3698 0
0 3696 0
0 3691 2946
0 3667 3658
0 3461 3735
0 0 3751
0 3737 0
0 3737 0
0 3737 0
0 3737 0
0 3737 0
0 3737 0
0 3736 3483
0 3734 3734
0 3715 3750
0 3752 0
0 3752 0
0 3752 0
0 3752 0
0 3752 0
0 3752 0
0 3751 0
0 3751 3719
0 3749 3748
611 0 0
579 0 442
528 0 1018
363 0 1878
0 0 2769
0 0 3376
0 0 3690
0 0 3736
0 0 3751
377 459 0
342 342 342
290 171 966
125 0 1854
0 0 2764
0 0 3375
0 0 3690
0 0 3736
0 0 3751
31 1054 0
0 996 195
0 903 884
0 491 1817
0 0 2756
0 0 3374
0 0 3690
0 0 3736
0 0 3751
0 1936 0
0 1910 0
0 1869 535
0 1728 1691
0 1135 2729
0 0 3369
0 0 3690
0 0 3736
0 0 3751
0 2811 0
0 2805 0
0 2797 0
0 2768 1183
0 2665 2634
0 2066 3352
0 0 3688
0 0 3736
0 0 3751
0 3403 0
0 3401 0
0 3400 0
0 3395 0
0 3377 2123
0 3312 3291
0 2907 3682
0 0 3736
0 0 3751
0 3699 0
0 3699 0
0 3699 0
0 3698 0
0 3696 0
0 3691 2946
0 3667 3658
0 3461 3735
0 0 3751
0 3737 0
0 3737 0
0 3737 0
0 3737 0
0 3737 0
0 3737 0
0 3736 3483
0 3734 3734
0 3715 3750
0 3752 0
0 3752 0
0 3752 0
0 3752 0
0 3752 0
0 3752 0
0 3751 0
0 3751 3719
0 3749 3748
1206 0 0
1191 0 429
1169 0 1012
1096 0 1875
809 0 2768
0 0 3376
0 0 3690
0 0 3736
0 0 3751
1102 413 0
1086 296 328
1061 126 959
978 0 1850
634 0 2763
0 0 3375
0 0 3690
0 0 3736
0 0 3751
927 1032 0
906 972 182
876 876 876
771 445 1813
295 0 2755
0 0 3374
0 0 3690
0 0 3736
0 0 3751
0 1926 0
0 1899 0
0 1858 521
0 1715 1687
0 1115 2728
0 0 3369
0 0 3690
0 0 3736
0 0 3751
0 2809 0
0 2803 0
0 2794 0
0 2766 1177
0 2662 2633
0 2058 3352
0 0 3688
0 0 3736
0 0 3751
0 3402 0
0 3401 0
0 3399 0
0 3394 0
0 3377 2120
0 3311 3291
0 2905 3682
0 0 3736
0 0 3751
0 3699 0
0 3699 0
0 3699 0
0 3698 0
0 3696 0
0 3691 2945
0 3667 3658
0 3461 3735
0 0 3751
0 3737 0
0 3737 0
0 3737 0
0 3737 0
0 3737 0
0 3737 0
0 3736 3483
0 3734 3734
0 3715 3750
0 3752 0
0 3752 0
0 3752 0
0 3752 0
0 3752 0
0 3752 0
0 3751 0
0 3751 3719
0 3749 3748
2114 0 0
2108 0 385
2099 0 989
2070 0 1865
1966 0 2766
1514 0 3376
0 0 3690
0 0 3736
0 0 3751
2072 268 0
2066 151 285
2057 0 935
2025 0 1840
1914 0 2760
1436 0 3375
0 0 3690
0 0 3736
0 0 3751
2007 957 0
1999 891 138
1989 785 850
1954 300 1802
1830 0 2752
1311 0 3373
0 0 3690
0 0 3736
0 0 3751
1745 1893 0
1735 1865 0
1721 1821 478
1675 1675 1675
1515 1046 2726
771 0 3368
0 0 3689
0 0 3736
0 0 3751
0 2802 0
0 2796 0
0 2787 0
0 2758 1159
0 2652 2630
0 2031 3352
0 0 3688
0 0 3736
0 0 3751
0 3401 0
0 3400 0
0 3398 0
0 3393 0
0 3375 2113
0 3309 3291
0 2900 3682
0 0 3736
0 0 3751
0 3699 0
0 3699 0
0 3698 0
0 3698 0
0 3696 0
0 3691 2943
0 3666 3658
0 3460 3735
0 0 3751
0 3737 0
0 3737 0
0 3737 0
0 3737 0
0 3737 0
0 3737 0
0 3736 3483
0 3734 3734
0 3715 3750
0 3752 0
0 3752 0
0 3752 0
0 3752 0
0 3752 0
0 3752 0
0 3751 0
0 3751 3719
0 3749 3748
2931 0 0
2930 0 247
2928 0 914
2921 0 1830
2901 0 2758
2826 0 3374
2463 0 3690
0 0 3736
0 0 3751
2922 0 0
2921 0 146
2919 0 855
2912 0 1804
2891 0 2753
2815 0 3373
2440 0 3690
0 0 3736
0 0 3751
2908 654 0
2907 550 0
2905 378 759
2898 0 1765
2876 0 2745
2797 0 3372
2404 0 3690
0 0 3736
0 0 3751
2862 1775 0
2861 1744 0
2858 1697 339
2851 1535 1634
2826 783 2718
2738 0 3367
2273 0 3689
0 0 3736
0 0 3751
2673 2778 0
2671 2772 0
2667 2762 0
2656 2732 1096
2620 2620 2620
2481 1935 3350
1514 0 3688
0 0 3736
0 0 3751
0 3396 0
0 3395 0
0 3394 0
0 3388 0
0 3370 2089
0 3303 3289
0 2880 3682
0 0 3736
0 0 3751
0 3698 0
0 3698 0
0 3698 0
0 3697 0
0 3696 0
0 3690 2938
0 3666 3658
0 3456 3735
0 0 3751
0 3737 0
0 3737 0
0 3737 0
0 3737 0
0 3737 0
0 3737 0
0 3736 3482
0 3734 3734
0 3714 3750
0 3752 0
0 3752 0
0 3752 0
0 3752 0
0 3752 0
0 3752 0
0 3751 0
0 3751 3719
0 3749 3748
3473 0 0
3473 0 0
3472 0 604
3471 0 1711
3468 0 2733
3455 0 3370
3410 0 3690
3175 0 3736
0 0 3751
3471 0 0
3471 0 0
3471 0 507
3470 0 1683
3466 0 2727
3453 0 3368
3408 0 3690
3170 0 3736
0 0 3751
3469 0 0
3469 0 0
3468 0 361
3467 0 1641
3463 0 2719
3451 0 3367
3405 0 3689
3163 0 3736
0 0 3751
3461 1309 0
3461 1263 0
3460 1194 0
3459 934 1497
3455 0 2690
3442 0 3362
3395 0 3689
3139 0 3736
0 0 3751
3434 2692 0
3433 2685 0
3433 2674 0
3432 2637 862
3427 2500 2587
3412 1532 3345
3358 0 3687
3050 0 3736
0 0 3751
3316 3382 0
3316 3380 0
3315 3379 0
3313 3373 0
3306 3354 2006
3282 3282 3282
3191 2812 3681
2480 0 3736
0 0 3751
0 3697 0
0 3697 0
0 3697 0
0 3696 0
0 3694 0
0 3688 2921
0 3663 3657
0 3445 3735
0 0 3751
0 3737 0
0 3737 0
0 3737 0
0 3737 0
0 3737 0
0 3737 0
0 3736 3479
0 3734 3734
0 3714 3750
0 3752 0
0 3752 0
0 3752 0
0 3752 0
0 3752 0
0 3752 0
0 3751 0
0 3751 3719
0 3749 3748
3717 0 0
3717 0 0
3717 0 0
3717 0 1241
3717 0 2643
3716 0 3354
3713 0 3688
3701 0 3736
3605 0 3751
3717 0 0
3717 0 0
3717 0 0
3717 0 1200
3717 0 2636
3716 0 3353
3713 0 3688
3701 0 3736
3604 0 3751
3717 0 0
3717 0 0
3717 0 0
3717 0 1137
3717 0 2626
3716 0 3351
3713 0 3688
3701 0 3736
3603 0 3751
3717 0 0
3717 0 0
3717 0 0
3716 0 902
3716 0 2592
3715 0 3346
3712 0 3687
3700 0 3736
3600 0 3751
3715 2258 0
3715 2242 0
3715 2218 0
3715 2135 0
3714 1764 2465
3713 0 3328
3710 0 3685
3696 0 3736
3588 0 3751
3708 3328 0
3708 3326 0
3708 3324 0
3708 3317 0
3707 3294 1653
3706 3203 3261
3702 2497 3679
3684 0 3736
3541 0 3751
3668 3692 0
3668 3692 0
3668 3692 0
3668 3691 0
3667 3689 0
3664 3683 2863
3654 3654 3654
3613 3404 3735
3190 0 3751
0 3737 0
0 3737 0
0 3737 0
0 3737 0
0 3737 0
0 3736 0
0 3736 3469
0 3734 3733
0 3711 3750
0 3752 0
0 3752 0
0 3752 0
0 3752 0
0 3752 0
0 3752 0
0 3751 0
0 3751 3719
0 3749 3748
3739 0 0
3739 0 0
3739 0 0
3739 0 0
3739 0 2180
3739 0 3296
3739 0 3682
3739 0 3736
3737 0 3751
3739 0 0
3739 0 0
3739 0 0
3739 0 0
3739 0 2165
3739 0 3295
3739 0 3682
3739 0 3736
3737 0 3751
3739 0 0
3739 0 0
3739 0 0
3739 0 0
3739 0 2141
3739 0 3293
3739 0 3682
3739 0 3736
3737 0 3751
3739 0 0
3739 0 0
3739 0 0
3739 0 0
3739 0 2060
3739 0 3286
3739 0 3682
3739 0 3736
3737 0 3751
3739 0 0
3739 0 0
3739 0 0
3739 0 0
3739 0 1715
3739 0 3264
3739 0 3680
3739 0 3736
3737 0 3751
3739 3037 0
3739 3033 0
3739 3028 0
3739 3012 0
3739 2953 0
3739 2690 3180
3739 0 3673
3738 0 3736
3737 0 3751
3738 3673 0
3738 3672 0
3738 3672 0
3738 3671 0
3738 3669 0
3738 3659 2602
3738 3619 3645
3737 3202 3735
3736 0 3751
3734 3736 0
3734 3736 0
3734 3736 0
3734 3736 0
3734 3736 0
3734 3736 0
3734 3735 3434
3733 3733 3733
3731 3699 3750
0 3751 0
0 3751 0
0 3751 0
0 3751 0
0 3751 0
0 3751 0
0 3751 0
0 3751 3717
0 3749 3748
3754 0 0
3754 0 0
3754 0 0
3754 0 0
3754 0 0
3754 0 2983
3754 0 3660
3754 0 3735
3753 0 3751
3754 0 0
3754 0 0
3754 0 0
3754 0 0
3754 0 0
3754 0 2979
3754 0 3660
3754 0 3735
3753 0 3751
3754 0 0
3754 0 0
3754 0 0
3754 0 0
3754 0 0
3754 0 2974
3754 0 3660
3754 0 3735
3753 0 3751
3754 0 0
3754 0 0
3754 0 0
3754 0 0
3754 0 0
3754 0 2958
3754 0 3659
3754 0 3735
3753 0 3751
3754 0 0
3754 0 0
3754 0 0
3754 0 0
3754 0 0
3754 0 2901
3754 0 3656
3754 0 3735
3753 0 3751
3754 0 0
3754 0 0
3754 0 0
3754 0 0
3754 0 0
3754 0 2652
3754 0 3647
3754 0 3735
3753 0 3751
3754 3534 0
3754 3533 0
3754 3532 0
3754 3529 0
3754 3520 0
3754 3487 0
3754 3327 3608
3753 0 3735
3753 0 3750
3753 3735 0
3753 3735 0
3753 3735 0
3753 3735 0
3753 3734 0
3753 3734 0
3753 3734 3271
3752 3731 3733
3752 3618 3750
3749 3751 0
3749 3751 0
3749 3751 0
3749 3751 0
3749 3751 0
3749 3751 0
3749 3751 0
3749 3750 3708
3748 3748 3748
