Postproduction/IWLTBAP - Humble/LUTs by IWLTBAP (3DL)/UTILITY/Alexa Log-C to Rec.709/U-ALEXA-LOG-C-V2-LTR.3dl
# Copyright: (C) Copyright 2010-2018 by IWLTBAP SAS
# Cannot be resold, shared or otherwise redistributed
# Website: https://luts.iwltbap.com
0 64 128 192 256 320 384 448 512 576 640 704 768 832 896 960 1023
0 0 0
0 0 175
0 0 452
0 0 715
0 0 1023
0 0 1402
0 0 1881
0 0 2361
0 0 2769
0 0 3108
0 0 3376
0 0 3572
0 0 3690
0 0 3729
0 0 3736
0 0 3743
0 0 3751
0 195 0
0 136 125
0 78 402
0 16 677
0 0 998
0 0 1385
0 0 1869
0 0 2356
0 0 2767
0 0 3107
0 0 3376
0 0 3572
0 0 3690
0 0 3729
0 0 3736
0 0 3743
0 0 3751
0 490 0
0 432 75
0 373 351
0 311 636
0 203 971
0 8 1367
0 0 1856
0 0 2350
0 0 2764
0 0 3106
0 0 3375
0 0 3571
0 0 3690
0 0 3729
0 0 3736
0 0 3743
0 0 3751
0 758 0
0 716 22
0 671 298
0 619 589
0 515 943
0 321 1347
0 0 1843
0 0 2344
0 0 2761
0 0 3104
0 0 3375
0 0 3571
0 0 3690
0 0 3729
0 0 3736
0 0 3743
0 0 3751
0 1069 0
0 1041 0
0 1012 205
0 980 497
0 921 890
0 803 1313
0 522 1819
0 0 2333
0 0 2756
0 0 3102
0 0 3374
0 0 3571
0 0 3690
0 0 3729
0 0 3736
0 0 3743
0 0 3751
0 1457 0
0 1437 0
0 1417 38
0 1395 330
0 1356 786
0 1283 1248
0 1140 1775
0 811 2312
0 0 2747
0 0 3098
0 0 3372
0 0 3570
0 0 3690
0 0 3729
0 0 3736
0 0 3743
0 0 3751
0 1943 0
0 1930 0
0 1917 0
0 1903 31
0 1877 545
0 1829 1121
0 1736 1693
0 1555 2274
0 1149 2730
0 0 3090
0 0 3369
0 0 3569
0 0 3690
0 0 3729
0 0 3736
0 0 3743
0 0 3751
0 2413 0
0 2407 0
0 2401 0
0 2394 0
0 2383 9
0 2361 840
0 2320 1534
0 2238 2199
0 2060 2697
0 1567 3076
0 0 3363
0 0 3567
0 0 3689
0 0 3729
0 0 3736
0 0 3743
0 0 3751
0 2813 0
0 2810 0
0 2807 0
0 2804 0
0 2798 0
0 2788 0
0 2770 1187
0 2736 2038
0 2667 2634
0 2516 3050
0 2072 3352
0 0 3563
0 0 3688
0 0 3729
0 0 3736
0 0 3743
0 0 3751
0 3143 0
0 3142 0
0 3140 0
0 3139 0
0 3136 0
0 3132 0
0 3124 0
0 3109 1617
0 3081 2498
0 3025 2998
0 2900 3332
0 2526 3555
0 0 3686
0 0 3728
0 0 3736
0 0 3743
0 0 3751
0 3403 0
0 3402 0
0 3402 0
0 3401 0
0 3400 0
0 3398 0
0 3395 0
0 3389 0
0 3377 2124
0 3356 2885
0 3312 3291
0 3214 3541
0 2908 3682
0 0 3728
0 0 3736
0 0 3743
0 0 3751
0 3589 0
0 3589 0
0 3589 0
0 3589 0
0 3588 0
0 3588 0
0 3587 0
0 3584 0
0 3580 0
0 3573 2571
0 3558 3202
0 3527 3513
0 3456 3674
0 3221 3728
0 0 3736
0 0 3743
0 0 3751
0 3699 0
0 3699 0
0 3699 0
0 3699 0
0 3699 0
0 3698 0
0 3698 0
0 3698 0
0 3696 0
0 3695 0
0 3691 2946
0 3683 3448
0 3667 3658
0 3624 3727
0 3461 3735
0 0 3743
0 0 3751
0 3730 0
0 3730 0
0 3730 0
0 3730 0
0 3730 0
0 3730 0
0 3730 0
0 3729 0
0 3729 0
0 3729 0
0 3729 0
0 3729 3250
0 3728 3619
0 3726 3724
0 3714 3735
0 3627 3743
0 0 3750
0 3737 0
0 3737 0
0 3737 0
0 3737 0
0 3737 0
0 3737 0
0 3737 0
0 3737 0
0 3737 0
0 3737 0
0 3737 0
0 3736 0
0 3736 3483
0 3735 3712
0 3734 3734
0 3731 3742
0 3715 3750
0 3744 0
0 3744 0
0 3744 0
0 3744 0
0 3744 0
0 3744 0
0 3744 0
0 3744 0
0 3744 0
0 3744 0
0 3744 0
0 3744 0
0 3744 0
0 3743 3641
0 3743 3731
0 3742 3741
0 3739 3749
0 3752 0
0 3752 0
0 3752 0
0 3752 0
0 3752 0
0 3752 0
0 3752 0
0 3752 0
0 3752 0
0 3752 0
0 3752 0
0 3752 0
0 3751 0
0 3751 0
0 3751 3719
0 3750 3738
0 3749 3748
257 0 0
239 0 171
222 0 447
203 0 712
170 0 1021
111 0 1401
5 0 1880
0 0 2361
0 0 2769
0 0 3108
0 0 3376
0 0 3572
0 0 3690
0 0 3729
0 0 3736
0 0 3743
0 0 3751
138 179 0
121 121 121
103 62 397
84 0 673
51 0 995
0 0 1383
0 0 1867
0 0 2355
0 0 2767
0 0 3107
0 0 3376
0 0 3572
0 0 3690
0 0 3729
0 0 3736
0 0 3743
0 0 3751
19 474 0
2 416 70
0 358 347
0 296 632
0 187 969
0 0 1365
0 0 1855
0 0 2349
0 0 2764
0 0 3105
0 0 3375
0 0 3571
0 0 3690
0 0 3729
0 0 3736
0 0 3743
0 0 3751
0 747 0
0 704 17
0 658 293
0 605 585
0 500 940
0 306 1346
0 0 1842
0 0 2343
0 0 2761
0 0 3104
0 0 3375
0 0 3571
0 0 3690
0 0 3729
0 0 3736
0 0 3743
0 0 3751
0 1062 0
0 1033 0
0 1004 200
0 971 492
0 912 887
0 793 1311
0 506 1818
0 0 2332
0 0 2756
0 0 3102
0 0 3374
0 0 3571
0 0 3690
0 0 3729
0 0 3736
0 0 3743
0 0 3751
0 1451 0
0 1431 0
0 1411 33
0 1390 326
0 1350 782
0 1277 1246
0 1133 1774
0 801 2312
0 0 2746
0 0 3098
0 0 3372
0 0 3570
0 0 3690
0 0 3729
0 0 3736
0 0 3743
0 0 3751
0 1940 0
0 1927 0
0 1913 0
0 1899 27
0 1873 540
0 1825 1119
0 1732 1692
0 1550 2273
0 1142 2729
0 0 3090
0 0 3369
0 0 3569
0 0 3690
0 0 3729
0 0 3736
0 0 3743
0 0 3751
0 2412 0
0 2406 0
0 2399 0
0 2393 0
0 2381 5
0 2359 837
0 2318 1532
0 2236 2198
0 2057 2697
0 1562 3076
0 0 3363
0 0 3567
0 0 3689
0 0 3729
0 0 3736
0 0 3743
0 0 3751
0 2812 0
0 2809 0
0 2806 0
0 2803 0
0 2798 0
0 2788 0
0 2769 1185
0 2735 2037
0 2666 2634
0 2514 3050
0 2069 3352
0 0 3563
0 0 3688
0 0 3729
0 0 3736
0 0 3743
0 0 3751
0 3143 0
0 3141 0
0 3140 0
0 3139 0
0 3136 0
0 3132 0
0 3124 0
0 3109 1615
0 3081 2498
0 3024 2998
0 2899 3332
0 2525 3555
0 0 3686
0 0 3728
0 0 3736
0 0 3743
0 0 3751
0 3403 0
0 3402 0
0 3402 0
0 3401 0
0 3400 0
0 3398 0
0 3395 0
0 3389 0
0 3377 2124
0 3356 2885
0 3312 3291
0 3213 3541
0 2908 3682
0 0 3728
0 0 3736
0 0 3743
0 0 3751
0 3589 0
0 3589 0
0 3589 0
0 3589 0
0 3588 0
0 3588 0
0 3586 0
0 3584 0
0 3580 0
0 3572 2571
0 3558 3202
0 3527 3513
0 3456 3674
0 3220 3728
0 0 3736
0 0 3743
0 0 3751
0 3699 0
0 3699 0
0 3699 0
0 3699 0
0 3699 0
0 3698 0
0 3698 0
0 3698 0
0 3696 0
0 3695 0
0 3691 2946
0 3683 3447
0 3667 3658
0 3624 3727
0 3461 3735
0 0 3743
0 0 3751
0 3730 0
0 3730 0
0 3730 0
0 3730 0
0 3730 0
0 3730 0
0 3730 0
0 3729 0
0 3729 0
0 3729 0
0 3729 0
0 3729 3250
0 3728 3619
0 3726 3724
0 3714 3735
0 3627 3743
0 0 3750
0 3737 0
0 3737 0
0 3737 0
0 3737 0
0 3737 0
0 3737 0
0 3737 0
0 3737 0
0 3737 0
0 3737 0
0 3737 0
0 3736 0
0 3736 3483
0 3735 3712
0 3734 3734
0 3731 3742
0 3715 3750
0 3744 0
0 3744 0
0 3744 0
0 3744 0
0 3744 0
0 3744 0
0 3744 0
0 3744 0
0 3744 0
0 3744 0
0 3744 0
0 3744 0
0 3744 0
0 3743 3641
0 3743 3731
0 3742 3741
0 3739 3749
0 3752 0
0 3752 0
0 3752 0
0 3752 0
0 3752 0
0 3752 0
0 3752 0
0 3752 0
0 3752 0
0 3752 0
0 3752 0
0 3752 0
0 3751 0
0 3751 0
0 3751 3719
0 3750 3738
0 3749 3748
611 0 0
595 0 166
579 0 442
563 0 708
528 0 1018
469 0 1399
363 0 1878
174 0 2360
0 0 2769
0 0 3108
0 0 3376
0 0 3572
0 0 3690
0 0 3729
0 0 3736
0 0 3743
0 0 3751
496 163 0
478 105 116
461 46 392
442 0 669
409 0 993
350 0 1381
244 0 1866
55 0 2355
0 0 2766
0 0 3107
0 0 3376
0 0 3572
0 0 3690
0 0 3729
0 0 3736
0 0 3743
0 0 3751
377 459 0
360 400 66
342 342 342
323 280 628
290 171 966
231 0 1363
125 0 1854
0 0 2349
0 0 2764
0 0 3105
0 0 3375
0 0 3571
0 0 3690
0 0 3729
0 0 3736
0 0 3743
0 0 3751
251 736 0
234 692 12
216 645 289
197 591 580
164 484 937
105 290 1344
0 0 1840
0 0 2343
0 0 2761
0 0 3104
0 0 3375
0 0 3571
0 0 3690
0 0 3729
0 0 3736
0 0 3743
0 0 3751
31 1054 0
13 1025 0
0 996 195
0 963 488
0 903 884
0 782 1309
0 491 1817
0 0 2331
0 0 2756
0 0 3102
0 0 3374
0 0 3571
0 0 3690
0 0 3729
0 0 3736
0 0 3743
0 0 3751
0 1446 0
0 1426 0
0 1406 28
0 1384 321
0 1345 779
0 1271 1244
0 1126 1773
0 790 2311
0 0 2746
0 0 3098
0 0 3372
0 0 3570
0 0 3690
0 0 3729
0 0 3736
0 0 3743
0 0 3751
0 1936 0
0 1923 0
0 1910 0
0 1895 22
0 1869 535
0 1820 1117
0 1728 1691
0 1545 2273
0 1135 2729
0 0 3090
0 0 3369
0 0 3569
0 0 3690
0 0 3729
0 0 3736
0 0 3743
0 0 3751
0 2410 0
0 2404 0
0 2398 0
0 2391 0
0 2379 0
0 2357 834
0 2316 1531
0 2234 2198
0 2054 2697
0 1557 3076
0 0 3363
0 0 3567
0 0 3689
0 0 3729
0 0 3736
0 0 3743
0 0 3751
0 2811 0
0 2808 0
0 2805 0
0 2802 0
0 2797 0
0 2787 0
0 2768 1183
0 2734 2036
0 2665 2634
0 2513 3050
0 2066 3352
0 0 3563
0 0 3688
0 0 3729
0 0 3736
0 0 3743
0 0 3751
0 3142 0
0 3141 0
0 3140 0
0 3138 0
0 3136 0
0 3131 0
0 3123 0
0 3108 1614
0 3080 2497
0 3024 2998
0 2898 3332
0 2524 3555
0 0 3686
0 0 3728
0 0 3736
0 0 3743
0 0 3751
0 3403 0
0 3402 0
0 3401 0
0 3401 0
0 3400 0
0 3398 0
0 3395 0
0 3388 0
0 3377 2123
0 3355 2885
0 3312 3291
0 3213 3541
0 2907 3682
0 0 3728
0 0 3736
0 0 3743
0 0 3751
0 3589 0
0 3589 0
0 3589 0
0 3589 0
0 3588 0
0 3588 0
0 3586 0
0 3584 0
0 3580 0
0 3572 2570
0 3558 3202
0 3527 3513
0 3456 3674
0 3220 3728
0 0 3736
0 0 3743
0 0 3751
0 3699 0
0 3699 0
0 3699 0
0 3699 0
0 3699 0
0 3698 0
0 3698 0
0 3698 0
0 3696 0
0 3694 0
0 3691 2946
0 3683 3447
0 3667 3658
0 3624 3727
0 3461 3735
0 0 3743
0 0 3751
0 3730 0
0 3730 0
0 3730 0
0 3730 0
0 3730 0
0 3730 0
0 3730 0
0 3729 0
0 3729 0
0 3729 0
0 3729 0
0 3729 3250
0 3728 3619
0 3726 3724
0 3714 3735
0 3627 3743
0 0 3750
0 3737 0
0 3737 0
0 3737 0
0 3737 0
0 3737 0
0 3737 0
0 3737 0
0 3737 0
0 3737 0
0 3737 0
0 3737 0
0 3736 0
0 3736 3483
0 3735 3712
0 3734 3734
0 3731 3742
0 3715 3750
0 3744 0
0 3744 0
0 3744 0
0 3744 0
0 3744 0
0 3744 0
0 3744 0
0 3744 0
0 3744 0
0 3744 0
0 3744 0
0 3744 0
0 3744 0
0 3743 3641
0 3743 3731
0 3742 3741
0 3739 3749
0 3752 0
0 3752 0
0 3752 0
0 3752 0
0 3752 0
0 3752 0
0 3752 0
0 3752 0
0 3752 0
0 3752 0
0 3752 0
0 3752 0
0 3751 0
0 3751 0
0 3751 3719
0 3750 3738
0 3749 3748
880 0 0
870 0 161
859 0 437
848 0 705
827 0 1016
789 0 1397
714 0 1877
554 0 2360
215 0 2769
0 0 3108
0 0 3376
0 0 3572
0 0 3690
0 0 3729
0 0 3736
0 0 3743
0 0 3751
807 147 0
795 88 111
783 30 387
770 0 666
747 0 990
704 0 1380
618 0 1865
434 0 2354
96 0 2766
0 0 3106
0 0 3376
0 0 3572
0 0 3690
0 0 3729
0 0 3736
0 0 3743
