Postproduction/IWLTBAP - Humble/LUTs by IWLTBAP (3DL)/UTILITY/Alexa Log-C to Rec.709/U-ALEXA-LOG-C-V4-LTR.3dl
# Copyright: (C) Copyright 2010-2018 by IWLTBAP SAS
# Cannot be resold, shared or otherwise redistributed
# Website: https://luts.iwltbap.com
0 256 512 768 1023
38 38 38
3 0 929
0 0 2660
0 0 3683
0 0 3751
0 981 0
0 812 777
0 0 2646
0 0 3682
0 0 3751
0 2704 0
0 2689 0
0 2555 2522
0 0 3680
0 0 3751
0 3693 0
0 3693 0
0 3690 0
0 3654 3644
0 0 3751
0 3752 0
0 3752 0
0 3752 0
0 3751 0
0 3749 3748
1133 7 29
1093 0 916
685 0 2658
0 0 3683
0 0 3751
819 939 0
761 761 761
210 0 2644
0 0 3682
0 0 3751
0 2700 0
0 2685 0
0 2550 2520
0 0 3680
0 0 3751
0 3693 0
0 3693 0
0 3690 0
0 3654 3644
0 0 3751
0 3752 0
0 3752 0
0 3752 0
0 3751 0
0 3749 3748
2828 0 0
2824 0 804
2796 0 2648
2351 0 3682
0 0 3751
2804 513 0
2800 261 628
2770 0 2634
2293 0 3682
0 0 3751
2561 2668 0
2555 2652 0
2507 2507 2507
1458 0 3679
0 0 3751
0 3692 0
0 3692 0
0 3689 0
0 3653 3643
0 0 3751
0 3752 0
0 3752 0
0 3752 0
0 3751 0
0 3749 3748
3715 0 0
3715 0 0
3715 0 2531
3711 0 3680
3580 0 3751
3715 0 0
3715 0 0
3715 0 2514
3710 0 3679
3578 0 3751
3712 2153 0
3712 2115 0
3712 1698 2353
3707 0 3677
3560 0 3751
3656 3685 0
3656 3684 0
3654 3681 0
3639 3639 3639
3107 0 3751
0 3752 0
0 3752 0
0 3752 0
0 3751 0
0 3749 3748
3754 0 0
3754 0 0
3754 0 0
3754 0 3646
3753 0 3751
3754 0 0
3754 0 0
3754 0 0
3754 0 3646
3753 0 3751
3754 0 0
3754 0 0
3754 0 0
3754 0 3641
3753 0 3751
3754 3496 0
3754 3494 0
3754 3480 0
3754 3259 3584
3753 0 3750
3749 3751 0
3749 3751 0
3749 3751 0
3749 3751 0
3748 3748 3748
