Postproduction/IWLTBAP - Humble/LUTs by IWLTBAP (3DL)/UTILITY/Alexa Log-C to Rec.709/U-ALEXA-LOG-C-V1-LTR.3dl
# Copyright: (C) Copyright 2010-2018 by IWLTBAP SAS
# Cannot be resold, shared or otherwise redistributed
# Website: https://luts.iwltbap.com
0 256 512 768 1023
100 100 100
100 100 677
100 100 2659
100 100 3779
100 100 3779
100 726 100
100 649 636
100 100 2655
100 100 3779
100 100 3779
100 2803 100
100 2795 100
100 2586 2546
100 2042 3779
100 2032 3779
100 3779 100
100 3779 100
100 3779 2302
100 3779 3751
100 3779 3766
100 3779 100
100 3779 100
100 3779 2298
100 3779 3749
100 3779 3764
779 100 109
757 100 680
100 100 2659
100 100 3779
100 100 3779
661 716 100
633 637 640
100 100 2655
100 100 3779
100 100 3779
100 2802 100
100 2794 100
100 2585 2546
100 2041 3779
100 2030 3779
100 3779 100
100 3779 100
100 3779 2302
100 3779 3751
100 3779 3766
100 3779 100
100 3779 100
100 3779 2298
100 3779 3749
100 3779 3765
2956 100 313
2954 100 761
2894 100 2669
2768 100 3779
2766 100 3779
2945 361 229
2943 242 727
2882 100 2664
2755 100 3779
2753 100 3779
2629 2775 100
2626 2768 100
2550 2554 2556
2386 1992 3779
2384 1980 3779
1579 3779 100
1571 3779 100
1291 3779 2315
838 3779 3756
835 3779 3771
1547 3779 100
1538 3779 100
1229 3779 2311
824 3779 3754
821 3779 3770
3779 100 594
3779 100 890
3779 100 2686
3779 100 3779
3779 100 3779
3779 100 547
3779 100 864
3779 100 2683
3779 100 3779
3779 100 3779
3779 2722 100
3779 2714 100
3779 2491 2576
3779 1888 3779
3779 1875 3779
3779 3779 100
3779 3779 100
3779 3779 2338
3764 3764 3765
3763 3762 3779
3779 3779 100
3779 3779 100
3779 3779 2334
3760 3779 3764
3758 3779 3779
3779 100 597
3779 100 892
3779 100 2687
3779 100 3779
3779 100 3779
3779 100 551
3779 100 866
3779 100 2683
3779 100 3779
3779 100 3779
3779 2721 100
3779 2713 100
3779 2490 2576
3779 1886 3779
3779 1873 3779
3779 3779 100
3779 3779 100
3779 3779 2338
3779 3764 3765
3779 3762 3779
3779 3779 100
3779 3779 100
3779 3779 2334
3779 3779 3764
3779 3779 3779
