Postproduction/IWLTBAP - Humble/LUTs by IWLTBAP (3DL)/UTILITY/Alexa Log-C to Rec.709/U-ALEXA-LOG-C-V1-LTR.3dl
# Copyright: (C) Copyright 2010-2018 by IWLTBAP SAS
# Cannot be resold, shared or otherwise redistributed
# Website: https://luts.iwltbap.com
0 128 256 384 512 640 768 896 1023
100 100 100
100 100 137
100 100 677
100 100 1599
100 100 2659
100 100 3548
100 100 3779
100 100 3779
100 100 3779
100 143 100
100 136 134
100 100 675
100 100 1599
100 100 2659
100 100 3547
100 100 3779
100 100 3779
100 100 3779
100 726 100
100 723 100
100 649 636
100 125 1590
100 100 2655
100 100 3545
100 100 3779
100 100 3779
100 100 3779
100 1692 100
100 1691 100
100 1674 292
100 1548 1525
100 882 2630
100 100 3531
100 100 3779
100 100 3779
100 100 3779
100 2803 100
100 2802 100
100 2795 100
100 2748 1268
100 2586 2546
100 2268 3483
100 2042 3779
100 2032 3779
100 2032 3779
100 3712 100
100 3712 100
100 3709 100
100 3692 592
100 3613 2396
100 3456 3402
100 3360 3778
100 3356 3779
100 3356 3779
100 3779 100
100 3779 100
100 3779 100
100 3779 100
100 3779 2302
100 3779 3354
100 3779 3751
100 3779 3766
100 3779 3766
100 3779 100
100 3779 100
100 3779 100
100 3779 100
100 3779 2298
100 3779 3352
100 3779 3749
100 3779 3764
100 3779 3764
100 3779 100
100 3779 100
100 3779 100
100 3779 100
100 3779 2298
100 3779 3352
100 3779 3749
100 3779 3764
100 3779 3764
148 100 100
146 100 138
102 100 677
100 100 1599
100 100 2659
100 100 3548
100 100 3779
100 100 3779
100 100 3779
138 142 100
136 135 134
100 100 675
100 100 1599
100 100 2659
100 100 3547
100 100 3779
100 100 3779
100 100 3779
100 726 100
100 723 100
100 648 637
100 125 1590
100 100 2655
100 100 3545
100 100 3779
100 100 3779
100 100 3779
100 1692 100
100 1691 100
100 1674 292
100 1548 1525
100 882 2630
100 100 3531
100 100 3779
100 100 3779
100 100 3779
100 2803 100
100 2802 100
100 2795 100
100 2748 1268
100 2586 2546
100 2268 3483
100 2042 3779
100 2031 3779
100 2031 3779
100 3712 100
100 3712 100
100 3709 100
100 3692 592
100 3613 2396
100 3456 3402
100 3360 3778
100 3356 3779
100 3356 3779
100 3779 100
100 3779 100
100 3779 100
100 3779 100
100 3779 2302
100 3779 3354
100 3779 3751
100 3779 3766
100 3779 3766
100 3779 100
100 3779 100
100 3779 100
100 3779 100
100 3779 2298
100 3779 3352
100 3779 3749
100 3779 3764
100 3779 3764
100 3779 100
100 3779 100
100 3779 100
100 3779 100
100 3779 2298
100 3779 3352
100 3779 3749
100 3779 3764
100 3779 3764
779 100 109
778 100 145
757 100 680
586 100 1600
100 100 2659
100 100 3548
100 100 3779
100 100 3779
100 100 3779
775 119 105
773 112 142
752 100 678
580 100 1600
100 100 2659
100 100 3548
100 100 3779
100 100 3779
100 100 3779
661 716 100
660 713 100
633 637 640
416 118 1591
100 100 2655
100 100 3545
100 100 3779
100 100 3779
100 100 3779
100 1690 100
100 1689 100
100 1671 297
100 1545 1526
100 877 2630
100 100 3531
100 100 3779
100 100 3779
100 100 3779
100 2802 100
100 2801 100
100 2794 100
100 2747 1269
100 2585 2546
100 2267 3483
100 2041 3779
100 2030 3779
100 2030 3779
100 3711 100
100 3711 100
100 3709 100
100 3691 593
100 3613 2396
100 3455 3402
100 3359 3778
100 3355 3779
100 3355 3779
100 3779 100
100 3779 100
100 3779 100
100 3779 100
100 3779 2302
100 3779 3355
100 3779 3751
100 3779 3766
100 3779 3766
100 3779 100
100 3779 100
100 3779 100
100 3779 100
100 3779 2298
100 3779 3353
100 3779 3749
100 3779 3765
100 3779 3765
100 3779 100
100 3779 100
100 3779 100
100 3779 100
100 3779 2298
100 3779 3353
100 3779 3749
100 3779 3765
100 3779 3765
1791 100 162
1791 100 196
1786 100 700
1750 100 1606
1624 100 2661
1365 100 3549
1155 100 3779
1144 100 3779
1144 100 3779
1790 100 158
1790 100 192
1785 100 699
1749 100 1605
1623 100 2661
1363 100 3549
1152 100 3779
1141 100 3779
1141 100 3779
1764 651 101
1764 647 111
1758 557 662
1722 100 1596
1591 100 2657
1318 100 3547
1081 100 3779
1067 100 3779
1067 100 3779
1573 1674 100
1572 1673 100
1566 1655 331
1519 1527 1532
1345 843 2632
890 100 3532
700 100 3779
693 100 3779
693 100 3779
418 2795 100
417 2795 100
399 2788 100
370 2741 1278
224 2577 2549
100 2257 3484
100 2029 3779
100 2018 3779
100 2018 3779
100 3709 100
100 3709 100
100 3706 100
100 3689 602
100 3609 2399
100 3451 3404
100 3355 3778
100 3351 3779
100 3351 3779
100 3779 100
100 3779 100
100 3779 100
100 3779 100
100 3779 2305
100 3779 3356
100 3779 3752
100 3779 3767
100 3779 3767
100 3779 100
100 3779 100
100 3779 100
100 3779 100
100 3779 2301
100 3779 3354
100 3779 3751
100 3779 3766
100 3779 3766
100 3779 100
100 3779 100
100 3779 100
100 3779 100
100 3779 2301
100 3779 3354
100 3779 3751
100 3779 3766
100 3779 3766
2956 100 313
2956 100 344
2954 100 761
2940 100 1623
2894 100 2669
2814 100 3553
2768 100 3779
2766 100 3779
2766 100 3779
2956 100 310
2956 100 341
2954 100 759
2939 100 1623
2893 100 2668
2814 100 3553
2767 100 3779
2765 100 3779
2765 100 3779
2945 361 229
2945 356 262
2943 242 727
2929 100 1613
2882 100 2664
2803 100 3551
2755 100 3779
2753 100 3779
2753 100 3779
2876 1622 100
2876 1621 100
2874 1602 433
2859 1464 1550
2810 710 2640
2727 100 3536
2677 100 3779
2674 100 3779
2674 100 3779
2629 2775 100
2629 2775 100
2626 2768 100
2608 2720 1304
2550 2554 2556
2448 2227 3489
2386 1992 3779
2384 1980 3779
2384 1980 3779
2086 3702 100
2086 3701 100
2082 3699 100
2054 3681 629
1958 3596 2408
1775 3437 3408
1647 3341 3779
1642 3336 3779
1642 3336 3779
1579 3779 100
1578 3779 100
1571 3779 100
1517 3779 111
1291 3779 2315
898 3779 3361
838 3779 3756
835 3779 3771
835 3779 3771
1547 3779 100
1546 3779 100
1538 3779 100
1482 3779 100
1229 3779 2311
886 3779 3359
824 3779 3754
821 3779 3770
821 3779 3770
1547 3779 100
1546 3779 100
1538 3779 100
1482 3779 100
1229 3779 2311
886 3779 3359
824 3779 3754
821 3779 3770
821 3779 3770
3779 100 513
3779 100 532
3779 100 846
3779 100 1651
3779 100 2680
3779 100 3560
3766 100 3779
3765 100 3779
3765 100 3779
3779 100 510
3779 100 530
3779 100 845
3779 100 1650
3779 100 2680
3779 100 3560
3766 100 3779
3765 100 3779
3765 100 3779
3779 100 454
3779 100 477
3779 100 818
3779 100 1641
3779 100 2676
3777 100 3557
3762 100 3779
3761 100 3779
3761 100 3779
3779 1528 106
3779 1528 115
3779 1506 591
3779 1348 1580
3777 570 2651
3752 100 3543
3735 100 3779
3734 100 3779
3734 100 3779
3719 2741 100
3719 2741 100
3718 2734 100
3712 2685 1345
3693 2514 2569
3659 2175 3496
3636 1927 3779
3635 1915 3779
3635 1915 3779
3514 3689 100
3514 3689 100
3513 3686 100
3503 3666 669
3469 3575 2421
3414 3415 3416
3381 3317 3779
3380 3312 3779
3380 3312 3779
3363 3779 100
3363 3779 100
3361 3779 100
3350 3779 253
3314 3779 2329
3253 3779 3368
3217 3773 3762
3216 3770 3777
3216 3770 3777
3356 3779 100
3356 3779 100
3354 3779 100
3343 3779 212
3307 3779 2325
3246 3779 3366
3210 3779 3761
3208 3779 3776
3208 3779 3776
3356 3779 100
3356 3779 100
3354 3779 100
3343 3779 212
3307 3779 2325
3246 3779 3366
3210 3779 3761
3208 3779 3776
3208 3779 3776
3779 100 594
3779 100 611
3779 100 890
3779 100 1666
3779 100 2686
3779 100 3564
3779 100 3779
3779 100 3779
3779 100 3779
3779 100 592
3779 100 609
3779 100 889
3779 100 1666
3779 100 2686
3779 100 3564
3779 100 3779
3779 100 3779
3779 100 3779
3779 100 547
3779 100 565
3779 100 864
3779 100 1657
3779 100 2683
3779 100 3561
3779 100 3779
3779 100 3779
3779 100 3779
3779 1470 157
3779 1469 169
3779 1446 663
3779 1272 1597
3779 451 2658
3779 100 3547
3779 100 3779
3779 100 3779
3779 100 3779
3779 2722 100
3779 2721 100
3779 2714 100
3779 2664 1368
3779 2491 2576
3779 2144 3500
3779 1888 3779
3779 1875 3779
3779 1875 3779
3779 3682 100
3779 3682 100
3779 3679 100
3779 3656 690
3779 3563 2429
3779 3402 3420
3779 3303 3779
3779 3299 3779
3779 3299 3779
3779 3779 100
3779 3779 100
3779 3779 100
3779 3779 326
3779 3779 2338
3779 3779 3372
3764 3764 3765
3763 3762 3779
3763 3762 3779
3779 3779 100
3779 3779 100
3779 3779 100
3779 3779 294
3779 3779 2334
3777 3779 3370
3760 3779 3764
3758 3779 3779
3758 3779 3779
3779 3779 100
3779 3779 100
3779 3779 100
3779 3779 294
3779 3779 2334
3777 3779 3370
3760 3779 3764
3758 3779 3779
3758 3779 3779
3779 100 597
3779 100 614
3779 100 892
3779 100 1667
3779 100 2687
3779 100 3564
3779 100 3779
3779 100 3779
3779 100 3779
3779 100 595
3779 100 612
3779 100 891
3779 100 1667
3779 100 2687
3779 100 3564
3779 100 3779
3779 100 3779
3779 100 3779
3779 100 551
3779 100 569
3779 100 866
3779 100 1657
3779 100 2683
3779 100 3561
3779 100 3779
3779 100 3779
3779 100 3779
3779 1468 160
3779 1466 171
3779 1443 666
3779 1268 1597
3779 444 2658
3779 100 3547
3779 100 3779
3779 100 3779
3779 100 3779
3779 2721 100
3779 2720 100
3779 2713 100
3779 2663 1369
3779 2490 2576
3779 2143 3500
3779 1886 3779
3779 1873 3779
3779 1873 3779
3779 3682 100
3779 3681 100
3779 3679 100
3779 3655 691
3779 3563 2429
3779 3401 3420
3779 3302 3779
3779 3298 3779
3779 3298 3779
3779 3779 100
3779 3779 100
3779 3779 100
3779 3779 329
3779 3779 2338
3779 3779 3373
3779 3764 3765
3779 3762 3779
3779 3762 3779
3779 3779 100
3779 3779 100
3779 3779 100
3779 3779 297
3779 3779 2334
3779 3779 3370
3779 3779 3764
3779 3779 3779
3779 3779 3779
3779 3779 100
3779 3779 100
3779 3779 100
3779 3779 297
3779 3779 2334
3779 3779 3370
3779 3779 3764
3779 3779 3779
3779 3779 3779
3779 100 597
3779 100 614
3779 100 892
3779 100 1667
3779 100 2687
3779 100 3564
3779 100 3779
3779 100 3779
3779 100 3779
3779 100 595
3779 100 612
3779 100 891
3779 100 1667
3779 100 2687
3779 100 3564
3779 100 3779
3779 100 3779
3779 100 3779
3779 100 551
3779 100 569
3779 100 866
3779 100 1657
3779 100 2683
3779 100 3561
3779 100 3779
3779 100 3779
3779 100 3779
3779 1468 160
3779 1466 171
3779 1443 666
3779 1268 1597
3779 444 2658
3779 100 3547
3779 100 3779
3779 100 3779
3779 100 3779
3779 2721 100
3779 2720 100
3779 2713 100
3779 2663 1369
3779 2490 2576
3779 2143 3500
3779 1886 3779
3779 1873 3779
3779 1873 3779
3779 3682 100
3779 3681 100
3779 3679 100
3779 3655 691
3779 3563 2429
3779 3401 3420
3779 3302 3779
3779 3298 3779
3779 3298 3779
3779 3779 100
3779 3779 100
3779 3779 100
3779 3779 329
3779 3779 2338
3779 3779 3373
3779 3764 3765
3779 3762 3779
3779 3762 3779
3779 3779 100
3779 3779 100
3779 3779 100
3779 3779 297
3779 3779 2334
3779 3779 3370
3779 3779 3764
3779 3779 3779
3779 3779 3779
3779 3779 100
3779 3779 100
3779 3779 100
3779 3779 297
3779 3779 2334
3779 3779 3370
3779 3779 3764
3779 3779 3779
3779 3779 3779
