Postproduction/IWLTBAP - Humble/LUTs by IWLTBAP (3DL)/UTILITY/Alexa Log-C to Rec.709/U-ALEXA-LOG-C-V5-LTR.3dl
# Copyright: (C) Copyright 2010-2018 by IWLTBAP SAS
# Cannot be resold, shared or otherwise redistributed
# Website: https://luts.iwltbap.com
0 128 256 384 512 640 768 896 1023
0 0 0
0 0 140
0 0 661
0 0 1570
0 0 2602
0 0 3549
0 0 4074
0 0 4095
0 0 4095
0 171 0
0 128 126
0 4 656
0 0 1568
0 0 2602
0 0 3549
0 0 4074
0 0 4095
0 0 4095
0 722 0
0 707 39
0 635 621
0 87 1554
0 0 2594
0 0 3549
0 0 4074
0 0 4095
0 0 4095
0 1676 0
0 1671 0
0 1649 352
0 1518 1488
0 1020 2560
0 12 3525
0 0 4063
0 0 4095
0 0 4095
0 2762 0
0 2761 0
0 2748 0
0 2690 1276
0 2517 2475
0 2196 3471
0 1883 4025
0 1761 4095
0 1722 4095
0 3764 0
0 3764 0
0 3757 0
0 3722 748
0 3619 2321
0 3448 3384
0 3299 3955
0 3252 4095
0 3236 4095
0 4095 0
0 4095 0
0 4095 0
0 4095 267
0 4095 2192
0 4069 3312
0 3971 3897
0 3927 4061
0 3923 4095
0 4095 0
0 4095 0
0 4095 0
0 4095 139
0 4095 2141
0 4095 3286
0 4095 3879
0 4095 4045
0 4095 4095
0 4095 0
0 4095 0
0 4095 0
0 4095 120
0 4095 2128
0 4095 3282
0 4095 3875
0 4095 4033
0 4095 4079
188 0 0
186 0 140
122 0 661
0 0 1570
0 0 2602
0 0 3549
0 0 4074
0 0 4095
0 0 4095
140 157 0
126 124 126
69 4 657
0 0 1568
0 0 2602
0 0 3549
0 0 4074
0 0 4095
0 0 4095
0 722 0
0 707 40
0 635 621
0 86 1554
0 0 2594
0 0 3549
0 0 4074
0 0 4095
0 0 4095
0 1676 0
0 1671 0
0 1648 352
0 1515 1488
0 1017 2560
0 12 3525
0 0 4063
0 0 4095
0 0 4095
0 2762 0
0 2759 0
0 2748 0
0 2690 1277
0 2517 2475
0 2196 3473
0 1882 4025
0 1761 4095
0 1722 4095
0 3764 0
0 3764 0
0 3757 0
0 3722 748
0 3619 2321
0 3448 3384
0 3299 3955
0 3251 4095
0 3236 4095
0 4095 0
0 4095 0
0 4095 0
0 4095 267
0 4095 2192
0 4069 3312
0 3971 3897
0 3927 4061
0 3923 4095
0 4095 0
0 4095 0
0 4095 0
0 4095 139
0 4095 2141
0 4095 3286
0 4095 3879
0 4095 4045
0 4095 4095
0 4095 0
0 4095 0
0 4095 0
0 4095 120
0 4095 2128
0 4095 3282
0 4095 3875
0 4095 4033
0 4095 4079
782 0 0
782 0 156
754 0 670
634 0 1570
152 0 2602
0 0 3549
0 0 4074
0 0 4095
0 0 4095
767 137 0
763 105 140
736 0 659
610 0 1570
123 0 2602
0 0 3549
0 0 4074
0 0 4095
0 0 4095
651 708 0
648 700 48
619 620 623
447 81 1554
15 0 2594
0 0 3549
0 0 4074
0 0 4095
0 0 4095
1 1676 0
0 1668 0
0 1646 362
0 1509 1489
0 1010 2560
0 8 3525
0 0 4063
0 0 4095
0 0 4095
0 2762 0
0 2758 0
0 2748 0
0 2688 1278
0 2516 2475
0 2196 3474
0 1880 4028
0 1760 4095
0 1719 4095
0 3764 0
0 3764 0
0 3754 0
0 3716 749
0 3617 2321
0 3445 3384
0 3298 3955
0 3251 4095
0 3236 4095
0 4095 0
0 4095 0
0 4095 0
0 4095 273
0 4095 2192
0 4069 3312
0 3971 3897
0 3927 4061
0 3923 4095
0 4095 0
0 4095 0
0 4095 0
0 4095 139
0 4095 2144
0 4095 3286
0 4095 3879
0 4095 4045
0 4095 4095
0 4095 0
0 4095 0
0 4095 0
0 4095 120
0 4095 2128
0 4095 3282
0 4095 3875
0 4095 4033
0 4095 4079
1792 0 42
1792 0 188
1786 0 684
1744 0 1576
1641 0 2602
1437 0 3550
1240 0 4077
1162 0 4095
1139 0 4095
1787 19 27
1787 6 174
1778 0 677
1741 0 1575
1629 0 2602
1425 0 3549
1231 0 4077
1154 0 4095
1124 0 4095
1745 657 0
1744 645 86
1742 560 640
1698 49 1562
1590 0 2601
1377 0 3549
1162 0 4074
1076 0 4095
1051 0 4095
1544 1655 0
1544 1652 0
1533 1628 385
1486 1493 1493
1343 974 2563
1041 0 3527
713 0 4063
638 0 4095
618 0 4095
653 2754 0
650 2754 0
630 2739 0
539 2677 1289
330 2508 2480
72 2182 3477
0 1866 4028
0 1741 4095
0 1703 4095
0 3760 0
0 3759 0
0 3748 0
0 3712 766
0 3611 2325
0 3437 3386
0 3291 3957
0 3242 4095
0 3226 4095
0 4095 0
0 4095 0
0 4095 0
0 4095 288
0 4095 2195
0 4065 3316
0 3961 3904
0 3927 4064
0 3912 4095
0 4095 0
0 4095 0
0 4095 0
0 4095 143
0 4095 2147
0 4095 3294
0 4095 3881
0 4095 4047
0 4095 4095
0 4095 0
0 4095 0
0 4095 0
0 4095 127
0 4095 2138
0 4095 3282
0 4095 3875
0 4095 4045
0 4095 4083
2939 0 153
2939 0 293
2931 0 727
2917 0 1592
2867 0 2614
2786 0 3555
2717 0 4080
2697 0 4095
2690 0 4095
2931 0 136
2931 0 278
2931 0 719
2912 0 1590
2862 0 2612
2783 0 3553
2714 0 4077
2694 0 4095
2682 0 4095
2917 497 44
2917 478 193
2914 358 684
2897 0 1578
2847 0 2602
2761 0 3550
2696 0 4077
2673 0 4095
2665 0 4095
2825 1612 0
2825 1606 0
2822 1582 456
2803 1437 1510
2753 869 2573
2664 0 3533
2592 0 4066
2568 0 4095
2561 0 4095
2567 2734 0
2566 2730 0
2563 2718 0
2538 2657 1308
2479 2483 2483
2375 2152 3480
2290 1826 4032
2262 1697 4095
2252 1657 4095
2028 3746 0
2024 3746 0
2019 3735 0
1987 3698 801
1896 3598 2333
1726 3422 3391
1576 3275 3960
1516 3225 4095
1496 3209 4095
1305 4095 0
1300 4095 0
1285 4095 0
1208 4095 328
1021 4095 2201
766 4056 3320
607 3952 3905
570 3912 4065
558 3905 4095
971 4095 0
968 4095 0
957 4095 0
900 4095 157
700 4095 2158
542 4095 3296
350 4095 3891
285 4095 4049
281 4090 4095
886 4095 0
886 4095 0
875 4095 0
799 4095 142
636 4095 2142
472 4095 3287
276 4095 3879
257 4095 4046
249 4095 4095
3975 0 311
3975 0 421
3969 0 787
3966 0 1618
3940 0 2621
3903 0 3565
3862 0 4086
3850 0 4095
3846 0 4095
3969 0 302
3969 0 407
3969 0 781
3963 0 1613
3940 0 2621
3903 0 3565
3861 0 4086
3846 0 4095
3841 0 4095
3967 140 217
3967 121 344
3965 26 750
3955 0 1602
3932 0 2618
3889 0 3562
3849 0 4086
3836 0 4095
3833 0 4095
3924 1533 0
3924 1528 14
3922 1500 554
3911 1344 1536
3882 702 2585
3832 0 3541
3790 0 4070
3777 0 4095
3773 0 4095
3779 2698 0
3779 2695 0
3774 2684 0
3762 2620 1338
3730 2442 2498
3675 2102 3487
3631 1757 4035
3619 1622 4095
3615 1576 4095
3513 3723 0
3513 3723 0
3513 3715 0
3496 3678 861
3459 3576 2346
3399 3399 3399
3346 3250 3970
3329 3200 4095
3326 3186 4095
3275 4095 0
3275 4095 0
3274 4095 0
3260 4095 388
3221 4095 2217
3150 4042 3325
3095 3935 3913
3077 3895 4074
3071 3882 4095
3199 4095 0
3199 4095 0
3196 4095 0
3177 4095 185
3135 4095 2175
3067 4095 3303
3006 4095 3892
2988 4081 4053
2979 4073 4095
3176 4095 0
3170 4095 0
3168 4095 0
3152 4095 158
3111 4095 2162
3036 4095 3298
2980 4095 3891
2961 4095 4049
2957 4095 4095
4095 0 414
4095 0 500
4095 0 833
4095 0 1638
4095 0 2634
4095 0 3567
4095 0 4086
4095 0 4095
4095 0 4095
4095 0 402
4095 0 492
4095 0 827
4095 0 1634
4095 0 2634
4095 0 3567
4095 0 4086
4095 0 4095
4095 0 4095
4095 0 340
4095 0 438
4095 0 797
4095 0 1622
4095 0 2625
4095 0 3565
4095 0 4086
4095 0 4095
4095 0 4095
4095 1469 11
4095 1462 64
4095 1433 618
4095 1263 1556
4095 584 2591
4095 0 3546
4095 0 4075
4095 0 4095
4095 0 4095
4095 2669 0
4095 2667 0
4095 2655 4
4095 2589 1364
4095 2410 2510
4095 2061 3496
4095 1705 4042
4095 1557 4095
4095 1508 4095
4095 3709 0
4095 3708 0
4095 3697 0
4095 3660 907
4095 3556 2359
4088 3376 3406
4077 3227 3971
4067 3177 4095
4067 3161 4095
4043 4095 0
4043 4095 0
4037 4095 0
4029 4095 426
4002 4095 2231
3955 4029 3333
3914 3914 3915
3907 3879 4077
3898 3865 4095
3988 4095 0
3988 4095 0
3987 4095 0
3975 4095 251
3945 4095 2183
3895 4095 3310
3858 4094 3897
3846 4065 4061
3837 4058 4095
3972 4095 0
3972 4095 0
3972 4095 0
3958 4095 182
3925 4095 2173
3878 4095 3301
3834 4095 3891
3831 4095 4052
3816 4095 4095
4095 0 436
4095 0 526
4095 0 842
4095 0 1642
4095 0 2634
4095 0 3567
4095 0 4089
4095 0 4095
4095 0 4095
4095 0 434
4095 0 514
4095 0 839
4095 0 1638
4095 0 2634
4095 0 3567
4095 0 4089
4095 0 4095
4095 0 4095
4095 0 373
4095 0 464
4095 0 810
4095 0 1627
4095 0 2630
4095 0 3566
4095 0 4086
4095 0 4095
4095 0 4095
4095 1445 23
4095 1439 95
4095 1407 638
4095 1236 1562
4095 547 2597
4095 0 3548
4095 0 4075
4095 0 4095
4095 0 4095
4095 2658 0
4095 2658 0
4095 2644 14
4095 2579 1371
4095 2400 2511
4095 2050 3496
4095 1684 4042
4095 1537 4095
4095 1484 4095
4095 3700 0
4095 3696 0
4095 3696 0
4095 3651 918
4095 3549 2361
4095 3372 3408
4095 3221 3973
4095 3172 4095
4095 3157 4095
4095 4095 0
4095 4095 0
4095 4095 0
4095 4095 436
4095 4095 2232
4095 4025 3339
4095 3910 3921
4095 3877 4080
4095 3863 4095
4095 4095 0
4095 4095 0
4095 4095 0
4095 4095 272
4095 4095 2192
4095 4095 3310
4074 4092 3898
4063 4063 4063
4061 4049 4095
4095 4095 0
4095 4095 0
4095 4095 0
4095 4095 204
4095 4095 2180
4091 4095 3310
4059 4095 3892
4047 4095 4061
4047 4095 4095
4095 0 450
4095 0 530
4095 0 854
4095 0 1642
4095 0 2634
4095 0 3567
4095 0 4089
4095 0 4095
4095 0 4095
4095 0 435
4095 0 526
4095 0 843
4095 0 1642
4095 0 2634
4095 0 3567
4095 0 4089
4095 0 4095
4095 0 4095
4095 0 373
4095 0 469
4095 0 819
4095 0 1628
4095 0 2631
4095 0 3566
4095 0 4086
4095 0 4095
4095 0 4095
4095 1439 29
4095 1436 105
4095 1406 640
4095 1223 1566
4095 540 2599
4095 0 3548
4095 0 4075
4095 0 4095
4095 0 4095
4095 2658 0
4095 2658 0
4095 2642 19
4095 2579 1374
4095 2395 2511
4095 2041 3496
4095 1683 4044
4095 1528 4095
4095 1480 4095
4095 3696 0
4095 3696 0
4095 3694 0
4095 3651 924
4095 3549 2362
4095 3371 3408
4095 3220 3973
4095 3171 4095
4095 3156 4095
4095 4095 0
4095 4095 0
4095 4095 0
4095 4095 440
4095 4095 2235
4095 4020 3339
4095 3907 3921
4095 3874 4080
4095 3863 4095
4095 4095 0
4095 4095 0
4095 4095 0
4095 4095 282
4095 4095 2195
4095 4095 3310
4095 4092 3898
4095 4063 4063
4095 4049 4095
4095 4095 0
4095 4095 0
4095 4095 0
4095 4095 205
4095 4095 2180
4095 4095 3310
4095 4095 3895
4095 4095 4061
4095 4095 4095
