Postproduction/IWLTBAP - Humble/LUTs by IWLTBAP (3DL)/UTILITY/Alexa Log-C to Rec.709/U-ALEXA-LOG-C-V4-LTR.3dl
# Copyright: (C) Copyright 2010-2018 by IWLTBAP SAS
# Cannot be resold, shared or otherwise redistributed
# Website: https://luts.iwltbap.com
0 64 128 192 256 320 384 448 512 576 640 704 768 832 896 960 1023
38 38 38
31 15 151
24 0 316
17 0 579
3 0 929
0 0 1344
0 0 1803
0 0 2252
0 0 2660
0 0 3017
0 0 3315
0 0 3541
0 0 3683
0 0 3729
0 0 3736
0 0 3743
0 0 3751
0 160 18
0 134 129
0 110 278
0 85 537
0 42 900
0 0 1325
0 0 1792
0 0 2247
0 0 2657
0 0 3016
0 0 3314
0 0 3540
0 0 3683
0 0 3729
0 0 3736
0 0 3743
0 0 3751
0 349 0
0 300 109
0 258 244
0 219 493
0 164 870
0 82 1306
0 0 1781
0 0 2241
0 0 2654
0 0 3015
0 0 3314
0 0 3540
0 0 3683
0 0 3729
0 0 3736
0 0 3743
0 0 3751
0 626 0
0 580 88
0 530 212
0 475 444
0 372 837
0 225 1286
0 68 1769
0 0 2235
0 0 2651
0 0 3013
0 0 3313
0 0 3540
0 0 3682
0 0 3729
0 0 3736
0 0 3743
0 0 3751
0 981 0
0 949 50
0 916 164
0 880 355
0 812 777
0 677 1249
0 378 1748
0 39 2224
0 0 2646
0 0 3011
0 0 3312
0 0 3540
0 0 3682
0 0 3729
0 0 3736
0 0 3743
0 0 3751
0 1400 0
0 1379 0
0 1359 94
0 1336 231
0 1295 657
0 1217 1179
0 1060 1708
0 686 2205
0 0 2636
0 0 3006
0 0 3310
0 0 3539
0 0 3682
0 0 3729
0 0 3736
0 0 3743
0 0 3751
0 1859 0
0 1848 0
0 1836 0
0 1823 92
0 1800 400
0 1756 1039
0 1672 1632
0 1499 2168
0 1070 2619
0 0 2998
0 0 3306
0 0 3537
0 0 3682
0 0 3729
0 0 3736
0 0 3743
0 0 3751
0 2303 0
0 2297 0
0 2291 0
0 2284 0
0 2273 83
0 2252 720
0 2212 1478
0 2134 2097
0 1966 2586
0 1510 2983
0 0 3300
0 0 3535
0 0 3681
0 0 3729
0 0 3736
0 0 3743
0 0 3751
0 2704 0
0 2701 0
0 2698 0
0 2695 0
0 2689 0
0 2679 67
0 2660 1112
0 2625 1946
0 2555 2522
0 2403 2954
0 1978 3287
0 0 3530
0 0 3680
0 0 3729
0 0 3736
0 0 3743
0 0 3751
0 3055 0
0 3054 0
0 3052 0
0 3051 0
0 3048 0
0 3043 0
0 3034 39
0 3018 1559
0 2988 2386
0 2927 2899
0 2795 3265
0 2414 3521
0 0 3677
0 0 3728
0 0 3736
0 0 3743
0 0 3751
0 3345 0
0 3344 0
0 3344 0
0 3343 0
0 3342 0
0 3340 0
0 3336 0
0 3329 0
0 3316 2027
0 3291 2780
0 3242 3219
0 3133 3505
0 2804 3672
0 0 3728
0 0 3736
0 0 3743
0 0 3751
0 3562 0
0 3561 0
0 3561 0
0 3561 0
0 3560 0
0 3560 0
0 3558 0
0 3556 0
0 3551 0
0 3542 2458
0 3524 3120
0 3489 3471
0 3406 3663
0 3140 3728
0 0 3736
0 0 3743
0 0 3751
0 3693 0
0 3693 0
0 3693 0
0 3693 0
0 3693 0
0 3692 0
0 3692 0
0 3691 0
0 3690 0
0 3688 0
0 3683 2844
0 3674 3396
0 3654 3644
0 3603 3727
0 3412 3735
0 0 3743
0 0 3751
0 3730 0
0 3730 0
0 3730 0
0 3730 0
0 3730 0
0 3730 0
0 3730 0
0 3729 0
0 3729 0
0 3729 0
0 3729 0
0 3729 3173
0 3728 3596
0 3726 3724
0 3711 3735
0 3607 3743
0 0 3750
0 3737 0
0 3737 0
0 3737 0
0 3737 0
0 3737 0
0 3737 0
0 3737 0
0 3737 0
0 3737 0
0 3737 0
0 3737 0
0 3736 0
0 3736 3437
0 3735 3708
0 3734 3734
0 3731 3742
0 3712 3750
0 3744 0
0 3744 0
0 3744 0
0 3744 0
0 3744 0
0 3744 0
0 3744 0
0 3744 0
0 3744 0
0 3744 0
0 3744 0
0 3744 0
0 3744 0
0 3743 3623
0 3743 3731
0 3742 3741
0 3739 3749
0 3752 0
0 3752 0
0 3752 0
0 3752 0
0 3752 0
0 3752 0
0 3752 0
0 3752 0
0 3752 0
0 3752 0
0 3752 0
0 3752 0
0 3751 0
0 3751 0
0 3751 3718
0 3750 3738
0 3749 3748
190 32 37
181 9 149
172 0 313
164 0 576
149 0 927
124 0 1342
81 0 1802
5 0 2252
0 0 2659
0 0 3017
0 0 3315
0 0 3541
0 0 3683
0 0 3729
0 0 3736
0 0 3743
0 0 3751
135 153 16
128 128 128
120 104 274
113 79 533
100 35 897
76 0 1324
33 0 1791
0 0 2246
0 0 2657
0 0 3016
0 0 3314
0 0 3540
0 0 3683
0 0 3729
0 0 3736
0 0 3743
0 0 3751
87 335 0
80 288 107
73 248 241
65 211 489
52 156 867
28 76 1305
0 0 1780
0 0 2241
0 0 2654
0 0 3014
0 0 3314
0 0 3540
0 0 3682
0 0 3729
0 0 3736
0 0 3743
0 0 3751
36 614 0
29 567 86
22 517 209
14 461 440
1 358 834
0 216 1284
0 62 1768
0 0 2235
0 0 2651
0 0 3013
0 0 3313
0 0 3540
0 0 3682
0 0 3729
0 0 3736
0 0 3743
0 0 3751
0 973 0
0 941 48
0 907 162
0 870 351
0 802 774
0 666 1247
0 364 1746
0 32 2224
0 0 2646
0 0 3010
0 0 3312
0 0 3540
0 0 3682
0 0 3729
0 0 3736
0 0 3743
0 0 3751
0 1394 0
0 1374 0
0 1353 92
0 1330 228
0 1289 654
0 1211 1177
0 1052 1707
0 675 2204
0 0 2636
0 0 3006
0 0 3310
0 0 3539
0 0 3682
0 0 3729
0 0 3736
0 0 3743
0 0 3751
0 1856 0
0 1844 0
0 1832 0
0 1820 90
0 1796 396
0 1753 1037
0 1668 1631
0 1494 2168
0 1063 2618
0 0 2998
0 0 3306
0 0 3537
0 0 3682
0 0 3729
0 0 3736
0 0 3743
0 0 3751
0 2301 0
0 2295 0
0 2289 0
0 2283 0
0 2271 81
0 2250 716
0 2210 1476
0 2132 2096
0 1964 2586
0 1506 2983
0 0 3300
0 0 3535
0 0 3681
0 0 3729
0 0 3736
0 0 3743
0 0 3751
0 2703 0
0 2700 0
0 2697 0
0 2694 0
0 2689 0
0 2678 65
0 2659 1110
0 2624 1946
0 2554 2522
0 2402 2954
0 1975 3287
0 0 3530
0 0 3680
0 0 3729
0 0 3736
0 0 3743
0 0 3751
0 3055 0
0 3053 0
0 3052 0
0 3050 0
0 3048 0
0 3043 0
0 3034 37
0 3018 1558
0 2987 2385
0 2927 2899
0 2794 3264
0 2413 3521
0 0 3677
0 0 3728
0 0 3736
0 0 3743
0 0 3751
0 3345 0
0 3344 0
0 3343 0
0 3343 0
0 3342 0
0 3339 0
0 3336 0
0 3329 0
0 3316 2026
0 3291 2779
0 3242 3219
0 3132 3505
0 2803 3672
0 0 3728
0 0 3736
0 0 3743
0 0 3751
0 3562 0
0 3561 0
0 3561 0
0 3561 0
0 3560 0
0 3560 0
0 3558 0
0 3555 0
0 3551 0
0 3542 2458
0 3524 3120
0 3489 3471
0 3406 3663
0 3140 3728
0 0 3736
0 0 3743
0 0 3751
0 3693 0
0 3693 0
0 3693 0
0 3693 0
0 3693 0
0 3692 0
0 3692 0
0 3691 0
0 3690 0
0 3688 0
0 3683 2843
0 3674 3396
0 3654 3644
0 3603 3727
0 3412 3735
0 0 3743
0 0 3751
0 3730 0
0 3730 0
0 3730 0
0 3730 0
0 3730 0
0 3730 0
0 3730 0
0 3729 0
0 3729 0
0 3729 0
0 3729 0
0 3729 3173
0 3728 3596
0 3726 3724
0 3711 3735
0 3607 3743
0 0 3750
0 3737 0
0 3737 0
0 3737 0
0 3737 0
0 3737 0
0 3737 0
0 3737 0
0 3737 0
0 3737 0
0 3737 0
0 3737 0
0 3736 0
0 3736 3437
0 3735 3708
0 3734 3734
0 3731 3742
0 3712 3750
0 3744 0
0 3744 0
0 3744 0
0 3744 0
0 3744 0
0 3744 0
0 3744 0
0 3744 0
0 3744 0
0 3744 0
0 3744 0
0 3744 0
0 3744 0
0 3743 3623
0 3743 3731
0 3742 3741
0 3739 3749
0 3752 0
0 3752 0
0 3752 0
0 3752 0
0 3752 0
0 3752 0
0 3752 0
0 3752 0
0 3752 0
0 3752 0
0 3752 0
0 3752 0
0 3751 0
0 3751 0
0 3751 3718
0 3750 3738
0 3749 3748
467 26 35
451 2 147
434 0 309
417 0 572
384 0 924
331 0 1340
251 0 1801
150 0 2251
13 0 2659
0 0 3017
0 0 3315
0 0 3541
0 0 3683
0 0 3729
0 0 3736
0 0 3743
0 0 3751
355 146 14
339 121 126
324 98 271
309 73 529
283 29 895
243 0 1322
184 0 1790
101 0 2246
0 0 2656
0 0 3016
0 0 3314
0 0 3540
0 0 3683
0 0 3729
0 0 3736
0 0 3743
0 0 3751
261 322 0
249 277 105
238 238 238
226 202 485
208 149 864
177 70 1303
130 0 1779
53 0 2240
0 0 2654
0 0 3014
0 0 3313
0 0 3540
0 0 3682
0 0 3729
0 0 3736
0 0 3743
0 0 3751
187 602 0
178 554 84
170 503 207
161 446 436
146 344 831
121 208 1282
79 56 1767
3 0 2234
0 0 2651
0 0 3013
0 0 3313
0 0 3540
0 0 3682
0 0 3729
0 0 3736
0 0 3743
0 0 3751
91 964 0
84 932 46
77 898 160
69 861 347
56 792 770
32 654 1245
0 350 1745
0 26 2223
0 0 2645
0 0 3010
0 0 3312
0 0 3540
0 0 3682
0 0 3729
0 0 3736
0 0 3743
0 0 3751
0 1389 0
0 1368 0
0 1347 90
0 1325 225
0 1283 650
0 1204 1175
0 1044 1705
0 663 2204
0 0 2636
0 0 3006
0 0 3310
0 0 3539
0 0 3682
0 0 3729
0 0 3736
0 0 3743
0 0 3751
0 1853 0
0 1841 0
0 1829 0
0 1816 88
0 1793 391
0 1749 1035
0 1664 1629
0 1489 2167
0 1055 2618
0 0 2998
0 0 3306
0 0 3537
0 0 3682
0 0 3729
0 0 3736
0 0 3743
0 0 3751
0 2300 0
0 2294 0
0 2288 0
0 2281 0
0 2269 79
0 2248 713
0 2208 1475
0 2130 2096
0 1961 2585
0 1501 2983
0 0 3300
0 0 3535
0 0 3681
0 0 3729
0 0 3736
0 0 3743
0 0 3751
0 2703 0
0 2700 0
0 2697 0
0 2693 0
0 2688 0
0 2677 63
0 2659 1108
0 2623 1945
0 2553 2521
0 2401 2954
0 1973 3287
0 0 3530
0 0 3680
0 0 3729
0 0 3736
0 0 3743
0 0 3751
0 3054 0
0 3053 0
0 3051 0
0 3050 0
0 3047 0
0 3042 0
0 3034 35
0 3018 1556
0 2987 2385
0 2926 2899
0 2794 3264
0 2411 3521
0 0 3677
0 0 3728
0 0 3736
0 0 3743
0 0 3751
0 3344 0
0 3344 0
0 3343 0
0 3343 0
0 3341 0
0 3339 0
0 3335 0
0 3328 0
0 3316 2025
0 3291 2779
0 3242 3219
0 3132 3505
0 2803 3672
0 0 3728
0 0 3736
0 0 3743
0 0 3751
0 3562 0
0 3561 0
0 3561 0
0 3561 0
0 3560 0
0 3560 0
0 3558 0
0 3555 0
0 3551 0
0 3542 2458
0 3524 3120
0 3488 3471
0 3406 3663
0 3140 3728
0 0 3736
0 0 3743
0 0 3751
0 3693 0
0 3693 0
0 3693 0
0 3693 0
0 3693 0
0 3692 0
0 3692 0
0 3691 0
0 3690 0
0 3688 0
0 3683 2843
0 3674 3396
0 3654 3644
0 3603 3727
0 3411 3735
0 0 3743
0 0 3751
0 3730 0
0 3730 0
0 3730 0
0 3730 0
0 3730 0
0 3730 0
0 3730 0
0 3729 0
0 3729 0
0 3729 0
0 3729 0
0 3729 3173
0 3728 3596
0 3726 3724
0 3711 3735
0 3606 3743
0 0 3750
0 3737 0
0 3737 0
0 3737 0
0 3737 0
0 3737 0
0 3737 0
0 3737 0
0 3737 0
0 3737 0
0 3737 0
0 3737 0
0 3736 0
0 3736 3437
0 3735 3708
0 3734 3734
0 3731 3742
0 3712 3750
0 3744 0
0 3744 0
0 3744 0
0 3744 0
0 3744 0
0 3744 0
0 3744 0
0 3744 0
0 3744 0
0 3744 0
0 3744 0
0 3744 0
0 3744 0
0 3743 3623
0 3743 3731
0 3742 3741
0 3739 3749
0 3752 0
0 3752 0
0 3752 0
0 3752 0
0 3752 0
0 3752 0
0 3752 0
0 3752 0
0 3752 0
0 3752 0
0 3752 0
0 3752 0
0 3751 0
0 3751 0
0 3751 3718
0 3750 3738
0 3749 3748
766 19 33
754 0 145
742 0 305
728 0 568
705 0 921
661 0 1339
578 0 1800
409 0 2251
169 0 2659
0 0 3017
0 0 3315
0 0 3541
0 0 3683
0 0 3729
0 0 3736
0 0 3743
0 0 3751
682 138 12
668 115 124
655 91 268
641 66 525
615 22 892
567 0 1320
475 0 1789
302 0 2245
118 0 2656
0 0 3015
0 0 3314
0 0 3540
0 0 3683
0 0 3729
0 0 3736
0 0 3743
