Postproduction/IWLTBAP - Humble/LUTs by IWLTBAP (3DL)/UTILITY/Alexa Log-C to Rec.709/U-ALEXA-LOG-C-V4-LTR.3dl
# Copyright: (C) Copyright 2010-2018 by IWLTBAP SAS
# Cannot be resold, shared or otherwise redistributed
# Website: https://luts.iwltbap.com
0 128 256 384 512 640 768 896 1023
38 38 38
24 0 316
3 0 929
0 0 1803
0 0 2660
0 0 3315
0 0 3683
0 0 3736
0 0 3751
0 349 0
0 258 244
0 164 870
0 0 1781
0 0 2654
0 0 3314
0 0 3683
0 0 3736
0 0 3751
0 981 0
0 916 164
0 812 777
0 378 1748
0 0 2646
0 0 3312
0 0 3682
0 0 3736
0 0 3751
0 1859 0
0 1836 0
0 1800 400
0 1672 1632
0 1070 2619
0 0 3306
0 0 3682
0 0 3736
0 0 3751
0 2704 0
0 2698 0
0 2689 0
0 2660 1112
0 2555 2522
0 1978 3287
0 0 3680
0 0 3736
0 0 3751
0 3345 0
0 3344 0
0 3342 0
0 3336 0
0 3316 2027
0 3242 3219
0 2804 3672
0 0 3736
0 0 3751
0 3693 0
0 3693 0
0 3693 0
0 3692 0
0 3690 0
0 3683 2844
0 3654 3644
0 3412 3735
0 0 3751
0 3737 0
0 3737 0
0 3737 0
0 3737 0
0 3737 0
0 3737 0
0 3736 3437
0 3734 3734
0 3712 3750
0 3752 0
0 3752 0
0 3752 0
0 3752 0
0 3752 0
0 3752 0
0 3751 0
0 3751 3718
0 3749 3748
467 26 35
434 0 309
384 0 924
251 0 1801
13 0 2659
0 0 3315
0 0 3683
0 0 3736
0 0 3751
261 322 0
238 238 238
208 149 864
130 0 1779
0 0 2654
0 0 3313
0 0 3682
0 0 3736
0 0 3751
91 964 0
77 898 160
56 792 770
0 350 1745
0 0 2645
0 0 3312
0 0 3682
0 0 3736
0 0 3751
0 1853 0
0 1829 0
0 1793 391
0 1664 1629
0 1055 2618
0 0 3306
0 0 3682
0 0 3736
0 0 3751
0 2703 0
0 2697 0
0 2688 0
0 2659 1108
0 2553 2521
0 1973 3287
0 0 3680
0 0 3736
0 0 3751
0 3344 0
0 3343 0
0 3341 0
0 3335 0
0 3316 2025
0 3242 3219
0 2803 3672
0 0 3736
0 0 3751
0 3693 0
0 3693 0
0 3693 0
0 3692 0
0 3690 0
0 3683 2843
0 3654 3644
0 3411 3735
0 0 3751
0 3737 0
0 3737 0
0 3737 0
0 3737 0
0 3737 0
0 3737 0
0 3736 3437
0 3734 3734
0 3712 3750
0 3752 0
0 3752 0
0 3752 0
0 3752 0
0 3752 0
0 3752 0
0 3751 0
0 3751 3718
0 3749 3748
1133 7 29
1117 0 298
1093 0 916
1011 0 1798
685 0 2658
0 0 3315
0 0 3683
0 0 3736
0 0 3751
1018 286 0
1000 211 229
972 130 856
878 0 1776
492 0 2653
0 0 3313
0 0 3682
0 0 3736
0 0 3751
819 939 0
796 871 154
761 761 761
642 311 1742
210 0 2644
0 0 3312
0 0 3682
0 0 3736
0 0 3751
68 1844 0
53 1820 0
32 1783 378
0 1653 1626
0 1032 2617
0 0 3306
0 0 3682
0 0 3736
0 0 3751
0 2700 0
0 2694 0
0 2685 0
0 2656 1102
0 2550 2520
0 1965 3287
0 0 3680
0 0 3736
0 0 3751
0 3344 0
0 3343 0
0 3341 0
0 3335 0
0 3315 2023
0 3241 3219
0 2801 3672
0 0 3736
0 0 3751
0 3693 0
0 3693 0
0 3693 0
0 3692 0
0 3690 0
0 3683 2843
0 3654 3644
0 3411 3735
0 0 3751
0 3737 0
0 3737 0
0 3737 0
0 3737 0
0 3737 0
0 3737 0
0 3736 3437
0 3734 3734
0 3712 3750
0 3752 0
0 3752 0
0 3752 0
0 3752 0
0 3752 0
0 3752 0
0 3751 0
0 3751 3718
0 3749 3748
2017 0 12
2012 0 266
2003 0 891
1976 0 1789
1881 0 2656
1458 0 3314
0 0 3683
0 0 3736
0 0 3751
1978 196 0
1972 140 205
1964 71 829
1935 0 1766
1833 0 2650
1378 0 3313
0 0 3682
0 0 3736
0 0 3751
1918 854 0
1911 778 135
1901 657 731
1870 213 1732
1757 0 2642
1247 0 3311
0 0 3682
0 0 3736
0 0 3751
1680 1814 0
1671 1788 0
1658 1750 339
1614 1614 1614
1459 955 2615
641 0 3305
0 0 3682
0 0 3736
0 0 3751
0 2693 0
0 2687 0
0 2678 0
0 2648 1081
0 2540 2517
0 1940 3287
0 0 3680
0 0 3736
0 0 3751
0 3342 0
0 3341 0
0 3339 0
0 3333 0
0 3313 2016
0 3239 3218
0 2795 3672
0 0 3736
0 0 3751
0 3693 0
0 3693 0
0 3692 0
0 3692 0
0 3690 0
0 3683 2841
0 3654 3644
0 3410 3735
0 0 3751
0 3737 0
0 3737 0
0 3737 0
0 3737 0
0 3737 0
0 3737 0
0 3736 3437
0 3734 3734
0 3712 3750
0 3752 0
0 3752 0
0 3752 0
0 3752 0
0 3752 0
0 3752 0
0 3751 0
0 3751 3718
0 3749 3748
2828 0 0
2826 0 185
2824 0 804
2818 0 1757
2796 0 2648
2718 0 3312
2351 0 3682
0 0 3736
0 0 3751
2818 0 0
2817 0 138
2815 0 737
2808 0 1734
2786 0 2642
2706 0 3311
2328 0 3682
0 0 3736
0 0 3751
2804 513 0
2803 405 79
2800 261 628
2793 13 1698
2770 0 2634
2688 0 3309
2293 0 3682
0 0 3736
0 0 3751
2756 1708 0
2754 1679 0
2752 1635 236
2744 1479 1576
2718 654 2606
2627 0 3304
2167 0 3681
0 0 3736
0 0 3751
2561 2668 0
2559 2662 0
2555 2652 0
2544 2621 1012
2507 2507 2507
2369 1852 3285
1458 0 3679
0 0 3736
0 0 3751
0 3337 0
0 3336 0
0 3334 0
0 3328 0
0 3308 1994
0 3232 3216
0 2775 3672
0 0 3736
0 0 3751
0 3692 0
0 3692 0
0 3692 0
0 3691 0
0 3689 0
0 3682 2836
0 3653 3643
0 3406 3735
0 0 3751
0 3737 0
0 3737 0
0 3737 0
0 3737 0
0 3737 0
0 3737 0
0 3736 3435
0 3734 3734
0 3712 3750
0 3752 0
0 3752 0
0 3752 0
0 3752 0
0 3752 0
0 3752 0
0 3751 0
0 3751 3718
0 3749 3748
3425 0 0
3425 0 0
3425 0 460
3423 0 1648
3419 0 2622
3405 0 3307
3354 0 3682
3090 0 3736
0 0 3751
3424 0 0
3423 0 0
3423 0 364
3422 0 1622
3417 0 2616
3403 0 3306
3351 0 3682
3085 0 3736
0 0 3751
3421 0 0
3420 0 0
3420 0 250
3419 0 1582
3414 0 2608
3400 0 3304
3347 0 3681
3077 0 3736
0 0 3751
3412 1245 0
3411 1196 0
3411 1120 37
3409 828 1441
3405 0 2579
3390 0 3298
3335 0 3681
3051 0 3736
0 0 3751
3380 2581 0
3380 2573 0
3379 2562 0
3378 2525 745
3373 2388 2474
3356 1476 3279
3294 0 3679
2954 0 3736
0 0 3751
3247 3321 0
3246 3319 0
3246 3317 0
3243 3311 0
3235 3289 1917
3209 3209 3209
3108 2704 3671
2368 0 3736
0 0 3751
0 3691 0
0 3690 0
0 3690 0
0 3690 0
0 3687 0
0 3680 2818
0 3650 3642
0 3393 3735
0 0 3751
0 3737 0
0 3737 0
0 3737 0
0 3737 0
0 3737 0
0 3737 0
0 3736 3432
0 3734 3734
0 3711 3750
0 3752 0
0 3752 0
0 3752 0
0 3752 0
0 3752 0
0 3752 0
0 3751 0
0 3751 3718
0 3749 3748
3715 0 0
3715 0 0
3715 0 0
3715 0 1172
3715 0 2531
3714 0 3289
3711 0 3680
3696 0 3736
3580 0 3751
3715 0 0
3715 0 0
3715 0 0
3715 0 1127
3715 0 2524
3714 0 3288
3710 0 3680
3696 0 3736
3579 0 3751
3715 0 0
3715 0 0
3715 0 0
3715 0 1057
3715 0 2514
3714 0 3286
3710 0 3679
3695 0 3736
3578 0 3751
3715 0 0
3714 0 0
3714 0 0
3714 0 791
3714 0 2479
3713 0 3280
3709 0 3679
3694 0 3736
3574 0 3751
3712 2153 0
3712 2138 0
3712 2115 0
3712 2036 0
3712 1698 2353
3711 0 3260
3707 0 3677
3690 0 3736
3560 0 3751
3704 3260 0
3704 3258 0
3704 3256 0
3704 3248 0
3703 3221 1594
3702 3121 3185
3697 2385 3669
3675 0 3736
3505 0 3751
3656 3685 0
3656 3685 0
3656 3684 0
3655 3684 0
3654 3681 0
3651 3673 2756
3639 3639 3639
3590 3346 3735
3107 0 3751
0 3737 0
0 3737 0
0 3737 0
0 3737 0
0 3737 0
0 3736 0
0 3736 3421
0 3734 3733
0 3708 3750
0 3752 0
0 3752 0
0 3752 0
0 3752 0
0 3752 0
0 3752 0
0 3751 0
0 3751 3717
0 3749 3748
3739 0 0
3739 0 0
3739 0 0
3739 0 0
3739 0 2079
3739 0 3225
3739 0 3673
3739 0 3736
3737 0 3751
3739 0 0
3739 0 0
3739 0 0
3739 0 0
3739 0 2064
3739 0 3223
3739 0 3673
3739 0 3736
3737 0 3751
3739 0 0
3739 0 0
3739 0 0
3739 0 0
3739 0 2042
3739 0 3221
3739 0 3673
3739 0 3736
3737 0 3751
3739 0 0
3739 0 0
3739 0 0
3739 0 0
3739 0 1967
3739 0 3213
3739 0 3672
3739 0 3736
3737 0 3751
3739 0 0
3739 0 0
3739 0 0
3739 0 0
3739 0 1652
3739 0 3188
3739 0 3670
3739 0 3736
3737 0 3751
3739 2940 0
3739 2937 0
3739 2931 0
3739 2913 0
3739 2851 0
3739 2578 3095
3739 0 3661
3738 0 3736
3737 0 3751
3738 3661 0
3738 3661 0
3738 3661 0
3738 3660 0
3738 3656 0
3738 3645 2489
3738 3597 3628
3737 3119 3735
3736 0 3751
3734 3736 0
3734 3736 0
3734 3736 0
3734 3736 0
3734 3736 0
3734 3736 0
3734 3735 3381
3733 3733 3733
3731 3693 3750
0 3751 0
0 3751 0
0 3751 0
0 3751 0
0 3751 0
0 3751 0
0 3751 0
0 3751 3715
0 3749 3748
3754 0 0
3754 0 0
3754 0 0
3754 0 0
3754 0 0
3754 0 2882
3754 0 3646
3754 0 3735
3753 0 3751
3754 0 0
3754 0 0
3754 0 0
3754 0 0
3754 0 0
3754 0 2879
3754 0 3646
3754 0 3735
3753 0 3751
3754 0 0
3754 0 0
3754 0 0
3754 0 0
3754 0 0
3754 0 2874
3754 0 3646
3754 0 3735
3753 0 3751
3754 0 0
3754 0 0
3754 0 0
3754 0 0
3754 0 0
3754 0 2856
3754 0 3645
3754 0 3735
3753 0 3751
3754 0 0
3754 0 0
3754 0 0
3754 0 0
3754 0 0
3754 0 2797
3754 0 3641
3754 0 3735
3753 0 3751
3754 0 0
3754 0 0
3754 0 0
3754 0 0
3754 0 0
3754 0 2539
3754 0 3630
3754 0 3735
3753 0 3751
3754 3496 0
3754 3495 0
3754 3494 0
3754 3491 0
3754 3480 0
3754 3442 0
3754 3259 3584
3753 0 3735
3753 0 3750
3753 3735 0
3753 3735 0
3753 3735 0
3753 3735 0
3753 3734 0
3753 3734 0
3753 3734 3196
3752 3731 3733
3752 3596 3750
3749 3751 0
3749 3751 0
3749 3751 0
3749 3751 0
3749 3751 0
3749 3751 0
3749 3751 0
3749 3750 3704
3748 3748 3748
