Postproduction/IWLTBAP - Humble/LUTs by IWLTBAP (3DL)/UTILITY/Alexa Log-C to Rec.709/U-ALEXA-LOG-C-V3-LTR.3dl
# Copyright: (C) Copyright 2010-2018 by IWLTBAP SAS
# Cannot be resold, shared or otherwise redistributed
# Website: https://luts.iwltbap.com
0 128 256 384 512 640 768 896 1023
38 38 38
24 0 316
3 0 929
0 0 1803
0 0 2746
0 0 3529
0 0 3974
0 0 4083
0 0 4095
0 349 0
0 258 244
0 164 870
0 0 1781
0 0 2740
0 0 3527
0 0 3974
0 0 4083
0 0 4095
0 981 0
0 916 164
0 812 777
0 378 1748
0 0 2730
0 0 3525
0 0 3974
0 0 4083
0 0 4095
0 1861 0
0 1836 0
0 1800 400
0 1672 1632
0 1070 2698
0 0 3519
0 0 3973
0 0 4083
0 0 4095
0 2798 0
0 2791 0
0 2781 0
0 2747 1112
0 2624 2586
0 1984 3496
0 0 3970
0 0 4083
0 0 4095
0 3565 0
0 3564 0
0 3562 0
0 3554 0
0 3530 2035
0 3441 3412
0 2918 3961
0 0 4082
0 0 4095
0 3988 0
0 3988 0
0 3988 0
0 3987 0
0 3984 0
0 3975 2964
0 3937 3924
0 3646 4082
0 0 4095
0 4084 0
0 4084 0
0 4084 0
0 4084 0
0 4084 0
0 4084 0
0 4083 3676
0 4079 4078
0 4017 4095
0 4095 0
0 4095 0
0 4095 0
0 4095 0
0 4095 0
0 4095 0
0 4095 0
0 4095 4027
0 4095 4095
467 26 35
434 0 309
384 0 924
251 0 1801
13 0 2745
0 0 3529
0 0 3974
0 0 4083
0 0 4095
261 322 0
238 238 238
208 149 864
130 0 1779
0 0 2739
0 0 3527
0 0 3974
0 0 4083
0 0 4095
91 964 0
77 898 160
56 792 770
0 350 1745
0 0 2729
0 0 3525
0 0 3974
0 0 4083
0 0 4095
0 1854 0
0 1830 0
0 1793 391
0 1664 1629
0 1055 2698
0 0 3518
0 0 3973
0 0 4083
0 0 4095
0 2797 0
0 2790 0
0 2779 0
0 2745 1108
0 2621 2585
0 1978 3496
0 0 3970
0 0 4083
0 0 4095
0 3565 0
0 3563 0
0 3561 0
0 3554 0
0 3530 2034
0 3440 3412
0 2916 3961
0 0 4082
0 0 4095
0 3988 0
0 3988 0
0 3988 0
0 3987 0
0 3984 0
0 3975 2964
0 3937 3924
0 3645 4082
0 0 4095
0 4084 0
0 4084 0
0 4084 0
0 4084 0
0 4084 0
0 4084 0
0 4083 3676
0 4079 4078
0 4017 4095
0 4095 0
0 4095 0
0 4095 0
0 4095 0
0 4095 0
0 4095 0
0 4095 0
0 4095 4027
0 4095 4095
1133 7 29
1117 0 298
1093 0 916
1011 0 1798
685 0 2745
0 0 3529
0 0 3974
0 0 4083
0 0 4095
1018 286 0
1000 211 229
972 130 856
878 0 1776
492 0 2738
0 0 3527
0 0 3974
0 0 4083
0 0 4095
819 939 0
796 871 154
761 761 761
642 311 1742
210 0 2728
0 0 3525
0 0 3974
0 0 4083
0 0 4095
68 1845 0
53 1820 0
32 1783 378
0 1653 1626
0 1032 2697
0 0 3518
0 0 3973
0 0 4083
0 0 4095
0 2794 0
0 2787 0
0 2776 0
0 2742 1102
0 2618 2584
0 1970 3495
0 0 3970
0 0 4083
0 0 4095
0 3564 0
0 3563 0
0 3561 0
0 3553 0
0 3529 2031
0 3439 3412
0 2914 3961
0 0 4082
0 0 4095
0 3988 0
0 3988 0
0 3988 0
0 3987 0
0 3984 0
0 3975 2963
0 3937 3924
0 3645 4082
0 0 4095
0 4084 0
0 4084 0
0 4084 0
0 4084 0
0 4084 0
0 4084 0
0 4083 3676
0 4079 4078
0 4017 4095
0 4095 0
0 4095 0
0 4095 0
0 4095 0
0 4095 0
0 4095 0
0 4095 0
0 4095 4027
0 4095 4095
2025 0 12
2019 0 266
2010 0 891
1982 0 1789
1882 0 2742
1458 0 3528
0 0 3974
0 0 4083
0 0 4095
1984 196 0
1978 140 205
1968 71 829
1938 0 1766
1834 0 2735
1378 0 3527
0 0 3974
0 0 4083
0 0 4095
1920 854 0
1914 778 135
1904 657 731
1871 213 1732
1757 0 2725
1247 0 3524
0 0 3974
0 0 4083
0 0 4095
1680 1814 0
1671 1789 0
1658 1750 339
1614 1614 1614
1459 955 2694
641 0 3518
0 0 3973
0 0 4083
0 0 4095
0 2785 0
0 2778 0
0 2767 0
0 2732 1081
0 2606 2580
0 1943 3495
0 0 3970
0 0 4083
0 0 4095
0 3562 0
0 3561 0
0 3559 0
0 3551 0
0 3527 2024
0 3437 3411
0 2906 3961
0 0 4082
0 0 4095
0 3988 0
0 3988 0
0 3988 0
0 3987 0
0 3984 0
0 3974 2961
0 3936 3924
0 3644 4082
0 0 4095
0 4084 0
0 4084 0
0 4084 0
0 4084 0
0 4084 0
0 4084 0
0 4083 3675
0 4079 4078
0 4017 4095
0 4095 0
0 4095 0
0 4095 0
0 4095 0
0 4095 0
0 4095 0
0 4095 0
0 4095 4027
0 4095 4095
2946 0 0
2944 0 185
2942 0 804
2934 0 1757
2908 0 2733
2815 0 3526
2391 0 3974
0 0 4083
0 0 4095
2935 0 0
2933 0 138
2930 0 737
2922 0 1734
2895 0 2726
2801 0 3525
2366 0 3974
0 0 4083
0 0 4095
2918 513 0
2916 405 79
2913 261 628
2905 13 1698
2877 0 2716
2780 0 3522
2326 0 3973
0 0 4083
0 0 4095
2860 1708 0
2858 1679 0
2855 1635 236
2845 1479 1576
2815 654 2684
2708 0 3515
2187 0 3973
0 0 4083
0 0 4095
2631 2756 0
2628 2749 0
2624 2737 0
2611 2701 1012
2569 2569 2569
2412 1853 3492
1458 0 3970
0 0 4083
0 0 4095
0 3556 0
0 3555 0
0 3553 0
0 3545 0
0 3520 2000
0 3428 3408
0 2882 3960
0 0 4082
0 0 4095
0 3987 0
0 3987 0
0 3987 0
0 3986 0
0 3983 0
0 3974 2955
0 3935 3924
0 3639 4082
0 0 4095
0 4084 0
0 4084 0
0 4084 0
0 4084 0
0 4084 0
0 4084 0
0 4083 3674
0 4079 4078
0 4017 4095
0 4095 0
0 4095 0
0 4095 0
0 4095 0
0 4095 0
0 4095 0
0 4095 0
0 4095 4027
0 4095 4095
3662 0 0
3662 0 0
3661 0 460
3660 0 1648
3655 0 2703
3638 0 3519
3576 0 3973
3251 0 4083
0 0 4095
3660 0 0
3660 0 0
3659 0 364
3657 0 1622
3652 0 2696
3635 0 3518
3573 0 3973
3245 0 4083
0 0 4095
3657 0 0
3656 0 0
3656 0 250
3654 0 1582
3649 0 2685
3632 0 3516
3568 0 3973
3235 0 4083
0 0 4095
3646 1245 0
3645 1196 0
3645 1120 37
3643 828 1441
3638 0 2651
3620 0 3509
3554 0 3972
3204 0 4083
0 0 4095
3608 2654 0
3607 2645 0
3607 2632 0
3605 2589 745
3599 2433 2531
3578 1476 3485
3503 0 3969
3092 0 4083
0 0 4095
3446 3536 0
3445 3534 0
3444 3532 0
3441 3524 0
3432 3498 1919
3399 3399 3399
3273 2798 3959
2411 0 4082
0 0 4095
0 3985 0
0 3985 0
0 3985 0
0 3984 0
0 3981 0
0 3971 2934
0 3931 3922
0 3623 4082
0 0 4095
0 4084 0
0 4084 0
0 4084 0
0 4084 0
0 4084 0
0 4084 0
0 4083 3670
0 4079 4078
0 4015 4095
0 4095 0
0 4095 0
0 4095 0
0 4095 0
0 4095 0
0 4095 0
0 4095 0
0 4095 4026
0 4095 4095
4022 0 0
4022 0 0
4022 0 0
4022 0 1172
4022 0 2596
4020 0 3498
4014 0 3970
3992 0 4083
3847 0 4095
4022 0 0
4022 0 0
4022 0 0
4022 0 1127
4021 0 2588
4020 0 3496
4014 0 3970
3992 0 4083
3846 0 4095
4022 0 0
4022 0 0
4022 0 0
4022 0 1057
4021 0 2576
4019 0 3494
4014 0 3970
3991 0 4083
3845 0 4095
4021 0 0
4021 0 0
4021 0 0
4020 0 791
4020 0 2537
4018 0 3486
4013 0 3969
3990 0 4083
3840 0 4095
4017 2171 0
4017 2155 0
4017 2130 0
4017 2045 0
4016 1698 2393
4015 0 3462
4009 0 3966
3984 0 4083
3823 0 4095
4004 3462 0
4004 3460 0
4004 3457 0
4004 3447 0
4003 3415 1594
4001 3290 3369
3994 2429 3956
3964 0 4082
3757 0 4095
3939 3977 0
3939 3977 0
3939 3976 0
3939 3976 0
3937 3972 0
3933 3962 2860
3918 3918 3918
3859 3567 4082
3272 0 4095
0 4084 0
0 4084 0
0 4084 0
0 4084 0
0 4084 0
0 4083 0
0 4083 3656
0 4079 4078
0 4010 4095
0 4095 0
0 4095 0
0 4095 0
0 4095 0
0 4095 0
0 4095 0
0 4095 0
0 4095 4025
0 4095 4095
4087 0 0
4087 0 0
4087 0 0
4087 0 0
4087 0 2091
4087 0 3419
4087 0 3961
4086 0 4082
4084 0 4095
4087 0 0
4087 0 0
4087 0 0
4087 0 0
4087 0 2075
4087 0 3417
4087 0 3961
4086 0 4082
4084 0 4095
4087 0 0
4087 0 0
4087 0 0
4087 0 0
4087 0 2052
4087 0 3414
4087 0 3961
4086 0 4082
4084 0 4095
4087 0 0
4087 0 0
4087 0 0
4087 0 0
4087 0 1972
4087 0 3405
4087 0 3960
4086 0 4082
4084 0 4095
4087 0 0
4087 0 0
4087 0 0
4087 0 0
4087 0 1652
4087 0 3374
4087 0 3957
4086 0 4082
4084 0 4095
4087 3077 0
4087 3072 0
4087 3066 0
4087 3046 0
4087 2974 0
4087 2651 3258
4086 0 3946
4086 0 4082
4084 0 4095
4085 3946 0
4085 3946 0
4085 3945 0
4085 3944 0
4085 3940 0
4085 3926 2548
4085 3868 3905
4084 3288 4081
4082 0 4095
4080 4083 0
4080 4083 0
4080 4083 0
4080 4083 0
4080 4083 0
4080 4083 0
4079 4082 3608
4078 4078 4078
4071 3989 4095
0 4095 0
0 4095 0
0 4095 0
0 4095 0
0 4095 0
0 4095 0
0 4095 0
0 4095 4021
0 4095 4095
4095 0 0
4095 0 0
4095 0 0
4095 0 0
4095 0 0
4095 0 3010
4095 0 3927
4095 0 4082
4095 0 4095
4095 0 0
4095 0 0
4095 0 0
4095 0 0
4095 0 0
4095 0 3006
4095 0 3927
4095 0 4082
4095 0 4095
4095 0 0
4095 0 0
4095 0 0
4095 0 0
4095 0 0
4095 0 3000
4095 0 3926
4095 0 4082
4095 0 4095
4095 0 0
4095 0 0
4095 0 0
4095 0 0
4095 0 0
4095 0 2980
4095 0 3925
4095 0 4082
4095 0 4095
4095 0 0
4095 0 0
4095 0 0
4095 0 0
4095 0 0
4095 0 2909
4095 0 3921
4095 0 4082
4095 0 4095
4095 0 0
4095 0 0
4095 0 0
4095 0 0
4095 0 0
4095 0 2606
4095 0 3907
4095 0 4081
4095 0 4095
4095 3746 0
4095 3746 0
4095 3744 0
4095 3740 0
4095 3728 0
4095 3682 0
4095 3461 3851
4095 0 4080
4095 0 4095
4095 4080 0
4095 4080 0
4095 4080 0
4095 4080 0
4095 4080 0
4095 4080 0
4095 4078 3383
4095 4072 4076
4095 3866 4095
4095 4095 0
4095 4095 0
4095 4095 0
4095 4095 0
4095 4095 0
4095 4095 0
4095 4095 0
4095 4095 4005
4095 4095 4095
