Postproduction/IWLTBAP - Humble/LUTs by IWLTBAP (3DL)/UTILITY/Alexa Log-C to Rec.709/U-ALEXA-LOG-C-V1-LTR.3dl
# Copyright: (C) Copyright 2010-2018 by IWLTBAP SAS
# Cannot be resold, shared or otherwise redistributed
# Website: https://luts.iwltbap.com
0 64 128 192 256 320 384 448 512 576 640 704 768 832 896 960 1023
100 100 100
100 100 100
100 100 137
100 100 366
100 100 677
100 100 1073
100 100 1599
100 100 2142
100 100 2659
100 100 3144
100 100 3548
100 100 3770
100 100 3779
100 100 3779
100 100 3779
100 100 3779
100 100 3779
100 100 100
100 100 100
100 100 137
100 100 366
100 100 677
100 100 1073
100 100 1599
100 100 2142
100 100 2659
100 100 3144
100 100 3548
100 100 3770
100 100 3779
100 100 3779
100 100 3779
100 100 3779
100 100 3779
100 143 100
100 143 100
100 136 134
100 102 362
100 100 675
100 100 1072
100 100 1599
100 100 2141
100 100 2659
100 100 3144
100 100 3547
100 100 3770
100 100 3779
100 100 3779
100 100 3779
100 100 3779
100 100 3779
100 399 100
100 399 100
100 393 108
100 348 339
100 239 663
100 103 1067
100 100 1596
100 100 2140
100 100 2658
100 100 3143
100 100 3547
100 100 3769
100 100 3779
100 100 3779
100 100 3779
100 100 3779
100 100 3779
100 726 100
100 726 100
100 723 100
100 701 284
100 649 636
100 469 1054
100 125 1590
100 100 2136
100 100 2655
100 100 3141
100 100 3545
100 100 3768
100 100 3779
100 100 3779
100 100 3779
100 100 3779
100 100 3779
100 1141 100
100 1141 100
100 1140 100
100 1129 149
100 1104 555
100 1035 1018
100 784 1572
100 258 2125
100 100 2648
100 100 3136
100 100 3541
100 100 3766
100 100 3779
100 100 3779
100 100 3779
100 100 3779
100 100 3779
100 1692 100
100 1692 100
100 1691 100
100 1686 100
100 1674 292
100 1640 913
100 1548 1525
100 1347 2098
100 882 2630
100 293 3123
100 100 3531
100 100 3760
100 100 3779
100 100 3779
100 100 3779
100 100 3779
100 100 3779
100 2261 100
100 2261 100
100 2260 100
100 2257 100
100 2249 100
100 2230 640
100 2179 1432
100 2079 2047
100 1913 2596
100 1638 3099
100 1124 3511
100 756 3748
100 634 3779
100 616 3779
100 616 3779
100 616 3779
100 616 3779
100 2803 100
100 2803 100
100 2802 100
100 2800 100
100 2795 100
100 2782 236
100 2748 1268
100 2685 1968
100 2586 2546
100 2442 3063
100 2268 3483
100 2126 3730
100 2042 3779
100 2032 3779
100 2032 3779
100 2032 3779
100 2032 3779
100 3312 100
100 3312 100
100 3311 100
100 3310 100
100 3306 100
100 3297 100
100 3272 920
100 3227 1852
100 3157 2476
100 3061 3013
100 2950 3444
100 2866 3701
100 2819 3779
100 2813 3779
100 2813 3779
100 2813 3779
100 2813 3779
100 3712 100
100 3712 100
100 3712 100
100 3711 100
100 3709 100
100 3704 100
100 3692 592
100 3666 1710
100 3613 2396
100 3539 2959
100 3456 3402
100 3394 3664
100 3360 3778
100 3356 3779
100 3356 3779
100 3356 3779
100 3356 3779
100 3779 100
100 3779 100
100 3779 100
100 3779 100
100 3779 100
100 3779 100
100 3779 295
100 3779 1593
100 3779 2335
100 3776 2918
100 3737 3371
100 3695 3638
100 3666 3764
100 3663 3777
100 3663 3777
100 3663 3777
100 3663 3777
100 3779 100
100 3779 100
100 3779 100
100 3779 100
100 3779 100
100 3779 100
100 3779 100
100 3779 1524
100 3779 2302
100 3779 2896
100 3779 3354
100 3779 3623
100 3779 3751
100 3779 3766
100 3779 3766
100 3779 3766
100 3779 3766
100 3779 100
100 3779 100
100 3779 100
100 3779 100
100 3779 100
100 3779 100
100 3779 100
100 3779 1515
100 3779 2298
100 3779 2893
100 3779 3352
100 3779 3621
100 3779 3749
100 3779 3764
100 3779 3764
100 3779 3764
100 3779 3764
100 3779 100
100 3779 100
100 3779 100
100 3779 100
100 3779 100
100 3779 100
100 3779 100
100 3779 1515
100 3779 2298
100 3779 2893
100 3779 3352
100 3779 3621
100 3779 3749
100 3779 3764
100 3779 3764
100 3779 3764
100 3779 3764
100 3779 100
100 3779 100
100 3779 100
100 3779 100
100 3779 100
100 3779 100
100 3779 100
100 3779 1515
100 3779 2298
100 3779 2893
100 3779 3352
100 3779 3621
100 3779 3749
100 3779 3764
100 3779 3764
100 3779 3764
100 3779 3764
100 3779 100
100 3779 100
100 3779 100
100 3779 100
100 3779 100
100 3779 100
100 3779 100
100 3779 1515
100 3779 2298
100 3779 2893
100 3779 3352
100 3779 3621
100 3779 3749
100 3779 3764
100 3779 3764
100 3779 3764
100 3779 3764
100 100 100
100 100 100
100 100 137
100 100 366
100 100 677
100 100 1073
100 100 1599
100 100 2142
100 100 2659
100 100 3144
100 100 3548
100 100 3770
100 100 3779
100 100 3779
100 100 3779
100 100 3779
100 100 3779
100 100 100
100 100 100
100 100 137
100 100 366
100 100 677
100 100 1073
100 100 1599
100 100 2142
100 100 2659
100 100 3144
100 100 3548
100 100 3770
100 100 3779
100 100 3779
100 100 3779
100 100 3779
100 100 3779
100 143 100
100 143 100
100 136 134
100 102 362
100 100 675
100 100 1072
100 100 1599
100 100 2141
100 100 2659
100 100 3144
100 100 3547
100 100 3770
100 100 3779
100 100 3779
100 100 3779
100 100 3779
100 100 3779
100 399 100
100 399 100
100 393 108
100 348 339
100 239 663
100 103 1067
100 100 1596
100 100 2140
100 100 2658
100 100 3143
100 100 3547
100 100 3769
100 100 3779
100 100 3779
100 100 3779
100 100 3779
100 100 3779
100 726 100
100 726 100
100 723 100
100 701 284
100 649 636
100 469 1054
100 125 1590
100 100 2136
100 100 2655
100 100 3141
100 100 3545
100 100 3768
100 100 3779
100 100 3779
100 100 3779
100 100 3779
100 100 3779
100 1141 100
100 1141 100
100 1140 100
100 1129 149
100 1104 555
100 1035 1018
100 784 1572
100 258 2125
100 100 2648
100 100 3136
100 100 3541
100 100 3766
100 100 3779
100 100 3779
100 100 3779
100 100 3779
100 100 3779
100 1692 100
100 1692 100
100 1691 100
100 1686 100
100 1674 292
100 1640 913
100 1548 1525
100 1347 2098
100 882 2630
100 293 3123
100 100 3531
100 100 3760
100 100 3779
100 100 3779
100 100 3779
100 100 3779
100 100 3779
100 2261 100
100 2261 100
100 2260 100
100 2257 100
100 2249 100
100 2230 640
100 2179 1432
100 2079 2047
100 1913 2596
100 1638 3099
100 1124 3511
100 756 3748
100 634 3779
100 616 3779
100 616 3779
100 616 3779
100 616 3779
100 2803 100
100 2803 100
100 2802 100
100 2800 100
100 2795 100
100 2782 236
100 2748 1268
100 2685 1968
100 2586 2546
100 2442 3063
100 2268 3483
100 2126 3730
100 2042 3779
100 2032 3779
100 2032 3779
100 2032 3779
100 2032 3779
100 3312 100
100 3312 100
100 3311 100
100 3310 100
100 3306 100
100 3297 100
100 3272 920
100 3227 1852
100 3157 2476
100 3061 3013
100 2950 3444
100 2866 3701
100 2819 3779
100 2813 3779
100 2813 3779
100 2813 3779
100 2813 3779
100 3712 100
100 3712 100
100 3712 100
100 3711 100
100 3709 100
100 3704 100
100 3692 592
100 3666 1710
100 3613 2396
100 3539 2959
100 3456 3402
100 3394 3664
100 3360 3778
100 3356 3779
100 3356 3779
100 3356 3779
100 3356 3779
100 3779 100
100 3779 100
100 3779 100
100 3779 100
100 3779 100
100 3779 100
100 3779 295
100 3779 1593
100 3779 2335
100 3776 2918
100 3737 3371
100 3695 3638
100 3666 3764
100 3663 3777
100 3663 3777
100 3663 3777
100 3663 3777
100 3779 100
100 3779 100
100 3779 100
100 3779 100
100 3779 100
100 3779 100
100 3779 100
100 3779 1524
100 3779 2302
100 3779 2896
100 3779 3354
100 3779 3623
100 3779 3751
100 3779 3766
100 3779 3766
100 3779 3766
100 3779 3766
100 3779 100
100 3779 100
100 3779 100
100 3779 100
100 3779 100
100 3779 100
100 3779 100
100 3779 1515
100 3779 2298
100 3779 2893
100 3779 3352
100 3779 3621
100 3779 3749
100 3779 3764
100 3779 3764
100 3779 3764
100 3779 3764
100 3779 100
100 3779 100
100 3779 100
100 3779 100
100 3779 100
100 3779 100
100 3779 100
100 3779 1515
100 3779 2298
100 3779 2893
100 3779 3352
100 3779 3621
100 3779 3749
100 3779 3764
100 3779 3764
100 3779 3764
100 3779 3764
100 3779 100
100 3779 100
100 3779 100
100 3779 100
100 3779 100
100 3779 100
100 3779 100
100 3779 1515
100 3779 2298
100 3779 2893
100 3779 3352
100 3779 3621
100 3779 3749
100 3779 3764
100 3779 3764
100 3779 3764
100 3779 3764
100 3779 100
100 3779 100
100 3779 100
100 3779 100
100 3779 100
100 3779 100
100 3779 100
100 3779 1515
100 3779 2298
100 3779 2893
100 3779 3352
100 3779 3621
100 3779 3749
100 3779 3764
100 3779 3764
100 3779 3764
100 3779 3764
148 100 100
148 100 100
146 100 138
130 100 366
102 100 677
100 100 1073
100 100 1599
100 100 2142
100 100 2659
100 100 3144
100 100 3548
100 100 3770
100 100 3779
100 100 3779
100 100 3779
100 100 3779
100 100 3779
148 100 100
148 100 100
146 100 138
130 100 366
102 100 677
100 100 1073
100 100 1599
100 100 2142
100 100 2659
100 100 3144
100 100 3548
100 100 3770
100 100 3779
100 100 3779
100 100 3779
100 100 3779
100 100 3779
138 142 100
138 142 100
136 135 134
118 101 362
100 100 675
100 100 1072
100 100 1599
100 100 2141
100 100 2659
100 100 3144
100 100 3547
100 100 3770
100 100 3779
100 100 3779
100 100 3779
100 100 3779
100 100 3779
100 399 100
100 399 100
100 393 108
100 348 339
100 238 663
100 103 1067
100 100 1596
100 100 2140
100 100 2658
100 100 3143
100 100 3547
100 100 3769
100 100 3779
100 100 3779
100 100 3779
100 100 3779
100 100 3779
100 726 100
100 726 100
100 723 100
100 701 284
100 648 637
100 468 1054
100 125 1590
100 100 2136
100 100 2655
100 100 3141
100 100 3545
100 100 3768
100 100 3779
100 100 3779
100 100 3779
100 100 3779
100 100 3779
100 1141 100
100 1141 100
100 1140 100
100 1129 149
100 1104 555
100 1034 1018
100 784 1572
100 257 2125
100 100 2648
100 100 3136
100 100 3541
100 100 3766
100 100 3779
100 100 3779
100 100 3779
100 100 3779
100 100 3779
100 1692 100
100 1692 100
100 1691 100
100 1686 100
100 1674 292
100 1640 914
100 1548 1525
100 1347 2098
100 882 2630
100 293 3123
100 100 3531
100 100 3760
100 100 3779
100 100 3779
100 100 3779
100 100 3779
100 100 3779
100 2260 100
100 2260 100
100 2260 100
100 2257 100
100 2249 100
100 2230 640
100 2179 1432
100 2079 2047
100 1913 2596
100 1638 3099
100 1124 3511
100 756 3748
100 634 3779
100 616 3779
100 616 3779
100 616 3779
100 616 3779
100 2803 100
100 2803 100
100 2802 100
100 2800 100
100 2795 100
100 2782 236
100 2748 1268
100 2685 1968
100 2586 2546
100 2442 3063
100 2268 3483
100 2126 3730
100 2042 3779
100 2031 3779
100 2031 3779
100 2031 3779
100 2031 3779
100 3312 100
100 3312 100
100 3311 100
100 3310 100
100 3306 100
100 3297 100
100 3272 921
100 3227 1852
100 3157 2476
100 3061 3013
100 2950 3444
100 2866 3701
100 2819 3779
100 2813 3779
100 2813 3779
100 2813 3779
100 2813 3779
100 3712 100
100 3712 100
100 3712 100
100 3711 100
100 3709 100
100 3704 100
100 3692 592
100 3666 1710
100 3613 2396
100 3539 2959
100 3456 3402
100 3394 3664
100 3360 3778
100 3356 3779
100 3356 3779
100 3356 3779
100 3356 3779
100 3779 100
100 3779 100
100 3779 100
100 3779 100
100 3779 100
100 3779 100
100 3779 295
100 3779 1593
100 3779 2335
100 3776 2918
100 3737 3371
100 3695 3638
100 3666 3764
100 3663 3777
100 3663 3777
100 3663 3777
100 3663 3777
100 3779 100
100 3779 100
100 3779 100
100 3779 100
100 3779 100
100 3779 100
100 3779 100
100 3779 1524
100 3779 2302
100 3779 2896
100 3779 3354
100 3779 3623
100 3779 3751
100 3779 3766
100 3779 3766
100 3779 3766
100 3779 3766
100 3779 100
100 3779 100
100 3779 100
100 3779 100
100 3779 100
100 3779 100
100 3779 100
100 3779 1515
100 3779 2298
100 3779 2893
100 3779 3352
100 3779 3621
100 3779 3749
100 3779 3764
100 3779 3764
100 3779 3764
100 3779 3764
100 3779 100
100 3779 100
100 3779 100
100 3779 100
100 3779 100
100 3779 100
100 3779 100
100 3779 1515
100 3779 2298
100 3779 2893
100 3779 3352
100 3779 3621
100 3779 3749
100 3779 3764
100 3779 3764
100 3779 3764
100 3779 3764
100 3779 100
100 3779 100
100 3779 100
100 3779 100
100 3779 100
100 3779 100
100 3779 100
100 3779 1515
100 3779 2298
100 3779 2893
100 3779 3352
100 3779 3621
100 3779 3749
100 3779 3764
100 3779 3764
100 3779 3764
100 3779 3764
100 3779 100
100 3779 100
100 3779 100
100 3779 100
100 3779 100
100 3779 100
100 3779 100
100 3779 1515
100 3779 2298
100 3779 2893
100 3779 3352
100 3779 3621
100 3779 3749
100 3779 3764
100 3779 3764
100 3779 3764
100 3779 3764
436 100 103
436 100 103
434 100 140
421 100 368
389 100 678
295 100 1074
126 100 1600
100 100 2142
100 100 2659
100 100 3144
100 100 3548
100 100 3770
100 100 3779
100 100 3779
100 100 3779
100 100 3779
100 100 3779
436 100 103
436 100 103
434 100 140
421 100 368
389 100 678
295 100 1074
126 100 1600
100 100 2142
100 100 2659
100 100 3144
100 100 3548
100 100 3770
100 100 3779
100 100 3779
100 100 3779
100 100 3779
