Postproduction/IWLTBAP - Humble/LUTs by IWLTBAP (3DL)/UTILITY/Alexa Log-C to Rec.709/U-ALEXA-LOG-C-V5-LTR.3dl
# Copyright: (C) Copyright 2010-2018 by IWLTBAP SAS
# Cannot be resold, shared or otherwise redistributed
# Website: https://luts.iwltbap.com
0 64 128 192 256 320 384 448 512 576 640 704 768 832 896 960 1023
0 0 0
0 0 2
0 0 140
0 0 373
0 0 661
0 0 1068
0 0 1570
0 0 2092
0 0 2602
0 0 3095
0 0 3549
0 0 3883
0 0 4074
0 0 4095
0 0 4095
0 0 4095
0 0 4095
0 2 0
0 2 2
0 0 140
0 0 373
0 0 661
0 0 1068
0 0 1570
0 0 2092
0 0 2602
0 0 3095
0 0 3549
0 0 3883
0 0 4074
0 0 4095
0 0 4095
0 0 4095
0 0 4095
0 171 0
0 170 0
0 128 126
0 78 360
0 4 656
0 0 1060
0 0 1568
0 0 2089
0 0 2602
0 0 3091
0 0 3549
0 0 3883
0 0 4074
0 0 4095
0 0 4095
0 0 4095
0 0 4095
0 419 0
0 419 0
0 391 94
0 354 341
0 246 644
0 32 1056
0 0 1568
0 0 2085
0 0 2602
0 0 3088
0 0 3549
0 0 3883
0 0 4074
0 0 4095
0 0 4095
0 0 4095
0 0 4095
0 722 0
0 722 0
0 707 39
0 688 293
0 635 621
0 474 1041
0 87 1554
0 0 2080
0 0 2594
0 0 3087
0 0 3549
0 0 3883
0 0 4074
0 0 4095
0 0 4095
0 0 4095
0 0 4095
0 1152 0
0 1152 0
0 1136 0
0 1124 150
0 1102 546
0 1025 1005
0 838 1535
0 425 2065
0 11 2585
0 0 3081
0 0 3538
0 0 3874
0 0 4071
0 0 4095
0 0 4095
0 0 4095
0 0 4095
0 1676 0
0 1676 0
0 1671 0
0 1665 1
0 1649 352
0 1607 915
0 1518 1488
0 1344 2033
0 1020 2560
0 466 3062
0 12 3525
0 0 3862
0 0 4063
0 0 4095
0 0 4095
0 0 4095
0 0 4095
0 2224 0
0 2224 0
0 2223 0
0 2218 0
0 2207 53
0 2180 748
0 2122 1406
0 2021 1983
0 1865 2524
0 1635 3039
0 1274 3504
0 786 3847
0 527 4047
0 378 4095
0 275 4095
0 232 4095
0 220 4095
0 2762 0
0 2762 0
0 2761 0
0 2757 0
0 2748 0
0 2729 438
0 2690 1276
0 2622 1910
0 2517 2475
0 2379 2997
0 2196 3471
0 2019 3819
0 1883 4025
0 1801 4095
0 1761 4095
0 1745 4095
0 1722 4095
0 3284 0
0 3284 0
0 3284 0
0 3284 0
0 3270 0
0 3257 74
0 3226 1083
0 3176 1809
0 3101 2404
0 3000 2945
0 2877 3432
0 2760 3782
0 2680 3994
0 2629 4094
0 2611 4095
0 2601 4095
0 2591 4095
0 3764 0
0 3764 0
0 3764 0
0 3764 0
0 3757 0
0 3744 0
0 3722 748
0 3678 1674
0 3619 2321
0 3542 2884
0 3448 3384
0 3360 3742
0 3299 3955
0 3265 4065
0 3252 4095
0 3242 4095
0 3236 4095
0 4077 0
0 4077 0
0 4077 0
0 4077 0
0 4077 0
0 4069 0
0 4054 466
0 4030 1545
0 3989 2243
0 3924 2832
0 3846 3342
0 3771 3707
0 3726 3923
0 3694 4032
0 3679 4082
0 3679 4095
0 3667 4095
0 4095 0
0 4095 0
0 4095 0
0 4095 0
0 4095 0
0 4095 0
0 4095 267
0 4095 1446
0 4095 2192
0 4095 2793
0 4069 3312
0 4018 3679
0 3971 3897
0 3943 4014
0 3927 4061
0 3927 4080
0 3923 4095
0 4095 0
0 4095 0
0 4095 0
0 4095 0
0 4095 0
0 4095 0
0 4095 153
0 4095 1392
0 4095 2156
0 4095 2769
0 4095 3294
0 4095 3663
0 4089 3890
0 4075 4002
0 4063 4049
0 4063 4064
0 4050 4095
0 4095 0
0 4095 0
0 4095 0
0 4095 0
0 4095 0
0 4095 0
0 4095 139
0 4095 1360
0 4095 2141
0 4095 2761
0 4095 3286
0 4095 3662
0 4095 3879
0 4095 3999
0 4095 4045
0 4095 4064
0 4095 4095
0 4095 0
0 4095 0
0 4095 0
0 4095 0
0 4095 0
0 4095 0
0 4095 132
0 4095 1351
0 4095 2140
0 4095 2761
0 4095 3283
0 4095 3662
0 4095 3879
0 4095 3999
0 4095 4045
0 4095 4063
0 4095 4094
0 4095 0
0 4095 0
0 4095 0
0 4095 0
0 4095 0
0 4095 0
0 4095 120
0 4095 1335
0 4095 2128
0 4095 2753
0 4095 3282
0 4095 3651
0 4095 3875
0 4095 3986
0 4095 4033
0 4095 4062
0 4095 4079
3 0 0
2 0 2
2 0 140
0 0 373
0 0 661
0 0 1068
0 0 1570
0 0 2092
0 0 2602
0 0 3095
0 0 3549
0 0 3883
0 0 4074
0 0 4095
0 0 4095
0 0 4095
0 0 4095
2 2 0
2 2 2
1 0 140
0 0 373
0 0 661
0 0 1068
0 0 1570
0 0 2092
0 0 2602
0 0 3095
0 0 3549
0 0 3883
0 0 4074
0 0 4095
0 0 4095
0 0 4095
0 0 4095
0 170 0
0 170 0
0 128 126
0 78 360
0 4 656
0 0 1060
0 0 1568
0 0 2089
0 0 2602
0 0 3091
0 0 3549
0 0 3883
0 0 4074
0 0 4095
0 0 4095
0 0 4095
0 0 4095
0 419 0
0 419 0
0 390 94
0 354 341
0 246 644
0 32 1056
0 0 1568
0 0 2085
0 0 2602
0 0 3088
0 0 3549
0 0 3883
0 0 4074
0 0 4095
0 0 4095
0 0 4095
0 0 4095
0 722 0
0 722 0
0 707 39
0 688 293
0 635 621
0 474 1041
0 87 1554
0 0 2080
0 0 2594
0 0 3087
0 0 3549
0 0 3883
0 0 4074
0 0 4095
0 0 4095
0 0 4095
0 0 4095
0 1152 0
0 1152 0
0 1136 0
0 1124 150
0 1102 546
0 1025 1005
0 838 1535
0 425 2065
0 11 2585
0 0 3081
0 0 3538
0 0 3874
0 0 4071
0 0 4095
0 0 4095
0 0 4095
0 0 4095
0 1676 0
0 1676 0
0 1671 0
0 1665 1
0 1649 352
0 1607 915
0 1516 1488
0 1344 2033
0 1020 2560
0 466 3062
0 12 3525
0 0 3862
0 0 4063
0 0 4095
0 0 4095
0 0 4095
0 0 4095
0 2224 0
0 2224 0
0 2223 0
0 2218 0
0 2207 53
0 2180 748
0 2122 1406
0 2021 1983
0 1865 2524
0 1635 3039
0 1274 3504
0 786 3847
0 527 4047
0 378 4095
0 275 4095
0 232 4095
0 220 4095
0 2762 0
0 2762 0
0 2761 0
0 2757 0
0 2748 0
0 2729 438
0 2690 1276
0 2622 1910
0 2517 2475
0 2379 2997
0 2196 3471
0 2019 3819
0 1883 4025
0 1801 4095
0 1761 4095
0 1745 4095
0 1722 4095
0 3284 0
0 3284 0
0 3284 0
0 3284 0
0 3270 0
0 3257 74
0 3226 1083
0 3176 1809
0 3101 2404
0 3000 2945
0 2877 3432
0 2760 3782
0 2680 3994
0 2629 4094
0 2611 4095
0 2601 4095
0 2591 4095
0 3764 0
0 3764 0
0 3764 0
0 3764 0
0 3757 0
0 3744 0
0 3722 748
0 3678 1674
0 3619 2321
0 3542 2884
0 3448 3384
0 3360 3742
0 3299 3955
0 3265 4065
0 3252 4095
0 3242 4095
0 3236 4095
0 4077 0
0 4077 0
0 4077 0
0 4077 0
0 4077 0
0 4069 0
0 4054 466
0 4030 1545
0 3989 2243
0 3924 2832
0 3846 3342
0 3771 3707
0 3726 3923
0 3694 4032
0 3679 4082
0 3679 4095
0 3667 4095
0 4095 0
0 4095 0
0 4095 0
0 4095 0
0 4095 0
0 4095 0
0 4095 267
0 4095 1446
0 4095 2192
0 4095 2793
0 4069 3312
0 4018 3679
0 3971 3897
0 3943 4014
0 3927 4061
0 3927 4080
0 3923 4095
0 4095 0
0 4095 0
0 4095 0
0 4095 0
0 4095 0
0 4095 0
0 4095 153
0 4095 1392
0 4095 2156
0 4095 2769
0 4095 3294
0 4095 3663
0 4089 3890
0 4075 4002
0 4063 4049
0 4063 4064
0 4050 4095
0 4095 0
0 4095 0
0 4095 0
0 4095 0
0 4095 0
0 4095 0
0 4095 139
0 4095 1360
0 4095 2141
0 4095 2761
0 4095 3286
0 4095 3662
0 4095 3879
0 4095 3999
0 4095 4045
0 4095 4064
0 4095 4095
0 4095 0
0 4095 0
0 4095 0
0 4095 0
0 4095 0
0 4095 0
0 4095 132
0 4095 1351
0 4095 2140
0 4095 2761
0 4095 3283
0 4095 3662
0 4095 3879
0 4095 3999
0 4095 4045
0 4095 4063
0 4095 4094
0 4095 0
0 4095 0
0 4095 0
0 4095 0
0 4095 0
0 4095 0
0 4095 120
0 4095 1335
0 4095 2128
0 4095 2753
0 4095 3282
0 4095 3651
0 4095 3875
0 4095 3986
0 4095 4033
0 4095 4062
0 4095 4079
188 0 0
188 0 2
186 0 140
159 0 373
122 0 661
31 0 1068
0 0 1570
0 0 2092
0 0 2602
0 0 3095
0 0 3549
0 0 3883
0 0 4074
0 0 4095
0 0 4095
0 0 4095
0 0 4095
188 2 0
188 1 2
186 0 140
157 0 373
120 0 661
30 0 1068
0 0 1570
0 0 2092
0 0 2602
0 0 3095
0 0 3549
0 0 3883
0 0 4074
0 0 4095
0 0 4095
0 0 4095
0 0 4095
140 157 0
140 156 0
126 124 126
108 67 360
69 4 657
6 0 1060
0 0 1568
0 0 2089
0 0 2602
0 0 3091
0 0 3549
0 0 3883
0 0 4074
0 0 4095
0 0 4095
0 0 4095
0 0 4095
52 409 0
51 409 0
41 389 95
24 345 341
6 244 644
0 32 1056
0 0 1568
0 0 2085
0 0 2602
0 0 3088
0 0 3549
0 0 3883
0 0 4074
0 0 4095
0 0 4095
0 0 4095
0 0 4095
0 722 0
0 722 0
0 707 40
0 686 294
0 635 621
0 474 1042
0 86 1554
0 0 2080
0 0 2594
0 0 3087
0 0 3549
0 0 3883
0 0 4074
0 0 4095
0 0 4095
0 0 4095
0 0 4095
0 1149 0
0 1148 0
0 1136 0
0 1123 150
0 1099 547
0 1024 1005
0 838 1535
0 420 2065
0 11 2585
0 0 3081
0 0 3538
0 0 3875
0 0 4071
0 0 4095
0 0 4095
0 0 4095
0 0 4095
0 1676 0
0 1676 0
0 1671 0
0 1665 1
0 1648 352
0 1607 915
0 1515 1488
0 1344 2033
0 1017 2560
0 463 3062
0 12 3525
0 0 3863
0 0 4063
0 0 4095
0 0 4095
0 0 4095
0 0 4095
0 2224 0
0 2224 0
0 2223 0
0 2215 0
0 2207 53
0 2180 748
0 2122 1406
0 2021 1983
0 1865 2524
0 1635 3039
0 1272 3504
0 784 3847
0 527 4047
0 377 4095
0 275 4095
0 232 4095
0 220 4095
0 2762 0
0 2762 0
0 2759 0
0 2757 0
0 2748 0
0 2729 438
0 2690 1277
0 2620 1910
0 2517 2475
0 2379 2997
0 2196 3473
0 2019 3819
0 1882 4025
0 1798 4095
0 1761 4095
0 1745 4095
0 1722 4095
0 3284 0
0 3284 0
0 3284 0
0 3284 0
0 3270 0
0 3257 74
0 3226 1083
0 3175 1809
0 3101 2404
0 3000 2946
0 2877 3432
0 2760 3782
0 2677 3994
0 2627 4094
0 2611 4095
0 2601 4095
0 2591 4095
0 3764 0
0 3764 0
0 3764 0
0 3764 0
0 3757 0
0 3744 0
0 3722 748
0 3678 1674
0 3619 2321
0 3542 2884
0 3448 3384
0 3360 3742
0 3299 3955
0 3265 4065
0 3251 4095
0 3242 4095
0 3236 4095
0 4077 0
0 4077 0
0 4077 0
0 4077 0
0 4077 0
0 4069 0
0 4054 466
0 4030 1545
0 3989 2243
0 3924 2832
0 3846 3342
0 3771 3707
0 3726 3923
0 3694 4032
0 3679 4082
0 3679 4095
0 3667 4095
0 4095 0
0 4095 0
0 4095 0
0 4095 0
0 4095 0
0 4095 0
0 4095 267
0 4095 1446
0 4095 2192
0 4095 2793
0 4069 3312
0 4018 3679
0 3971 3897
0 3943 4014
0 3927 4061
0 3927 4080
0 3923 4095
0 4095 0
0 4095 0
0 4095 0
0 4095 0
0 4095 0
0 4095 0
0 4095 153
0 4095 1392
0 4095 2156
0 4095 2769
0 4095 3294
0 4095 3663
0 4089 3890
0 4075 4002
0 4063 4049
0 4063 4064
0 4050 4095
0 4095 0
0 4095 0
0 4095 0
0 4095 0
0 4095 0
0 4095 0
0 4095 139
0 4095 1360
0 4095 2141
0 4095 2761
0 4095 3286
0 4095 3662
0 4095 3879
0 4095 3999
0 4095 4045
0 4095 4064
0 4095 4095
0 4095 0
0 4095 0
0 4095 0
0 4095 0
0 4095 0
0 4095 0
0 4095 132
0 4095 1351
0 4095 2140
0 4095 2761
0 4095 3283
0 4095 3662
0 4095 3879
0 4095 3999
0 4095 4045
0 4095 4063
0 4095 4095
0 4095 0
0 4095 0
0 4095 0
0 4095 0
0 4095 0
0 4095 0
0 4095 120
0 4095 1335
0 4095 2128
0 4095 2753
0 4095 3282
0 4095 3651
0 4095 3875
0 4095 3986
0 4095 4033
0 4095 4062
0 4095 4079
456 0 0
456 0 2
453 0 142
440 0 373
419 0 670
341 0 1068
160 0 1570
2 0 2092
0 0 2602
0 0 3095
0 0 3549
0 0 3883
0 0 4074
0 0 4095
0 0 4095
0 0 4095
0 0 4095
456 1 0
456 1 2
452 0 141
440 0 373
418 0 670
341 0 1068
159 0 1570
2 0 2092
0 0 2602
0 0 3095
0 0 3549
0 0 3883
0 0 4074
0 0 4095
0 0 4095
0 0 4095
