Postproduction/IWLTBAP - Humble/LUTs by IWLTBAP (3DL)/UTILITY/Alexa Log-C to Rec.709/U-ALEXA-LOG-C-V3-LTR.3dl
# Copyright: (C) Copyright 2010-2018 by IWLTBAP SAS
# Cannot be resold, shared or otherwise redistributed
# Website: https://luts.iwltbap.com
0 64 128 192 256 320 384 448 512 576 640 704 768 832 896 960 1023
38 38 38
31 15 151
24 0 316
17 0 579
3 0 929
0 0 1344
0 0 1803
0 0 2281
0 0 2746
0 0 3164
0 0 3529
0 0 3800
0 0 3974
0 0 4060
0 0 4083
0 0 4093
0 0 4095
0 160 18
0 134 129
0 110 278
0 85 537
0 42 900
0 0 1325
0 0 1792
0 0 2275
0 0 2743
0 0 3163
0 0 3528
0 0 3800
0 0 3974
0 0 4060
0 0 4083
0 0 4093
0 0 4095
0 349 0
0 300 109
0 258 244
0 219 493
0 164 870
0 82 1306
0 0 1781
0 0 2268
0 0 2740
0 0 3161
0 0 3527
0 0 3799
0 0 3974
0 0 4060
0 0 4083
0 0 4093
0 0 4095
0 626 0
0 580 88
0 530 212
0 475 444
0 372 837
0 225 1286
0 68 1769
0 0 2262
0 0 2736
0 0 3160
0 0 3527
0 0 3799
0 0 3974
0 0 4060
0 0 4083
0 0 4093
0 0 4095
0 981 0
0 949 50
0 916 164
0 880 355
0 812 777
0 677 1249
0 378 1748
0 39 2250
0 0 2730
0 0 3157
0 0 3525
0 0 3799
0 0 3974
0 0 4060
0 0 4083
0 0 4093
0 0 4095
0 1400 0
0 1379 0
0 1359 94
0 1336 231
0 1295 657
0 1217 1179
0 1060 1708
0 686 2228
0 0 2719
0 0 3152
0 0 3523
0 0 3798
0 0 3973
0 0 4060
0 0 4083
0 0 4093
0 0 4095
0 1861 0
0 1849 0
0 1836 0
0 1823 92
0 1800 400
0 1756 1039
0 1672 1632
0 1499 2188
0 1070 2698
0 0 3142
0 0 3519
0 0 3796
0 0 3973
0 0 4059
0 0 4083
0 0 4093
0 0 4095
0 2337 0
0 2330 0
0 2324 0
0 2316 0
0 2304 83
0 2280 720
0 2236 1478
0 2151 2110
0 1972 2660
0 1510 3125
0 0 3511
0 0 3793
0 0 3972
0 0 4059
0 0 4083
0 0 4093
0 0 4095
0 2798 0
0 2795 0
0 2791 0
0 2788 0
0 2781 0
0 2769 67
0 2747 1112
0 2705 1951
0 2624 2586
0 2450 3093
0 1984 3496
0 0 3787
0 0 3970
0 0 4059
0 0 4083
0 0 4093
0 0 4095
0 3209 0
0 3207 0
0 3205 0
0 3203 0
0 3200 0
0 3195 0
0 3184 39
0 3166 1559
0 3131 2430
0 3062 3029
0 2907 3468
0 2462 3777
0 0 3967
0 0 4058
0 0 4083
0 0 4092
0 0 4095
0 3565 0
0 3565 0
0 3564 0
0 3563 0
0 3562 0
0 3559 0
0 3554 0
0 3546 0
0 3530 2035
0 3501 2888
0 3441 3412
0 3304 3757
0 2918 3961
0 0 4057
0 0 4082
0 0 4092
0 0 4095
0 3825 0
0 3825 0
0 3824 0
0 3824 0
0 3824 0
0 3823 0
0 3821 0
0 3818 0
0 3812 0
0 3801 2513
0 3780 3288
0 3738 3717
0 3639 3949
0 3314 4055
0 0 4082
0 0 4092
0 0 4095
0 3988 0
0 3988 0
0 3988 0
0 3988 0
0 3988 0
0 3988 0
0 3987 0
0 3986 0
0 3984 0
0 3981 0
0 3975 2964
0 3963 3627
0 3937 3924
0 3874 4050
0 3646 4082
0 0 4092
0 0 4095
0 4065 0
0 4065 0
0 4065 0
0 4065 0
0 4065 0
0 4065 0
0 4065 0
0 4065 0
0 4064 0
0 4064 0
0 4062 0
0 4060 3355
0 4055 3866
0 4045 4039
0 4015 4081
0 3879 4092
0 0 4095
0 4084 0
0 4084 0
0 4084 0
0 4084 0
0 4084 0
0 4084 0
0 4084 0
0 4084 0
0 4084 0
0 4084 0
0 4084 0
0 4083 0
0 4083 3676
0 4082 4011
0 4079 4078
0 4073 4091
0 4017 4095
0 4094 0
0 4094 0
0 4094 0
0 4094 0
0 4094 0
0 4094 0
0 4094 0
0 4094 0
0 4094 0
0 4094 0
0 4094 0
0 4093 0
0 4093 0
0 4093 3898
0 4092 4072
0 4090 4089
0 4086 4095
0 4095 0
0 4095 0
0 4095 0
0 4095 0
0 4095 0
0 4095 0
0 4095 0
0 4095 0
0 4095 0
0 4095 0
0 4095 0
0 4095 0
0 4095 0
0 4095 0
0 4095 4027
0 4095 4086
0 4095 4095
190 32 37
181 9 149
172 0 313
164 0 576
149 0 927
124 0 1342
81 0 1802
5 0 2280
0 0 2746
0 0 3164
0 0 3529
0 0 3800
0 0 3974
0 0 4060
0 0 4083
0 0 4093
0 0 4095
135 153 16
128 128 128
120 104 274
113 79 533
100 35 897
76 0 1324
33 0 1791
0 0 2274
0 0 2742
0 0 3163
0 0 3528
0 0 3800
0 0 3974
0 0 4060
0 0 4083
0 0 4093
0 0 4095
87 335 0
80 288 107
73 248 241
65 211 489
52 156 867
28 76 1305
0 0 1780
0 0 2268
0 0 2739
0 0 3161
0 0 3527
0 0 3799
0 0 3974
0 0 4060
0 0 4083
0 0 4093
0 0 4095
36 614 0
29 567 86
22 517 209
14 461 440
1 358 834
0 216 1284
0 62 1768
0 0 2261
0 0 2736
0 0 3160
0 0 3527
0 0 3799
0 0 3974
0 0 4060
0 0 4083
0 0 4093
0 0 4095
0 973 0
0 941 48
0 907 162
0 870 351
0 802 774
0 666 1247
0 364 1746
0 32 2249
0 0 2730
0 0 3157
0 0 3525
0 0 3799
0 0 3974
0 0 4060
0 0 4083
0 0 4093
0 0 4095
0 1394 0
0 1374 0
0 1353 92
0 1330 228
0 1289 654
0 1211 1177
0 1052 1707
0 675 2228
0 0 2718
0 0 3152
0 0 3523
0 0 3798
0 0 3973
0 0 4060
0 0 4083
0 0 4093
0 0 4095
0 1857 0
0 1845 0
0 1833 0
0 1820 90
0 1796 396
0 1753 1037
0 1668 1631
0 1494 2187
0 1063 2698
0 0 3142
0 0 3518
0 0 3796
0 0 3973
0 0 4059
0 0 4083
0 0 4093
0 0 4095
0 2335 0
0 2328 0
0 2322 0
0 2314 0
0 2302 81
0 2278 716
0 2234 1476
0 2148 2110
0 1969 2659
0 1506 3125
0 0 3510
0 0 3793
0 0 3972
0 0 4059
0 0 4083
0 0 4093
0 0 4095
0 2798 0
0 2794 0
0 2790 0
0 2787 0
0 2780 0
0 2768 65
0 2746 1110
0 2704 1950
0 2623 2585
0 2449 3093
0 1981 3496
0 0 3787
0 0 3970
0 0 4059
0 0 4083
0 0 4093
0 0 4095
0 3208 0
0 3207 0
0 3205 0
0 3203 0
0 3200 0
0 3194 0
0 3184 37
0 3165 1558
0 3130 2430
0 3062 3029
0 2906 3468
0 2461 3777
0 0 3967
0 0 4058
0 0 4083
0 0 4092
0 0 4095
0 3565 0
0 3564 0
0 3564 0
0 3563 0
0 3561 0
0 3559 0
0 3554 0
0 3546 0
0 3530 2034
0 3500 2888
0 3440 3412
0 3304 3757
0 2917 3961
0 0 4057
0 0 4082
0 0 4092
0 0 4095
0 3825 0
0 3825 0
0 3824 0
0 3824 0
0 3823 0
0 3823 0
0 3821 0
0 3818 0
0 3812 0
0 3801 2513
0 3780 3288
0 3738 3717
0 3639 3949
0 3313 4055
0 0 4082
0 0 4092
0 0 4095
0 3988 0
0 3988 0
0 3988 0
0 3988 0
0 3988 0
0 3988 0
0 3987 0
0 3986 0
0 3984 0
0 3981 0
0 3975 2964
0 3963 3627
0 3937 3924
0 3874 4050
0 3646 4082
0 0 4092
0 0 4095
0 4065 0
0 4065 0
0 4065 0
0 4065 0
0 4065 0
0 4065 0
0 4065 0
0 4065 0
0 4064 0
0 4064 0
0 4062 0
0 4060 3355
0 4055 3866
0 4045 4039
0 4015 4081
0 3879 4092
0 0 4095
0 4084 0
0 4084 0
0 4084 0
0 4084 0
0 4084 0
0 4084 0
0 4084 0
0 4084 0
0 4084 0
0 4084 0
0 4084 0
0 4083 0
0 4083 3676
0 4082 4011
0 4079 4078
0 4073 4091
0 4017 4095
0 4094 0
0 4094 0
0 4094 0
0 4094 0
0 4094 0
0 4094 0
0 4094 0
0 4094 0
0 4094 0
0 4094 0
0 4094 0
0 4093 0
0 4093 0
0 4093 3898
0 4092 4072
0 4090 4089
0 4086 4095
0 4095 0
0 4095 0
0 4095 0
0 4095 0
0 4095 0
0 4095 0
0 4095 0
0 4095 0
0 4095 0
0 4095 0
0 4095 0
0 4095 0
0 4095 0
0 4095 0
0 4095 4027
0 4095 4086
0 4095 4095
467 26 35
451 2 147
434 0 309
417 0 572
384 0 924
331 0 1340
251 0 1801
150 0 2280
13 0 2745
0 0 3164
0 0 3529
0 0 3800
0 0 3974
0 0 4060
0 0 4083
0 0 4093
0 0 4095
355 146 14
339 121 126
324 98 271
309 73 529
283 29 895
243 0 1322
184 0 1790
101 0 2273
0 0 2742
0 0 3163
0 0 3528
0 0 3800
0 0 3974
0 0 4060
0 0 4083
0 0 4093
0 0 4095
261 322 0
249 277 105
238 238 238
226 202 485
208 149 864
177 70 1303
130 0 1779
53 0 2267
0 0 2739
0 0 3161
0 0 3527
0 0 3799
0 0 3974
0 0 4060
0 0 4083
0 0 4093
0 0 4095
187 602 0
178 554 84
170 503 207
161 446 436
146 344 831
121 208 1282
79 56 1767
3 0 2260
0 0 2735
0 0 3159
0 0 3527
0 0 3799
0 0 3974
0 0 4060
0 0 4083
0 0 4093
0 0 4095
91 964 0
84 932 46
77 898 160
69 861 347
56 792 770
32 654 1245
0 350 1745
0 26 2249
0 0 2729
0 0 3157
0 0 3525
0 0 3799
0 0 3974
0 0 4060
0 0 4083
0 0 4093
0 0 4095
0 1389 0
0 1368 0
0 1347 90
0 1325 225
0 1283 650
0 1204 1175
0 1044 1705
0 663 2227
0 0 2718
0 0 3151
0 0 3523
0 0 3798
0 0 3973
0 0 4060
0 0 4083
0 0 4093
0 0 4095
0 1854 0
0 1842 0
0 1830 0
0 1817 88
0 1793 391
0 1749 1035
0 1664 1629
0 1489 2187
0 1055 2698
0 0 3142
0 0 3518
0 0 3796
0 0 3973
0 0 4059
0 0 4083
0 0 4093
0 0 4095
0 2333 0
0 2327 0
0 2320 0
0 2313 0
0 2300 79
0 2276 713
0 2232 1475
0 2146 2109
0 1966 2659
0 1501 3125
0 0 3510
0 0 3793
0 0 3972
0 0 4059
0 0 4083
0 0 4093
0 0 4095
0 2797 0
0 2793 0
0 2790 0
0 2786 0
0 2779 0
0 2767 63
0 2745 1108
0 2703 1949
0 2621 2585
0 2447 3092
0 1978 3496
0 0 3787
0 0 3970
0 0 4059
0 0 4083
0 0 4093
0 0 4095
0 3208 0
0 3206 0
0 3204 0
0 3203 0
0 3199 0
0 3194 0
0 3184 35
0 3165 1556
0 3130 2429
0 3061 3029
0 2905 3468
0 2459 3777
0 0 3967
0 0 4058
0 0 4083
0 0 4092
0 0 4095
0 3565 0
0 3564 0
0 3563 0
0 3563 0
0 3561 0
0 3559 0
0 3554 0
0 3546 0
0 3530 2034
0 3500 2888
0 3440 3412
0 3303 3757
0 2916 3961
0 0 4057
0 0 4082
0 0 4092
0 0 4095
0 3825 0
0 3825 0
0 3824 0
0 3824 0
0 3823 0
0 3822 0
0 3821 0
0 3818 0
0 3812 0
0 3801 2512
0 3780 3288
0 3737 3717
0 3638 3949
0 3313 4055
0 0 4082
0 0 4092
0 0 4095
0 3988 0
0 3988 0
0 3988 0
0 3988 0
0 3988 0
0 3988 0
0 3987 0
0 3986 0
0 3984 0
0 3981 0
0 3975 2964
0 3963 3627
0 3937 3924
0 3874 4050
0 3645 4082
0 0 4092
0 0 4095
0 4065 0
0 4065 0
0 4065 0
0 4065 0
0 4065 0
0 4065 0
0 4065 0
0 4065 0
0 4064 0
0 4064 0
0 4062 0
0 4060 3355
0 4055 3866
0 4045 4039
0 4015 4081
0 3879 4092
0 0 4095
0 4084 0
0 4084 0
0 4084 0
0 4084 0
0 4084 0
0 4084 0
0 4084 0
0 4084 0
0 4084 0
0 4084 0
0 4084 0
0 4083 0
0 4083 3676
0 4082 4011
0 4079 4078
0 4073 4091
0 4017 4095
0 4094 0
0 4094 0
0 4094 0
0 4094 0
0 4094 0
0 4094 0
0 4094 0
0 4094 0
0 4094 0
0 4094 0
0 4094 0
0 4093 0
0 4093 0
0 4093 3898
0 4092 4072
0 4090 4089
0 4086 4095
0 4095 0
0 4095 0
0 4095 0
0 4095 0
0 4095 0
0 4095 0
0 4095 0
0 4095 0
0 4095 0
0 4095 0
0 4095 0
0 4095 0
0 4095 0
0 4095 0
0 4095 4027
0 4095 4086
0 4095 4095
766 19 33
754 0 145
742 0 305
728 0 568
705 0 921
661 0 1339
578 0 1800
409 0 2279
169 0 2745
0 0 3164
0 0 3529
0 0 3800
0 0 3974
0 0 4060
0 0 4083
0 0 4093
0 0 4095
682 138 12
668 115 124
655 91 268
641 66 525
615 22 892
567 0 1320
475 0 1789
302 0 2273
118 0 2742
0 0 3162
0 0 3528
0 0 3800
0 0 3974
0 0 4060
0 0 4083
0 0 4093
