Postproduction/IWLTBAP - Humble/LUTs by IWLTBAP (3DL)/UTILITY/Alexa Log-C to Rec.709/U-ALEXA-LOG-C-V3-LTR.3dl
# Copyright: (C) Copyright 2010-2018 by IWLTBAP SAS
# Cannot be resold, shared or otherwise redistributed
# Website: https://luts.iwltbap.com
0 256 512 768 1023
38 38 38
3 0 929
0 0 2746
0 0 3974
0 0 4095
0 981 0
0 812 777
0 0 2730
0 0 3974
0 0 4095
0 2798 0
0 2781 0
0 2624 2586
0 0 3970
0 0 4095
0 3988 0
0 3988 0
0 3984 0
0 3937 3924
0 0 4095
0 4095 0
0 4095 0
0 4095 0
0 4095 0
0 4095 4095
1133 7 29
1093 0 916
685 0 2745
0 0 3974
0 0 4095
819 939 0
761 761 761
210 0 2728
0 0 3974
0 0 4095
0 2794 0
0 2776 0
0 2618 2584
0 0 3970
0 0 4095
0 3988 0
0 3988 0
0 3984 0
0 3937 3924
0 0 4095
0 4095 0
0 4095 0
0 4095 0
0 4095 0
0 4095 4095
2946 0 0
2942 0 804
2908 0 2733
2391 0 3974
0 0 4095
2918 513 0
2913 261 628
2877 0 2716
2326 0 3973
0 0 4095
2631 2756 0
2624 2737 0
2569 2569 2569
1458 0 3970
0 0 4095
0 3987 0
0 3987 0
0 3983 0
0 3935 3924
0 0 4095
0 4095 0
0 4095 0
0 4095 0
0 4095 0
0 4095 4095
4022 0 0
4022 0 0
4022 0 2596
4014 0 3970
3847 0 4095
4022 0 0
4022 0 0
4021 0 2576
4014 0 3970
3845 0 4095
4017 2171 0
4017 2130 0
4016 1698 2393
4009 0 3966
3823 0 4095
3939 3977 0
3939 3976 0
3937 3972 0
3918 3918 3918
3272 0 4095
0 4095 0
0 4095 0
0 4095 0
0 4095 0
0 4095 4095
4095 0 0
4095 0 0
4095 0 0
4095 0 3927
4095 0 4095
4095 0 0
4095 0 0
4095 0 0
4095 0 3926
4095 0 4095
4095 0 0
4095 0 0
4095 0 0
4095 0 3921
4095 0 4095
4095 3746 0
4095 3744 0
4095 3728 0
4095 3461 3851
4095 0 4095
4095 4095 0
4095 4095 0
4095 4095 0
4095 4095 0
4095 4095 4095
