Postproduction/IWLTBAP - Humble/LUTs by IWLTBAP (3DL)/UTILITY/Alexa Log-C to Rec.709/U-ALEXA-LOG-C-V2-LTR.3dl
# Copyright: (C) Copyright 2010-2018 by IWLTBAP SAS
# Cannot be resold, shared or otherwise redistributed
# Website: https://luts.iwltbap.com
0 256 512 768 1023
0 0 0
0 0 1023
0 0 2769
0 0 3690
0 0 3751
0 1069 0
0 921 890
0 0 2756
0 0 3690
0 0 3751
0 2813 0
0 2798 0
0 2667 2634
0 0 3688
0 0 3751
0 3699 0
0 3699 0
0 3696 0
0 3667 3658
0 0 3751
0 3752 0
0 3752 0
0 3752 0
0 3751 0
0 3749 3748
1206 0 0
1169 0 1012
809 0 2768
0 0 3690
0 0 3751
927 1032 0
876 876 876
295 0 2755
0 0 3690
0 0 3751
0 2809 0
0 2794 0
0 2662 2633
0 0 3688
0 0 3751
0 3699 0
0 3699 0
0 3696 0
0 3667 3658
0 0 3751
0 3752 0
0 3752 0
0 3752 0
0 3751 0
0 3749 3748
2931 0 0
2928 0 914
2901 0 2758
2463 0 3690
0 0 3751
2908 654 0
2905 378 759
2876 0 2745
2404 0 3690
0 0 3751
2673 2778 0
2667 2762 0
2620 2620 2620
1514 0 3688
0 0 3751
0 3698 0
0 3698 0
0 3696 0
0 3666 3658
0 0 3751
0 3752 0
0 3752 0
0 3752 0
0 3751 0
0 3749 3748
3717 0 0
3717 0 0
3717 0 2643
3713 0 3688
3605 0 3751
3717 0 0
3717 0 0
3717 0 2626
3713 0 3688
3603 0 3751
3715 2258 0
3715 2218 0
3714 1764 2465
3710 0 3685
3588 0 3751
3668 3692 0
3668 3692 0
3667 3689 0
3654 3654 3654
3190 0 3751
0 3752 0
0 3752 0
0 3752 0
0 3751 0
0 3749 3748
3754 0 0
3754 0 0
3754 0 0
3754 0 3660
3753 0 3751
3754 0 0
3754 0 0
3754 0 0
3754 0 3660
3753 0 3751
3754 0 0
3754 0 0
3754 0 0
3754 0 3656
3753 0 3751
3754 3534 0
3754 3532 0
3754 3520 0
3754 3327 3608
3753 0 3750
3749 3751 0
3749 3751 0
3749 3751 0
3749 3751 0
3748 3748 3748
