Postproduction/IWLTBAP - Humble/LUTs by IWLTBAP (3DL)/UTILITY/Panasonic V-Log to Rec.709/U-PANASONIC-V-LOG-V8-LTR.3dl
# Copyright: (C) Copyright 2010-2018 by IWLTBAP SAS
# Cannot be resold, shared or otherwise redistributed
# Website: https://luts.iwltbap.com
0 128 256 384 512 640 768 896 1023
158 158 158
165 122 421
124 0 835
0 0 1525
0 0 2308
0 0 3084
0 0 3764
0 0 4089
0 0 4095
82 448 155
61 408 400
20 310 823
0 0 1519
0 0 2304
0 0 3081
0 0 3761
0 0 4088
0 0 4095
0 892 81
0 869 381
0 807 791
0 631 1501
0 0 2292
0 0 3072
0 0 3753
0 0 4084
0 0 4095
0 1624 0
0 1612 143
0 1578 754
0 1477 1449
0 1352 2259
0 955 3048
0 71 3733
0 38 4077
0 0 4095
0 2451 0
0 2443 0
0 2421 541
0 2359 1445
0 2238 2197
0 2143 3005
0 1981 3700
0 1951 4054
0 2066 4095
0 3270 0
0 3264 0
0 3247 44
0 3202 1367
0 3121 2205
0 2994 2941
0 2939 3650
0 2959 4009
0 3059 4095
0 3984 0
0 3980 0
0 3966 0
0 3930 1245
0 3866 2191
0 3771 2965
0 3656 3591
0 3652 3960
0 3702 4073
0 4095 0
0 4095 0
0 4095 0
0 4095 1227
0 4095 2240
0 4095 3028
0 4060 3622
0 3998 3928
0 4007 4047
0 4095 0
0 4095 0
0 4095 0
0 4095 1377
0 4095 2349
0 4095 3127
0 4095 3678
0 4095 3947
0 4095 4037
478 178 190
466 113 422
477 0 836
385 0 1526
55 0 2308
0 0 3084
0 0 3764
0 0 4089
0 0 4095
416 442 158
447 447 447
449 335 904
313 0 1630
19 0 2415
0 0 3188
0 0 3830
0 0 4095
0 0 4095
212 889 84
205 949 425
140 882 870
11 710 1610
0 25 2402
0 0 3178
0 0 3821
0 0 4095
0 0 4095
0 1622 0
0 1726 164
0 1689 840
0 1583 1556
0 1462 2367
0 1140 3153
0 472 3800
0 41 4095
0 459 4095
0 2450 0
0 2558 0
0 2533 662
0 2467 1553
0 2345 2305
0 2254 3109
0 2123 3765
0 2119 4077
0 2257 4095
0 3269 0
0 3376 0
0 3356 200
0 3308 1490
0 3225 2314
0 3098 3044
0 3056 3714
0 3086 4031
0 3193 4095
0 3983 0
0 4047 0
0 4035 0
0 3996 1392
0 3929 2313
0 3832 3075
0 3722 3658
0 3723 3984
0 3767 4073
0 4095 0
0 4095 0
0 4095 0
0 4095 1425
0 4095 2372
0 4095 3141
0 4080 3690
0 4026 3957
0 4029 4050
0 4095 0
0 4095 0
0 4095 0
0 4095 1560
0 4095 2489
0 4095 3242
0 4095 3737
0 4095 3969
0 4095 4042
954 180 229
947 104 474
929 0 838
954 0 1527
919 0 2309
795 0 3085
507 0 3765
590 0 4089
750 0 4095
920 475 192
1000 478 502
979 308 907
1009 0 1631
974 0 2416
864 0 3189
695 0 3831
693 0 4095
901 0 4095
825 881 93
896 941 432
960 960 960
970 783 1721
917 187 2512
768 0 3284
519 0 3884
605 0 4095
834 0 4095
409 1618 0
479 1721 174
530 1796 931
292 1685 1665
275 1569 2476
12 1257 3257
53 817 3861
0 478 4095
153 958 4095
0 2447 0
0 2555 0
0 2642 781
0 2573 1666
0 2450 2413
0 2360 3213
0 2254 3825
0 2288 4084
0 2417 4095
0 3267 0
0 3373 0
0 3463 369
0 3412 1607
0 3326 2424
0 3199 3148
0 3165 3773
0 3212 4045
0 3309 4095
0 3982 0
0 4047 0
0 4082 140
0 4045 1548
0 3984 2434
0 3884 3182
0 3782 3721
0 3781 4002
0 3825 4074
0 4095 0
0 4095 0
0 4095 0
0 4095 1597
0 4095 2508
0 4095 3255
0 4085 3747
0 4042 3978
0 4049 4054
0 4095 0
0 4095 0
0 4095 180
0 4095 1741
0 4095 2623
0 4095 3348
0 4095 3794
0 4095 3992
0 4095 4048
1731 110 290
1727 34 539
1717 0 928
1687 0 1532
1747 0 2312
1775 0 3087
1792 0 3766
1862 0 4090
1996 0 4095
1713 472 251
1831 466 569
1820 241 1006
1789 0 1636
1847 0 2419
1878 0 3191
1899 0 3833
1982 0 4095
2111 0 4095
1663 939 133
1775 1006 494
1879 1018 1057
1845 737 1726
1895 140 2516
1914 0 3287
1936 0 3886
2016 0 4095
2142 0 4095
1508 1605 0
1614 1708 204
1709 1781 942
1777 1777 1777
1814 1660 2587
1820 1381 3361
1838 1006 3914
1923 983 4095
2050 1273 4095
1223 2439 0
1336 2546 0
1437 2633 797
1495 2672 1780
1391 2547 2524
1369 2459 3316
1348 2384 3876
1447 2428 4095
1599 2571 4095
410 3261 0
443 3367 0
615 3456 399
580 3507 1732
461 3419 2536
203 3292 3251
303 3271 3823
346 3317 4061
514 3409 4095
0 3978 0
0 4044 0
0 4077 150
0 4070 1698
0 4024 2561
0 3921 3291
0 3827 3776
0 3832 4021
61 3866 4076
0 4095 0
0 4095 0
0 4095 0
0 4095 1770
0 4095 2639
0 4095 3360
0 4094 3804
0 4055 4000
0 4056 4059
0 4095 0
0 4095 0
0 4095 183
208 4095 1911
135 4095 2760
0 4095 3447
0 4095 3842
0 4095 4008
0 4095 4054
2605 0 376
2602 0 621
2595 0 1034
2577 0 1651
2543 0 2317
2610 0 3091
2667 0 3769
2758 0 4091
2878 0 4095
2593 402 338
2713 386 656
2705 117 1112
2685 0 1755
2650 0 2424
2717 0 3195
2778 0 3836
2871 0 4095
2994 0 4095
2561 981 211
2676 1049 579
2784 1062 1172
2763 756 1843
2727 17 2521
2787 0 3291
2846 0 3889
2939 0 4095
3054 0 4095
2468 1695 0
2577 1797 307
2680 1866 1059
2767 1856 1893
2728 1625 2592
2780 1334 3365
2838 911 3917
2929 930 4095
3044 1205 4095
2283 2424 0
2391 2531 0
2491 2618 823
2573 2655 1790
2636 2636 2636
2681 2550 3418
2738 2497 3926
2833 2570 4095
2945 2703 4095
2060 3250 0
2174 3356 0
2276 3445 442
2358 3495 1743
2421 3505 2651
2345 3377 3354
2405 3359 3873
2521 3408 4071
2654 3493 4095
1663 3971 0
1850 4036 0
1998 4070 171
2140 4066 1709
2237 4052 2685
2148 3952 3391
2070 3865 3830
2249 3865 4034
2423 3901 4080
1480 4095 0
1722 4095 0
1969 4095 0
2127 4095 1782
2285 4095 2776
2200 4095 3458
2134 4089 3851
2102 4055 4017
2313 4058 4065
1600 4095 0
1915 4095 0
2120 4095 190
2310 4095 1922
2445 4095 2892
2367 4095 3539
2312 4095 3889
2288 4095 4026
2282 4095 4062
3470 0 476
3468 0 720
3463 0 1148
3449 0 1774
3425 0 2437
3389 0 3096
3463 0 3773
3558 0 4093
3670 0 4095
3461 215 440
3578 176 753
3572 0 1236
3557 0 1878
3532 0 2544
3496 0 3201
3571 0 3840
3664 0 4095
3774 0 4095
3436 999 320
3549 1081 673
3655 1086 1292
3640 757 1964
3614 0 2638
3578 0 3296
3647 0 3894
3737 0 4095
3832 0 4095
3369 1772 9
3478 1875 423
3580 1939 1183
3668 1926 2013
3641 1693 2707
3602 1262 3371
3668 740 3922
3746 854 4095
3828 1114 4095
3247 2517 0
3352 2624 0
3451 2706 969
3535 2740 1912
3603 2718 2751
3563 2523 3424
3616 2467 3930
3683 2542 4095
3754 2677 4095
3053 3235 0
3157 3340 0
3255 3429 499
3337 3479 1758
3404 3488 2659
3449 3449 3449
3500 3436 3914
3567 3486 4083
3637 3562 4095
2902 3959 0
3028 4024 0
3141 4059 195
3244 4061 1725
3318 4040 2693
3376 3967 3486
3342 3889 3874
3428 3895 4049
3517 3921 4086
2869 4095 0
3015 4095 0
3154 4095 18
3262 4095 1797
3345 4095 2783
3408 4095 3549
3378 4082 3898
3365 4052 4035
3466 4051 4075
2969 4095 0
3127 4095 0
3257 4095 198
3360 4095 1936
3436 4095 2900
3491 4095 3620
3465 4095 3926
3454 4093 4039
3451 4088 4071
4095 0 580
4095 0 819
4095 0 1274
4095 0 1900
4095 0 2557
4095 0 3211
4095 0 3778
4088 0 4095
4095 0 4095
4095 0 546
4095 63 857
4095 0 1357
4095 0 2001
4095 0 2662
4095 0 3314
4093 0 3845
4095 0 4095
4095 0 4095
4095 1017 429
4095 1110 776
4095 1117 1414
4095 747 2083
4095 72 2754
4095 0 3404
4095 0 3898
4095 0 4095
4095 0 4095
4095 1847 35
4095 1951 547
4095 2014 1308
4095 2000 2130
4095 1764 2821
4095 1342 3474
4095 643 3926
4095 787 4095
4095 1040 4095
4032 2606 0
4064 2714 41
4095 2794 1111
4095 2827 2031
4095 2804 2862
4095 2614 3516
4095 2443 3934
4093 2521 4095
4095 2659 4095
3904 3328 0
3961 3434 0
4007 3517 729
4030 3564 1884
4040 3562 2774
4029 3519 3536
4004 3423 3917
4020 3474 4085
4036 3552 4095
3726 3944 0
3792 4010 0
3848 4048 211
3884 4056 1739
3905 4030 2700
3905 3957 3490
3917 3917 3917
3937 3919 4058
3964 3947 4091
3682 4095 0
3759 4095 0
3817 4095 66
3861 4095 1809
3880 4095 2789
3890 4095 3552
3904 4074 3933
3895 4050 4046
3931 4051 4082
3725 4095 0
3797 4095 0
3858 4095 202
3892 4095 1946
3913 4095 2905
3913 4095 3623
3930 4095 3960
3923 4090 4050
3921 4083 4079
4095 0 648
4095 0 905
4095 0 1385
4095 0 2017
4095 0 2673
4095 0 3322
4095 0 3850
4095 0 4095
4095 0 4095
4095 66 612
4095 0 939
4095 0 1471
4095 0 2117
4095 0 2776
4095 0 3420
4095 0 3911
4095 0 4095
4095 0 4095
4095 1094 489
4095 1196 852
4095 1207 1524
4095 853 2194
4095 5 2864
4095 0 3506
4095 0 3952
4095 0 4095
4095 0 4095
4095 1943 64
4095 2052 630
4095 2111 1420
4095 2100 2240
4095 1869 2928
4095 1481 3566
4095 986 3975
4095 750 4095
4095 1001 4095
4095 2709 0
4095 2818 48
4095 2896 1233
4095 2926 2142
4095 2906 2968
4095 2727 3598
4095 2583 3971
4095 2511 4095
4095 2651 4095
4095 3431 0
4095 3533 0
4095 3613 902
4095 3648 2005
4095 3637 2886
4095 3591 3612
4095 3507 3953
4095 3469 4087
4095 3548 4095
4095 4008 0
4095 4058 0
4095 4070 453
4095 4090 1882
4095 4055 2823
4095 3984 3572
4093 3942 3946
4086 3916 4059
4084 3944 4092
4071 4095 0
4095 4095 0
4093 4095 110
4095 4095 1815
4089 4095 2792
4072 4095 3554
4055 4071 3934
4054 4054 4054
4057 4052 4089
4071 4095 0
4082 4095 0
4095 4095 204
4094 4095 1950
4091 4095 2907
4064 4095 3624
4051 4095 3961
4048 4091 4056
4045 4088 4087
4095 0 690
4095 0 972
4095 0 1490
4095 0 2128
4095 0 2783
4095 0 3426
4095 0 3916
4095 0 4095
4095 0 4095
4095 72 651
4095 104 1009
4095 0 1575
4095 0 2226
4095 0 2885
4095 0 3522
4095 0 3965
4095 0 4095
4095 0 4095
4095 1221 512
4095 1325 917
4095 1334 1626
4095 1016 2301
4095 166 2970
4095 0 3596
4095 0 4001
4095 0 4095
4095 0 4095
4095 2064 55
4095 2170 696
4095 2227 1523
4095 2214 2345
4095 1988 3033
4095 1643 3647
4095 1299 4012
4095 1071 4095
4095 989 4095
4095 2824 0
4095 2933 93
4095 3007 1346
4095 3036 2249
4095 3013 3071
4095 2844 3671
4095 2720 4004
4095 2664 4095
4095 2649 4095
4095 3539 0
4095 3639 0
4095 3706 1055
4095 3731 2120
4095 3709 2993
4095 3659 3679
4095 3586 3978
4095 3556 4089
4095 3547 4095
4095 4062 0
4095 4077 0
4095 4095 685
4095 4092 2019
4095 4082 2938
4095 4004 3643
4095 3970 3975
4095 3950 4064
4095 3943 4092
4095 4095 0
4095 4095 0
4095 4095 306
4095 4095 1967
4095 4095 2914
4095 4095 3629
4095 4073 3965
4093 4058 4059
4092 4051 4089
4095 4095 0
4095 4095 0
4095 4095 205
4095 4095 1952
4095 4095 2907
4095 4095 3625
4088 4095 3962
4088 4090 4056
4095 4095 4095
