Postproduction/IWLTBAP - Humble/LUTs by IWLTBAP (3DL)/UTILITY/Panasonic V-Log to Rec.709/U-PANASONIC-V-LOG-V9-LTR.3dl
# Copyright: (C) Copyright 2010-2018 by IWLTBAP SAS
# Cannot be resold, shared or otherwise redistributed
# Website: https://luts.iwltbap.com
0 128 256 384 512 640 768 896 1023
0 0 0
15 20 106
89 113 402
164 197 637
236 281 887
316 379 1181
394 473 1468
406 489 1517
415 500 1551
39 144 34
38 157 142
80 218 455
156 282 701
229 357 956
311 447 1253
388 535 1541
400 551 1592
409 563 1627
188 594 164
163 607 267
109 644 625
141 673 945
219 712 1223
308 775 1535
387 846 1833
400 861 1886
408 872 1924
338 1035 313
323 1055 400
262 1120 736
198 1180 1161
219 1216 1538
311 1253 1878
397 1303 2190
410 1315 2246
421 1326 2286
513 1556 489
502 1579 567
456 1656 869
385 1743 1282
305 1827 1795
316 1877 2280
398 1906 2633
414 1916 2693
424 1924 2737
712 2152 690
704 2178 763
666 2263 1047
609 2361 1430
528 2467 1924
433 2576 2557
421 2639 3062
432 2650 3127
443 2659 3168
943 2844 922
936 2868 991
901 2954 1263
852 3059 1622
794 3179 2036
725 3299 2497
663 3383 2938
655 3396 3013
650 3405 3067
961 2897 940
952 2919 1010
917 3003 1281
866 3105 1639
809 3224 2052
741 3342 2492
674 3425 2919
662 3437 2996
653 3444 3054
945 2849 924
936 2872 995
900 2956 1268
848 3057 1630
787 3174 2059
715 3296 2521
642 3383 2953
628 3395 3031
617 3403 3090
173 24 37
180 40 138
217 119 432
262 203 674
321 288 927
392 388 1221
464 481 1507
477 498 1557
487 510 1592
209 161 42
193 163 150
191 206 480
239 274 744
303 353 1003
378 447 1302
451 536 1588
463 552 1639
473 564 1676
318 634 124
269 637 221
159 642 626
172 656 993
251 692 1286
341 757 1602
419 829 1900
432 844 1954
443 855 1993
421 1097 264
390 1115 350
288 1165 719
209 1208 1196
233 1227 1595
331 1253 1942
417 1298 2258
432 1310 2315
443 1320 2357
571 1623 439
551 1645 520
486 1715 846
402 1793 1293
312 1866 1839
327 1902 2339
413 1920 2696
429 1929 2758
441 1937 2803
758 2221 644
746 2246 723
698 2325 1024
633 2418 1427
544 2518 1944
445 2618 2599
436 2670 3103
448 2680 3166
460 2688 3207
981 2907 883
972 2931 956
932 3015 1239
880 3117 1605
822 3231 2020
753 3338 2491
696 3410 2943
690 3422 3022
688 3432 3079
998 2959 900
988 2981 973
948 3062 1255
894 3161 1621
836 3276 2032
768 3381 2483
704 3452 2924
694 3463 3005
688 3471 3066
984 2913 882
973 2935 957
932 3016 1242
877 3114 1615
813 3228 2043
738 3338 2513
664 3413 2960
652 3425 3041
644 3433 3103
613 110 169
624 123 253
651 168 533
650 235 804
662 322 1070
707 425 1373
761 521 1662
774 538 1712
783 549 1748
687 208 127
681 197 219
661 204 560
637 266 877
644 356 1158
688 460 1466
742 556 1755
754 573 1807
763 585 1845
896 722 61
836 694 134
607 590 586
496 553 1112
496 589 1497
560 673 1837
627 758 2142
640 774 2197
650 786 2239
925 1295 151
853 1312 199
563 1304 576
362 1257 1254
336 1203 1803
433 1195 2206
527 1229 2542
543 1240 2604
554 1249 2649
944 1860 302
884 1887 359
671 1947 678
496 1982 1278
354 1999 1997
382 1965 2576
485 1942 2963
503 1946 3029
516 1951 3078
1049 2483 477
1004 2508 546
858 2571 868
744 2640 1362
616 2713 1993
493 2770 2745
502 2773 3253
519 2776 3311
536 2780 3346
1211 3179 695
1179 3196 774
1087 3255 1095
1029 3337 1495
972 3412 1930
909 3462 2457
881 3513 2987
888 3527 3081
896 3540 3151
1224 3230 709
1192 3245 788
1101 3301 1110
1042 3383 1506
987 3459 1926
923 3506 2437
889 3552 2961
891 3566 3060
895 3577 3136
1216 3185 690
1180 3201 771
1082 3258 1096
1015 3342 1504
950 3424 1943
872 3480 2468
814 3525 2998
811 3536 3096
811 3546 3172
999 204 308
1018 215 379
1080 256 629
1135 306 929
1143 374 1240
1150 474 1563
1181 572 1859
1191 589 1911
1199 601 1948
1102 258 268
1122 256 346
1167 277 645
1192 327 990
1172 399 1322
1163 502 1652
1186 601 1951
1194 619 2004
1202 631 2043
1470 681 129
1484 635 191
1413 513 608
1323 491 1174
1193 529 1656
1126 637 2043
1129 741 2363
1135 759 2421
1142 773 2464
1771 1430 110
1759 1431 134
1486 1323 469
1168 1156 1160
967 1050 1895
856 1013 2516
878 1063 2916
889 1077 2982
898 1089 3030
1739 2115 232
1694 2153 250
1404 2228 427
975 2152 1070
695 2065 2029
591 1933 2869
657 1853 3364
678 1853 3431
697 1856 3474
1695 2763 406
1636 2804 432
1362 2918 598
1037 2963 1106
798 2968 1942
616 2939 2885
652 2859 3428
691 2848 3476
728 2843 3502
1754 3459 622
1701 3478 667
1510 3511 901
1374 3521 1301
1294 3528 1790
1245 3572 2443
1260 3660 3107
1280 3680 3219
1301 3695 3300
1762 3512 633
1708 3528 678
1520 3552 920
1397 3558 1314
1325 3557 1778
1280 3597 2414
1293 3696 3083
1304 3718 3204
1318 3734 3294
1760 3475 610
1701 3497 652
1498 3534 889
1358 3547 1299
1273 3553 1781
1201 3584 2432
1184 3668 3114
1194 3686 3236
1210 3699 3325
1421 307 456
1443 318 517
1516 359 745
1604 409 1033
1694 467 1376
1727 542 1768
1728 631 2096
1734 648 2150
1740 660 2189
1538 337 427
1563 346 498
1626 381 757
1696 431 1076
1766 489 1444
1776 566 1851
1761 658 2182
1765 675 2238
1771 688 2279
1946 613 267
1997 584 344
2080 516 707
2068 535 1205
2040 585 1724
1932 674 2213
1851 778 2575
1847 797 2637
1848 811 2683
2434 1346 176
2481 1316 202
2491 1148 489
2274 988 1187
2172 926 1936
1936 910 2675
1768 982 3164
1759 1002 3233
1756 1019 3281
2823 2308 180
2848 2336 192
2765 2341 362
2230 2093 1002
1898 1886 1825
1622 1728 2812
1405 1609 3622
1410 1617 3687
1435 1635 3702
2713 3065 363
2691 3106 384
2526 3227 483
2079 3212 844
1612 3053 1654
1308 2946 2767
1231 2807 3516
1298 2787 3559
1369 2780 3568
2456 3593 710
2415 3596 751
2239 3591 913
2020 3574 1179
1876 3611 1678
1831 3736 2497
1838 3849 3304
1857 3857 3424
1876 3853 3502
2441 3628 727
2399 3626 773
2225 3604 946
2019 3570 1204
1899 3614 1683
1877 3759 2483
1871 3898 3295
1877 3908 3427
1885 3903 3514
2461 3622 684
2418 3625 730
2233 3611 906
2002 3572 1168
1847 3598 1650
1790 3734 2481
1764 3865 3331
1777 3871 3461
1799 3863 3544
1888 421 613
1912 432 671
1993 472 888
2090 523 1164
2200 582 1497
2319 654 1914
2381 721 2314
2390 734 2381
2395 743 2429
2014 447 599
2038 457 663
2109 496 900
2193 546 1196
2289 605 1549
2392 677 1985
2439 744 2396
2445 757 2466
2450 768 2516
2472 645 479
2518 632 557
2609 609 875
2633 646 1286
2660 704 1750
2688 775 2294
2659 847 2771
2655 862 2850
2653 874 2906
2950 1237 338
3013 1198 388
3184 1024 659
3160 901 1235
3094 902 1927
3004 944 2701
2848 1025 3293
2824 1050 3370
2810 1072 3419
3479 2206 321
3522 2202 349
3619 2113 518
3399 1862 1072
3141 1655 1890
3027 1563 2882
2808 1556 3611
2776 1596 3651
2762 1637 3658
3656 3199 428
3660 3218 451
3631 3256 566
3393 3151 956
3031 2935 1691
2727 2747 2740
2530 2674 3593
2523 2684 3678
2535 2699 3712
3193 3664 868
3181 3674 919
3128 3714 1115
3049 3775 1393
2916 3842 1796
2725 3896 2575
2514 3868 3462
2473 3818 3570
2459 3764 3625
3156 3679 907
3146 3687 958
3097 3723 1157
3028 3788 1432
2913 3876 1814
2733 3961 2567
2504 3929 3465
2459 3868 3575
2444 3805 3629
3188 3676 851
3175 3682 902
3117 3712 1100
3037 3772 1374
2904 3856 1760
2691 3929 2559
2445 3885 3515
2413 3822 3618
2414 3757 3663
2436 554 802
2459 564 856
2541 605 1064
2640 656 1331
2751 715 1653
2879 787 2061
2994 854 2461
3014 867 2531
3028 876 2583
2556 578 796
2579 590 854
2652 630 1075
2741 679 1356
2841 739 1693
2958 811 2117
3062 877 2530
3081 889 2603
3096 899 2657
3044 735 721
3073 731 792
3134 738 1073
3175 784 1430
3224 842 1845
3285 916 2356
3343 988 2838
3354 1002 2922
3363 1014 2985
3507 1224 612
3561 1184 673
3702 1041 948
3711 986 1403
3665 1038 1964
3614 1140 2614
3577 1260 3175
3572 1290 3263
3569 1315 3324
3889 2020 658
3913 1991 703
3985 1860 918
3997 1677 1342
3898 1566 2019
3781 1667 2838
3712 1871 3459
3703 1922 3537
3696 1964 3587
3969 2898 796
3973 2898 857
3997 2884 1105
4029 2832 1489
4002 2736 2027
3867 2650 2816
3720 2656 3579
3683 2669 3666
3652 2686 3709
3958 3819 1307
3963 3838 1364
3976 3901 1577
3976 3949 1831
3928 3933 2110
3785 3822 2657
3818 3779 3773
3565 3644 3790
3511 3613 3846
3963 3874 1335
3968 3893 1390
3978 3961 1600
3977 4013 1846
3931 3991 2106
3795 3887 2649
3644 3724 3699
3572 3680 3806
3518 3643 3865
3976 3828 1284
3982 3847 1341
3994 3918 1554
3995 3982 1808
3959 3970 2076
3821 3826 2650
3643 3626 3693
3582 3581 3803
3534 3548 3863
2450 557 807
2471 568 861
2551 608 1069
2648 657 1335
2756 717 1656
2882 788 2064
2994 855 2461
3012 866 2530
3025 874 2581
2571 582 800
2591 592 859
2662 632 1080
2748 682 1360
2846 740 1697
2960 812 2121
3062 877 2531
3079 889 2603
3092 897 2656
3058 739 724
3085 735 796
3143 741 1077
3182 786 1433
3228 843 1848
3289 915 2361
3347 984 2842
3357 998 2926
3365 1008 2989
3518 1228 615
3571 1188 676
3714 1041 950
3726 983 1403
3677 1034 1965
3627 1133 2620
3593 1249 3182
3589 1276 3272
3586 1298 3336
3904 2024 663
3928 1993 705
3999 1854 913
4020 1666 1333
3932 1548 2011
3799 1652 2842
3734 1859 3475
3726 1907 3560
3718 1946 3616
3971 2893 779
3974 2893 840
3998 2879 1098
4049 2833 1486
4051 2729 2019
3910 2649 2841
3750 2649 3623
3703 2662 3706
3659 2678 3744
3985 3840 1290
3991 3860 1346
4009 3927 1561
4017 3980 1825
3979 3978 2115
3789 3859 2654
3556 3684 3642
3489 3653 3775
3437 3627 3848
3995 3899 1309
3999 3918 1364
4014 3989 1574
4020 4047 1832
3984 4042 2107
3801 3930 2654
3573 3737 3694
3493 3692 3798
3435 3657 3865
4009 3854 1254
4015 3874 1310
4032 3947 1522
4039 4017 1785
4014 4025 2069
3842 3872 2667
3603 3639 3717
3519 3594 3806
3458 3560 3865
2357 535 774
2379 545 831
2459 586 1040
2555 635 1308
2664 694 1631
2791 766 2041
2902 832 2437
2920 843 2505
2933 851 2556
2482 560 766
2503 570 827
2574 610 1051
2659 660 1335
2756 718 1674
2870 790 2102
2972 855 2511
2989 866 2582
3002 875 2636
2970 725 684
3000 718 758
3063 720 1045
3098 764 1410
3141 821 1832
3200 892 2354
3259 958 2838
3269 970 2923
3278 980 2988
3432 1232 564
3488 1190 626
3644 1032 901
3668 955 1368
3615 996 1955
3565 1084 2641
3535 1183 3231
3529 1207 3324
3523 1227 3392
3849 2058 605
3881 2029 644
3978 1882 831
4005 1666 1246
3901 1517 1965
3764 1585 2868
3678 1771 3545
3657 1820 3621
3636 1863 3664
3970 2970 666
3968 2967 719
3978 2944 950
4020 2897 1333
3989 2763 1927
3787 2632 2860
3626 2636 3690
3566 2651 3758
3513 2671 3783
3875 3832 1179
3880 3853 1236
3896 3924 1454
3906 3994 1733
3876 4022 2072
3623 3918 2658
3258 3712 3561
3202 3680 3711
3173 3651 3791
3874 3880 1202
3878 3900 1257
3893 3975 1471
3899 4049 1744
3871 4082 2070
3626 3996 2652
3249 3768 3595
3189 3725 3736
3158 3686 3806
3899 3849 1136
3904 3870 1193
3920 3946 1407
3928 4028 1683
3905 4071 2016
3666 3949 2667
3292 3680 3644
3218 3634 3758
3173 3595 3818
