Postproduction/IWLTBAP - Humble/LUTs by IWLTBAP (3DL)/UTILITY/Panasonic V-Log to Rec.709/U-PANASONIC-V-LOG-V1-LTR.3dl
# Copyright: (C) Copyright 2010-2018 by IWLTBAP SAS
# Cannot be resold, shared or otherwise redistributed
# Website: https://luts.iwltbap.com
0 256 512 768 1023
0 0 0
0 0 124
0 0 1418
0 180 3591
0 68 4090
0 377 0
0 390 334
0 600 1997
0 722 3817
0 676 4095
0 2821 64
0 2828 747
0 2877 2679
0 2827 4084
0 2796 4095
0 4095 332
0 4095 420
0 4095 2782
0 4095 4095
0 4095 4095
0 4095 185
0 4095 313
0 4095 2287
0 4095 4093
0 4095 4095
275 0 0
296 0 138
450 0 1523
607 0 3577
592 0 4026
269 251 0
264 259 252
291 351 1940
364 466 3770
357 455 4094
139 2740 2
62 2747 643
24 2806 2631
110 2772 4081
43 2765 4095
0 4095 328
0 4095 409
0 4095 2769
0 4095 4095
0 4095 4095
0 4095 177
0 4095 309
0 4095 2274
0 4095 4093
0 4095 4095
2280 0 0
2305 0 140
2371 0 1581
2511 0 3388
2516 0 3756
2364 145 0
2371 62 91
2395 64 1734
2476 168 3501
2453 198 3889
2040 2003 0
2033 2003 40
1966 2003 2093
1968 2056 3896
1924 2025 4095
1363 4086 0
1340 4087 83
1159 4095 2292
1087 4095 4086
1006 4095 4095
730 4095 0
710 4095 0
539 4095 1938
502 4095 4090
460 4095 4095
4088 0 0
4088 0 335
4088 0 1320
4089 0 2973
4090 0 3456
4088 363 0
4088 236 202
4088 214 1348
4089 136 3028
4090 88 3537
4052 1341 0
4057 1323 0
4073 1208 1568
4071 1212 3434
4067 1151 4071
3829 3738 0
3829 3737 0
3823 3782 1670
3820 3839 3890
3815 3842 4095
3598 4095 0
3597 4095 0
3581 4095 1116
3651 4095 3905
3616 4095 4095
4095 0 0
4095 0 146
4095 0 1210
4095 0 2934
4095 0 3507
4095 163 0
4095 80 66
4095 6 1178
4095 0 2942
4095 0 3539
4095 1062 0
4095 1056 0
4095 912 1338
4095 903 3320
4095 836 4021
4095 3536 0
4095 3536 0
4095 3570 1375
4095 3713 3805
4095 3706 4095
4095 4095 0
4095 4095 0
4095 4095 745
4095 4095 3747
4095 4095 4095
