Postproduction/IWLTBAP - Humble/LUTs by IWLTBAP (3DL)/UTILITY/Panasonic V-Log to Rec.709/U-PANASONIC-V-LOG-V4-LTR.3dl
# Copyright: (C) Copyright 2010-2018 by IWLTBAP SAS
# Cannot be resold, shared or otherwise redistributed
# Website: https://luts.iwltbap.com
0 256 512 767 1023
64 64 64
52 96 771
72 136 2409
64 177 3814
80 177 4063
0 988 249
12 988 903
12 1012 2533
8 1056 3942
4 1064 4095
16 3147 634
8 3143 1265
8 3180 2899
16 3204 4095
24 3212 4095
0 4079 964
8 4083 1598
8 4095 3196
0 4095 4095
0 4095 4071
0 4095 1012
12 4091 1670
8 4079 3260
4 4095 4095
16 4095 4095
939 0 0
887 0 586
843 8 2276
815 4 3653
811 12 3950
767 743 72
739 763 751
735 795 2377
731 831 3822
707 835 4087
385 2927 490
418 2927 1132
397 2947 2718
406 2967 4087
397 2975 4087
100 4091 831
104 4091 1457
128 4091 3063
124 4091 4095
60 4087 4087
80 4095 887
60 4095 1514
32 4095 3099
0 4095 4095
4 4083 4083
2979 0 0
2931 0 205
2875 8 1863
2794 4 3288
2810 0 3581
2814 96 8
2754 157 393
2714 209 2003
2678 253 3433
2682 265 3730
2393 2312 120
2385 2325 759
2369 2369 2369
2345 2393 3806
2361 2401 4095
2036 4095 442
2051 4095 1092
2055 4095 2682
2031 4087 4075
1959 4087 4095
1999 4087 514
2007 4091 1172
1959 4087 2754
1851 4091 4095
1702 4095 4095
4079 12 0
4087 8 8
4095 8 1526
4091 0 2963
4091 12 3256
4083 4 4
4083 8 64
4087 16 1658
4079 8 3091
4095 12 3384
4087 1766 4
4063 1799 426
4059 1859 2040
4071 1871 3493
4063 1879 3738
3838 3706 120
3854 3718 767
3818 3758 2373
3794 3798 3826
3818 3790 4095
3786 4083 217
3778 4095 831
3778 4083 2417
3738 4083 3878
3657 4091 4083
4079 0 0
4079 0 0
4095 0 1445
4095 12 2887
4079 16 3180
4079 12 0
4079 0 44
4079 4 1606
4091 8 3031
4095 0 3332
4095 1638 0
4087 1678 353
4095 1734 1967
4087 1774 3404
4079 1750 3693
4083 3609 64
4095 3621 703
4087 3661 2284
4095 3693 3738
4083 3693 4019
4095 3999 112
4095 4015 743
4095 4071 2329
4091 4095 3790
4095 4095 4095
