Postproduction/IWLTBAP - Humble/LUTs by IWLTBAP (3DL)/UTILITY/Panasonic V-Log to Rec.709/U-PANASONIC-V-LOG-V7-LTR.3dl
# Copyright: (C) Copyright 2010-2018 by IWLTBAP SAS
# Cannot be resold, shared or otherwise redistributed
# Website: https://luts.iwltbap.com
0 64 128 192 256 320 384 448 512 576 640 704 768 832 896 960 1023
0 0 0
0 0 0
0 0 48
0 0 138
0 0 327
6 0 596
22 0 829
46 0 1107
110 8 1401
198 32 1789
306 94 2210
477 186 2741
681 216 3449
884 180 3971
879 178 3951
897 165 3970
898 198 3953
0 0 0
0 0 0
0 0 48
0 0 134
0 0 273
2 0 496
9 1 763
38 1 1050
110 16 1371
199 33 1757
317 104 2187
473 172 2720
678 203 3483
880 165 3956
878 159 3950
881 162 3952
849 133 3936
0 73 0
0 45 0
0 73 72
0 44 147
0 65 303
0 73 547
0 71 871
0 19 1182
12 8 1518
138 46 1838
290 108 2274
466 190 2756
655 220 3468
869 178 3971
862 159 3964
851 150 3938
875 183 3964
0 171 0
0 171 0
0 203 74
0 162 146
4 179 282
0 206 515
0 197 745
0 209 1018
0 192 1405
7 135 1885
125 122 2343
376 190 2822
595 206 3478
833 165 3956
819 143 3951
805 122 3925
786 116 3935
0 419 54
0 381 34
0 385 66
0 385 166
0 427 405
0 404 572
0 403 777
0 407 1038
23 443 1364
50 412 1750
50 348 2332
134 193 2954
456 216 3584
730 158 3961
730 149 3942
751 163 3958
740 168 3958
0 636 82
0 618 57
0 623 92
0 613 194
0 639 379
0 613 580
0 608 801
0 602 1018
74 638 1317
99 625 1664
136 617 2156
149 533 2832
52 244 3684
517 138 3942
526 132 3943
547 146 3953
510 126 3941
0 915 125
0 931 135
0 927 185
0 916 262
0 905 399
0 918 613
0 915 854
20 888 1074
94 869 1322
194 872 1670
250 873 2106
257 857 2681
154 721 3545
0 415 3950
7 407 3958
13 412 3944
12 413 3962
0 1149 239
0 1169 266
0 1169 299
0 1162 358
0 1156 451
39 1151 613
65 1170 806
31 1126 1064
102 1092 1349
198 1105 1632
268 1103 2043
324 1117 2562
255 1103 3343
0 989 3954
0 984 3947
0 975 3936
0 987 3943
0 1468 401
0 1484 423
0 1496 440
0 1478 482
10 1455 546
49 1474 667
177 1490 839
177 1453 1039
157 1451 1356
245 1435 1684
312 1439 2084
351 1409 2543
287 1431 3265
0 1440 3904
0 1431 3910
0 1418 3898
0 1427 3899
11 1788 565
0 1793 555
11 1798 567
8 1787 587
34 1759 634
74 1793 734
118 1803 856
264 1788 1031
271 1788 1290
277 1810 1698
305 1788 2110
313 1779 2539
173 1800 3225
126 1812 3865
107 1800 3862
117 1801 3864
101 1786 3846
7 2251 736
55 2253 756
40 2253 760
57 2261 781
35 2253 811
96 2257 865
117 2239 968
148 2257 1108
301 2235 1322
303 2262 1646
259 2262 2171
254 2240 2637
0 2261 3267
401 2309 3869
396 2294 3864
390 2291 3857
352 2250 3828
0 2811 937
0 2816 943
0 2814 945
0 2815 961
0 2811 981
0 2815 1035
0 2799 1100
0 2795 1214
0 2796 1385
0 2809 1674
0 2791 2067
0 2793 2701
23 2821 3385
466 2882 3904
454 2869 3889
460 2856 3885
455 2863 3893
0 3543 1128
0 3512 1143
0 3527 1130
0 3528 1166
0 3559 1184
0 3521 1216
0 3543 1272
0 3508 1360
0 3555 1529
0 3524 1748
0 3519 2094
0 3526 2687
9 3504 3496
358 3632 3983
365 3624 3984
382 3623 3998
362 3567 3958
0 3934 1344
0 3908 1329
0 3918 1341
0 3918 1356
0 3920 1367
0 3908 1389
0 3918 1453
0 3918 1530
0 3913 1685
0 3908 1897
0 3924 2181
0 3932 2741
0 3920 3540
238 3987 4010
236 4011 4039
252 4000 4025
252 3968 4007
0 3911 1336
0 3913 1341
0 3915 1343
0 3916 1355
0 3927 1382
0 3913 1395
0 3917 1462
0 3925 1544
0 3933 1694
0 3923 1902
0 3935 2177
0 3934 2729
0 3923 3598
236 3989 4027
250 4002 4027
249 3985 4008
250 3947 3996
0 3937 1355
0 3922 1343
0 3922 1345
0 3933 1381
0 3933 1397
0 3922 1411
0 3922 1456
0 3921 1532
0 3928 1688
0 3921 1907
0 3932 2185
0 3929 2730
0 3933 3554
238 3987 4025
237 4000 4025
236 3983 4007
252 3999 4024
0 3921 1341
0 3920 1340
0 3919 1337
0 3905 1338
0 3929 1371
0 3927 1392
0 3925 1441
0 3905 1532
0 3921 1681
0 3921 1905
0 3917 2167
0 3910 2730
0 3921 3561
238 4000 4025
252 4000 4025
252 3968 4007
252 3953 3989
0 0 0
0 0 0
0 0 48
0 0 147
0 0 339
27 0 580
24 0 842
84 9 1115
114 9 1431
216 55 1789
318 104 2231
477 190 2752
690 241 3449
895 194 3971
852 152 3937
882 165 3970
915 199 3989
0 0 0
0 0 0
0 0 48
0 0 145
0 0 321
35 0 566
3 0 793
71 9 1090
114 9 1405
222 55 1802
318 104 2225
499 195 2769
701 236 3445
884 183 3971
865 133 3935
881 162 3951
897 165 3971
0 47 0
0 44 0
0 75 63
0 46 129
0 76 301
0 53 550
0 73 884
0 24 1187
5 15 1518
134 48 1827
290 120 2285
466 187 2781
655 226 3452
851 152 3952
849 150 3937
879 163 3968
864 190 3985
0 193 11
0 174 0
0 215 71
0 191 158
2 198 328
0 216 516
0 227 781
0 221 1059
0 195 1425
0 122 1902
129 127 2363
379 199 2853
601 224 3523
816 153 3942
803 149 3940
830 151 3954
833 152 3956
0 400 14
0 387 18
2 391 67
0 402 181
1 401 375
0 377 556
0 401 786
0 410 1043
0 430 1333
31 402 1759
57 343 2347
124 206 2964
460 224 3593
748 172 3967
730 149 3942
763 175 3968
747 178 3963
0 634 55
0 647 60
0 647 90
0 639 192
0 627 357
0 632 597
0 628 820
0 617 1033
45 622 1323
109 632 1701
152 638 2202
164 548 2865
68 246 3686
546 171 3970
518 145 3940
529 157 3964
520 141 3945
0 937 125
0 925 133
0 938 184
0 919 266
0 928 425
0 899 595
0 915 860
11 870 1085
93 884 1340
195 858 1666
231 874 2126
269 864 2691
158 731 3575
27 421 3969
9 407 3960
13 420 3971
12 415 3970
0 1236 299
0 1215 269
0 1239 317
0 1207 367
0 1218 486
33 1205 623
68 1211 847
50 1165 1113
148 1149 1372
221 1139 1666
286 1135 2089
335 1135 2584
278 1128 3386
1 997 3951
0 1012 3971
0 1033 3969
0 988 3952
0 1515 423
0 1540 439
0 1510 445
0 1515 503
15 1507 575
45 1506 677
173 1502 840
224 1501 1076
198 1499 1415
247 1445 1721
299 1432 2086
393 1463 2591
312 1435 3270
0 1434 3899
0 1455 3924
1 1452 3901
0 1428 3907
26 1841 583
26 1849 583
27 1827 590
38 1829 624
38 1824 673
92 1841 747
156 1843 884
295 1842 1073
288 1835 1334
260 1832 1719
330 1804 2126
348 1804 2569
190 1808 3230
110 1792 3874
121 1813 3875
122 1806 3867
99 1785 3863
34 2239 751
55 2251 742
35 2272 771
55 2277 797
83 2244 816
95 2260 878
134 2274 979
167 2272 1122
308 2265 1342
334 2269 1682
284 2283 2177
260 2252 2669
0 2266 3245
405 2311 3875
410 2309 3879
382 2280 3848
371 2256 3838
0 2815 957
0 2830 960
0 2831 967
0 2841 970
0 2824 999
0 2816 1046
0 2820 1120
0 2806 1218
0 2804 1397
0 2809 1676
0 2833 2092
0 2802 2722
19 2808 3399
467 2884 3906
455 2896 3892
461 2862 3887
434 2844 3870
0 3508 1136
0 3530 1154
0 3519 1163
0 3523 1164
0 3531 1185
0 3535 1224
0 3526 1270
0 3531 1369
0 3536 1535
0 3536 1765
0 3534 2097
0 3520 2678
14 3508 3492
376 3618 3994
384 3628 4012
375 3623 3997
350 3604 3971
0 3918 1354
0 3947 1380
0 3936 1367
0 3946 1390
0 3936 1392
0 3943 1444
0 3933 1464
0 3933 1559
0 3935 1703
0 3927 1903
0 3927 2180
0 3928 2766
0 3924 3599
235 4008 4034
251 3999 4024
238 3985 4010
252 3968 4007
0 3900 1324
0 3913 1350
0 3929 1367
0 3924 1363
0 3919 1382
0 3915 1405
0 3927 1465
0 3925 1543
0 3927 1692
0 3923 1884
0 3931 2173
0 3923 2732
0 3923 3529
237 3988 4026
250 4002 4027
249 4000 4025
248 3963 3997
0 3923 1371
0 3964 1398
0 3938 1387
0 3966 1413
0 3938 1404
0 3947 1445
0 3938 1479
0 3951 1568
0 3923 1703
0 3927 1901
0 3922 2174
0 3951 2762
0 3922 3543
236 3987 4010
236 3986 4009
251 3997 4024
252 3972 4009
0 3936 1355
0 3922 1357
0 3935 1368
0 3921 1368
0 3946 1394
0 3922 1416
0 3941 1479
0 3921 1544
0 3937 1689
0 3922 1907
0 3927 2192
0 3921 2728
0 3932 3551
238 3988 4012
238 3987 4025
252 3996 4023
252 3982 4007
86 0 0
54 0 0
72 0 53
71 0 116
103 0 279
108 0 501
144 0 807
176 9 1076
222 8 1403
282 34 1776
381 104 2208
532 190 2738
715 241 3452
904 176 3965
913 167 3971
896 164 3965
932 212 3989
87 0 0
54 0 0
34 0 35
72 0 130
101 0 254
121 0 465
118 0 749
179 11 1073
206 14 1392
290 41 1755
380 104 2218
548 207 2779
702 225 3423
908 174 3962
922 176 3969
896 164 3952
898 165 3955
89 104 11
89 75 0
35 46 37
52 44 193
72 59 444
72 45 641
72 36 880
119 32 1130
167 54 1448
238 77 1802
352 136 2220
498 218 2750
683 258 3449
899 196 3969
898 196 3971
908 192 3967
896 204 3969
31 219 21
31 205 1
38 207 56
52 215 169
35 221 359
0 204 588
4 202 823
0 199 1138
22 168 1528
33 81 1957
218 150 2351
422 213 2829
632 224 3497
850 183 3971
860 192 3967
847 177 3965
851 169 3956
2 409 3
14 426 0
14 413 72
31 398 180
5 403 381
0 401 596
0 405 826
0 415 1086
12 413 1390
46 394 1830
67 296 2383
197 213 2974
517 222 3586
757 159 3961
770 167 3971
765 164 3970
773 177 3973
0 648 16
0 646 13
0 672 92
0 660 208
0 634 357
0 658 606
0 648 830
11 639 1077
52 615 1347
121 642 1726
156 625 2244
153 524 2893
113 228 3726
553 157 3953
570 165 3971
575 136 3954
565 163 3971
0 940 95
0 955 98
0 940 166
0 933 264
0 931 386
0 916 587
0 905 852
20 888 1089
97 867 1347
203 874 1682
241 871 2141
265 847 2717
136 704 3596
12 373 3955
21 391 3971
7 368 3964
5 368 3953
0 1223 240
0 1242 246
0 1229 275
0 1229 364
0 1217 467
38 1214 641
72 1207 840
69 1199 1140
154 1153 1389
228 1159 1694
301 1150 2117
352 1137 2628
260 1096 3364
0 972 3952
0 996 3965
0 993 3950
2 973 3951
0 1547 422
0 1509 407
0 1545 444
0 1532 494
31 1520 576
52 1517 670
194 1524 846
216 1515 1075
200 1502 1411
260 1452 1717
327 1462 2102
395 1458 2590
295 1435 3263
0 1442 3907
0 1443 3928
0 1433 3909
0 1419 3885
24 1828 556
21 1836 558
13 1844 579
46 1829 611
65 1831 662
79 1835 742
153 1851 871
301 1856 1067
291 1826 1326
271 1842 1739
315 1811 2133
357 1810 2584
200 1800 3232
118 1796 3880
119 1804 3872
122 1794 3876
101 1783 3862
48 2251 753
38 2279 750
55 2263 756
52 2272 779
77 2270 831
91 2265 873
131 2268 971
167 2275 1108
341 2270 1347
317 2281 1676
278 2278 2179
278 2229 2660
5 2260 3272
400 2302 3869
394 2302 3862
395 2272 3863
373 2270 3855
0 2801 926
0 2821 944
0 2817 964
0 2817 966
0 2822 993
0 2817 1041
0 2817 1113
0 2796 1217
0 2805 1398
0 2801 1664
0 2802 2092
0 2785 2709
32 2826 3404
468 2880 3896
456 2858 3891
452 2865 3890
455 2869 3893
0 3507 1122
0 3522 1141
0 3531 1143
0 3566 1166
0 3541 1182
0 3534 1221
0 3527 1276
0 3521 1379
0 3513 1516
0 3543 1769
0 3513 2094
0 3519 2695
14 3513 3507
364 3629 3987
371 3624 3994
366 3604 3973
375 3578 3971
0 3918 1330
0 3933 1357
0 3923 1356
0 3930 1377
0 3923 1381
0 3929 1412
0 3923 1449
0 3923 1548
0 3921 1688
0 3921 1901
0 3921 2173
0 3927 2745
0 3922 3593
238 4000 4025
237 3988 4013
250 4000 4025
241 3993 4019
0 3901 1322
0 3913 1352
0 3913 1350
0 3936 1375
0 3921 1375
0 3926 1407
0 3911 1447
0 3925 1542
0 3917 1688
0 3923 1909
0 3921 2167
0 3926 2730
0 3925 3549
236 3991 4025
263 3990 4014
250 3998 4025
260 3972 4007
0 3921 1344
0 3937 1372
0 3937 1371
0 3937 1386
0 3941 1403
0 3937 1427
0 3928 1477
0 3921 1548
0 3925 1698
0 3921 1897
0 3921 2162
0 3921 2723
0 3927 3581
235 3984 4021
237 4012 4038
250 3998 4023
238 3985 4009
0 3907 1328
0 3922 1355
0 3923 1358
0 3923 1371
0 3923 1386
0 3923 1413
0 3923 1456
0 3925 1542
0 3933 1702
0 3925 1907
0 3923 2177
0 3925 2724
0 3921 3542
235 3986 4021
252 3976 4012
252 3996 4023
252 3956 3991
235 0 2
178 0 0
179 0 35
214 0 143
227 0 261
274 0 469
301 0 724
348 7 1034
373 32 1347
403 62 1726
497 129 2193
597 205 2717
737 235 3411
949 194 3956
946 182 3959
946 181 3968
949 200 3960
223 2 2
181 0 0
194 0 36
195 0 132
225 0 256
249 0 433
299 0 707
328 7 987
363 33 1322
412 56 1699
489 127 2190
615 213 2728
751 240 3436
947 192 3945
945 176 3952
946 178 3952
