Postproduction/IWLTBAP - Humble/LUTs by IWLTBAP (3DL)/UTILITY/Panasonic V-Log to Rec.709/U-PANASONIC-V-LOG-V7-LTR.3dl
# Copyright: (C) Copyright 2010-2018 by IWLTBAP SAS
# Cannot be resold, shared or otherwise redistributed
# Website: https://luts.iwltbap.com
0 128 256 384 512 640 768 896 1023
0 0 0
0 0 48
0 0 327
22 0 829
110 8 1401
306 94 2210
681 216 3449
879 178 3951
898 198 3953
0 73 0
0 73 72
0 65 303
0 71 871
12 8 1518
290 108 2274
655 220 3468
862 159 3964
875 183 3964
0 419 54
0 385 66
0 427 405
0 403 777
23 443 1364
50 348 2332
456 216 3584
730 149 3942
740 168 3958
0 915 125
0 927 185
0 905 399
0 915 854
94 869 1322
250 873 2106
154 721 3545
7 407 3958
12 413 3962
0 1468 401
0 1496 440
10 1455 546
177 1490 839
157 1451 1356
312 1439 2084
287 1431 3265
0 1431 3910
0 1427 3899
7 2251 736
40 2253 760
35 2253 811
117 2239 968
301 2235 1322
259 2262 2171
0 2261 3267
396 2294 3864
352 2250 3828
0 3543 1128
0 3527 1130
0 3559 1184
0 3543 1272
0 3555 1529
0 3519 2094
9 3504 3496
365 3624 3984
362 3567 3958
0 3911 1336
0 3915 1343
0 3927 1382
0 3917 1462
0 3933 1694
0 3935 2177
0 3923 3598
250 4002 4027
250 3947 3996
0 3921 1341
0 3919 1337
0 3929 1371
0 3925 1441
0 3921 1681
0 3917 2167
0 3921 3561
252 4000 4025
252 3953 3989
86 0 0
72 0 53
103 0 279
144 0 807
222 8 1403
381 104 2208
715 241 3452
913 167 3971
932 212 3989
89 104 11
35 46 37
72 59 444
72 36 880
167 54 1448
352 136 2220
683 258 3449
898 196 3971
896 204 3969
2 409 3
14 413 72
5 403 381
0 405 826
12 413 1390
67 296 2383
517 222 3586
770 167 3971
773 177 3973
0 940 95
0 940 166
0 931 386
0 905 852
97 867 1347
241 871 2141
136 704 3596
21 391 3971
5 368 3953
0 1547 422
0 1545 444
31 1520 576
194 1524 846
200 1502 1411
327 1462 2102
295 1435 3263
0 1443 3928
0 1419 3885
48 2251 753
55 2263 756
77 2270 831
131 2268 971
341 2270 1347
278 2278 2179
5 2260 3272
394 2302 3862
373 2270 3855
0 3507 1122
0 3531 1143
0 3541 1182
0 3527 1276
0 3513 1516
0 3513 2094
14 3513 3507
371 3624 3994
375 3578 3971
0 3901 1322
0 3913 1350
0 3921 1375
0 3911 1447
0 3917 1688
0 3921 2167
0 3925 3549
263 3990 4014
260 3972 4007
0 3907 1328
0 3923 1358
0 3923 1386
0 3923 1456
0 3933 1702
0 3923 2177
0 3921 3542
252 3976 4012
252 3956 3991
426 0 0
396 0 56
438 0 330
492 0 717
549 32 1300
626 151 2147
877 277 3463
1025 212 3971
1038 253 3985
487 44 0
390 44 41
481 44 364
496 28 725
545 81 1324
615 179 2159
836 274 3419
1015 218 3949
1011 237 3964
541 459 13
583 497 35
413 387 397
362 348 910
413 329 1518
504 333 2296
779 379 3505
947 320 3944
953 321 3971
176 946 13
165 952 14
267 940 414
280 879 844
261 867 1407
252 840 2224
167 579 3700
324 303 3962
363 293 3967
0 1537 241
0 1538 261
213 1532 554
324 1500 829
350 1492 1405
320 1440 2133
286 1423 3325
2 1405 3944
10 1415 3944
12 2257 665
16 2272 689
46 2284 760
118 2274 936
310 2264 1313
292 2245 2153
0 2261 3274
411 2290 3880
394 2268 3867
0 3511 1087
0 3517 1109
0 3539 1139
0 3543 1253
0 3551 1503
0 3519 2090
9 3523 3510
373 3608 3982
379 3586 3975
0 3895 1292
0 3911 1311
0 3911 1347
0 3917 1431
0 3919 1660
0 3919 2179
0 3917 3582
250 3982 4016
248 3956 3989
0 3897 1289
0 3921 1324
0 3917 1353
0 3919 1426
0 3921 1677
0 3915 2165
0 3917 3528
242 4000 4025
252 3953 3989
958 0 49
962 0 92
928 0 321
975 0 772
966 69 1227
1059 214 2030
1172 332 3318
1319 278 3915
1342 314 3928
1021 4 8
938 14 56
981 12 336
979 0 783
972 107 1257
1057 240 2048
1166 336 3308
1308 292 3928
1329 308 3946
1068 385 14
1074 375 53
992 342 347
1009 310 818
998 346 1330
1036 368 2108
1155 441 3389
1289 397 3955
1291 397 3962
1108 970 39
1168 1029 46
1098 988 407
866 846 826
856 804 1465
832 715 2334
968 672 3540
1130 644 3971
1110 624 3958
592 1581 222
577 1599 233
592 1611 363
736 1577 874
719 1508 1401
617 1429 2212
396 1362 3447
190 1324 3971
114 1304 3946
5 2304 435
14 2312 439
18 2324 538
534 2314 949
632 2296 1349
609 2268 2167
9 2266 3336
449 2292 3910
407 2264 3883
0 3504 971
0 3561 1005
0 3539 1038
0 3551 1175
0 3521 1460
0 3555 2059
14 3504 3500
362 3657 4012
360 3602 3975
0 3887 1189
0 3919 1238
0 3909 1259
0 3921 1358
0 3909 1595
0 3923 2145
0 3931 3533
250 3990 4020
258 3968 4005
0 3889 1182
0 3927 1233
0 3905 1259
0 3931 1380
0 3923 1620
0 3927 2165
0 3917 3570
246 3984 4016
252 3984 4007
1628 0 177
1632 6 224
1590 32 393
1596 89 734
1602 97 1289
1592 288 1939
1763 423 3170
1875 424 3841
1856 431 3853
1668 20 154
1655 8 184
1653 42 406
1617 102 736
1615 100 1294
1630 324 1968
1757 439 3152
1879 429 3837
1856 441 3846
1750 212 55
1761 176 33
1636 289 397
1660 314 755
1640 294 1326
1615 429 1997
1750 516 3179
1860 508 3862
1868 512 3853
1822 824 95
1822 842 92
1856 878 411
1649 773 782
1689 751 1375
1647 741 2089
1742 741 3334
1831 710 3924
1826 709 3905
1805 1613 267
1843 1640 276
1982 1787 468
1797 1624 863
1475 1435 1379
1446 1367 2308
1429 1217 3654
1505 1172 3971
1492 1152 3944
1064 2358 437
1049 2362 435
1030 2390 443
1057 2427 710
1221 2360 1375
1202 2310 2200
847 2264 3454
583 2272 3973
538 2254 3962
0 3578 446
0 3572 465
0 3590 520
0 3565 768
800 3551 1439
434 3549 2065
210 3531 3514
371 3649 4012
354 3610 3971
0 3899 928
0 3909 956
0 3913 1001
0 3907 1105
236 3923 1578
0 3927 2141
0 3925 3542
235 3988 4018
248 3964 3998
0 3905 930
0 3905 947
0 3917 986
0 3905 1096
187 3913 1552
0 3921 2137
0 3933 3542
252 4000 4025
252 3968 4007
2473 144 468
2449 149 479
2449 187 581
2430 316 837
2430 330 1236
2424 332 2046
2491 534 3064
2621 504 3703
2633 526 3731
2508 142 461
2498 155 472
2479 198 580
2457 322 839
2453 340 1257
2434 324 2053
2473 551 3064
2617 518 3712
2637 534 3714
2570 98 286
2558 96 317
2506 296 552
2477 362 809
2489 350 1266
2477 344 2081
2498 617 3075
2613 559 3710
2631 575 3717
2653 587 177
2613 548 164
2663 547 321
2473 692 807
2502 710 1300
2477 658 2092
2491 788 3113
2641 727 3761
2639 723 3754
2647 1413 310
2655 1399 310
2692 1405 406
2709 1484 824
2469 1322 1302
2518 1269 2171
2557 1215 3283
2689 1152 3862
2691 1138 3864
2657 2418 472
2657 2429 479
2721 2489 486
2826 2611 788
2597 2425 1341
2265 2229 2161
2267 2128 3633
2232 2052 3960
2201 2007 3949
1799 3570 431
1814 3592 429
1780 3596 439
1742 3635 453
1742 3614 986
1925 3592 2137
1734 3551 3528
1142 3661 4025
962 3610 3984
1773 3919 891
1765 3913 906
1761 3921 945
1706 3915 995
1664 3919 1277
1761 3939 2171
1340 3943 3526
1128 4018 4042
936 3960 3994
1754 3905 878
1754 3917 891
1742 3905 926
1687 3917 984
1649 3905 1260
1754 3927 2151
1338 3943 3523
1123 4008 4034
989 3968 4007
3550 345 844
3546 342 846
3532 358 897
3529 387 1022
3532 475 1390
3511 445 2019
3525 411 3251
3630 205 3812
3630 205 3793
3581 340 852
3525 318 822
3543 342 897
3534 381 1027
3544 465 1373
3515 441 2013
3559 413 3297
3635 212 3807
3613 199 3786
3592 330 799
3573 320 783
3574 345 855
3562 380 992
3550 471 1367
3544 443 2032
3564 399 3288
3642 205 3819
3637 205 3802
3653 243 509
3668 256 529
3642 271 623
3590 640 999
3585 644 1364
3607 494 2071
3586 439 3332
3670 229 3835
3656 206 3816
3689 1059 337
3705 1063 352
3706 1002 337
3705 1011 665
3588 1237 1368
3632 1132 2098
3609 1047 3366
3715 897 3878
3675 844 3844
3694 2231 461
3701 2235 457
3705 2237 461
3720 2245 701
3732 2290 1283
3609 2141 2094
3666 1967 3463
3763 1870 3946
3729 1814 3903
3758 3618 405
3743 3584 393
3769 3629 405
3781 3645 393
3835 3728 1009
3743 3631 1986
3557 3523 3524
3658 3565 4016
3585 3495 3994
3431 3958 1328
3429 3958 1349
3431 3958 1315
3431 3966 1443
3417 3960 1584
3456 3974 2081
3461 3986 3563
3396 4022 4031
3255 3980 3998
3429 3956 1334
3435 3956 1336
3440 3960 1289
3451 3966 1445
3429 3964 1590
3456 3972 2085
3385 3984 3510
3386 4032 4042
3260 4004 4016
3810 403 1055
3795 372 1029
3798 393 1081
3783 401 1180
3789 445 1473
3783 408 2090
3772 494 3215
3783 424 3844
3796 393 3844
3802 378 1042
3796 376 1029
3793 385 1075
3788 410 1172
3791 441 1473
3783 408 2106
3758 483 3213
3805 429 3846
3769 350 3807
3817 383 1003
3798 385 999
3810 391 1042
3802 412 1163
3798 455 1469
3784 429 2126
3767 523 3215
3796 461 3841
3779 393 3830
3810 514 913
3802 508 913
3808 516 962
3802 558 1113
3795 563 1443
3786 565 2130
3769 696 3245
3800 614 3867
3781 557 3823
3803 974 650
3810 992 678
3798 968 732
3817 917 837
3784 1148 1416
3795 1069 2141
3755 1045 3290
3817 982 3890
3779 935 3858
3779 2199 1018
3793 2189 1023
3782 2209 1079
3793 2197 1144
3786 2161 1345
3788 2086 2098
3769 1840 3429
3829 1830 3942
3803 1777 3910
3840 3576 1634
3831 3549 1632
3843 3572 1645
3845 3582 1714
3859 3641 1957
3866 3626 2197
3924 3488 3470
3922 3519 3989
3894 3464 3962
3979 4016 2863
3954 3988 2865
3975 4012 2881
3968 4002 2909
3973 4008 3037
3970 4004 3115
3982 4014 3565
4024 4032 4042
3998 4006 4014
3952 3986 2846
3966 4002 2874
3955 3990 2859
3968 4002 2913
3966 4000 3024
3968 4002 3126
3989 4012 3563
4022 4032 4042
4007 4016 4025
3852 439 1071
3835 422 1057
3810 408 1087
3810 443 1204
3796 455 1477
3796 429 2120
3782 521 3233
3809 453 3860
3810 424 3862
3852 439 1071
3827 414 1059
3829 427 1090
3817 441 1201
3808 469 1501
3798 425 2130
3772 510 3235
3802 429 3848
3810 410 3862
3841 427 1019
3841 415 1018
3834 419 1064
3824 445 1197
3814 479 1492
3810 451 2124
3776 557 3228
3796 471 3848
3810 455 3862
3834 530 928
3831 516 917
3835 536 975
3822 585 1132
3822 587 1456
3796 579 2135
3774 717 3256
3810 632 3871
3788 589 3837
3831 1022 699
3831 984 671
3835 1018 770
3836 958 854
3817 1184 1462
3796 1075 2126
3755 1047 3297
3817 986 3899
3783 958 3880
3810 2231 1042
3810 2231 1042
3819 2245 1115
3817 2225 1158
3817 2207 1379
3802 2096 2110
3777 1858 3452
3831 1848 3940
3810 1812 3917
3855 3598 1689
3859 3586 1662
3866 3602 1670
3862 3624 1769
3866 3637 1966
3866 3614 2193
3940 3523 3505
3929 3501 4009
3915 3472 3980
3968 4004 2898
3971 4006 2885
3980 4018 2905
3986 4018 2946
3988 4018 3057
3984 4012 3133
3995 4018 3598
4024 4032 4042
4022 4032 4040
3979 4016 2894
3966 4002 2881
3975 4012 2902
3979 4016 2944
3986 4016 3052
3973 4010 3135
3979 4012 3556
4022 4018 4025
4022 4032 4025
