Postproduction/IWLTBAP - Humble/LUTs by IWLTBAP (3DL)/UTILITY/Panasonic V-Log to Rec.709/U-PANASONIC-V-LOG-V7-LTR.3dl
# Copyright: (C) Copyright 2010-2018 by IWLTBAP SAS
# Cannot be resold, shared or otherwise redistributed
# Website: https://luts.iwltbap.com
0 256 512 768 1023
0 0 0
0 0 327
110 8 1401
681 216 3449
898 198 3953
0 419 54
0 427 405
23 443 1364
456 216 3584
740 168 3958
0 1468 401
10 1455 546
157 1451 1356
287 1431 3265
0 1427 3899
0 3543 1128
0 3559 1184
0 3555 1529
9 3504 3496
362 3567 3958
0 3921 1341
0 3929 1371
0 3921 1681
0 3921 3561
252 3953 3989
426 0 0
438 0 330
549 32 1300
877 277 3463
1038 253 3985
541 459 13
413 387 397
413 329 1518
779 379 3505
953 321 3971
0 1537 241
213 1532 554
350 1492 1405
286 1423 3325
10 1415 3944
0 3511 1087
0 3539 1139
0 3551 1503
9 3523 3510
379 3586 3975
0 3897 1289
0 3917 1353
0 3921 1677
0 3917 3528
252 3953 3989
1628 0 177
1590 32 393
1602 97 1289
1763 423 3170
1856 431 3853
1750 212 55
1636 289 397
1640 294 1326
1750 516 3179
1868 512 3853
1805 1613 267
1982 1787 468
1475 1435 1379
1429 1217 3654
1492 1152 3944
0 3578 446
0 3590 520
800 3551 1439
210 3531 3514
354 3610 3971
0 3905 930
0 3917 986
187 3913 1552
0 3933 3542
252 3968 4007
3550 345 844
3532 358 897
3532 475 1390
3525 411 3251
3630 205 3793
3592 330 799
3574 345 855
3550 471 1367
3564 399 3288
3637 205 3802
3689 1059 337
3706 1002 337
3588 1237 1368
3609 1047 3366
3675 844 3844
3758 3618 405
3769 3629 405
3835 3728 1009
3557 3523 3524
3585 3495 3994
3429 3956 1334
3440 3960 1289
3429 3964 1590
3385 3984 3510
3260 4004 4016
3852 439 1071
3810 408 1087
3796 455 1477
3782 521 3233
3810 424 3862
3841 427 1019
3834 419 1064
3814 479 1492
3776 557 3228
3810 455 3862
3831 1022 699
3835 1018 770
3817 1184 1462
3755 1047 3297
3783 958 3880
3855 3598 1689
3866 3602 1670
3866 3637 1966
3940 3523 3505
3915 3472 3980
3979 4016 2894
3975 4012 2902
3986 4016 3052
3979 4012 3556
4022 4032 4025
