Postproduction/IWLTBAP - Humble/LUTs by IWLTBAP (3DL)/UTILITY/Panasonic V-Log to Rec.709/U-PANASONIC-V-LOG-V9-LTR.3dl
# Copyright: (C) Copyright 2010-2018 by IWLTBAP SAS
# Cannot be resold, shared or otherwise redistributed
# Website: https://luts.iwltbap.com
0 64 128 192 256 320 384 448 512 576 640 704 768 832 896 960 1023
0 0 0
2 3 25
15 20 106
47 64 258
89 113 402
127 158 520
164 197 637
201 238 762
236 281 887
272 326 1021
316 379 1181
363 436 1353
394 473 1468
401 483 1500
406 489 1517
410 494 1534
415 500 1551
9 31 7
9 34 32
19 50 114
47 88 267
87 134 413
125 175 532
162 212 650
199 252 775
234 294 901
272 339 1035
315 392 1195
361 447 1367
391 484 1482
400 494 1514
405 501 1532
408 506 1549
414 511 1566
39 144 34
39 146 59
38 157 142
49 184 302
80 218 455
115 250 579
156 282 701
192 318 829
229 357 956
267 398 1091
311 447 1253
357 499 1426
388 535 1541
395 545 1574
400 551 1592
404 557 1609
409 563 1627
110 365 94
103 368 117
90 375 203
72 391 371
79 411 541
106 430 683
143 451 814
184 478 946
221 508 1077
262 541 1216
307 585 1381
353 633 1557
384 665 1673
391 675 1707
396 681 1725
400 687 1743
405 693 1762
188 594 164
182 598 186
163 607 267
132 625 436
109 644 625
113 659 793
141 673 945
179 690 1088
219 712 1223
261 739 1366
308 775 1535
356 817 1715
387 846 1833
396 855 1867
400 861 1886
404 867 1904
408 872 1924
262 809 236
256 813 255
241 826 330
209 851 491
175 878 685
153 901 882
154 917 1066
179 931 1231
217 946 1377
261 966 1525
310 995 1698
361 1031 1881
392 1056 2002
401 1064 2036
406 1069 2056
411 1075 2075
416 1080 2095
338 1035 313
334 1040 331
323 1055 400
296 1086 547
262 1120 736
226 1151 941
198 1180 1161
196 1201 1366
219 1216 1538
261 1231 1698
311 1253 1878
363 1281 2066
397 1303 2190
405 1310 2226
410 1315 2246
416 1321 2266
421 1326 2286
423 1289 399
420 1295 417
410 1312 481
388 1345 620
358 1384 797
324 1423 997
286 1461 1226
251 1497 1472
244 1522 1689
265 1539 1882
311 1556 2080
364 1577 2277
398 1594 2405
408 1600 2442
413 1605 2463
417 1610 2484
424 1615 2505
513 1556 489
510 1561 506
502 1579 567
481 1615 701
456 1656 869
424 1698 1058
385 1743 1282
341 1788 1538
305 1827 1795
292 1856 2041
316 1877 2280
364 1894 2498
398 1906 2633
408 1912 2671
414 1916 2693
419 1920 2714
424 1924 2737
605 1829 581
602 1835 597
595 1853 657
577 1890 786
553 1934 948
525 1979 1130
489 2027 1345
445 2077 1594
402 2124 1858
360 2169 2145
348 2204 2447
370 2228 2713
397 2240 2865
406 2245 2906
413 2249 2928
417 2252 2950
424 2256 2973
712 2152 690
711 2159 706
704 2178 763
688 2217 889
666 2263 1047
640 2310 1223
609 2361 1430
570 2415 1668
528 2467 1924
480 2521 2214
433 2576 2557
416 2618 2881
421 2639 3062
428 2645 3105
432 2650 3127
438 2654 3147
443 2659 3168
840 2534 818
839 2541 833
832 2560 890
817 2600 1013
797 2647 1166
773 2697 1337
745 2751 1536
712 2809 1760
676 2866 1994
635 2925 2253
588 2988 2561
546 3044 2878
529 3074 3067
528 3083 3114
528 3089 3137
530 3094 3159
532 3100 3182
943 2844 922
942 2850 937
936 2868 991
921 2908 1113
901 2954 1263
878 3004 1430
852 3059 1622
823 3119 1831
794 3179 2036
763 3239 2248
725 3299 2497
686 3352 2765
663 3383 2938
658 3391 2986
655 3396 3013
652 3400 3040
650 3405 3067
967 2913 946
965 2918 959
958 2935 1014
943 2973 1135
922 3019 1285
900 3068 1451
872 3122 1641
844 3182 1847
817 3242 2046
789 3301 2245
752 3359 2480
713 3411 2737
689 3440 2906
682 3447 2954
678 3451 2983
674 3454 3011
670 3458 3040
961 2897 940
959 2901 954
952 2919 1010
937 2957 1130
917 3003 1281
894 3051 1447
866 3105 1639
836 3164 1849
809 3224 2052
780 3283 2255
741 3342 2492
700 3396 2750
674 3425 2919
666 3433 2967
662 3437 2996
657 3440 3025
653 3444 3054
953 2873 932
951 2878 947
944 2896 1003
929 2934 1124
909 2979 1275
885 3027 1441
857 3080 1635
827 3139 1848
798 3199 2056
768 3259 2265
728 3320 2507
685 3374 2767
657 3405 2936
649 3412 2985
643 3416 3014
639 3420 3042
634 3424 3072
945 2849 924
943 2854 939
936 2872 995
921 2910 1117
900 2956 1268
877 3004 1436
848 3057 1630
817 3115 1846
787 3174 2059
756 3235 2275
715 3296 2521
671 3351 2784
642 3383 2953
633 3390 3002
628 3395 3031
623 3399 3060
617 3403 3090
37 5 8
41 8 32
51 25 112
79 66 264
116 114 407
152 158 527
185 197 645
217 239 770
252 282 896
290 327 1030
331 381 1190
376 437 1361
406 475 1476
415 485 1508
420 490 1525
424 496 1542
429 501 1560
46 34 12
46 37 37
54 51 119
77 88 274
113 134 420
148 174 540
180 213 658
216 255 784
251 296 910
288 340 1044
329 393 1205
375 449 1376
404 485 1490
413 496 1523
418 501 1540
423 508 1557
428 513 1575
76 147 35
74 151 59
70 159 144
75 183 306
101 215 462
135 247 588
172 281 711
209 318 839
244 356 967
281 398 1102
324 447 1264
369 500 1436
399 535 1551
408 545 1583
412 551 1602
417 557 1620
422 563 1638
142 371 88
135 373 109
117 378 195
90 389 369
93 408 545
117 426 691
155 447 825
194 474 959
231 504 1090
271 539 1230
315 583 1395
362 631 1570
392 663 1686
400 673 1719
405 679 1738
410 685 1756
414 691 1776
212 604 155
205 608 176
184 615 256
146 629 431
116 645 627
119 659 801
146 672 956
185 688 1101
225 709 1237
266 737 1381
314 772 1550
361 814 1729
392 843 1847
401 853 1881
405 858 1900
410 864 1919
416 870 1939
282 821 225
276 825 245
257 837 320
219 860 484
181 884 685
154 905 888
156 920 1076
184 932 1243
222 946 1390
266 965 1538
316 994 1712
364 1029 1896
397 1054 2016
406 1062 2051
411 1067 2070
416 1073 2090
421 1078 2110
353 1049 303
350 1054 320
335 1069 390
304 1098 541
266 1130 735
229 1161 945
201 1187 1169
200 1206 1377
223 1220 1550
263 1234 1711
316 1255 1892
367 1282 2081
400 1303 2204
410 1311 2240
415 1316 2260
419 1321 2280
425 1326 2301
435 1304 389
433 1310 406
420 1326 472
395 1358 613
364 1396 794
327 1434 998
288 1471 1232
253 1505 1481
245 1528 1700
267 1544 1895
314 1560 2093
367 1580 2291
401 1596 2418
412 1603 2456
416 1607 2477
422 1612 2498
426 1617 2519
523 1570 479
521 1576 496
512 1593 558
489 1628 695
461 1669 866
429 1710 1058
388 1754 1286
345 1798 1545
306 1836 1805
295 1864 2052
318 1883 2293
366 1899 2512
401 1910 2646
411 1916 2684
416 1920 2706
421 1924 2728
427 1928 2751
614 1843 571
612 1849 588
603 1868 649
584 1904 780
559 1947 945
530 1991 1129
493 2039 1347
449 2088 1599
403 2135 1866
363 2178 2155
349 2212 2459
372 2234 2726
400 2246 2878
410 2250 2918
415 2254 2940
421 2258 2962
426 2262 2985
721 2167 682
720 2174 697
712 2193 757
695 2231 884
673 2276 1044
647 2323 1221
614 2374 1431
575 2427 1671
532 2479 1929
483 2532 2221
436 2586 2566
419 2627 2890
425 2646 3070
431 2653 3113
436 2657 3134
441 2662 3155
447 2666 3175
848 2548 811
847 2555 826
840 2575 883
824 2614 1008
804 2661 1163
780 2710 1335
751 2764 1535
717 2821 1760
681 2878 1996
640 2936 2255
592 2998 2564
550 3052 2881
533 3082 3070
532 3091 3117
534 3096 3140
535 3102 3162
537 3107 3185
951 2857 915
949 2863 930
943 2881 986
927 2920 1108
907 2967 1260
884 3016 1427
857 3071 1620
828 3131 1829
800 3190 2034
769 3248 2246
730 3307 2497
692 3359 2766
669 3388 2939
664 3396 2987
661 3401 3014
659 3406 3041
657 3410 3069
973 2925 938
971 2930 952
964 2947 1008
949 2985 1129
928 3031 1281
905 3079 1447
878 3133 1639
850 3193 1844
823 3252 2043
794 3310 2243
757 3366 2479
718 3416 2738
695 3444 2907
688 3452 2955
684 3456 2984
681 3459 3013
677 3463 3042
968 2909 932
966 2914 947
959 2931 1003
943 2969 1125
923 3015 1276
899 3063 1444
871 3116 1637
842 3175 1846
814 3234 2048
784 3292 2253
746 3350 2492
705 3402 2751
679 3431 2920
672 3438 2969
668 3442 2998
663 3446 3027
659 3449 3057
960 2885 924
958 2890 939
951 2908 996
935 2946 1118
915 2991 1270
891 3039 1438
862 3092 1633
832 3151 1846
803 3210 2053
772 3269 2263
732 3328 2506
689 3381 2768
662 3410 2937
654 3418 2986
649 3422 3016
644 3426 3045
639 3430 3074
953 2862 916
950 2867 931
943 2885 989
927 2923 1111
907 2968 1264
883 3015 1432
854 3068 1628
822 3126 1844
792 3185 2057
760 3245 2273
720 3305 2521
674 3358 2785
646 3389 2955
637 3396 3004
632 3401 3033
627 3405 3063
622 3409 3093
173 24 37
174 25 59
180 40 138
195 76 288
217 119 432
238 161 554
262 203 674
292 246 800
321 288 927
351 334 1061
392 388 1221
434 444 1393
464 481 1507
473 493 1540
477 498 1557
482 504 1575
487 510 1592
181 51 37
181 53 59
181 65 142
192 94 295
211 135 443
233 176 566
258 216 688
287 258 816
316 300 942
349 345 1077
390 399 1238
432 455 1410
461 492 1523
470 502 1555
474 508 1573
480 514 1591
485 519 1609
209 161 42
206 161 66
193 163 150
182 177 314
191 206 480
211 236 616
239 274 744
272 313 875
303 353 1003
337 396 1140
378 447 1302
422 501 1475
451 536 1588
458 547 1621
463 552 1639
468 558 1657
473 564 1676
265 388 71
256 387 93
222 383 178
176 380 359
160 389 554
171 406 718
203 428 862
239 458 1001
275 490 1134
313 527 1275
356 572 1441
402 622 1616
431 655 1732
439 664 1765
445 671 1784
449 677 1803
454 683 1823
318 634 124
310 636 142
269 637 221
206 638 405
159 642 626
149 647 823
172 656 993
209 671 1146
251 692 1286
294 720 1431
341 757 1602
388 800 1782
419 829 1900
428 838 1934
432 844 1954
438 849 1973
443 855 1993
367 864 190
357 868 207
324 876 280
264 890 452
204 905 675
168 916 904
169 923 1109
197 929 1286
237 939 1438
283 956 1589
333 984 1765
385 1017 1950
417 1042 2071
426 1050 2106
431 1055 2126
436 1060 2146
441 1066 2166
421 1097 264
415 1102 281
390 1115 350
340 1140 508
288 1165 719
241 1189 953
209 1208 1196
208 1219 1415
233 1227 1595
276 1236 1759
331 1253 1942
383 1278 2133
417 1298 2258
427 1305 2294
432 1310 2315
437 1315 2336
443 1320 2357
492 1356 348
487 1361 366
468 1376 433
429 1406 581
386 1439 775
343 1472 997
297 1504 1248
260 1532 1513
253 1548 1741
277 1559 1940
325 1569 2142
381 1585 2342
416 1599 2471
426 1605 2508
431 1609 2530
437 1613 2552
443 1618 2574
571 1623 439
568 1629 456
551 1645 520
520 1677 663
486 1715 846
447 1753 1050
402 1793 1293
353 1833 1567
312 1866 1839
302 1888 2094
327 1902 2339
377 1912 2560
413 1920 2696
423 1925 2735
429 1929 2758
434 1933 2780
441 1937 2803
655 1897 532
652 1903 549
640 1920 612
614 1954 751
584 1994 925
552 2036 1119
511 2081 1348
462 2127 1613
412 2170 1892
369 2209 2191
356 2238 2502
382 2254 2773
411 2263 2924
420 2266 2965
426 2270 2988
433 2274 3010
439 2277 3033
758 2221 644
756 2228 660
746 2246 723
724 2282 856
698 2325 1024
669 2369 1209
633 2418 1427
590 2469 1677
544 2518 1944
492 2569 2247
445 2618 2599
428 2654 2925
436 2670 3103
442 2675 3145
448 2680 3166
454 2684 3186
460 2688 3207
880 2601 777
879 2608 792
871 2627 852
852 2665 982
830 2710 1143
803 2758 1321
773 2810 1526
737 2865 1756
698 2920 1997
656 2975 2262
607 3032 2576
565 3081 2896
550 3108 3084
549 3116 3131
551 3121 3154
554 3126 3177
557 3132 3199
981 2907 883
979 2913 898
972 2931 956
954 2969 1082
932 3015 1239
908 3063 1410
880 3117 1605
851 3175 1815
822 3231 2020
791 3285 2235
753 3338 2491
715 3384 2766
696 3410 2943
691 3417 2993
690 3422 3022
689 3427 3050
688 3432 3079
1003 2974 906
1001 2979 920
993 2997 978
975 3033 1104
953 3078 1259
929 3125 1430
901 3178 1622
873 3237 1828
846 3293 2026
816 3345 2228
780 3396 2471
743 3440 2737
723 3464 2911
717 3471 2961
715 3475 2991
712 3479 3021
710 3483 3052
998 2959 900
996 2964 915
988 2981 973
970 3017 1099
948 3062 1255
923 3109 1426
894 3161 1621
865 3219 1830
836 3276 2032
806 3329 2238
768 3381 2483
728 3426 2751
704 3452 2924
698 3459 2975
694 3463 3005
691 3466 3035
688 3471 3066
991 2936 891
989 2941 906
980 2958 965
963 2995 1092
940 3039 1249
915 3085 1421
886 3138 1618
854 3195 1831
825 3252 2038
793 3307 2249
753 3360 2498
710 3407 2768
683 3433 2942
676 3440 2992
672 3444 3023
668 3448 3053
664 3452 3084
984 2913 882
982 2918 898
973 2935 957
955 2972 1085
932 3016 1242
907 3062 1415
877 3114 1615
844 3171 1832
813 3228 2043
780 3283 2260
738 3338 2513
693 3387 2786
664 3413 2960
657 3420 3011
652 3425 3041
648 3429 3072
644 3433 3103
398 63 96
400 65 116
404 76 192
412 100 335
418 137 481
424 173 609
431 215 734
448 259 863
469 303 991
495 350 1128
529 404 1290
567 462 1463
593 498 1576
602 509 1609
607 515 1627
612 521 1644
617 527 1662
410 86 91
409 86 111
410 93 187
412 113 337
415 146 490
419 182 622
426 222 750
443 267 880
465 311 1009
491 357 1145
526 412 1308
564 469 1480
590 506 1594
599 517 1626
603 523 1644
608 529 1662
