Postproduction/IWLTBAP - Humble/LUTs by IWLTBAP (3DL)/UTILITY/Panasonic V-Log to Rec.709/U-PANASONIC-V-LOG-V5-LTR.3dl
# Copyright: (C) Copyright 2010-2018 by IWLTBAP SAS
# Cannot be resold, shared or otherwise redistributed
# Website: https://luts.iwltbap.com
0 64 128 192 256 320 384 448 512 576 640 704 768 832 896 960 1023
0 0 0
0 0 0
0 0 0
0 0 0
0 0 256
0 0 643
0 0 1100
0 0 1578
0 0 2058
0 0 2536
0 0 3008
0 0 3462
0 0 3840
0 0 4095
0 0 4095
0 0 4095
0 0 4095
0 0 0
0 0 0
0 0 0
0 0 0
0 0 250
0 0 638
0 0 1097
0 0 1576
0 0 2056
0 0 2534
0 0 3007
0 0 3460
0 0 3838
0 0 4095
0 0 4095
0 0 4095
0 0 4095
0 0 0
0 0 0
0 0 0
0 0 0
0 0 241
0 0 632
0 0 1093
0 0 1572
0 0 2053
0 0 2531
0 0 3004
0 0 3459
0 0 3837
0 0 4095
0 0 4095
0 0 4095
0 0 4095
0 154 0
0 140 0
0 118 0
0 82 0
0 43 227
0 0 621
0 0 1085
0 0 1566
0 0 2048
0 0 2527
0 0 3000
0 0 3455
0 0 3833
0 0 4095
0 0 4095
0 0 4095
0 0 4095
0 448 0
0 438 0
0 421 0
0 395 0
0 348 202
0 287 604
0 139 1071
0 0 1555
0 0 2039
0 0 2519
0 0 2993
0 0 3448
0 0 3826
0 0 4091
0 0 4095
0 0 4095
0 0 4095
0 846 0
0 839 0
0 827 0
0 808 0
0 774 194
0 711 571
0 654 1046
0 531 1535
0 312 2023
0 0 2506
0 0 2981
0 0 3437
0 0 3816
0 0 4081
0 0 4095
0 0 4095
0 0 4095
0 1316 0
0 1311 0
0 1302 0
0 1288 0
0 1262 157
0 1216 572
0 1142 1007
0 1091 1506
0 994 1999
0 840 2485
0 523 2964
0 105 3422
0 0 3803
0 0 4068
0 0 4095
0 0 4095
0 0 4095
0 1805 0
0 1801 0
0 1794 0
0 1783 0
0 1763 75
0 1727 549
0 1671 1014
0 1592 1464
0 1545 1966
0 1463 2458
0 1344 2941
0 1164 3402
0 971 3784
0 818 4050
0 794 4095
0 907 4095
0 1008 4095
0 2296 0
0 2292 0
0 2287 0
0 2277 0
0 2261 0
0 2232 496
0 2187 1002
0 2125 1473
0 2044 1923
0 2001 2423
0 1931 2912
0 1837 3377
0 1739 3762
0 1699 4029
0 1704 4095
0 1754 4095
0 1840 4095
0 2784 0
0 2781 0
0 2777 0
0 2769 0
0 2754 0
0 2730 400
0 2693 971
0 2642 1467
0 2577 1934
0 2495 2380
0 2453 2876
0 2397 3346
0 2347 3734
0 2325 4003
0 2346 4095
0 2398 4095
0 2479 4095
0 3267 0
0 3264 0
0 3260 0
0 3253 0
0 3240 0
0 3218 239
0 3187 907
0 3145 1447
0 3090 1933
0 3022 2392
0 2940 2833
0 2904 3309
0 2874 3701
0 2871 3972
0 2899 4095
0 2951 4095
0 3017 4095
0 3731 0
0 3728 0
0 3725 0
0 3718 0
0 3706 0
0 3686 15
0 3659 829
0 3622 1411
0 3576 1923
0 3518 2396
0 3448 2846
0 3368 3267
0 3350 3664
0 3354 3938
0 3369 4095
0 3406 4095
0 3459 4095
0 4095 0
0 4095 0
0 4095 0
0 4095 0
0 4093 0
0 4075 0
0 4050 758
0 4016 1381
0 3974 1916
0 3923 2406
0 3861 2863
0 3791 3287
0 3725 3629
0 3711 3907
0 3720 4080
0 3747 4095
0 3779 4095
0 4095 0
0 4095 0
0 4095 0
0 4095 0
0 4095 0
0 4095 0
0 4095 715
0 4095 1381
0 4095 1936
0 4095 2430
0 4095 2893
0 4080 3319
0 4022 3642
0 3974 3882
0 3970 4057
0 3977 4095
0 3996 4095
0 4095 0
0 4095 0
0 4095 0
0 4095 0
0 4095 0
0 4095 0
0 4095 735
0 4095 1419
0 4095 1975
0 4095 2475
0 4095 2939
0 4095 3352
0 4095 3667
0 4095 3894
0 4095 4041
0 4095 4095
0 4095 4095
0 4095 0
0 4095 0
0 4095 0
0 4095 0
0 4095 0
0 4095 0
0 4095 804
0 4095 1484
0 4095 2035
0 4095 2534
0 4095 2997
0 4095 3395
0 4095 3701
0 4095 3909
0 4095 4050
0 4095 4095
0 4095 4095
0 4095 0
0 4095 0
0 4095 0
0 4095 0
0 4095 0
0 4095 0
0 4095 919
0 4095 1563
0 4095 2108
0 4095 2605
0 4095 3061
0 4095 3448
0 4095 3735
0 4095 3931
0 4095 4064
0 4095 4095
0 4095 4095
0 0 0
0 0 0
0 0 0
0 0 0
0 0 256
0 0 643
0 0 1101
0 0 1578
0 0 2058
0 0 2536
0 0 3008
0 0 3462
0 0 3840
0 0 4095
0 0 4095
0 0 4095
0 0 4095
0 0 0
0 0 0
0 0 0
0 0 0
0 0 295
0 0 702
0 0 1165
0 0 1644
0 0 2125
0 0 2602
0 0 3072
0 0 3524
0 0 3881
0 0 4095
0 0 4095
0 0 4095
0 0 4095
0 0 0
0 0 0
0 0 0
0 0 0
0 0 285
0 0 695
0 0 1160
0 0 1640
0 0 2122
0 0 2599
0 0 3070
0 0 3521
0 0 3879
0 0 4095
0 0 4095
0 0 4095
0 0 4095
0 152 0
0 174 0
0 151 0
0 113 0
0 73 271
0 0 684
0 0 1152
0 0 1634
0 0 2116
0 0 2594
0 0 3066
0 0 3517
0 0 3875
0 0 4095
0 0 4095
0 0 4095
0 0 4095
0 447 0
0 481 0
0 464 0
0 436 0
0 389 246
0 334 665
0 185 1137
0 0 1622
0 0 2106
0 0 2586
0 0 3058
0 0 3510
0 0 3868
0 0 4095
0 0 4095
0 0 4095
0 0 4095
0 845 0
0 902 0
0 890 0
0 870 0
0 834 246
0 770 631
0 712 1112
0 593 1602
0 384 2090
0 0 2572
0 0 3046
0 0 3499
0 0 3858
0 0 4095
0 0 4095
0 0 4095
0 0 4095
0 1315 0
0 1378 0
0 1370 0
0 1355 0
0 1327 209
0 1280 633
0 1205 1072
0 1154 1571
0 1058 2065
0 911 2551
0 639 3028
0 226 3484
0 0 3843
0 0 4095
0 0 4095
0 0 4095
0 0 4095
0 1805 0
0 1870 0
0 1863 0
0 1851 0
0 1830 130
0 1792 611
0 1735 1079
0 1656 1530
0 1608 2032
0 1531 2524
0 1414 3005
0 1237 3463
0 1079 3825
0 969 4078
0 996 4095
0 1048 4095
0 1158 4095
0 2295 0
0 2362 0
0 2356 0
0 2346 0
0 2329 0
0 2298 562
0 2252 1068
0 2190 1538
0 2109 1989
0 2065 2489
0 1996 2975
0 1904 3438
0 1828 3801
0 1791 4056
0 1803 4095
0 1863 4095
0 1955 4095
0 2784 0
0 2850 0
0 2845 0
0 2836 0
0 2821 0
0 2795 473
0 2758 1039
0 2706 1535
0 2641 1999
0 2558 2446
0 2518 2939
0 2464 3406
0 2420 3773
0 2405 4029
0 2434 4095
0 2495 4095
0 2570 4095
0 3267 0
0 3331 0
0 3327 0
0 3319 0
0 3305 0
0 3282 328
0 3250 983
0 3208 1516
0 3152 1999
0 3084 2457
0 3002 2896
0 2966 3369
0 2944 3740
0 2947 3998
0 2977 4095
0 3028 4095
0 3095 4095
0 3730 0
0 3792 0
0 3788 0
0 3781 0
0 3768 0
0 3748 134
0 3719 910
0 3682 1480
0 3635 1990
0 3577 2463
0 3507 2909
0 3427 3328
0 3413 3703
0 3409 3964
0 3428 4095
0 3468 4095
0 3523 4095
0 4095 0
0 4095 0
0 4095 0
0 4095 0
0 4095 0
0 4095 0
0 4089 846
0 4055 1461
0 4012 1992
0 3960 2475
0 3897 2930
0 3827 3349
0 3764 3670
0 3754 3935
0 3766 4095
0 3788 4095
0 3817 4095
0 4095 0
0 4095 0
0 4095 0
0 4095 0
0 4095 0
0 4095 0
0 4095 820
0 4095 1469
0 4095 2012
0 4095 2502
0 4095 2963
0 4095 3372
0 4047 3685
0 4002 3911
0 3995 4074
0 4004 4095
0 4025 4095
0 4095 0
0 4095 0
0 4095 0
0 4095 0
0 4095 0
0 4095 0
0 4095 855
0 4095 1513
0 4095 2056
0 4095 2551
0 4095 3010
0 4095 3407
0 4095 3711
0 4095 3919
0 4095 4059
0 4095 4095
0 4095 4095
0 4095 0
0 4095 0
0 4095 0
0 4095 0
0 4095 0
0 4095 0
0 4095 939
0 4095 1576
0 4095 2119
0 4095 2613
0 4095 3066
0 4095 3453
0 4095 3740
0 4095 3936
0 4095 4068
0 4095 4095
0 4095 4095
0 4095 0
0 4095 0
0 4095 0
0 4095 0
0 4095 0
0 4095 139
0 4095 1034
0 4095 1656
0 4095 2194
0 4095 2683
0 4095 3130
0 4095 3506
0 4095 3770
0 4095 3959
0 4095 4077
0 4095 4095
0 4095 4095
0 0 0
0 0 0
0 0 0
0 0 0
0 0 257
0 0 643
0 0 1101
0 0 1579
0 0 2058
0 0 2536
0 0 3008
0 0 3462
0 0 3840
0 0 4095
0 0 4095
0 0 4095
0 0 4095
0 0 0
0 0 0
0 0 0
0 0 1
0 0 296
0 0 702
0 0 1166
0 0 1645
0 0 2125
0 0 2602
0 0 3073
0 0 3524
0 0 3881
0 0 4095
0 0 4095
0 0 4095
0 0 4095
0 0 0
0 0 0
0 0 0
0 0 24
0 0 340
0 0 758
0 0 1228
0 0 1708
0 0 2189
0 0 2667
0 0 3136
0 0 3582
0 0 3921
0 0 4095
0 0 4095
0 0 4095
0 0 4095
0 149 0
0 171 0
0 183 0
0 144 4
0 96 325
0 0 747
0 0 1220
0 0 1701
0 0 2183
0 0 2662
0 0 3131
0 0 3578
0 0 3917
0 0 4095
0 0 4095
0 0 4095
0 0 4095
0 445 0
0 479 0
0 516 0
0 488 0
0 437 298
0 380 727
0 232 1204
0 0 1689
0 0 2173
0 0 2652
0 0 3123
0 0 3570
0 0 3910
0 0 4095
0 0 4095
0 0 4095
0 0 4095
0 844 0
0 900 0
0 952 0
0 931 0
0 893 298
0 827 692
0 769 1178
0 655 1668
0 457 2156
0 47 2638
0 0 3110
0 0 3559
0 0 3899
0 0 4095
0 0 4095
0 0 4095
0 0 4095
0 1314 0
0 1377 0
0 1437 0
0 1422 0
0 1393 262
0 1344 694
0 1268 1138
0 1218 1637
0 1124 2130
0 982 2617
0 743 3092
0 317 3543
0 0 3884
0 0 4095
0 0 4095
0 0 4095
0 0 4095
0 1804 0
0 1869 0
0 1930 0
0 1918 0
0 1896 186
0 1857 675
0 1798 1146
0 1719 1595
0 1673 2097
0 1595 2589
0 1481 3068
0 1313 3522
0 1190 3865
0 1127 4095
0 1118 4095
0 1188 4095
0 1308 4095
0 2295 0
0 2361 0
0 2423 0
0 2413 0
0 2394 45
0 2362 631
0 2316 1135
0 2253 1604
0 2171 2054
0 2129 2554
0 2062 3039
0 1975 3497
0 1908 3841
0 1882 4078
0 1903 4095
0 1973 4095
0 2066 4095
0 2783 0
0 2849 0
0 2913 0
0 2904 0
0 2887 0
0 2860 545
0 2822 1108
0 2770 1601
0 2704 2065
0 2621 2511
0 2582 3002
0 2528 3465
0 2492 3813
0 2490 4050
0 2523 4095
0 2582 4095
0 2658 4095
0 3266 0
0 3331 0
0 3392 0
0 3384 0
0 3369 0
0 3346 421
0 3313 1057
0 3270 1583
0 3214 2066
0 3145 2523
0 3063 2959
0 3029 3428
0 3013 3779
0 3020 4019
0 3050 4095
0 3106 4095
0 3176 4095
0 3730 0
0 3792 0
0 3849 0
0 3841 0
0 3827 0
0 3807 264
0 3778 984
0 3739 1551
0 3692 2059
0 3633 2528
0 3563 2973
0 3484 3386
0 3463 3743
0 3464 3986
0 3487 4095
0 3530 4095
0 3575 4095
0 4095 0
0 4095 0
0 4095 0
0 4095 0
0 4095 0
0 4095 73
0 4095 937
0 4093 1543
0 4049 2065
0 3996 2545
0 3933 2997
0 3865 3401
0 3803 3711
0 3797 3957
0 3805 4095
0 3825 4095
0 3856 4095
0 4095 0
0 4095 0
0 4095 0
0 4095 0
0 4095 0
0 4095 0
0 4095 929
0 4095 1559
0 4095 2090
0 4095 2578
0 4095 3032
0 4095 3426
0 4066 3728
0 4024 3935
0 4020 4090
0 4032 4095
0 4051 4095
0 4095 0
0 4095 0
0 4095 0
0 4095 0
0 4095 0
0 4095 0
0 4095 978
0 4095 1601
0 4095 2137
0 4095 2627
0 4095 3078
0 4095 3464
0 4095 3749
0 4095 3945
0 4095 4076
0 4095 4095
0 4095 4095
0 4095 0
0 4095 0
0 4095 0
0 4095 0
0 4095 0
0 4095 163
0 4095 1052
0 4095 1668
0 4095 2203
0 4095 2690
0 4095 3137
0 4095 3510
0 4095 3776
0 4095 3963
0 4095 4081
0 4095 4095
0 4095 4095
0 4095 0
0 4095 0
0 4095 0
0 4095 0
0 4095 0
0 4095 338
0 4095 1144
0 4095 1751
0 4095 2280
0 4095 2759
0 4095 3202
0 4095 3554
0 4095 3807
0 4095 3985
0 4095 4091
0 4095 4095
0 4095 4095
189 0 0
185 0 0
178 0 0
167 0 0
184 0 258
182 0 644
149 0 1101
81 0 1579
0 0 2059
0 0 2536
0 0 3009
0 0 3462
0 0 3840
0 0 4095
0 0 4095
0 0 4095
0 0 4095
169 0 0
201 0 0
194 0 0
183 0 3
198 0 297
190 0 703
159 0 1166
92 0 1645
0 0 2126
0 0 2603
0 0 3073
0 0 3524
0 0 3881
0 0 4095
0 0 4095
0 0 4095
