Postproduction/IWLTBAP - Humble/LUTs by IWLTBAP (3DL)/UTILITY/Panasonic V-Log to Rec.709/U-PANASONIC-V-LOG-V3-LTR.3dl
# Copyright: (C) Copyright 2010-2018 by IWLTBAP SAS
# Cannot be resold, shared or otherwise redistributed
# Website: https://luts.iwltbap.com
0 256 512 768 1023
60 58 53
35 71 426
6 0 1919
0 299 2660
0 299 2712
82 335 79
41 357 383
0 544 2132
0 849 2881
0 849 2933
952 2247 113
947 2251 203
320 2566 2748
488 2705 3569
488 2705 3621
2038 3453 970
2038 3453 1022
1861 3686 2922
1899 3790 3835
1899 3790 3888
2038 3505 970
2038 3505 1022
1861 3738 2922
1899 3842 3835
1899 3842 3888
637 109 59
659 121 409
549 0 2127
669 324 2869
669 324 2921
441 404 81
462 425 392
400 507 2243
527 829 2990
527 829 3042
1016 2249 110
1007 2251 168
376 2568 2751
526 2695 3566
526 2695 3619
2090 3453 970
2090 3453 1022
1913 3685 2912
1951 3790 3835
1951 3790 3888
2090 3505 970
2090 3505 1022
1913 3737 2912
1951 3842 3835
1951 3842 3888
2626 0 0
2633 0 161
2605 0 2408
2717 312 3242
2717 312 3295
2442 298 0
2481 178 101
2623 180 2461
2726 664 3295
2726 664 3347
2828 2582 0
2832 2586 52
2794 2832 2842
2719 2823 3725
2719 2823 3778
3061 3626 930
3055 3626 983
2890 3811 2803
2879 3914 3891
2879 3914 3944
3061 3679 930
3055 3678 983
2890 3863 2803
2879 3966 3891
2879 3966 3944
3077 0 0
3077 0 52
3339 0 2400
3589 247 3329
3589 247 3382
3077 52 0
3077 52 52
3337 52 2390
3589 299 3329
3589 299 3382
3824 2674 0
3823 2665 52
3837 2824 2742
3852 2873 3785
3852 2873 3837
3950 3772 948
3950 3772 1000
3902 3942 2748
3886 4043 3936
3886 4043 3989
3950 3824 948
3950 3824 1000
3902 3995 2748
3886 4095 3936
3886 4095 3989
3129 0 0
3129 0 52
3391 0 2400
3641 247 3329
3641 247 3382
3129 52 0
3129 52 52
3389 52 2390
3641 299 3329
3641 299 3382
3876 2674 0
3875 2665 52
3890 2824 2742
3904 2873 3785
3904 2873 3837
4002 3772 948
4002 3772 1000
3954 3942 2748
3938 4043 3936
3938 4043 3989
4002 3824 948
4002 3824 1000
3954 3995 2748
3938 4095 3936
3938 4095 3989
