Postproduction/IWLTBAP - Humble/LUTs by IWLTBAP (3DL)/UTILITY/Panasonic V-Log to Rec.709/U-PANASONIC-V-LOG-V6-LTR.3dl
# Copyright: (C) Copyright 2010-2018 by IWLTBAP SAS
# Cannot be resold, shared or otherwise redistributed
# Website: https://luts.iwltbap.com
0 128 256 384 512 640 768 896 1023
0 0 0
7 8 100
64 78 341
152 180 618
225 266 870
280 330 1063
350 412 1311
433 511 1614
461 544 1715
11 60 13
12 63 55
86 145 453
161 203 663
235 278 906
311 367 1174
400 472 1493
455 537 1693
461 544 1715
119 483 138
123 497 145
46 511 519
79 526 797
153 557 1025
231 607 1283
328 685 1623
407 755 1906
419 745 1928
236 837 272
238 843 274
174 885 567
98 925 944
113 949 1239
200 985 1515
297 1047 1843
399 1131 2204
414 1145 2262
362 1234 416
363 1239 418
316 1295 676
246 1358 1033
162 1418 1447
169 1462 1827
274 1515 2172
381 1591 2545
399 1621 2622
542 1808 623
544 1815 625
502 1884 888
444 1962 1221
369 2045 1630
267 2137 2151
251 2220 2697
354 2288 3055
364 2330 3118
797 2621 914
802 2638 920
762 2719 1191
712 2817 1530
642 2924 1954
546 3044 2489
458 3175 3059
443 3274 3346
474 3336 3321
987 3229 1132
987 3229 1132
941 3318 1433
872 3393 1786
829 3487 2123
848 3562 2492
944 3543 2971
982 3567 3119
982 3567 3119
987 3229 1132
987 3229 1132
938 3322 1451
861 3404 1841
823 3513 2206
890 3563 2662
974 3562 3091
982 3567 3119
982 3567 3119
175 8 29
160 12 82
267 93 453
269 195 716
246 271 893
288 340 1092
363 428 1359
439 518 1634
461 544 1715
150 42 22
127 42 51
147 129 477
177 210 704
258 305 987
343 404 1287
427 504 1593
460 543 1711
461 544 1715
216 489 87
129 511 148
48 525 530
97 540 857
188 576 1136
267 625 1398
362 701 1730
418 747 1926
422 716 1901
241 844 269
245 866 282
198 900 502
102 947 962
126 968 1293
215 999 1570
321 1066 1927
405 1133 2225
415 1137 2256
365 1243 420
370 1260 426
338 1303 608
259 1375 1009
165 1438 1466
176 1480 1861
288 1532 2228
388 1601 2571
399 1623 2623
546 1819 627
550 1834 632
523 1887 817
458 1975 1189
380 2065 1618
270 2160 2173
258 2241 2738
359 2305 3082
364 2342 3127
802 2638 920
808 2656 927
786 2729 1118
726 2833 1503
659 2949 1928
557 3068 2483
470 3205 3067
455 3297 3337
486 3357 3311
987 3229 1132
987 3229 1132
952 3300 1367
886 3379 1717
832 3478 2093
843 3561 2474
944 3543 2970
982 3567 3119
982 3567 3119
987 3229 1132
987 3229 1132
944 3314 1420
866 3399 1816
825 3506 2182
884 3566 2635
972 3561 3084
982 3567 3119
982 3567 3119
521 76 166
608 100 236
669 139 585
670 196 828
644 270 1029
636 350 1243
652 445 1506
688 545 1787
657 566 1841
529 97 149
606 99 203
680 141 591
669 213 880
611 314 1140
546 408 1380
438 517 1632
461 544 1715
461 544 1715
646 484 14
636 498 13
450 375 404
357 328 980
370 445 1283
370 559 1523
390 693 1797
424 693 1879
431 651 1836
606 983 90
451 978 140
339 1010 301
129 995 1002
166 971 1435
260 1006 1710
364 1090 2072
415 1122 2243
415 1107 2232
604 1437 239
463 1381 324
405 1379 471
302 1456 964
174 1502 1526
195 1513 1945
329 1571 2376
399 1619 2620
399 1623 2623
720 2055 440
617 1955 561
564 1892 669
490 2005 1117
404 2105 1589
279 2215 2224
284 2297 2858
364 2344 3128
362 2365 3143
950 2899 763
865 2775 893
835 2745 959
771 2879 1404
698 3005 1868
591 3134 2455
502 3281 3081
487 3357 3310
516 3399 3287
1132 3474 962
1037 3318 1077
987 3229 1132
908 3359 1613
838 3452 2016
833 3558 2428
943 3543 2967
982 3567 3119
982 3567 3119
1147 3495 944
1056 3350 1057
965 3274 1279
880 3386 1749
843 3511 2152
933 3555 2599
1061 3580 3115
1090 3590 3159
1106 3594 3165
802 148 286
881 168 319
951 202 608
1028 237 897
1062 292 1162
1037 374 1387
1038 475 1664
1061 591 1987
1068 620 2067
831 163 269
953 187 348
1030 223 631
1126 266 983
1143 342 1320
1077 445 1588
1036 558 1890
974 608 2017
912 600 1983
1044 432 95
1109 378 154
1182 282 453
1223 295 1055
1141 381 1452
1024 501 1744
960 632 2085
848 647 2105
680 604 1946
1287 1031 26
1276 1048 26
1266 1025 114
921 832 865
767 712 1559
640 743 2133
650 893 2521
604 981 2608
511 1026 2445
1246 1602 129
1120 1602 154
1012 1648 187
636 1718 622
331 1648 1651
316 1549 2342
476 1546 2794
522 1595 2962
475 1618 2842
1250 2287 324
1107 2273 352
976 2269 385
735 2427 832
557 2471 1562
319 2499 2511
367 2452 3231
442 2440 3428
417 2451 3373
1402 3244 572
1255 3217 597
1114 3171 670
1001 3309 1198
885 3394 1765
792 3465 2362
713 3516 3135
733 3546 3395
759 3551 3354
1657 3636 919
1462 3626 863
1300 3601 860
1285 3607 1451
1315 3557 1849
1350 3537 2416
1488 3661 3174
1519 3688 3325
1504 3684 3318
1712 3638 938
1527 3630 879
1498 3630 1051
1469 3567 1514
1467 3508 2022
1572 3620 2756
1700 3740 3372
1722 3748 3406
1737 3751 3410
1085 223 402
1159 245 432
1222 274 672
1308 311 944
1403 350 1238
1481 412 1565
1472 512 1846
1488 635 2190
1494 669 2284
1131 236 389
1291 281 485
1339 305 693
1432 346 1008
1532 389 1352
1587 454 1705
1535 565 2005
1515 663 2270
1475 667 2275
1421 420 268
1484 347 379
1548 346 599
1615 389 1051
1689 433 1485
1692 511 1891
1594 650 2252
1509 680 2318
1402 659 2238
1691 942 90
1727 901 112
1846 806 205
1874 631 892
1956 580 1706
1793 653 2322
1560 824 2750
1441 885 2912
1323 877 2859
2129 1705 88
2119 1721 88
2155 1747 92
1878 1633 632
1547 1414 1464
1338 1267 2289
1008 1118 3303
976 1237 3552
874 1287 3510
2134 2528 248
2020 2526 260
1909 2538 277
1648 2793 412
1188 2726 1157
780 2633 2548
606 2444 3614
798 2401 3718
740 2447 3707
2197 3556 619
2069 3550 628
1930 3549 641
1656 3631 940
1478 3572 1451
1371 3538 2195
1311 3658 3331
1412 3680 3603
1453 3699 3584
2304 3535 1059
2175 3566 1039
2067 3596 1043
1914 3487 1317
1941 3586 1905
2044 3767 2706
2035 3766 3324
2047 3760 3432
2055 3760 3434
2450 3541 1114
2350 3533 1073
2310 3530 1213
2238 3596 1620
2254 3786 2306
2204 3790 2965
2259 3767 3472
2299 3768 3503
2341 3770 3519
1466 330 555
1517 345 576
1585 374 792
1671 409 1050
1772 449 1331
1901 500 1686
2024 564 2071
2041 690 2444
2060 729 2557
1500 338 559
1616 372 615
1667 395 798
1764 434 1085
1869 477 1398
1995 528 1770
2119 606 2217
2106 716 2529
2100 734 2576
1860 461 455
1824 416 604
1866 441 769
1957 484 1128
2048 527 1492
2168 580 1924
2292 681 2466
2237 747 2639
2162 740 2605
2192 887 307
2254 822 374
2389 733 487
2594 630 1020
2618 672 1680
2672 722 2353
2587 819 2965
2442 893 3163
2361 883 3121
2676 1616 230
2703 1597 244
2786 1561 283
2960 1334 587
2743 1185 1501
2923 1028 2569
2750 1059 3575
2480 1200 3752
2415 1200 3752
3477 2780 302
3466 2797 301
3479 2827 307
3594 2958 587
2817 2601 1298
2438 2292 2333
2207 2096 3407
2139 2108 3646
2090 2145 3647
3011 3637 783
2932 3634 800
2837 3628 830
2699 3590 1153
2578 3644 1577
2357 3803 2317
2049 3764 3516
2189 3685 3720
2238 3710 3716
3113 3686 1475
3029 3666 1427
2955 3655 1424
2960 3786 1890
2836 3814 2229
2733 3791 2731
2852 3843 3576
2886 3857 3713
2912 3863 3726
3446 3773 1681
3339 3742 1612
3350 3803 1828
3259 3816 2117
3029 3574 2285
3228 3892 3177
3237 3936 3823
3298 3950 3851
3367 3967 3880
1873 443 718
1916 454 734
1979 481 938
2069 517 1189
2180 559 1468
2326 615 1821
2489 677 2235
2682 758 2736
2724 782 2854
1890 447 724
2032 486 780
2090 510 953
2183 547 1225
2302 593 1526
2440 647 1888
2616 715 2352
2797 779 2822
2815 789 2888
2306 543 641
2184 528 839
2263 554 958
2405 607 1282
2556 663 1634
2729 729 2072
2931 793 2641
3024 820 2949
2981 811 2938
2741 907 529
2826 826 612
2948 763 745
3106 769 1250
3167 802 1761
3261 845 2337
3436 949 3080
3469 988 3432
3442 979 3421
3312 1584 481
3364 1541 519
3475 1490 594
3881 1246 919
3956 1106 1655
3888 1151 2543
3635 1295 3334
3517 1414 3635
3511 1411 3642
4042 2700 631
4038 2680 643
4017 2634 674
3930 2488 1043
4025 2325 1691
3911 2088 2555
3724 2203 3586
3573 2279 3750
3555 2286 3733
3941 3696 1452
3933 3708 1452
3922 3725 1470
3886 3740 1796
3693 3570 1946
3793 3641 2499
3823 3795 3794
3690 3705 4033
3702 3759 4044
3793 3769 1857
3791 3779 1857
3750 3756 1874
3559 3561 2016
3860 3834 2667
3904 3936 3147
3875 4057 3857
3875 4056 4031
3907 4059 4047
3774 3663 1848
3774 3663 1848
3534 3398 1797
3883 3732 2441
3997 3879 2911
4049 3994 3465
4066 4088 4065
4067 4089 4077
4068 4090 4087
2404 588 928
2454 601 948
2519 628 1145
2615 665 1394
2726 708 1672
2871 759 2013
3039 805 2430
3251 880 2924
3325 918 3054
2449 600 946
2514 618 972
2583 644 1145
2685 684 1412
2800 728 1705
2940 775 2056
3114 820 2507
3322 911 2984
3377 937 3074
2865 692 898
2598 641 1005
2666 663 1100
2796 712 1417
2925 760 1752
3075 802 2154
3277 864 2688
3468 966 3106
3464 965 3104
3359 975 747
3336 873 806
3337 818 943
3426 836 1395
3498 872 1849
3642 962 2420
3718 1052 3051
3661 1126 3309
3661 1116 3307
3979 1719 836
3978 1657 851
3990 1568 885
4070 1382 1286
4029 1348 1879
3856 1438 2517
3639 1610 3241
3617 1739 3484
3618 1747 3488
3947 2586 1103
3949 2563 1112
3945 2532 1109
4017 2469 1652
4040 2369 2145
3999 2326 2673
3617 2319 3280
3448 2257 3346
3436 2261 3340
3942 3643 1813
3941 3644 1814
3935 3645 1822
3705 3437 1914
3756 3458 2280
4017 3714 2959
4073 3749 3769
4044 3773 4020
4049 3828 4039
3774 3663 1848
3774 3663 1848
3644 3523 1801
3754 3605 2222
3992 3859 2811
4034 3947 3268
4073 4071 3936
4075 4075 4073
4075 4076 4083
3774 3663 1848
3774 3663 1848
3543 3403 1847
3929 3776 2524
4006 3890 2969
4068 4021 3577
4081 4090 4069
4082 4091 4081
4083 4092 4091
2649 655 1025
2649 655 1025
2733 687 1234
2835 726 1489
2947 766 1773
3070 800 2100
3232 843 2533
3462 963 3032
3495 973 3114
2649 655 1025
2649 655 1025
2721 682 1204
2831 724 1477
2948 767 1775
3077 802 2119
3248 848 2575
3474 967 3060
3495 973 3114
3045 746 972
2649 655 1025
2682 667 1109
2812 717 1431
2945 765 1765
3093 806 2160
3295 868 2687
3495 973 3113
3495 973 3114
3547 1024 802
3390 867 841
3283 801 966
3364 826 1414
3436 857 1853
3580 942 2408
3698 1035 3060
3661 1094 3299
3660 1088 3296
4060 1799 898
4033 1696 886
3997 1569 890
4070 1381 1303
4025 1353 1908
3842 1448 2554
3633 1633 3284
3619 1748 3486
3621 1758 3490
3976 2692 1201
3969 2653 1173
3962 2593 1156
4016 2522 1718
4048 2440 2184
3990 2386 2714
3538 2296 3248
3430 2273 3329
3431 2290 3334
3892 3675 1838
3897 3674 1837
3876 3652 1848
3649 3421 1939
3876 3629 2497
4030 3800 3069
4083 3870 3830
4067 3902 4046
4073 3967 4066
3774 3663 1848
3774 3663 1848
3585 3458 1782
3807 3656 2308
3996 3865 2845
4046 3961 3338
4086 4076 4012
4087 4078 4077
4088 4079 4087
3774 3663 1848
3774 3663 1848
3586 3443 1938
3965 3813 2606
4013 3904 3038
4078 4047 3694
4093 4093 4074
4094 4094 4086
4095 4095 4095
