Postproduction/IWLTBAP - Humble/LUTs by IWLTBAP (3DL)/UTILITY/Panasonic V-Log to Rec.709/U-PANASONIC-V-LOG-V1-LTR.3dl
# Copyright: (C) Copyright 2010-2018 by IWLTBAP SAS
# Cannot be resold, shared or otherwise redistributed
# Website: https://luts.iwltbap.com
0 64 128 192 256 320 384 448 512 576 640 704 768 832 896 960 1023
0 0 0
0 0 0
0 0 0
0 0 18
0 0 124
0 0 288
0 0 536
0 0 903
0 0 1418
0 0 2043
0 59 2671
0 133 3201
0 180 3591
0 200 3854
0 191 4010
0 147 4073
0 68 4090
0 0 0
0 0 0
0 0 0
0 0 37
0 0 146
0 0 312
0 0 565
0 0 939
0 0 1457
0 36 2077
0 111 2697
0 170 3218
0 207 3600
0 222 3860
0 210 4011
0 168 4073
0 94 4091
0 13 0
0 13 0
0 16 0
0 23 79
0 33 209
0 48 400
0 63 680
0 94 1081
0 147 1611
0 209 2219
0 266 2806
0 303 3289
0 319 3641
0 326 3882
0 326 4021
0 307 4076
0 272 4092
0 153 0
0 153 0
0 155 7
0 159 119
0 172 272
0 193 493
0 223 810
0 270 1251
0 330 1803
0 391 2402
0 439 2957
0 469 3402
0 483 3725
0 488 3941
0 485 4059
0 472 4090
0 451 4094
0 377 0
0 377 0
0 379 19
0 384 165
0 390 334
0 416 582
0 463 940
0 529 1422
0 600 1997
0 660 2590
0 698 3114
0 716 3522
0 722 3817
0 720 4004
0 711 4083
0 696 4095
0 676 4095
0 733 0
0 733 0
0 734 0
0 739 210
0 745 415
0 755 675
0 818 1065
0 909 1584
0 997 2183
0 1056 2769
0 1082 3266
0 1086 3645
0 1081 3911
0 1074 4059
0 1063 4093
0 1049 4095
0 1030 4095
0 1284 0
0 1284 0
0 1284 0
0 1288 274
0 1296 530
0 1304 829
0 1323 1208
0 1421 1744
0 1524 2358
0 1582 2938
0 1595 3413
0 1584 3768
0 1571 3994
0 1561 4085
0 1552 4095
0 1539 4095
0 1521 4095
0 2024 0
0 2024 0
0 2024 27
0 2026 358
0 2033 662
0 2043 1003
0 2054 1424
0 2080 1923
0 2163 2525
0 2210 3094
0 2206 3552
0 2183 3875
0 2166 4056
0 2158 4093
0 2150 4095
0 2140 4095
0 2124 4095
0 2821 64
0 2822 68
0 2822 148
0 2822 314
0 2828 747
0 2836 1134
0 2847 1592
0 2858 2116
0 2877 2679
0 2897 3233
0 2874 3680
0 2843 3963
0 2827 4084
0 2823 4095
0 2817 4095
0 2808 4095
0 2796 4095
0 3513 227
0 3513 229
0 3513 253
0 3513 290
0 3516 732
0 3524 1183
0 3532 1657
0 3541 2200
0 3551 2774
0 3556 3328
0 3533 3774
0 3502 4033
0 3493 4091
0 3491 4095
0 3486 4095
0 3480 4095
0 3470 4095
0 3948 305
0 3948 307
0 3948 316
0 3948 333
0 3949 641
0 3953 1159
0 3958 1654
0 3964 2209
0 3970 2796
0 3976 3366
0 3977 3825
0 3963 4067
0 3960 4094
0 3959 4095
0 3956 4095
0 3953 4095
0 3948 4095
0 4090 331
0 4090 332
0 4090 336
0 4090 347
0 4090 493
0 4090 1045
0 4091 1618
0 4092 2194
0 4094 2805
0 4095 3398
0 4095 3857
0 4095 4078
0 4095 4095
0 4095 4095
0 4095 4095
0 4095 4095
0 4095 4095
0 4095 332
0 4095 332
0 4095 335
0 4095 344
0 4095 420
0 4095 940
0 4095 1541
0 4095 2140
0 4095 2782
0 4095 3406
0 4095 3879
0 4095 4081
0 4095 4095
0 4095 4095
0 4095 4095
0 4095 4095
0 4095 4095
0 4095 323
0 4095 324
0 4095 326
0 4095 339
0 4095 382
0 4095 765
0 4095 1397
0 4095 2034
0 4095 2709
0 4095 3368
0 4095 3870
0 4095 4081
0 4095 4095
0 4095 4095
0 4095 4095
0 4095 4095
0 4095 4095
0 4095 300
0 4095 300
0 4095 303
0 4095 327
0 4095 352
0 4095 494
0 4095 1127
0 4095 1880
0 4095 2587
0 4095 3284
0 4095 3831
0 4095 4078
0 4095 4095
0 4095 4095
0 4095 4095
0 4095 4095
0 4095 4095
0 4095 251
0 4095 251
0 4095 260
0 4095 297
0 4095 333
0 4095 408
0 4095 939
0 4095 1686
0 4095 2433
0 4095 3172
0 4095 3768
0 4095 4061
0 4095 4094
0 4095 4095
0 4095 4095
0 4095 4095
0 4095 4095
0 4095 185
0 4095 185
0 4095 199
0 4095 252
0 4095 313
0 4095 365
0 4095 726
0 4095 1456
0 4095 2287
0 4095 3063
0 4095 3705
0 4095 4046
0 4095 4093
0 4095 4095
0 4095 4095
0 4095 4095
0 4095 4095
0 0 0
0 0 0
0 0 0
0 0 15
0 0 124
0 0 295
0 0 545
0 0 914
0 0 1430
0 0 2053
0 44 2679
0 118 3206
0 169 3594
0 197 3855
0 188 4010
0 145 4073
0 65 4090
0 0 0
0 0 0
0 0 0
0 0 34
0 0 147
0 0 317
0 0 573
0 0 949
0 0 1468
0 33 2086
0 104 2703
0 160 3222
0 200 3602
0 220 3861
0 208 4012
0 166 4073
0 90 4091
0 13 0
0 13 0
0 15 0
0 22 80
0 33 211
0 48 403
0 63 685
0 94 1087
0 147 1618
0 209 2225
0 266 2811
0 299 3292
0 310 3642
0 325 3883
0 325 4021
0 305 4076
0 271 4092
0 153 0
0 153 0
0 156 7
0 159 120
0 172 273
0 193 495
0 223 813
0 270 1254
0 331 1807
0 391 2406
0 438 2960
0 469 3404
0 481 3726
0 487 3942
0 484 4059
0 472 4090
0 451 4094
0 377 0
0 377 0
0 379 19
0 384 164
0 390 334
0 416 583
0 463 941
0 529 1424
0 600 1999
0 660 2592
0 698 3116
0 716 3523
0 722 3818
0 720 4005
0 711 4083
0 696 4095
0 676 4095
0 734 0
0 734 0
0 735 0
0 739 210
0 745 415
0 755 675
0 818 1065
0 909 1585
0 997 2184
0 1057 2770
0 1083 3267
0 1086 3646
0 1082 3911
0 1074 4059
0 1063 4093
0 1049 4095
0 1030 4095
0 1285 0
0 1285 0
0 1285 0
0 1289 273
0 1296 530
0 1304 829
0 1324 1208
0 1422 1744
0 1524 2359
0 1583 2939
0 1595 3414
0 1584 3768
0 1571 3994
0 1561 4085
0 1552 4095
0 1539 4095
0 1521 4095
0 2025 0
0 2025 0
0 2025 27
0 2027 358
0 2034 662
0 2043 1003
0 2054 1425
0 2080 1924
0 2164 2526
0 2210 3095
0 2206 3552
0 2183 3875
0 2167 4056
0 2158 4093
0 2150 4095
0 2140 4095
0 2124 4095
0 2822 64
0 2822 68
0 2822 148
0 2823 314
0 2828 746
0 2837 1134
0 2847 1592
0 2858 2116
0 2877 2679
0 2897 3233
0 2874 3680
0 2843 3964
0 2828 4084
0 2823 4095
0 2817 4095
0 2808 4095
0 2796 4095
0 3513 227
0 3513 229
0 3513 253
0 3513 289
0 3517 731
0 3524 1182
0 3532 1657
0 3541 2200
0 3551 2774
0 3556 3328
0 3533 3774
0 3503 4033
0 3493 4091
0 3491 4095
0 3486 4095
0 3480 4095
0 3470 4095
0 3948 305
0 3948 307
0 3948 316
0 3948 333
0 3949 640
0 3953 1158
0 3958 1653
0 3964 2209
0 3971 2796
0 3976 3366
0 3977 3825
0 3963 4067
0 3960 4094
0 3959 4095
0 3956 4095
0 3953 4095
0 3948 4095
0 4090 331
0 4090 332
0 4090 336
0 4090 347
0 4090 492
0 4090 1044
0 4091 1618
0 4092 2194
0 4094 2805
0 4095 3398
0 4095 3857
0 4095 4078
0 4095 4095
0 4095 4095
0 4095 4095
0 4095 4095
0 4095 4095
0 4095 332
0 4095 332
0 4095 335
0 4095 344
0 4095 420
0 4095 940
0 4095 1541
0 4095 2140
0 4095 2782
0 4095 3406
0 4095 3879
0 4095 4081
0 4095 4095
0 4095 4095
0 4095 4095
0 4095 4095
0 4095 4095
0 4095 323
0 4095 324
0 4095 326
0 4095 339
0 4095 382
0 4095 765
0 4095 1397
0 4095 2034
0 4095 2709
0 4095 3368
0 4095 3870
0 4095 4081
0 4095 4095
0 4095 4095
0 4095 4095
0 4095 4095
0 4095 4095
0 4095 300
0 4095 300
0 4095 303
0 4095 327
0 4095 352
0 4095 494
0 4095 1127
0 4095 1880
0 4095 2587
0 4095 3285
0 4095 3832
0 4095 4078
0 4095 4095
0 4095 4095
0 4095 4095
0 4095 4095
0 4095 4095
0 4095 251
0 4095 251
0 4095 260
0 4095 297
0 4095 333
0 4095 408
0 4095 939
0 4095 1686
0 4095 2433
0 4095 3171
0 4095 3768
0 4095 4061
0 4095 4094
0 4095 4095
0 4095 4095
0 4095 4095
0 4095 4095
0 4095 185
0 4095 185
0 4095 199
0 4095 251
0 4095 313
0 4095 365
0 4095 725
0 4095 1456
0 4095 2287
0 4095 3063
0 4095 3705
0 4095 4046
0 4095 4093
0 4095 4095
0 4095 4095
0 4095 4095
0 4095 4095
1 0 0
2 0 0
3 0 0
8 0 17
16 0 127
29 0 299
40 0 554
58 0 930
91 0 1448
143 0 2069
194 0 2689
227 12 3211
243 66 3598
233 104 3863
194 99 4013
152 62 4074
98 3 4091
0 0 0
0 0 0
2 0 0
9 0 25
18 0 142
30 0 318
39 0 580
56 0 962
87 0 1483
131 0 2099
177 6 2712
211 49 3226
228 94 3607
212 122 3867
183 116 4014
141 79 4074
85 13 4091
0 0 0
0 0 0
0 0 0
0 0 62
1 2 199
4 11 397
3 22 683
11 42 1089
28 77 1623
60 120 2230
99 165 2816
132 190 3297
152 202 3650
141 234 3888
111 250 4023
61 249 4076
4 237 4092
0 123 0
0 123 0
0 126 0
0 130 101
0 142 259
0 163 484
0 191 807
0 233 1252
5 285 1808
37 340 2412
65 387 2970
78 419 3413
80 435 3733
59 449 3945
8 459 4061
0 460 4090
0 444 4095
0 359 0
0 359 0
0 362 4
0 366 152
0 373 324
0 404 579
0 456 944
0 523 1429
0 592 2007
0 649 2600
0 686 3123
0 703 3529
0 710 3822
0 711 4007
0 705 4083
0 692 4095
0 673 4095
0 730 0
0 730 0
0 731 0
0 736 206
0 742 412
0 753 674
0 817 1067
0 909 1590
0 997 2190
0 1055 2776
0 1080 3272
0 1083 3649
0 1079 3913
0 1072 4060
0 1060 4093
0 1046 4095
0 1027 4095
0 1285 0
0 1285 0
0 1285 0
0 1289 271
0 1296 528
0 1304 828
0 1323 1208
0 1421 1746
0 1524 2362
0 1582 2942
0 1593 3416
0 1582 3770
0 1569 3995
0 1559 4086
0 1550 4095
0 1536 4095
0 1519 4095
0 2025 0
0 2025 0
0 2025 26
0 2027 353
0 2034 659
0 2043 1001
0 2054 1423
0 2080 1923
0 2163 2527
0 2210 3097
0 2205 3554
0 2182 3876
0 2166 4056
0 2157 4093
0 2149 4095
0 2139 4095
0 2123 4095
0 2822 58
0 2822 60
0 2822 145
0 2823 309
0 2828 743
0 2836 1131
0 2847 1590
0 2858 2115
0 2877 2679
0 2897 3234
0 2874 3681
0 2843 3964
0 2827 4084
0 2823 4095
0 2817 4095
0 2807 4095
0 2795 4095
0 3513 225
0 3514 228
0 3513 253
0 3513 288
0 3517 729
0 3524 1180
0 3532 1655
0 3541 2199
0 3551 2773
0 3556 3328
0 3533 3774
0 3502 4033
0 3493 4091
0 3490 4095
0 3486 4095
0 3479 4095
0 3469 4095
0 3948 305
0 3948 306
0 3948 315
0 3948 332
0 3950 637
0 3953 1156
0 3958 1651
0 3964 2208
0 3971 2795
0 3976 3366
0 3977 3825
0 3963 4067
0 3960 4094
0 3958 4095
0 3956 4095
0 3953 4095
0 3947 4095
0 4090 331
0 4090 331
0 4090 336
0 4090 347
0 4090 489
0 4090 1042
0 4091 1616
0 4092 2193
0 4094 2805
0 4095 3398
0 4095 3857
0 4095 4078
0 4095 4095
0 4095 4095
0 4095 4095
0 4095 4095
0 4095 4095
0 4095 332
0 4095 332
0 4095 335
0 4095 344
0 4095 419
0 4095 938
0 4095 1540
0 4095 2139
0 4095 2781
0 4095 3405
0 4095 3879
0 4095 4081
0 4095 4095
0 4095 4095
0 4095 4095
0 4095 4095
0 4095 4095
0 4095 323
0 4095 324
0 4095 326
0 4095 339
0 4095 382
0 4095 763
0 4095 1396
0 4095 2033
0 4095 2708
0 4095 3367
0 4095 3870
0 4095 4081
0 4095 4095
0 4095 4095
0 4095 4095
0 4095 4095
0 4095 4095
0 4095 299
0 4095 299
0 4095 303
0 4095 327
0 4095 352
0 4095 493
0 4095 1126
0 4095 1880
0 4095 2586
0 4095 3284
0 4095 3831
0 4095 4078
0 4095 4095
0 4095 4095
0 4095 4095
0 4095 4095
0 4095 4095
0 4095 250
0 4095 250
0 4095 259
0 4095 296
0 4095 333
0 4095 407
0 4095 937
0 4095 1685
0 4095 2432
0 4095 3171
0 4095 3767
0 4095 4061
0 4095 4094
0 4095 4095
0 4095 4095
0 4095 4095
0 4095 4095
0 4095 184
0 4095 184
0 4095 198
0 4095 251
0 4095 312
0 4095 365
0 4095 720
0 4095 1452
0 4095 2286
0 4095 3062
0 4095 3704
0 4095 4046
0 4095 4093
0 4095 4095
0 4095 4095
0 4095 4095
0 4095 4095
106 0 0
107 0 0
109 0 0
114 0 17
124 0 135
140 0 315
161 0 582
193 0 966
241 0 1486
298 0 2099
350 0 2706
386 0 3214
408 0 3589
417 0 3842
416 0 3987
403 0 4047
384 0 4066
113 0 0
115 0 0
116 0 0
120 0 22
128 0 145
144 0 331
164 0 602
195 0 991
243 0 1513
299 0 2124
348 0 2725
382 0 3227
402 1 3596
411 3 3846
412 0 3989
400 0 4048
