Postproduction/IWLTBAP - Humble/LUTs by IWLTBAP (3DL)/UTILITY/Panasonic V-Log to Rec.709/U-PANASONIC-V-LOG-V1-LTR.3dl
# Copyright: (C) Copyright 2010-2018 by IWLTBAP SAS
# Cannot be resold, shared or otherwise redistributed
# Website: https://luts.iwltbap.com
0 128 256 384 512 640 768 896 1023
0 0 0
0 0 0
0 0 124
0 0 536
0 0 1418
0 59 2671
0 180 3591
0 191 4010
0 68 4090
0 13 0
0 16 0
0 33 209
0 63 680
0 147 1611
0 266 2806
0 319 3641
0 326 4021
0 272 4092
0 377 0
0 379 19
0 390 334
0 463 940
0 600 1997
0 698 3114
0 722 3817
0 711 4083
0 676 4095
0 1284 0
0 1284 0
0 1296 530
0 1323 1208
0 1524 2358
0 1595 3413
0 1571 3994
0 1552 4095
0 1521 4095
0 2821 64
0 2822 148
0 2828 747
0 2847 1592
0 2877 2679
0 2874 3680
0 2827 4084
0 2817 4095
0 2796 4095
0 3948 305
0 3948 316
0 3949 641
0 3958 1654
0 3970 2796
0 3977 3825
0 3960 4094
0 3956 4095
0 3948 4095
0 4095 332
0 4095 335
0 4095 420
0 4095 1541
0 4095 2782
0 4095 3879
0 4095 4095
0 4095 4095
0 4095 4095
0 4095 300
0 4095 303
0 4095 352
0 4095 1127
0 4095 2587
0 4095 3831
0 4095 4095
0 4095 4095
0 4095 4095
0 4095 185
0 4095 199
0 4095 313
0 4095 726
0 4095 2287
0 4095 3705
0 4095 4093
0 4095 4095
0 4095 4095
1 0 0
3 0 0
16 0 127
40 0 554
91 0 1448
194 0 2689
243 66 3598
194 99 4013
98 3 4091
0 0 0
0 0 0
1 2 199
3 22 683
28 77 1623
99 165 2816
152 202 3650
111 250 4023
4 237 4092
0 359 0
0 362 4
0 373 324
0 456 944
0 592 2007
0 686 3123
0 710 3822
0 705 4083
0 673 4095
0 1285 0
0 1285 0
0 1296 528
0 1323 1208
0 1524 2362
0 1593 3416
0 1569 3995
0 1550 4095
0 1519 4095
0 2822 58
0 2822 145
0 2828 743
0 2847 1590
0 2877 2679
0 2874 3681
0 2827 4084
0 2817 4095
0 2795 4095
0 3948 305
0 3948 315
0 3950 637
0 3958 1651
0 3971 2795
0 3977 3825
0 3960 4094
0 3956 4095
0 3947 4095
0 4095 332
0 4095 335
0 4095 419
0 4095 1540
0 4095 2781
0 4095 3879
0 4095 4095
0 4095 4095
0 4095 4095
0 4095 299
0 4095 303
0 4095 352
0 4095 1126
0 4095 2586
0 4095 3831
0 4095 4095
0 4095 4095
0 4095 4095
0 4095 184
0 4095 198
0 4095 312
0 4095 720
0 4095 2286
0 4095 3704
0 4095 4093
0 4095 4095
0 4095 4095
275 0 0
279 0 0
296 0 138
342 0 605
450 0 1523
564 0 2722
607 0 3577
611 0 3954
592 0 4026
295 0 0
298 0 0
306 0 176
346 0 684
442 0 1639
530 58 2808
566 92 3612
579 43 3964
574 0 4029
269 251 0
269 252 0
264 259 252
269 286 869
291 351 1940
331 424 3070
364 466 3770
372 473 4051
357 455 4094
166 1139 0
164 1140 0
114 1149 414
103 1179 1107
145 1379 2282
213 1454 3363
261 1438 3963
258 1427 4094
208 1412 4095
139 2740 2
111 2741 25
62 2747 643
35 2769 1524
24 2806 2631
82 2814 3653
110 2772 4081
83 2771 4095
43 2765 4095
0 3936 250
0 3937 262
0 3938 586
0 3949 1624
0 3967 2783
0 3975 3824
0 3957 4094
0 3953 4095
0 3944 4095
0 4095 328
0 4095 332
0 4095 409
0 4095 1521
0 4095 2769
0 4095 3874
0 4095 4095
0 4095 4095
0 4095 4095
0 4095 296
0 4095 300
0 4095 349
0 4095 1108
0 4095 2574
0 4095 3826
0 4095 4095
0 4095 4095
0 4095 4095
0 4095 177
0 4095 191
0 4095 309
0 4095 673
0 4095 2274
0 4095 3700
0 4095 4093
0 4095 4095
0 4095 4095
959 0 0
965 0 0
986 0 114
1019 0 635
1150 0 1532
1331 0 2707
1370 0 3514
1366 0 3849
1357 0 3905
998 0 0
1003 0 0
1018 0 123
1046 0 671
1177 0 1588
1345 0 2754
1372 0 3536
1366 0 3855
1354 0 3906
1022 110 0
1024 107 0
1024 83 160
1031 86 782
1165 127 1814
1271 197 2964
1262 251 3665
1246 268 3929
1228 267 4027
903 878 0
903 878 0
889 877 201
871 883 910
884 939 2092
904 998 3224
910 1021 3854
899 1018 4063
873 996 4095
809 2422 0
808 2422 0
726 2426 301
599 2446 1223
577 2488 2414
594 2520 3504
604 2472 4044
582 2466 4095
552 2455 4095
517 3787 9
503 3788 20
418 3789 327
361 3808 1403
349 3823 2612
338 3831 3720
345 3794 4090
330 3797 4095
314 3794 4095
305 4095 137
297 4095 153
251 4095 242
233 4095 1355
214 4095 2639
207 4095 3805
203 4095 4095
189 4095 4095
138 4095 4095
34 4095 174
32 4095 181
2 4095 260
0 4095 1012
0 4095 2505
0 4095 3796
0 4095 4095
0 4095 4095
0 4095 4095
0 4095 136
0 4095 152
0 4095 295
0 4095 612
0 4095 2243
0 4095 3686
0 4095 4093
0 4095 4095
0 4095 4095
2280 0 0
2286 0 41
2305 0 140
2335 0 669
2371 0 1581
2464 0 2613
2511 0 3388
2511 0 3687
2516 0 3756
2334 5 0
2338 0 1
2352 0 130
2375 0 679
2403 0 1606
2486 0 2639
2524 0 3401
2520 0 3689
2519 0 3775
2364 145 0
2366 145 0
2371 62 91
2379 61 751
2395 64 1734
2469 104 2790
2476 168 3501
2464 195 3748
2453 198 3889
2276 705 0
2277 705 0
2276 680 81
2267 562 768
2270 557 1896
2321 586 3017
2287 614 3676
2261 610 3887
2232 597 4089
2040 2003 0
2039 2003 0
2033 2003 40
1993 1995 812
1966 2003 2093
1968 2040 3279
1968 2056 3896
1952 2049 4063
1924 2025 4095
1792 3493 0
1791 3493 0
1774 3493 67
1648 3512 931
1579 3533 2289
1552 3541 3496
1544 3474 4063
1512 3468 4095
1471 3460 4095
1363 4086 0
1362 4087 0
1340 4087 83
1207 4095 893
1159 4095 2292
1124 4095 3551
1087 4095 4086
1049 4095 4095
1006 4095 4095
983 4095 0
982 4095 0
957 4095 0
853 4095 635
772 4095 2160
741 4095 3561
711 4095 4090
682 4095 4095
652 4095 4095
730 4095 0
730 4095 0
710 4095 0
636 4095 296
539 4095 1938
521 4095 3484
502 4095 4090
482 4095 4095
460 4095 4095
3591 0 0
3594 0 0
3602 0 276
3612 0 571
3624 0 1483
3640 0 2463
3657 0 3179
3673 0 3470
3676 0 3614
3614 0 0
3617 0 0
3621 0 275
3629 0 570
3639 0 1490
3651 0 2473
3666 0 3185
3680 0 3470
3680 0 3628
3615 304 0
3617 304 0
3620 178 152
3624 177 558
3630 178 1562
3639 178 2567
3652 179 3263
3661 153 3516
3653 99 3722
3562 483 0
3563 482 0
3563 405 115
3562 339 608
3561 330 1710
3561 331 2764
3555 331 3455
3542 330 3670
3511 331 3953
3407 1690 0
3407 1689 0
3407 1679 2
3399 1627 580
3387 1540 1802
3376 1554 3005
3329 1566 3692
3300 1554 3881
3259 1531 4095
3164 3103 0
3164 3103 0
3163 3102 0
3146 3111 610
3125 3127 1958
3125 3163 3253
3127 3183 3907
3120 3183 4071
3104 3169 4095
2824 3976 0
2824 3975 0
2821 3976 0
2786 4004 567
2782 4019 1995
2858 4030 3332
2839 4035 4031
2819 4031 4095
2794 4029 4095
2567 4095 0
2567 4095 0
2563 4095 0
2540 4095 308
2511 4095 1780
2582 4095 3278
2553 4095 4056
2524 4095 4095
2491 4095 4095
2343 4095 0
2343 4095 0
2340 4095 0
2326 4095 18
2257 4095 1467
2304 4095 3148
2266 4095 4057
2226 4095 4095
2178 4095 4095
4088 0 0
4088 0 0
4088 0 335
4089 0 481
4088 0 1320
4089 0 2290
4089 0 2973
4090 0 3232
4090 0 3456
4089 0 0
4089 0 0
4089 0 332
4089 0 477
4089 0 1322
4089 0 2296
4089 0 2977
4090 0 3232
4090 0 3468
4088 363 0
4088 363 0
4088 236 202
4088 225 410
4088 214 1348
4089 193 2350
4089 136 3028
4090 105 3262
4090 88 3537
4086 401 0
4086 401 0
4086 308 131
4086 269 458
4087 266 1481
4087 266 2521
4087 264 3201
4088 259 3420
4088 254 3772
4052 1341 0
4052 1341 0
4057 1323 0
4075 1278 443
4073 1208 1568
4072 1220 2721
4071 1212 3434
4071 1187 3650
4067 1151 4071
3972 2722 0
3972 2722 0
3972 2719 0
3983 2713 447
3975 2724 1703
3967 2848 3032
3962 2861 3724
3959 2851 3925
3946 2833 4095
3829 3738 0
3829 3738 0
3829 3737 0
3832 3751 312
3823 3782 1670
3820 3819 3167
3820 3839 3890
3819 3845 4078
3815 3842 4095
3678 4081 0
3679 4081 0
3678 4082 0
3678 4085 44
3663 4092 1446
3706 4094 3120
3729 4095 3931
3723 4095 4095
3715 4095 4095
3598 4095 0
3598 4095 0
3597 4095 0
3593 4095 0
3581 4095 1116
3620 4095 2955
3651 4095 3905
3635 4095 4094
3616 4095 4095
4095 0 0
4095 0 0
4095 0 301
4095 0 429
4095 0 1246
4095 0 2245
4095 0 2924
4095 0 3162
4095 0 3454
4095 0 0
4095 0 0
4095 0 290
4095 0 427
4095 0 1246
4095 0 2248
4095 0 2928
4095 0 3162
4095 0 3464
4095 205 0
4095 205 0
4095 128 136
4095 109 354
4095 102 1246
4095 91 2275
4095 76 2954
4095 44 3172
4095 0 3500
4095 380 0
4095 380 0
4095 288 51
4095 249 370
4095 247 1359
4095 247 2432
4095 247 3120
4095 246 3332
4095 245 3718
4095 1166 0
4095 1166 0
4095 1152 0
4095 1104 355
4095 1022 1435
4095 1029 2620
4095 1019 3348
4095 992 3563
4095 953 4028
4095 2554 0
4095 2554 0
4095 2552 0
4095 2545 358
4095 2546 1539
4095 2679 2911
4095 2693 3629
4095 2677 3835
4095 2649 4095
4093 3568 0
4093 3568 0
4093 3568 0
4094 3578 118
4093 3605 1499
4093 3690 3062
4093 3740 3824
4093 3740 4023
4092 3734 4095
4086 3982 0
4086 3982 0
4086 3982 0
4088 3987 0
4090 4014 1256
4081 4052 2985
4075 4072 3860
4074 4076 4084
4072 4076 4095
4070 4095 0
4070 4095 0
4069 4095 0
4069 4095 0
4073 4095 908
4063 4095 2762
4058 4095 3808
4055 4095 4085
4051 4095 4095
4095 0 0
4095 0 0
4095 0 146
4095 0 398
4095 0 1210
4095 0 2246
4095 0 2934
4095 0 3156
4095 0 3507
4095 0 0
4095 0 0
4095 0 144
4095 0 395
4095 0 1208
4095 0 2248
4095 0 2936
4095 0 3157
4095 0 3514
4095 163 0
4095 163 0
4095 80 66
4095 44 314
4095 6 1178
4095 0 2248
4095 0 2942
4095 0 3161
4095 0 3539
4095 376 0
4095 376 0
4095 350 0
4095 246 304
4095 244 1270
4095 244 2385
4095 243 3091
4095 242 3300
4095 241 3715
4095 1062 0
4095 1062 0
4095 1056 0
4095 998 296
4095 912 1338
4095 915 2567
4095 903 3320
4095 874 3537
4095 836 4021
4095 2488 0
4095 2488 0
4095 2484 0
4095 2476 251
4095 2468 1417
4095 2593 2843
4095 2607 3599
4095 2589 3816
4095 2558 4095
4095 3536 0
4095 3536 0
4095 3536 0
4095 3547 36
4095 3570 1375
4095 3657 3000
4095 3713 3805
4095 3713 4014
4095 3706 4095
4095 3962 0
4095 3962 0
4095 3962 0
4095 3962 0
4095 3993 1138
4095 4033 2916
4095 4059 3842
4095 4065 4077
4095 4065 4095
4095 4095 0
4095 4095 0
4095 4095 0
4095 4095 0
4095 4095 745
4095 4095 2603
4095 4095 3747
4095 4095 4071
4095 4095 4095
