Postproduction/IWLTBAP - Humble/LUTs by IWLTBAP (3DL)/UTILITY/Panasonic V-Log to Rec.709/U-PANASONIC-V-LOG-HDR-LTR.3dl
# Copyright: (C) Copyright 2010-2018 by IWLTBAP SAS
# Cannot be resold, shared or otherwise redistributed
# Website: https://luts.iwltbap.com
0 64 128 192 256 320 384 448 512 576 640 704 768 832 896 960 1023
1 1 1
1 1 1
1 1 100
10 1 230
15 2 538
51 26 812
96 67 1086
179 127 1396
295 200 1741
434 299 2104
614 408 2495
810 517 2973
1021 595 3585
1204 619 4017
1204 619 4017
1204 619 4017
1204 619 4017
1 1 1
1 1 1
1 1 100
10 1 230
15 2 538
51 26 812
96 67 1086
179 127 1396
295 200 1741
434 299 2104
614 408 2495
810 517 2973
1021 595 3585
1204 619 4017
1204 619 4017
1204 619 4017
1204 619 4017
5 64 12
5 64 12
8 70 75
8 76 218
14 84 498
38 106 777
83 135 1117
144 166 1478
250 214 1825
397 309 2152
585 411 2524
792 519 2996
1006 594 3600
1192 616 4017
1192 616 4017
1192 616 4017
1192 616 4017
17 249 33
17 249 33
19 248 88
25 241 255
40 250 500
66 274 754
118 306 1031
199 356 1344
270 385 1750
349 386 2201
488 419 2600
735 523 3049
966 593 3637
1160 615 4018
1160 615 4018
1160 615 4018
1160 615 4018
44 550 73
44 550 73
48 540 123
63 539 257
92 541 537
125 542 782
188 560 1025
273 584 1319
349 622 1641
426 656 2072
466 612 2564
562 527 3146
877 588 3703
1094 615 4019
1094 615 4019
1094 615 4019
1094 615 4019
103 831 152
103 831 152
109 828 195
123 827 310
153 823 532
179 812 811
244 800 1049
326 813 1303
416 836 1610
498 878 1978
559 904 2426
597 862 3030
616 618 3793
947 607 4025
947 607 4025
947 607 4025
947 607 4025
179 1104 262
179 1104 262
186 1098 304
211 1096 406
242 1095 567
270 1086 784
310 1075 1066
377 1055 1327
458 1068 1587
564 1102 1944
627 1140 2354
680 1168 2878
689 1096 3654
653 833 4012
653 833 4012
653 833 4012
653 833 4012
294 1390 418
294 1390 418
302 1390 453
320 1385 533
346 1386 650
380 1381 810
403 1372 1033
448 1367 1347
507 1346 1628
601 1366 1942
696 1406 2333
758 1441 2797
779 1471 3474
756 1397 4008
756 1397 4008
756 1397 4008
756 1397 4008
415 1715 605
415 1715 605
422 1714 630
437 1710 684
458 1702 771
487 1698 893
524 1695 1063
554 1693 1308
579 1682 1653
663 1673 1980
741 1686 2335
816 1725 2780
840 1778 3385
810 1807 3958
810 1807 3958
810 1807 3958
810 1807 3958
549 2075 830
549 2075 830
552 2073 844
561 2069 879
574 2065 937
593 2062 1024
628 2063 1154
665 2060 1353
688 2058 1623
732 2058 2017
803 2033 2383
850 2054 2784
883 2102 3372
821 2147 3933
821 2147 3933
821 2147 3933
821 2147 3933
688 2479 1071
688 2479 1071
690 2479 1081
696 2477 1105
705 2474 1145
721 2468 1211
745 2465 1312
778 2467 1463
819 2467 1677
836 2467 1983
867 2462 2435
895 2459 2867
888 2499 3398
789 2552 3927
789 2552 3927
789 2552 3927
789 2552 3927
806 2959 1324
806 2959 1324
807 2959 1330
810 2959 1345
813 2958 1372
819 2957 1418
836 2954 1497
858 2953 1611
881 2951 1782
908 2950 2034
916 2958 2407
920 2959 2935
842 3005 3505
674 3075 3966
674 3075 3966
674 3075 3966
674 3075 3966
845 3603 1566
845 3603 1566
845 3603 1570
846 3603 1581
849 3603 1599
853 3602 1631
855 3601 1687
855 3599 1778
853 3599 1917
838 3604 2125
807 3619 2442
775 3635 2927
669 3656 3609
143 3754 4045
143 3754 4045
143 3754 4045
143 3754 4045
784 3957 1776
784 3957 1776
784 3957 1779
783 3957 1787
781 3957 1801
779 3957 1826
775 3957 1869
765 3957 1944
740 3957 2066
688 3965 2247
609 3983 2525
542 3993 2980
418 4001 3617
0 4086 4086
0 4086 4086
0 4086 4086
0 4086 4086
784 3957 1776
784 3957 1776
784 3957 1779
783 3957 1787
781 3957 1801
779 3957 1826
775 3957 1869
765 3957 1944
740 3957 2066
688 3965 2247
609 3983 2525
542 3993 2980
418 4001 3617
0 4086 4086
0 4086 4086
0 4086 4086
0 4086 4086
784 3957 1776
784 3957 1776
784 3957 1779
783 3957 1787
781 3957 1801
779 3957 1826
775 3957 1869
765 3957 1944
740 3957 2066
688 3965 2247
609 3983 2525
542 3993 2980
418 4001 3617
0 4086 4086
0 4086 4086
0 4086 4086
0 4086 4086
784 3957 1776
784 3957 1776
784 3957 1779
783 3957 1787
781 3957 1801
779 3957 1826
775 3957 1869
765 3957 1944
740 3957 2066
688 3965 2247
609 3983 2525
542 3993 2980
418 4001 3617
0 4086 4086
0 4086 4086
0 4086 4086
0 4086 4086
1 1 1
1 1 1
1 1 100
10 1 230
15 2 538
51 26 812
96 67 1086
179 127 1396
295 200 1741
434 299 2104
614 408 2495
810 517 2973
1021 595 3585
1204 619 4017
1204 619 4017
1204 619 4017
1204 619 4017
1 1 1
1 1 1
1 1 100
10 1 230
15 2 538
51 26 812
96 67 1086
179 127 1396
295 200 1741
434 299 2104
614 408 2495
810 517 2973
1021 595 3585
1204 619 4017
1204 619 4017
1204 619 4017
1204 619 4017
5 64 12
5 64 12
8 70 75
8 76 218
14 84 498
38 106 777
83 135 1117
144 166 1478
250 214 1825
397 309 2152
585 411 2524
792 519 2996
1006 594 3600
1192 616 4017
1192 616 4017
1192 616 4017
1192 616 4017
17 249 33
17 249 33
19 248 88
25 241 255
40 250 500
66 274 754
118 306 1031
199 356 1344
270 385 1750
349 386 2201
488 419 2600
735 523 3049
966 593 3637
1160 615 4018
1160 615 4018
1160 615 4018
1160 615 4018
44 550 73
44 550 73
48 540 123
63 539 257
92 541 537
125 542 782
188 560 1025
273 584 1319
349 622 1641
426 656 2072
466 612 2564
562 527 3146
877 588 3703
1094 615 4019
1094 615 4019
1094 615 4019
1094 615 4019
103 831 152
103 831 152
109 828 195
123 827 310
153 823 532
179 812 811
244 800 1049
326 813 1303
416 836 1610
498 878 1978
559 904 2426
597 862 3030
616 618 3793
947 607 4025
947 607 4025
947 607 4025
947 607 4025
179 1104 262
179 1104 262
186 1098 304
211 1096 406
242 1095 567
270 1086 784
310 1075 1066
377 1055 1327
458 1068 1587
564 1102 1944
627 1140 2354
680 1168 2878
689 1096 3654
653 833 4012
653 833 4012
653 833 4012
653 833 4012
294 1390 418
294 1390 418
302 1390 453
320 1385 533
346 1386 650
380 1381 810
403 1372 1033
448 1367 1347
507 1346 1628
601 1366 1942
696 1406 2333
758 1441 2797
779 1471 3474
756 1397 4008
756 1397 4008
756 1397 4008
756 1397 4008
415 1715 605
415 1715 605
422 1714 630
437 1710 684
458 1702 771
487 1698 893
524 1695 1063
554 1693 1308
579 1682 1653
663 1673 1980
741 1686 2335
816 1725 2780
840 1778 3385
810 1807 3958
810 1807 3958
810 1807 3958
810 1807 3958
549 2075 830
549 2075 830
552 2073 844
561 2069 879
574 2065 937
593 2062 1024
628 2063 1154
665 2060 1353
688 2058 1623
732 2058 2017
803 2033 2383
850 2054 2784
883 2102 3372
821 2147 3933
821 2147 3933
821 2147 3933
821 2147 3933
688 2479 1071
688 2479 1071
690 2479 1081
696 2477 1105
705 2474 1145
721 2468 1211
745 2465 1312
778 2467 1463
819 2467 1677
836 2467 1983
867 2462 2435
895 2459 2867
888 2499 3398
789 2552 3927
789 2552 3927
789 2552 3927
789 2552 3927
806 2959 1324
806 2959 1324
807 2959 1330
810 2959 1345
813 2958 1372
819 2957 1418
836 2954 1497
858 2953 1611
881 2951 1782
908 2950 2034
916 2958 2407
920 2959 2935
842 3005 3505
674 3075 3966
674 3075 3966
674 3075 3966
674 3075 3966
845 3603 1566
845 3603 1566
845 3603 1570
846 3603 1581
849 3603 1599
853 3602 1631
855 3601 1687
855 3599 1778
853 3599 1917
838 3604 2125
807 3619 2442
775 3635 2927
669 3656 3609
143 3754 4045
143 3754 4045
143 3754 4045
143 3754 4045
784 3957 1776
784 3957 1776
784 3957 1779
783 3957 1787
781 3957 1801
779 3957 1826
775 3957 1869
765 3957 1944
740 3957 2066
688 3965 2247
609 3983 2525
542 3993 2980
418 4001 3617
0 4086 4086
0 4086 4086
0 4086 4086
0 4086 4086
784 3957 1776
784 3957 1776
784 3957 1779
783 3957 1787
781 3957 1801
779 3957 1826
775 3957 1869
765 3957 1944
740 3957 2066
688 3965 2247
609 3983 2525
542 3993 2980
418 4001 3617
0 4086 4086
0 4086 4086
0 4086 4086
0 4086 4086
784 3957 1776
784 3957 1776
784 3957 1779
783 3957 1787
781 3957 1801
779 3957 1826
775 3957 1869
765 3957 1944
740 3957 2066
688 3965 2247
609 3983 2525
542 3993 2980
418 4001 3617
0 4086 4086
0 4086 4086
0 4086 4086
0 4086 4086
784 3957 1776
784 3957 1776
784 3957 1779
783 3957 1787
781 3957 1801
779 3957 1826
775 3957 1869
765 3957 1944
740 3957 2066
688 3965 2247
609 3983 2525
542 3993 2980
418 4001 3617
0 4086 4086
0 4086 4086
0 4086 4086
0 4086 4086
77 0 1
77 0 1
89 1 73
92 1 181
117 8 431
146 32 741
192 74 1035
260 132 1358
362 205 1719
488 305 2091
650 412 2485
835 521 2967
1039 601 3581
1219 623 4017
1219 623 4017
1219 623 4017
1219 623 4017
77 0 1
77 0 1
89 1 73
92 1 181
117 8 431
146 32 741
192 74 1035
260 132 1358
362 205 1719
488 305 2091
650 412 2485
835 521 2967
1039 601 3581
1219 623 4017
1219 623 4017
1219 623 4017
1219 623 4017
108 86 6
108 86 6
74 70 75
82 69 293
89 70 628
114 84 874
160 124 1135
233 175 1422
339 240 1756
467 334 2112
636 434 2498
825 539 2977
1030 614 3587
1211 635 4016
1211 635 4016
1211 635 4016
1211 635 4016
62 272 19
62 272 19
73 279 96
77 250 263
78 253 552
99 276 817
143 302 1097
211 325 1431
276 341 1831
368 352 2246
546 433 2583
771 534 3035
991 605 3628
1178 626 4018
1178 626 4018
1178 626 4018
1178 626 4018
62 571 42
62 571 42
89 564 119
100 545 252
129 551 546
142 550 808
205 561 1063
284 579 1365
350 613 1684
424 628 2122
457 561 2607
611 527 3145
902 588 3700
1112 615 4019
1112 615 4019
1112 615 4019
1112 615 4019
101 848 109
101 848 109
139 846 190
151 832 305
179 825 527
208 819 816
249 803 1064
333 815 1326
421 833 1635
499 874 2001
558 888 2454
591 838 3058
637 596 3802
969 607 4025
969 607 4025
969 607 4025
969 607 4025
171 1113 223
171 1113 223
193 1110 281
216 1100 388
254 1098 559
283 1089 781
325 1080 1070
380 1057 1336
462 1070 1600
567 1101 1960
627 1136 2367
678 1158 2898
685 1078 3671
646 795 4015
646 795 4015
646 795 4015
646 795 4015
287 1396 386
287 1396 386
297 1397 424
315 1391 507
343 1389 633
379 1384 801
405 1375 1030
451 1373 1352
509 1347 1634
603 1367 1951
698 1406 2342
759 1439 2806
777 1464 3488
754 1386 4008
754 1386 4008
754 1386 4008
754 1386 4008
408 1717 580
408 1717 580
417 1718 611
433 1714 667
455 1705 759
485 1699 883
523 1697 1058
554 1695 1306
580 1686 1656
664 1674 1984
742 1687 2340
817 1724 2786
840 1777 3392
809 1804 3961
809 1804 3961
809 1804 3961
809 1804 3961
546 2078 816
546 2078 816
550 2077 833
559 2073 869
572 2067 927
591 2063 1017
626 2064 1148
665 2061 1349
688 2059 1621
732 2060 2019
803 2034 2385
850 2054 2787
883 2102 3376
820 2147 3935
820 2147 3935
820 2147 3935
820 2147 3935
686 2480 1061
686 2480 1061
689 2480 1073
694 2479 1097
703 2476 1138
720 2470 1205
744 2466 1308
777 2467 1459
819 2468 1675
836 2468 1982
867 2464 2436
895 2459 2868
887 2499 3400
789 2552 3929
789 2552 3929
789 2552 3929
789 2552 3929
805 2960 1317
805 2960 1317
806 2960 1324
809 2960 1340
812 2959 1367
819 2958 1413
835 2955 1492
857 2954 1608
881 2952 1780
908 2950 2033
916 2958 2407
920 2959 2936
842 3006 3506
674 3075 3967
674 3075 3967
674 3075 3967
674 3075 3967
844 3604 1562
844 3604 1562
845 3604 1567
846 3604 1577
848 3603 1595
853 3603 1628
855 3602 1684
855 3600 1776
854 3599 1915
838 3605 2123
807 3620 2441
775 3635 2927
669 3656 3609
143 3754 4045
143 3754 4045
143 3754 4045
143 3754 4045
784 3957 1773
784 3957 1773
784 3957 1776
783 3957 1784
782 3957 1798
779 3957 1823
775 3957 1867
765 3957 1941
740 3957 2064
689 3965 2246
609 3983 2524
542 3993 2979
419 4001 3617
0 4086 4086
0 4086 4086
0 4086 4086
0 4086 4086
784 3957 1773
784 3957 1773
784 3957 1776
783 3957 1784
782 3957 1798
779 3957 1823
775 3957 1867
765 3957 1941
740 3957 2064
689 3965 2246
609 3983 2524
542 3993 2979
419 4001 3617
0 4086 4086
0 4086 4086
0 4086 4086
0 4086 4086
784 3957 1773
784 3957 1773
784 3957 1776
783 3957 1784
782 3957 1798
779 3957 1823
775 3957 1867
765 3957 1941
740 3957 2064
689 3965 2246
609 3983 2524
542 3993 2979
419 4001 3617
0 4086 4086
0 4086 4086
0 4086 4086
0 4086 4086
784 3957 1773
784 3957 1773
784 3957 1776
783 3957 1784
782 3957 1798
779 3957 1823
775 3957 1867
765 3957 1941
740 3957 2064
689 3965 2246
609 3983 2524
542 3993 2979
419 4001 3617
0 4086 4086
0 4086 4086
0 4086 4086
0 4086 4086
278 0 10
278 0 10
260 0 68
276 0 219
305 16 449
330 44 701
391 81 983
441 145 1306
506 216 1668
600 316 2055
726 424 2462
895 532 2952
1081 612 3569
1253 633 4016
1253 633 4016
1253 633 4016
1253 633 4016
278 0 10
278 0 10
260 0 68
276 0 219
305 16 449
330 44 701
391 81 983
441 145 1306
506 216 1668
600 316 2055
726 424 2462
895 532 2952
1081 612 3569
1253 633 4016
1253 633 4016
1253 633 4016
