Postproduction/IWLTBAP - Humble/LUTs by IWLTBAP (3DL)/UTILITY/Panasonic V-Log to Rec.709/U-PANASONIC-V-LOG-V4-LTR.3dl
# Copyright: (C) Copyright 2010-2018 by IWLTBAP SAS
# Cannot be resold, shared or otherwise redistributed
# Website: https://luts.iwltbap.com
0 64 128 192 256 320 384 448 512 575 639 703 767 831 895 959 1023
64 64 64
64 78 159
52 80 287
64 90 489
52 96 771
58 102 1121
70 122 1536
82 137 1967
72 136 2409
73 168 2843
48 183 3242
64 177 3569
64 177 3814
48 209 3989
76 179 4063
50 192 4063
80 177 4063
32 207 81
49 206 191
51 221 318
77 207 520
66 223 789
63 223 1142
60 223 1553
64 248 1979
57 255 2424
55 277 2851
46 278 3224
35 297 3568
48 303 3825
33 303 3974
49 303 4052
49 303 4095
49 303 4095
34 365 98
34 377 191
32 379 333
35 391 523
48 377 797
48 390 1153
52 395 1536
48 403 1977
52 412 2433
34 421 2845
40 442 3254
32 455 3590
46 456 3858
46 458 4015
60 456 4079
60 446 4095
62 460 4079
13 630 174
17 642 268
30 601 379
42 617 579
31 617 856
23 620 1178
29 636 1593
23 642 2006
24 651 2470
38 666 2914
10 678 3293
11 683 3633
10 692 3872
6 702 4050
5 708 4095
3 709 4083
3 708 4082
0 988 249
3 975 330
2 988 456
0 988 651
12 988 903
1 984 1243
0 988 1654
9 1004 2079
12 1012 2533
0 1016 2963
0 1026 3354
7 1036 3681
8 1056 3942
0 1051 4082
4 1050 4095
4 1052 4095
4 1064 4095
0 1432 327
0 1452 419
0 1424 534
0 1432 733
1 1444 979
0 1448 1330
0 1438 1711
0 1448 2171
0 1456 2599
0 1469 3024
0 1485 3446
0 1491 3752
0 1495 4020
0 1499 4095
11 1502 4095
0 1491 4095
0 1496 4095
6 1969 418
1 1979 506
0 1959 616
0 1966 808
0 1967 1052
1 1969 1395
0 1989 1805
0 1979 2232
0 1993 2682
0 1991 3110
0 2007 3541
0 2012 3861
0 2017 4077
6 2034 4089
6 2034 4089
6 2027 4095
6 2027 4095
0 2545 523
0 2547 601
0 2547 730
4 2542 916
0 2547 1169
0 2558 1507
0 2564 1901
0 2570 2328
0 2564 2777
0 2565 3231
0 2588 3612
7 2595 3957
7 2604 4095
6 2605 4095
0 2612 4095
0 2619 4095
0 2619 4095
16 3147 634
16 3147 715
16 3135 829
14 3131 1011
8 3143 1265
8 3153 1613
10 3164 2003
17 3166 2456
8 3180 2899
8 3172 3310
28 3178 3728
21 3193 4057
16 3204 4095
21 3209 4095
24 3212 4095
22 3212 4095
24 3212 4095
23 3718 737
25 3718 810
16 3727 934
16 3728 1120
19 3725 1370
16 3730 1707
16 3731 2095
23 3748 2541
15 3750 2978
14 3757 3413
8 3763 3833
9 3771 4073
14 3780 4095
23 3798 4091
9 3791 4093
10 3799 4095
9 3798 4095
6 4043 835
6 4037 904
8 4037 1046
3 4037 1203
6 4041 1463
6 4053 1813
6 4047 2196
0 4053 2632
8 4061 3081
7 4063 3511
12 4069 3896
0 4073 4085
4 4083 4083
3 4082 4082
4 4085 4085
0 4075 4095
6 4085 4073
11 4095 883
21 4084 977
0 4084 1095
16 4082 1289
18 4084 1542
27 4085 1865
5 4084 2260
11 4091 2697
3 4095 3150
23 4093 3569
0 4090 3969
16 4095 4095
12 4095 4095
14 4095 4095
16 4095 4095
15 4095 4095
0 4090 4090
0 4079 964
0 4091 1028
6 4091 1144
7 4088 1335
8 4083 1598
13 4086 1931
10 4089 2318
11 4090 2749
8 4095 3196
4 4082 3649
6 4095 4031
4 4095 4095
0 4095 4095
4 4095 4095
0 4095 4095
0 4095 4095
0 4095 4071
0 4095 1012
0 4079 1079
0 4081 1203
3 4079 1378
11 4082 1653
5 4090 1977
16 4089 2363
16 4088 2800
5 4082 3250
0 4086 3678
0 4092 3985
3 4095 4095
3 4094 4094
3 4095 4089
3 4095 4095
3 4082 4082
3 4095 4095
0 4095 1044
0 4095 1105
12 4091 1230
18 4093 1423
2 4091 1670
0 4084 2009
22 4087 2411
9 4079 2832
14 4095 3282
16 4095 3727
10 4089 4001
2 4093 4095
0 4095 4095
15 4095 4095
0 4095 4095
0 4095 4095
14 4081 4095
32 4079 1042
14 4093 1106
0 4079 1218
16 4092 1417
12 4080 1692
0 4079 2004
9 4095 2389
15 4080 2818
15 4088 3276
18 4076 3680
2 4088 4011
16 4095 4095
1 4095 4095
1 4095 4095
1 4095 4095
0 4095 4095
16 4095 4095
0 4095 1012
0 4094 1137
14 4093 1233
16 4095 1420
12 4091 1670
10 4084 2004
26 4079 2389
23 4095 2807
8 4079 3260
9 4088 3702
0 4089 4017
0 4079 4079
4 4095 4095
0 4079 4079
16 4095 4095
16 4095 4095
16 4095 4095
190 33 48
190 32 160
176 49 285
204 65 488
187 79 764
171 76 1083
175 95 1505
169 97 1937
175 113 2394
175 135 2826
160 139 3211
150 147 3523
175 162 3787
160 162 3957
149 162 4024
175 162 4063
175 192 4079
159 175 79
175 175 175
175 176 301
162 177 489
163 190 775
175 202 1126
170 208 1507
175 232 1963
167 223 2407
159 248 2829
154 262 3217
149 255 3553
142 271 3814
159 275 3973
160 272 4062
160 272 4094
160 272 4095
143 346 80
143 347 191
130 362 317
130 347 492
131 349 775
145 359 1125
155 378 1522
143 374 1963
135 394 2423
135 396 2835
123 405 3247
128 419 3569
119 429 3842
128 440 4003
130 431 4078
143 443 4095
143 443 4095
83 598 145
95 596 236
110 597 362
110 583 547
112 608 816
104 612 1155
125 623 1574
101 627 1991
121 630 2464
103 637 2889
101 647 3283
95 666 3621
95 664 3871
87 676 4026
97 677 4091
99 679 4092
99 679 4092
63 968 219
54 956 300
50 941 424
48 956 609
63 956 863
62 957 1223
61 960 1626
60 972 2068
59 976 2521
54 1001 2948
56 1004 3343
50 1012 3675
49 1032 3913
68 1023 4085
59 1024 4083
59 1024 4083
59 1024 4083
10 1405 306
14 1417 383
10 1394 494
18 1405 690
20 1406 943
20 1412 1293
39 1406 1708
12 1419 2128
32 1424 2580
13 1438 3005
30 1449 3410
14 1454 3741
16 1465 3997
11 1466 4084
20 1459 4084
30 1469 4095
30 1469 4095
1 1932 396
0 1953 480
5 1936 599
0 1925 782
16 1935 1050
1 1937 1381
10 1938 1777
10 1963 2209
8 1961 2650
6 1960 3077
9 1970 3488
6 1976 3831
11 1992 4066
15 1991 4095
15 1991 4095
15 1991 4095
15 1991 4095
1 2507 501
0 2531 585
9 2517 714
0 2518 896
4 2522 1145
1 2525 1478
1 2533 1885
0 2545 2311
0 2539 2754
3 2546 3202
0 2555 3588
7 2558 3928
6 2564 4086
0 2579 4095
1 2580 4095
1 2580 4095
1 2580 4095
0 3116 603
0 3115 691
2 3121 815
3 3115 995
0 3116 1246
1 3127 1593
15 3132 1980
0 3134 2411
17 3148 2876
0 3148 3287
1 3155 3688
6 3165 4028
8 3173 4091
0 3176 4092
0 3181 4087
8 3196 4095
8 3188 4095
0 3694 696
9 3702 792
0 3710 917
0 3703 1095
0 3703 1348
0 3714 1691
3 3718 2082
0 3718 2507
1 3734 2962
0 3735 3390
16 3745 3809
2 3747 4058
0 3757 4087
4 3765 4087
0 3765 4095
0 3773 4095
0 3773 4095
1 4036 809
0 4021 888
0 4021 1026
0 4034 1182
0 4024 1455
0 4032 1774
1 4038 2175
1 4037 2598
0 4047 3051
6 4052 3501
6 4054 3881
0 4069 4071
0 4069 4089
0 4067 4091
0 4079 4079
0 4069 4089
0 4069 4089
16 4095 883
21 4079 972
0 4081 1086
14 4088 1271
0 4095 1534
11 4079 1849
6 4084 2260
4 4084 2682
0 4084 3131
10 4080 3556
2 4090 3949
16 4095 4095
11 4095 4095
14 4095 4095
14 4095 4095
10 4094 4094
1 4090 4090
12 4083 931
2 4094 1018
15 4080 1143
16 4081 1331
16 4091 1582
20 4088 1906
12 4085 2296
10 4084 2738
16 4087 3188
7 4095 3607
6 4095 4023
16 4095 4095
12 4095 4095
16 4095 4095
12 4095 4095
0 4083 4083
1 4095 4095
0 4095 986
0 4080 1077
0 4081 1200
2 4080 1362
6 4080 1620
4 4091 1953
16 4089 2357
15 4089 2786
5 4090 3228
3 4083 3669
0 4095 3982
3 4095 4095
3 4095 4095
3 4095 4095
3 4093 4095
3 4095 4095
3 4095 4095
0 4095 1012
13 4092 1104
0 4081 1200
15 4090 1391
12 4094 1660
0 4090 1982
15 4090 2375
9 4095 2800
6 4081 3256
0 4086 3678
0 4095 3979
3 4095 4095
3 4095 4095
16 4095 4095
1 4095 4095
1 4094 4095
1 4094 4095
2 4094 1012
15 4094 1106
1 4081 1216
15 4092 1391
12 4094 1662
4 4091 1977
11 4094 2357
9 4095 2788
8 4079 3244
10 4094 3687
0 4089 3991
16 4095 4095
16 4095 4095
16 4095 4095
14 4094 4094
15 4095 4095
2 4095 4095
0 4095 1012
15 4094 1106
1 4080 1200
15 4093 1392
0 4082 1652
1 4094 1977
16 4089 2357
15 4089 2788
0 4094 3230
16 4095 3686
0 4089 3991
1 4095 4095
0 4095 4095
1 4095 4095
1 4095 4095
1 4095 4095
1 4095 4095
349 0 32
348 14 99
349 28 225
322 29 440
305 32 693
306 43 1038
291 52 1469
301 71 1906
293 72 2339
296 94 2783
293 110 3202
287 121 3526
291 126 3768
290 131 3937
287 145 4019
287 145 4019
287 130 4051
346 138 49
316 127 158
317 141 270
328 141 456
315 143 762
315 159 1090
292 160 1487
296 176 1931
278 201 2380
301 214 2817
286 216 3199
271 228 3520
300 238 3787
273 239 3960
288 254 4020
287 239 4051
301 253 4065
271 299 78
286 298 177
313 285 327
301 288 499
301 289 771
299 304 1109
305 325 1524
294 331 1949
305 349 2397
285 365 2843
307 371 3236
285 381 3562
285 371 3830
298 384 3969
285 397 4063
283 397 4091
285 395 4095
252 550 100
265 538 234
263 551 361
253 538 534
251 550 798
254 565 1113
255 568 1529
252 580 1970
250 589 2414
252 605 2851
242 612 3263
241 620 3605
261 634 3860
238 617 3991
238 632 4081
237 629 4080
223 643 4093
189 909 191
185 907 293
185 897 408
213 897 580
199 909 857
202 920 1176
213 925 1580
208 937 2034
211 933 2477
198 956 2915
195 958 3292
199 969 3650
199 974 3898
204 979 4059
197 984 4095
189 978 4093
185 978 4095
112 1348 279
127 1356 348
125 1357 471
142 1346 660
128 1362 909
138 1375 1271
146 1372 1650
125 1380 2084
136 1386 2538
143 1397 2970
135 1395 3373
138 1418 3729
125 1419 3974
123 1425 4090
126 1426 4095
116 1413 4085
137 1415 4095
56 1889 371
58 1891 433
50 1891 556
62 1876 738
54 1885 994
70 1908 1356
66 1905 1752
77 1905 2179
66 1909 2632
67 1917 3067
62 1933 3465
76 1924 3809
74 1941 4029
71 1952 4093
60 1941 4089
60 1939 4081
60 1949 4083
19 2483 484
2 2485 543
2 2476 674
13 2476 841
9 2475 1112
19 2482 1441
17 2489 1844
7 2485 2264
22 2496 2734
14 2504 3171
12 2512 3556
9 2515 3895
18 2514 4070
23 2522 4095
14 2533 4075
15 2532 4091
23 2524 4075
0 3079 584
0 3071 664
0 3063 777
2 3077 965
6 3073 1235
8 3082 1562
4 3085 1961
1 3084 2402
2 3093 2832
13 3096 3272
6 3101 3679
6 3106 3992
4 3123 4095
0 3119 4095
0 3129 4089
0 3131 4095
0 3133 4095
7 3655 701
1 3641 775
0 3655 896
6 3649 1095
0 3653 1341
0 3655 1667
0 3668 2066
0 3668 2503
0 3681 2937
0 3682 3394
2 3701 3780
4 3704 4080
4 3712 4095
0 3717 4091
0 3713 4095
0 3723 4093
0 3736 4093
12 3999 781
8 4002 872
6 3995 996
22 3998 1161
10 3997 1425
16 4010 1744
14 4009 2148
14 4023 2596
8 4027 3041
7 4023 3471
22 4031 3874
4 4036 4083
20 4039 4095
22 4021 4095
2 4037 4091
18 4037 4095
8 4047 4095
23 4088 855
21 4084 927
0 4090 1054
13 4092 1241
12 4095 1499
5 4082 1825
12 4093 2220
14 4088 2654
5 4086 3099
4 4090 3548
12 4084 3928
2 4095 4095
12 4095 4076
2 4090 4084
11 4095 4095
2 4081 4081
14 4093 4093
6 4089 915
8 4075 976
4 4089 1104
21 4075 1296
12 4091 1552
10 4088 1880
12 4081 2270
4 4084 2697
20 4091 3160
16 4079 3589
12 4077 3971
16 4095 4095
12 4091 4091
6 4085 4085
6 4085 4085
23 4072 4078
16 4095 4087
25 4067 966
28 4081 1044
36 4070 1162
25 4071 1347
30 4081 1606
17 4078 1920
23 4070 2310
24 4072 2749
29 4076 3195
23 4081 3631
28 4070 3961
18 4090 4093
7 4076 4085
42 4081 4095
18 4093 4095
18 4091 4093
3 4084 4084
28 4081 984
24 4070 1070
14 4081 1172
4 4079 1357
2 4085 1614
2 4093 1949
4 4085 2335
5 4081 2759
12 4089 3212
5 4081 3655
0 4093 3985
14 4095 4095
12 4093 4093
5 4083 4095
4 4095 4095
3 4095 4095
2 4079 4083
0 4095 980
1 4082 1075
0 4094 1174
15 4094 1374
0 4082 1613
0 4084 1938
2 4094 2342
0 4094 2769
7 4095 3214
0 4093 3655
0 4095 3979
2 4094 4095
5 4092 4095
3 4095 4095
2 4095 4095
15 4082 4095
0 4094 4094
0 4095 980
0 4080 1074
14 4081 1200
30 4080 1386
28 4069 1622
28 4081 1949
28 4081 2345
18 4086 2768
8 4087 3224
21 4079 3655
6 4095 3997
14 4090 4095
14 4095 4095
11 4095 4095
14 4095 4095
14 4095 4095
14 4095 4095
614 13 13
585 13 78
595 0 205
598 0 395
578 0 673
550 0 1027
540 13 1412
537 3 1874
526 19 2321
499 32 2744
509 41 3138
513 56 3484
537 47 3718
508 54 3885
510 65 3967
534 64 3986
534 64 3986
582 47 15
569 61 107
582 62 236
568 64 424
551 65 700
547 79 1049
538 92 1450
522 97 1874
518 126 2339
511 136 2784
506 142 3147
517 167 3490
505 162 3742
504 163 3909
495 180 3990
493 177 4017
