Postproduction/IWLTBAP - Humble/LUTs by IWLTBAP (3DL)/UTILITY/Panasonic V-Log to Rec.709/U-PANASONIC-V-LOG-V2-LTR.3dl
# Copyright: (C) Copyright 2010-2018 by IWLTBAP SAS
# Cannot be resold, shared or otherwise redistributed
# Website: https://luts.iwltbap.com
0 128 256 384 512 640 768 896 1023
0 0 0
0 0 176
0 0 592
0 13 1330
0 35 2271
0 56 3175
0 70 3802
0 75 4044
0 76 4074
0 242 28
0 247 221
0 256 636
0 273 1374
0 294 2316
0 314 3220
0 329 3847
0 334 4077
0 334 4079
0 800 124
0 804 316
0 813 732
0 830 1470
0 851 2411
0 872 3315
0 886 3943
0 891 4079
0 892 4079
0 1790 293
0 1794 487
0 1804 902
0 1820 1640
0 1842 2581
0 1862 3485
0 1876 4058
0 1882 4079
0 1882 4079
0 3052 510
0 3057 703
0 3067 1118
0 3083 1857
0 3104 2798
0 3125 3703
0 3139 4079
0 3145 4079
0 3145 4079
0 4036 718
0 4038 912
0 4042 1327
0 4051 2065
0 4061 3006
0 4071 3900
0 4078 4079
0 4079 4079
0 4079 4079
0 4079 862
0 4079 1056
0 4079 1471
0 4079 2209
0 4079 3151
0 4079 4001
0 4079 4079
0 4079 4079
0 4079 4079
0 4079 918
0 4079 1111
0 4079 1527
0 4079 2265
0 4079 3206
0 4079 3993
0 4079 4079
0 4079 4079
0 4079 4079
0 4079 925
0 4079 1118
0 4079 1534
0 4079 2272
0 4079 3213
0 4079 3996
0 4079 4079
0 4079 4079
0 4079 4079
220 0 0
218 0 132
214 0 547
207 0 1286
198 0 2227
190 1 3131
184 2 3758
182 5 4000
182 5 4030
178 172 0
177 176 176
173 186 592
165 203 1330
157 224 2271
148 244 3176
142 258 3802
140 264 4044
140 265 4074
89 729 79
87 734 272
83 743 687
76 760 1426
68 781 2367
60 802 3271
55 816 3898
52 821 4079
52 822 4079
0 1720 249
0 1724 442
0 1734 858
0 1750 1596
0 1772 2537
0 1792 3441
0 1806 4042
0 1812 4079
0 1812 4079
0 2983 466
0 2987 659
0 2997 1074
0 3013 1813
0 3034 2754
0 3055 3658
0 3069 4079
0 3075 4079
0 3075 4079
0 4001 674
0 4004 867
0 4008 1283
0 4016 2021
0 4027 2962
0 4037 3864
0 4044 4079
0 4047 4079
0 4048 4079
0 4079 818
0 4079 1012
0 4079 1427
0 4079 2165
0 4079 3106
0 4079 3969
0 4079 4079
0 4079 4079
0 4079 4079
0 4079 874
0 4079 1067
0 4079 1482
0 4079 2221
0 4079 3162
0 4079 3971
0 4079 4079
0 4079 4079
0 4079 4079
0 4079 881
0 4079 1074
0 4079 1489
0 4079 2228
0 4079 3169
0 4079 3975
0 4079 4079
0 4079 4079
0 4079 4079
730 0 0
728 0 40
724 0 452
717 0 1191
708 0 2132
700 0 3036
694 0 3662
692 0 3905
691 0 3935
688 28 0
686 32 81
682 40 497
675 55 1235
667 74 2176
658 94 3080
652 108 3707
650 113 3949
650 114 3979
598 579 3
596 583 177
593 592 593
585 609 1331
577 630 2272
568 651 3176
562 665 3803
560 670 4044
560 671 4069
438 1569 154
437 1574 347
433 1583 763
426 1600 1501
417 1621 2442
409 1641 3346
403 1656 3971
400 1661 4079
400 1662 4079
235 2832 371
233 2836 564
229 2846 979
222 2862 1718
214 2884 2659
205 2904 3563
199 2918 4074
197 2924 4079
196 2925 4079
63 3923 579
61 3930 772
58 3934 1188
53 3943 1926
47 3953 2867
40 3963 3771
36 3971 4079
34 3974 4079
34 3974 4079
0 4079 723
0 4079 916
0 4079 1332
0 4079 2070
0 4079 3011
0 4079 3900
0 4079 4079
0 4079 4079
0 4079 4079
0 4079 779
0 4079 972
0 4079 1387
0 4079 2126
0 4079 3067
0 4079 3925
0 4079 4079
0 4079 4079
0 4079 4079
0 4079 786
0 4079 979
0 4079 1394
0 4079 2132
0 4079 3074
0 4079 3928
0 4079 4079
0 4079 4079
0 4079 4079
1636 0 0
1634 0 0
1630 0 283
1623 0 1021
1614 0 1963
1606 0 2867
1599 0 3493
1597 0 3734
1597 0 3765
1594 0 0
1592 0 0
1588 0 328
1581 0 1066
1572 0 2007
1564 0 2911
1558 0 3538
1556 0 3779
1555 0 3809
1504 311 0
1502 315 18
1498 325 423
1491 341 1162
1483 363 2103
1474 383 3007
1468 397 3633
1466 403 3876
1466 403 3906
1345 1301 9
1343 1306 178
1339 1315 593
1332 1332 1332
1323 1353 2273
1314 1373 3177
1308 1388 3804
1306 1393 4041
1306 1394 4064
1141 2564 202
1139 2568 395
1135 2578 810
1128 2594 1549
1119 2616 2490
1111 2636 3394
1105 2650 4011
1103 2656 4079
1102 2656 4079
945 3745 410
944 3771 603
940 3780 1018
933 3795 1757
924 3811 2698
915 3825 3602
909 3834 4078
907 3838 4079
907 3838 4079
810 4079 554
808 4079 747
804 4079 1163
797 4079 1901
788 4079 2842
780 4079 3744
774 4079 4079
772 4079 4079
771 4079 4079
758 4079 610
756 4079 803
752 4079 1218
745 4079 1957
736 4079 2898
727 4079 3798
721 4079 4079
719 4079 4079
719 4079 4079
751 4079 617
749 4079 810
745 4079 1225
738 4079 1963
730 4079 2905
721 4079 3805
715 4079 4079
713 4079 4079
713 4079 4079
2790 0 0
2788 0 0
2785 0 78
2778 0 806
2769 0 1747
2761 0 2651
2755 0 3278
2752 0 3519
2752 0 3549
2748 0 0
2747 0 0
2743 0 115
2736 0 851
2727 0 1792
2719 0 2696
2713 0 3322
2711 0 3564
2710 0 3594
2659 24 0
2657 25 0
2653 29 208
2646 37 946
2637 52 1887
2629 67 2792
2623 78 3418
2621 82 3659
2620 82 3689
2499 960 0
2497 964 5
2494 973 378
2487 990 1116
2478 1011 2057
2469 1032 2961
2463 1046 3588
2461 1052 3830
2460 1052 3860
2296 2222 11
2294 2227 179
2290 2236 595
2283 2253 1333
2274 2274 2274
2265 2294 3178
2259 2309 3805
2257 2314 4041
2257 2315 4063
2100 3426 194
2098 3433 388
2094 3443 803
2087 3460 1541
2078 3481 2482
2070 3501 3386
2064 3515 4005
2062 3521 4079
2062 3522 4079
1965 4064 339
1963 4079 532
1959 4079 947
1952 4079 1685
1943 4079 2627
1934 4079 3529
1929 4079 4070
1926 4079 4079
1926 4079 4079
1912 4079 394
1911 4079 587
1907 4079 1003
1900 4079 1741
1891 4079 2682
1883 4079 3582
1876 4079 4079
1874 4079 4079
1874 4079 4079
1906 4079 401
1904 4079 594
1900 4079 1010
1893 4079 1748
1884 4079 2689
1876 4079 3589
1870 4079 4079
1868 4079 4079
1867 4079 4079
3865 0 0
3863 0 0
3860 0 0
3854 0 599
3846 0 1540
3839 0 2444
3834 0 3071
3831 0 3312
3831 0 3342
3828 0 0
3827 0 0
3823 0 0
3817 0 644
3809 0 1585
3802 0 2489
3797 0 3115
3795 0 3357
3794 0 3387
3749 0 0
3748 0 0
3744 0 29
3738 0 739
3731 0 1680
3723 0 2584
3718 0 3211
3716 0 3452
3715 0 3482
3605 631 0
3603 636 0
3600 645 171
3593 662 909
3584 683 1850
3576 704 2755
3570 718 3381
3567 723 3622
3567 724 3652
3402 1894 0
3400 1898 7
3396 1908 388
3389 1925 1126
3381 1946 2067
3372 1966 2971
3366 1980 3597
3364 1986 3840
3364 1987 3870
3206 3098 8
3205 3105 181
3201 3115 596
3194 3131 1334
3185 3153 2275
3176 3173 3180
3170 3188 3806
3168 3193 4044
3168 3194 4067
3071 3919 132
3069 3950 325
3065 3958 740
3058 3973 1478
3049 3991 2419
3041 4007 3322
3035 4017 3946
3033 4020 4079
3033 4021 4079
3019 4079 187
3017 4079 380
3013 4079 796
3006 4079 1534
2997 4079 2475
2989 4079 3375
2983 4079 4002
2981 4079 4079
2980 4079 4079
3012 4079 194
3010 4079 388
3007 4079 803
3000 4079 1541
2991 4079 2482
2982 4079 3382
2976 4079 4008
2974 4079 4079
2974 4079 4079
4079 0 0
4079 0 0
4079 0 0
4079 0 456
4079 0 1397
4079 0 2301
4079 0 2927
4079 0 3169
4079 0 3198
4079 0 0
4079 0 0
4079 0 0
4079 0 500
4079 0 1441
4079 0 2345
4079 0 2972
4079 0 3213
4079 0 3243
4079 0 0
4079 0 0
4079 0 0
4079 0 596
4079 0 1537
4079 0 2441
4079 0 3067
4079 0 3309
4079 0 3339
4078 404 0
4079 408 0
4079 418 48
4079 434 766
4079 456 1707
4079 476 2611
4079 491 3237
4079 496 3479
4079 496 3509
4043 1667 0
4074 1671 0
4074 1681 244
4073 1697 982
4071 1718 1924
4069 1739 2828
4068 1753 3454
4068 1759 3695
4067 1759 3726
3947 2870 0
3973 2878 40
3970 2887 453
3964 2904 1191
3956 2925 2132
3948 2946 3036
3942 2960 3662
3940 2966 3905
3940 2967 3935
3828 3704 2
3841 3725 181
3838 3734 597
3831 3751 1335
3822 3772 2276
3813 3793 3179
3807 3807 3805
3804 3812 4047
3804 3813 4074
3775 4034 44
3789 4047 237
3785 4056 652
3778 4069 1391
3769 4076 2332
3761 4079 3231
3754 4079 3863
3752 4079 4079
3752 4079 4079
3768 4072 51
3782 4074 244
3778 4076 659
3771 4079 1397
3762 4079 2338
3754 4079 3238
3748 4079 3870
3746 4079 4079
3745 4079 4079
4079 0 0
4079 0 0
4079 0 0
4079 0 400
4079 0 1341
4079 0 2246
4079 0 2872
4079 0 3114
4079 0 3144
4079 0 0
4079 0 0
4079 0 0
4079 0 445
4079 0 1386
4079 0 2290
4079 0 2916
4079 0 3158
4079 0 3188
4079 0 0
4079 0 0
4079 0 0
4079 0 540
4079 0 1482
4079 0 2386
4079 0 3012
4079 0 3253
4079 0 3284
4079 316 0
4079 321 0
4079 330 13
4079 347 710
4079 368 1652
4079 389 2556
4079 403 3182
4079 408 3423
4079 409 3453
4079 1579 0
4079 1584 0
4079 1593 189
4079 1610 927
4079 1631 1868
4079 1651 2772
4079 1665 3399
4079 1671 3640
4079 1672 3670
4079 2782 0
4079 2790 6
4079 2800 397
4079 2816 1135
4079 2838 2077
4079 2858 2981
4079 2873 3607
4079 2878 3849
4079 2878 3879
4078 3616 0
4079 3637 126
4079 3646 541
4079 3663 1280
4079 3684 2221
4079 3705 3124
4079 3719 3749
4079 3724 3993
4079 3725 4023
4066 3948 0
4077 3962 182
4076 3971 597
4074 3988 1335
4066 4009 2276
4058 4030 3176
4052 4044 3807
4050 4050 4050
4049 4050 4079
4063 3994 0
4075 4002 189
4074 4011 604
4068 4028 1342
4060 4049 2283
4051 4070 3183
4045 4079 3814
4043 4079 4056
4042 4079 4079
4079 0 0
4079 0 0
4079 0 0
4079 0 393
4079 0 1335
4079 0 2239
4079 0 2865
4079 0 3106
4079 0 3136
4079 0 0
4079 0 0
4079 0 0
4079 0 438
4079 0 1379
4079 0 2283
4079 0 2909
4079 0 3151
4079 0 3181
4079 0 0
4079 0 0
4079 0 0
4079 0 533
4079 0 1475
4079 0 2379
4079 0 3005
4079 0 3247
4079 0 3276
4079 306 0
4079 310 0
4079 319 10
4079 336 704
4079 357 1645
4079 378 2549
4079 392 3175
4079 397 3417
4079 398 3447
4079 1568 0
4079 1573 0
4079 1582 182
4079 1599 920
4079 1620 1861
4079 1640 2766
4079 1655 3392
4079 1660 3633
4079 1661 3663
4079 2771 0
4079 2779 4
4079 2789 390
4079 2805 1129
4079 2827 2070
4079 2847 2974
4079 2861 3600
4079 2867 3842
4079 2867 3873
4079 3605 0
4079 3626 119
4079 3635 535
4079 3652 1273
4079 3673 2214
4079 3694 3116
4079 3708 3742
4079 3714 3985
4079 3714 4016
4079 3937 0
4079 3951 175
4079 3960 590
4079 3977 1328
4079 3998 2269
4079 4019 3169
4079 4033 3800
4079 4038 4042
4079 4039 4072
4079 3983 0
4079 3991 182
4079 4001 597
4079 4017 1335
4079 4039 2276
4079 4059 3176
4079 4074 3807
4079 4079 4050
4079 4079 4079
