Postproduction/IWLTBAP - Humble/LUTs by IWLTBAP (3DL)/UTILITY/Panasonic V-Log to Rec.709/U-PANASONIC-V-LOG-V3-LTR.3dl
# Copyright: (C) Copyright 2010-2018 by IWLTBAP SAS
# Cannot be resold, shared or otherwise redistributed
# Website: https://luts.iwltbap.com
0 128 256 384 512 640 768 896 1023
60 58 53
60 58 82
35 71 426
12 17 1224
6 0 1919
0 181 2524
0 299 2660
0 299 2686
0 299 2712
61 86 53
61 86 82
36 101 419
11 52 1222
6 38 1927
0 228 2532
0 344 2668
0 344 2694
0 344 2720
82 335 79
82 335 105
41 357 383
0 446 1257
0 544 2132
0 779 2752
0 849 2881
0 849 2907
0 849 2933
248 1168 78
248 1168 104
162 1203 443
0 1345 1476
0 1481 2473
0 1651 3112
0 1697 3237
0 1697 3263
0 1697 3289
952 2247 113
952 2247 139
947 2251 203
638 2429 1644
320 2566 2748
410 2676 3428
488 2705 3569
488 2705 3595
488 2705 3621
1799 3220 741
1799 3220 767
1799 3220 793
1693 3332 1699
1555 3476 2900
1567 3561 3619
1590 3582 3790
1590 3582 3816
1590 3582 3842
2038 3453 970
2038 3453 996
2038 3453 1022
1974 3535 1676
1861 3686 2922
1876 3769 3653
1899 3790 3835
1899 3790 3862
1899 3790 3888
2038 3479 970
2038 3479 996
2038 3479 1022
1974 3561 1676
1861 3712 2922
1876 3795 3653
1899 3816 3835
1899 3816 3862
1899 3816 3888
2038 3505 970
2038 3505 996
2038 3505 1022
1974 3587 1676
1861 3738 2922
1876 3822 3653
1899 3842 3835
1899 3842 3862
1899 3842 3888
91 59 53
93 59 82
69 72 422
44 18 1223
45 0 1926
43 181 2532
44 299 2668
44 299 2694
44 299 2720
90 87 53
91 87 82
66 101 419
41 51 1224
38 35 1930
35 224 2536
36 340 2671
36 340 2697
36 340 2723
108 335 79
108 336 105
67 357 383
26 444 1257
26 542 2132
26 778 2752
26 847 2880
26 847 2907
26 847 2933
274 1168 78
274 1168 104
188 1203 441
26 1346 1476
26 1481 2473
26 1651 3112
26 1697 3237
26 1697 3263
26 1697 3289
978 2247 113
978 2247 139
974 2251 203
664 2429 1643
347 2566 2749
436 2676 3428
514 2705 3569
514 2705 3595
514 2705 3621
1825 3220 741
1825 3220 767
1825 3220 793
1720 3332 1698
1581 3476 2900
1593 3561 3619
1616 3582 3790
1616 3582 3816
1616 3582 3842
2064 3453 970
2064 3453 996
2064 3453 1022
2001 3535 1675
1887 3686 2921
1902 3769 3652
1925 3790 3835
1925 3790 3862
1925 3790 3888
2064 3479 970
2064 3479 996
2064 3479 1022
2001 3561 1675
1887 3712 2921
1902 3795 3652
1925 3816 3835
1925 3816 3862
1925 3816 3888
2064 3505 970
2064 3505 996
2064 3505 1022
2001 3587 1675
1887 3738 2921
1902 3822 3652
1925 3842 3835
1925 3842 3862
1925 3842 3888
637 109 59
639 109 86
659 121 409
525 39 1303
549 0 2127
644 185 2740
669 324 2869
669 324 2895
669 324 2921
632 135 59
634 135 86
656 148 408
523 65 1303
547 27 2127
642 213 2740
666 351 2868
666 351 2894
666 351 2921
441 404 81
441 404 107
462 425 392
375 445 1325
400 507 2243
498 756 2867
527 829 2990
527 829 3016
527 829 3042
649 1240 53
647 1240 79
558 1259 353
310 1405 1512
195 1503 2517
262 1659 3152
285 1703 3275
285 1703 3301
285 1703 3327
1016 2249 110
1016 2249 136
1007 2251 168
702 2429 1617
376 2568 2751
449 2668 3426
526 2695 3566
526 2695 3592
526 2695 3619
1851 3219 740
1851 3219 766
1852 3220 793
1752 3326 1654
1608 3475 2893
1619 3561 3619
1640 3580 3790
1640 3580 3816
1640 3580 3842
2090 3453 970
2090 3453 996
2090 3453 1022
2032 3528 1624
1913 3685 2912
1928 3769 3651
1951 3790 3835
1951 3790 3862
1951 3790 3888
2090 3479 970
2090 3479 996
2090 3479 1022
2032 3554 1624
1913 3711 2912
1928 3795 3651
1951 3816 3835
1951 3816 3862
1951 3816 3888
2090 3505 970
2090 3505 996
2090 3505 1022
2032 3580 1624
1913 3737 2912
1928 3821 3651
1951 3842 3835
1951 3842 3862
1951 3842 3888
1924 18 2
1924 18 28
1861 33 340
1680 8 1401
1599 0 2335
1655 188 2975
1676 361 3101
1676 361 3127
1676 361 3153
1924 44 2
1925 44 28
1862 59 338
1681 34 1402
1599 26 2335
1655 214 2975
1675 387 3100
1675 387 3127
1675 387 3153
1378 497 36
1378 496 62
1444 457 305
1508 478 1418
1547 507 2431
1630 784 3079
1651 866 3201
1651 866 3227
1651 866 3253
1570 1419 0
1570 1420 27
1596 1441 207
1581 1555 1547
1477 1548 2640
1512 1660 3276
1529 1698 3397
1529 1698 3423
1529 1698 3449
1863 2419 7
1863 2419 34
1849 2420 61
1697 2565 1499
1600 2703 2819
1593 2747 3500
1606 2763 3641
1606 2763 3667
1606 2763 3693
2226 3286 710
2225 3286 736
2206 3283 765
2066 3344 1426
1931 3514 2869
1947 3600 3637
1959 3614 3809
1959 3614 3835
1959 3614 3861
2353 3499 958
2352 3499 984
2331 3494 1011
2214 3521 1379
2083 3701 2873
2099 3789 3655
2122 3810 3845
2122 3810 3871
2122 3810 3897
2353 3525 958
2352 3525 984
2331 3520 1011
2214 3547 1379
2083 3727 2873
2099 3815 3655
2122 3837 3845
2122 3837 3871
2122 3837 3897
2353 3551 958
2352 3551 984
2331 3547 1011
2214 3573 1379
2083 3753 2873
2099 3841 3655
2122 3863 3845
2122 3863 3871
2122 3863 3897
2626 0 0
2626 0 26
2633 0 161
2599 0 1372
2605 0 2408
2693 100 3103
2717 312 3242
2717 312 3268
2717 312 3295
2626 26 0
2626 26 26
2633 26 159
2599 26 1371
2605 26 2408
2693 126 3103
2717 338 3242
2717 338 3268
2717 338 3295
2442 298 0
2443 295 26
2481 178 101
2561 177 1355
2623 180 2461
2706 521 3159
2726 664 3295
2726 664 3321
2726 664 3347
2639 1530 0
2639 1530 26
2644 1513 57
2712 1576 1450
2746 1609 2705
2748 1716 3393
2752 1756 3527
2752 1756 3553
2752 1756 3579
2828 2582 0
2829 2582 26
2832 2586 52
2838 2716 1405
2794 2832 2842
2729 2822 3578
2719 2823 3725
2719 2823 3752
2719 2823 3778
3006 3424 639
3006 3424 665
3002 3424 692
2961 3479 1283
2844 3637 2816
2829 3715 3682
2818 3717 3863
2818 3717 3889
2818 3717 3916
3061 3626 930
3061 3626 956
3055 3626 983
3018 3651 1277
2890 3811 2803
2873 3895 3683
2879 3914 3891
2879 3914 3917
2879 3914 3944
3061 3653 930
3061 3653 956
3055 3652 983
3018 3677 1277
2890 3837 2803
2873 3921 3683
2879 3940 3891
2879 3940 3917
2879 3940 3944
3061 3679 930
3061 3679 956
3055 3678 983
3018 3703 1277
2890 3863 2803
2873 3947 3683
2879 3966 3891
2879 3966 3917
2879 3966 3944
2992 0 0
2992 0 26
2995 0 53
3104 0 1281
3234 0 2411
3401 51 3157
3440 243 3316
3440 243 3342
3440 243 3368
2992 26 0
2992 26 26
2994 26 53
3104 26 1281
3234 26 2411
3401 77 3157
3440 269 3316
3440 269 3342
3440 269 3368
2994 52 0
2994 52 26
2992 52 52
3101 52 1239
3232 52 2402
3401 103 3157
3439 295 3316
3439 295 3342
3439 295 3368
3420 1486 0
3420 1485 26
3412 1452 52
3469 1414 1222
3526 1497 2632
3579 1632 3413
3586 1683 3568
3586 1683 3594
3586 1683 3621
3637 2669 0
3637 2669 26
3637 2663 52
3653 2734 1228
3650 2851 2785
3657 2875 3610
3647 2877 3779
3647 2877 3805
3647 2877 3831
3727 3533 600
3727 3533 626
3727 3533 652
3724 3566 1056
3682 3731 2779
3663 3806 3702
3656 3811 3903
3656 3811 3929
3656 3811 3955
3751 3743 931
3751 3743 957
3750 3743 983
3743 3755 1141
3682 3918 2767
3665 4000 3706
3667 4018 3929
3667 4018 3955
3667 4018 3981
3751 3769 931
3751 3769 957
3750 3769 983
3743 3781 1141
3682 3944 2767
3665 4026 3706
3667 4044 3929
3667 4044 3955
3667 4044 3981
3751 3795 931
3751 3795 957
3750 3795 983
3743 3807 1141
3682 3970 2767
3665 4052 3706
3667 4070 3929
3667 4070 3955
3667 4070 3981
3077 0 0
3077 0 26
3077 0 52
3198 0 1232
3339 0 2400
3537 49 3163
3589 247 3329
3589 247 3355
3589 247 3382
3077 26 0
3077 26 26
3077 26 52
3198 26 1231
3338 26 2400
3537 75 3163
3589 273 3329
3589 273 3355
3589 273 3382
3077 52 0
3077 52 26
3077 52 52
3195 52 1183
3337 52 2390
3537 100 3161
3589 299 3329
3589 299 3355
3589 299 3382
3585 1435 0
3585 1434 26
3575 1395 52
3628 1322 1122
3695 1411 2596
3755 1569 3398
3770 1623 3566
3770 1623 3592
3770 1623 3618
3824 2674 0
3824 2674 26
3823 2665 52
3836 2714 1099
3837 2824 2742
3847 2871 3598
3852 2873 3785
3852 2873 3811
3852 2873 3837
3928 3556 608
3928 3556 634
3928 3555 658
3924 3576 994
3883 3734 2768
3871 3818 3701
3872 3828 3910
3872 3828 3936
3872 3828 3962
3950 3772 948
3950 3772 974
3950 3772 1000
3950 3773 1034
3902 3942 2748
3885 4025 3708
3886 4043 3936
3886 4043 3962
3886 4043 3989
3950 3798 948
3950 3798 974
3950 3798 1000
3950 3799 1034
3902 3968 2748
3885 4051 3708
3886 4069 3936
3886 4069 3962
3886 4069 3989
3950 3824 948
3950 3824 974
3950 3824 1000
3950 3825 1034
3902 3995 2748
3885 4077 3708
3886 4095 3936
3886 4095 3962
3886 4095 3989
3103 0 0
3103 0 26
3103 0 52
3225 0 1232
3365 0 2400
3563 49 3163
3615 247 3329
3615 247 3355
3615 247 3382
3103 26 0
3103 26 26
3103 26 52
3224 26 1231
3365 26 2400
3563 75 3163
3615 273 3329
3615 273 3355
3615 273 3382
3103 52 0
3103 52 26
3103 52 52
3221 52 1183
3363 52 2390
3563 100 3161
3615 299 3329
3615 299 3355
3615 299 3382
3611 1435 0
3611 1434 26
3601 1395 52
3654 1322 1122
3721 1411 2596
3781 1569 3398
3796 1623 3566
3796 1623 3592
3796 1623 3618
3850 2674 0
3850 2674 26
3849 2665 52
3863 2714 1099
3863 2824 2742
3874 2871 3598
3878 2873 3785
3878 2873 3811
3878 2873 3837
3954 3556 608
3954 3556 634
3954 3555 658
3950 3576 994
3909 3734 2768
3897 3818 3701
3898 3828 3910
3898 3828 3936
3898 3828 3962
3976 3772 948
3976 3772 974
3976 3772 1000
3976 3773 1034
3928 3942 2748
3911 4025 3708
3912 4043 3936
3912 4043 3962
3912 4043 3989
3976 3798 948
3976 3798 974
3976 3798 1000
3976 3799 1034
3928 3968 2748
3911 4051 3708
3912 4069 3936
3912 4069 3962
3912 4069 3989
3976 3824 948
3976 3824 974
3976 3824 1000
3976 3825 1034
3928 3995 2748
3911 4077 3708
3912 4095 3936
3912 4095 3962
3912 4095 3989
3129 0 0
3129 0 26
3129 0 52
3251 0 1232
3391 0 2400
3590 49 3163
3641 247 3329
3641 247 3355
3641 247 3382
3129 26 0
3129 26 26
3129 26 52
3250 26 1231
3391 26 2400
3590 75 3163
3641 273 3329
3641 273 3355
3641 273 3382
3129 52 0
3129 52 26
3129 52 52
3247 52 1183
3389 52 2390
3589 100 3161
3641 299 3329
3641 299 3355
3641 299 3382
3637 1435 0
3637 1434 26
3627 1395 52
3680 1322 1122
3747 1411 2596
3807 1569 3398
3822 1623 3566
3822 1623 3592
3822 1623 3618
3876 2674 0
3876 2674 26
3875 2665 52
3889 2714 1099
3890 2824 2742
3900 2871 3598
3904 2873 3785
3904 2873 3811
3904 2873 3837
3980 3556 608
3980 3556 634
3980 3555 658
3976 3576 994
3935 3734 2768
3923 3818 3701
3924 3828 3910
3924 3828 3936
3924 3828 3962
4002 3772 948
4002 3772 974
4002 3772 1000
4002 3773 1034
3954 3942 2748
3937 4025 3708
3938 4043 3936
3938 4043 3962
3938 4043 3989
4002 3798 948
4002 3798 974
4002 3798 1000
4002 3799 1034
3954 3968 2748
3937 4051 3708
3938 4069 3936
3938 4069 3962
3938 4069 3989
4002 3824 948
4002 3824 974
4002 3824 1000
4002 3825 1034
3954 3995 2748
3937 4077 3708
3938 4095 3936
3938 4095 3962
3938 4095 3989
