Postproduction/IWLTBAP - Humble/LUTs by IWLTBAP (3DL)/UTILITY/Panasonic V-Log to Rec.709/U-PANASONIC-V-LOG-V9-LTR.3dl
# Copyright: (C) Copyright 2010-2018 by IWLTBAP SAS
# Cannot be resold, shared or otherwise redistributed
# Website: https://luts.iwltbap.com
0 256 512 768 1023
0 0 0
89 113 402
236 281 887
394 473 1468
415 500 1551
188 594 164
109 644 625
219 712 1223
387 846 1833
408 872 1924
513 1556 489
456 1656 869
305 1827 1795
398 1906 2633
424 1924 2737
943 2844 922
901 2954 1263
794 3179 2036
663 3383 2938
650 3405 3067
945 2849 924
900 2956 1268
787 3174 2059
642 3383 2953
617 3403 3090
613 110 169
651 168 533
662 322 1070
761 521 1662
783 549 1748
896 722 61
607 590 586
496 589 1497
627 758 2142
650 786 2239
944 1860 302
671 1947 678
354 1999 1997
485 1942 2963
516 1951 3078
1211 3179 695
1087 3255 1095
972 3412 1930
881 3513 2987
896 3540 3151
1216 3185 690
1082 3258 1096
950 3424 1943
814 3525 2998
811 3546 3172
1421 307 456
1516 359 745
1694 467 1376
1728 631 2096
1740 660 2189
1946 613 267
2080 516 707
2040 585 1724
1851 778 2575
1848 811 2683
2823 2308 180
2765 2341 362
1898 1886 1825
1405 1609 3622
1435 1635 3702
2456 3593 710
2239 3591 913
1876 3611 1678
1838 3849 3304
1876 3853 3502
2461 3622 684
2233 3611 906
1847 3598 1650
1764 3865 3331
1799 3863 3544
2436 554 802
2541 605 1064
2751 715 1653
2994 854 2461
3028 876 2583
3044 735 721
3134 738 1073
3224 842 1845
3343 988 2838
3363 1014 2985
3889 2020 658
3985 1860 918
3898 1566 2019
3712 1871 3459
3696 1964 3587
3958 3819 1307
3976 3901 1577
3928 3933 2110
3818 3779 3773
3511 3613 3846
3976 3828 1284
3994 3918 1554
3959 3970 2076
3643 3626 3693
3534 3548 3863
2357 535 774
2459 586 1040
2664 694 1631
2902 832 2437
2933 851 2556
2970 725 684
3063 720 1045
3141 821 1832
3259 958 2838
3278 980 2988
3849 2058 605
3978 1882 831
3901 1517 1965
3678 1771 3545
3636 1863 3664
3875 3832 1179
3896 3924 1454
3876 4022 2072
3258 3712 3561
3173 3651 3791
3899 3849 1136
3920 3946 1407
3905 4071 2016
3292 3680 3644
3173 3595 3818
