Postproduction/IWLTBAP - Humble/LUTs by IWLTBAP (3DL)/UTILITY/Panasonic V-Log to Rec.709/U-PANASONIC-V-LOG-V8-LTR.3dl
# Copyright: (C) Copyright 2010-2018 by IWLTBAP SAS
# Cannot be resold, shared or otherwise redistributed
# Website: https://luts.iwltbap.com
0 256 512 768 1023
158 158 158
124 0 835
0 0 2308
0 0 3764
0 0 4095
0 892 81
0 807 791
0 0 2292
0 0 3753
0 0 4095
0 2451 0
0 2421 541
0 2238 2197
0 1981 3700
0 2066 4095
0 3984 0
0 3966 0
0 3866 2191
0 3656 3591
0 3702 4073
0 4095 0
0 4095 0
0 4095 2349
0 4095 3678
0 4095 4037
954 180 229
929 0 838
919 0 2309
507 0 3765
750 0 4095
825 881 93
960 960 960
917 187 2512
519 0 3884
834 0 4095
0 2447 0
0 2642 781
0 2450 2413
0 2254 3825
0 2417 4095
0 3982 0
0 4082 140
0 3984 2434
0 3782 3721
0 3825 4074
0 4095 0
0 4095 180
0 4095 2623
0 4095 3794
0 4095 4048
2605 0 376
2595 0 1034
2543 0 2317
2667 0 3769
2878 0 4095
2561 981 211
2784 1062 1172
2727 17 2521
2846 0 3889
3054 0 4095
2283 2424 0
2491 2618 823
2636 2636 2636
2738 2497 3926
2945 2703 4095
1663 3971 0
1998 4070 171
2237 4052 2685
2070 3865 3830
2423 3901 4080
1600 4095 0
2120 4095 190
2445 4095 2892
2312 4095 3889
2282 4095 4062
4095 0 580
4095 0 1274
4095 0 2557
4095 0 3778
4095 0 4095
4095 1017 429
4095 1117 1414
4095 72 2754
4095 0 3898
4095 0 4095
4032 2606 0
4095 2794 1111
4095 2804 2862
4095 2443 3934
4095 2659 4095
3726 3944 0
3848 4048 211
3905 4030 2700
3917 3917 3917
3964 3947 4091
3725 4095 0
3858 4095 202
3913 4095 2905
3930 4095 3960
3921 4083 4079
4095 0 690
4095 0 1490
4095 0 2783
4095 0 3916
4095 0 4095
4095 1221 512
4095 1334 1626
4095 166 2970
4095 0 4001
4095 0 4095
4095 2824 0
4095 3007 1346
4095 3013 3071
4095 2720 4004
4095 2649 4095
4095 4062 0
4095 4095 685
4095 4082 2938
4095 3970 3975
4095 3943 4092
4095 4095 0
4095 4095 205
4095 4095 2907
4088 4095 3962
4095 4095 4095
