Postproduction/IWLTBAP - Humble/LUTs by IWLTBAP (3DL)/UTILITY/Panasonic V-Log to Rec.709/U-PANASONIC-V-LOG-V5-LTR.3dl
# Copyright: (C) Copyright 2010-2018 by IWLTBAP SAS
# Cannot be resold, shared or otherwise redistributed
# Website: https://luts.iwltbap.com
0 128 256 384 512 640 768 896 1023
0 0 0
0 0 0
0 0 256
0 0 1100
0 0 2058
0 0 3008
0 0 3840
0 0 4095
0 0 4095
0 0 0
0 0 0
0 0 241
0 0 1093
0 0 2053
0 0 3004
0 0 3837
0 0 4095
0 0 4095
0 448 0
0 421 0
0 348 202
0 139 1071
0 0 2039
0 0 2993
0 0 3826
0 0 4095
0 0 4095
0 1316 0
0 1302 0
0 1262 157
0 1142 1007
0 994 1999
0 523 2964
0 0 3803
0 0 4095
0 0 4095
0 2296 0
0 2287 0
0 2261 0
0 2187 1002
0 2044 1923
0 1931 2912
0 1739 3762
0 1704 4095
0 1840 4095
0 3267 0
0 3260 0
0 3240 0
0 3187 907
0 3090 1933
0 2940 2833
0 2874 3701
0 2899 4095
0 3017 4095
0 4095 0
0 4095 0
0 4093 0
0 4050 758
0 3974 1916
0 3861 2863
0 3725 3629
0 3720 4080
0 3779 4095
0 4095 0
0 4095 0
0 4095 0
0 4095 735
0 4095 1975
0 4095 2939
0 4095 3667
0 4095 4041
0 4095 4095
0 4095 0
0 4095 0
0 4095 0
0 4095 919
0 4095 2108
0 4095 3061
0 4095 3735
0 4095 4064
0 4095 4095
0 0 0
0 0 0
0 0 257
0 0 1101
0 0 2058
0 0 3008
0 0 3840
0 0 4095
0 0 4095
0 0 0
0 0 0
0 0 340
0 0 1228
0 0 2189
0 0 3136
0 0 3921
0 0 4095
0 0 4095
0 445 0
0 516 0
0 437 298
0 232 1204
0 0 2173
0 0 3123
0 0 3910
0 0 4095
0 0 4095
0 1314 0
0 1437 0
0 1393 262
0 1268 1138
0 1124 2130
0 743 3092
0 0 3884
0 0 4095
0 0 4095
0 2295 0
0 2423 0
0 2394 45
0 2316 1135
0 2171 2054
0 2062 3039
0 1908 3841
0 1903 4095
0 2066 4095
0 3266 0
0 3392 0
0 3369 0
0 3313 1057
0 3214 2066
0 3063 2959
0 3013 3779
0 3050 4095
0 3176 4095
0 4095 0
0 4095 0
0 4095 0
0 4095 937
0 4049 2065
0 3933 2997
0 3803 3711
0 3805 4095
0 3856 4095
0 4095 0
0 4095 0
0 4095 0
0 4095 978
0 4095 2137
0 4095 3078
0 4095 3749
0 4095 4076
0 4095 4095
0 4095 0
0 4095 0
0 4095 0
0 4095 1144
0 4095 2280
0 4095 3202
0 4095 3807
0 4095 4091
0 4095 4095
505 0 0
497 0 0
475 0 260
505 0 1103
463 0 2060
315 0 3009
0 0 3841
71 0 4095
262 0 4095
465 0 0
560 0 0
535 0 344
570 0 1231
529 0 2191
398 0 3137
197 0 3922
195 0 4095
442 0 4095
352 435 0
436 506 0
512 528 408
524 320 1340
461 0 2308
284 0 3253
0 0 3987
90 0 4095
362 0 4095
0 1309 0
0 1431 0
1 1520 373
0 1389 1271
0 1251 2264
0 881 3220
0 360 3960
0 0 4095
0 526 4095
0 2291 0
0 2420 0
0 2523 190
0 2441 1273
0 2295 2187
0 2188 3166
0 2063 3915
0 2103 4095
0 2256 4095
0 3264 0
0 3389 0
0 3495 0
0 3435 1201
0 3334 2201
0 3183 3087
0 3143 3852
0 3198 4095
0 3314 4095
0 4095 0
0 4095 0
0 4095 0
0 4095 1128
0 4095 2213
0 3996 3128
0 3874 3788
0 3873 4095
0 3926 4095
0 4095 0
0 4095 0
0 4095 0
0 4095 1189
0 4095 2303
0 4095 3217
0 4095 3820
0 4095 4095
0 4095 4095
0 4095 0
0 4095 0
0 4095 0
0 4095 1364
0 4095 2444
0 4095 3331
0 4095 3877
0 4095 4095
0 4095 4095
1430 0 0
1426 0 0
1414 0 370
1378 0 1108
1450 0 2063
1483 0 3012
1503 0 3843
1586 0 4095
1745 0 4095
1409 0 0
1549 0 0
1536 0 465
1499 0 1236
1568 0 2194
1605 0 3140
1631 0 3924
1730 0 4095
1882 0 4095
1349 504 0
1483 583 0
1606 597 528
1566 265 1346
1625 0 2312
1648 0 3256
1675 0 3989
1770 0 4095
1920 0 4095
1165 1293 0
1291 1416 0
1404 1503 387
1486 1498 1409
1529 1358 2400
1536 1028 3347
1557 583 4024
1659 556 4095
1811 900 4095
825 2282 0
960 2409 0
1080 2513 209
1150 2558 1412
1026 2410 2322
999 2305 3292
974 2217 3978
1093 2269 4095
1273 2439 4095
0 3256 0
0 3382 0
101 3487 0
60 3548 1354
0 3444 2338
0 3293 3213
0 3268 3913
0 3323 4095
0 3432 4095
0 4095 0
0 4095 0
0 4095 0
0 4095 1312
0 4095 2368
0 4039 3261
0 3928 3855
0 3933 4095
0 3974 4095
0 4095 0
0 4095 0
0 4095 0
0 4095 1400
0 4095 2464
0 4095 3345
0 4095 3889
0 4095 4095
0 4095 4095
0 4095 0
0 4095 0
0 4095 0
0 4095 1573
0 4095 2612
0 4095 3452
0 4095 3935
0 4095 4095
0 4095 4095
2471 0 0
2468 0 0
2460 0 500
2438 0 1254
2397 0 2069
2477 0 3016
2545 0 3847
2653 0 4095
2796 0 4095
2457 0 0
2600 0 37
2590 0 596
2567 0 1382
2525 0 2200
2604 0 3144
2677 0 3928
2788 0 4095
2934 0 4095
2418 553 0
2556 634 0
2685 650 668
2660 287 1490
2616 0 2319
2687 0 3261
2758 0 3993
2869 0 4095
3006 0 4095
2308 1400 0
2438 1521 0
2561 1603 530
2664 1592 1551
2618 1318 2406
2679 972 3352
2749 471 4028
2856 493 4095
2994 819 4095
2088 2264 0
2216 2391 0
2335 2494 241
2433 2539 1424
2508 2516 2460
2561 2414 3417
2629 2351 4038
2743 2437 4095
2876 2595 4095
1822 3244 0
1958 3369 0
2079 3474 0
2177 3534 1367
2252 3546 2479
2162 3395 3338
2233 3373 3974
2371 3431 4095
2529 3532 4095
1349 4095 0
1572 4095 0
1748 4095 0
1918 4095 1326
2033 4095 2520
1926 4076 3384
1834 3973 3921
2047 3973 4095
2255 4015 4095
1131 4095 0
1420 4095 0
1713 4095 0
1902 4095 1414
2090 4095 2631
1988 4095 3466
1910 4095 3947
1872 4095 4095
2123 4095 4095
1275 4095 0
1649 4095 0
1894 4095 0
2120 4095 1586
2281 4095 2773
2188 4095 3564
2123 4095 3993
2094 4095 4095
2086 4095 4095
3501 0 0
3499 0 115
3493 0 639
3477 0 1405
3448 0 2216
3405 0 3023
3493 0 3852
3605 0 4095
3739 0 4095
3491 0 0
3629 0 156
3622 0 746
3605 0 1533
3575 0 2347
3532 0 3151
3622 0 3933
3732 0 4095
3864 0 4095
3461 575 0
3594 672 57
3722 678 815
3703 288 1637
3673 0 2462
3629 0 3268
3711 0 3999
3819 0 4095
3932 0 4095
3381 1492 0
3510 1614 0
3632 1689 681
3736 1673 1697
3704 1398 2547
3659 887 3359
3737 268 4034
3829 403 4095
3928 712 4095
3236 2374 0
3361 2501 0
3479 2599 420
3578 2639 1574
3660 2613 2600
3612 2381 3424
3675 2316 4044
3755 2404 4095
3840 2564 4095
3004 3226 0
3128 3350 0
3244 3455 0
3343 3515 1385
3422 3526 2489
3476 3480 3455
3537 3465 4023
3617 3523 4095
3700 3614 4095
2825 4084 0
2975 4095 0
3109 4095 0
3232 4095 1345
3320 4095 2530
3389 4094 3500
3349 4001 3975
3450 4008 4095
3556 4039 4095
2785 4095 0
2959 4095 0
3125 4095 0
3253 4095 1433
3352 4095 2640
3428 4095 3577
3391 4095 4004
3376 4095 4095
3496 4095 4095
2904 4095 0
3093 4095 0
3248 4095 0
3370 4095 1603
3461 4095 2782
3526 4095 3664
3495 4095 4039
3482 4095 4095
3479 4095 4095
4095 0 0
4095 0 237
4095 0 793
4095 0 1559
4095 0 2363
4095 0 3163
4095 0 3858
4095 0 4095
4095 0 4095
4095 0 0
4095 0 283
4095 0 895
4095 0 1683
4095 0 2492
4095 0 3289
4095 0 3939
4095 0 4095
4095 0 4095
4095 596 0
4095 707 184
4095 715 965
4095 276 1783
4095 0 2604
4095 0 3399
4095 0 4004
4095 0 4095
4095 0 4095
4095 1581 0
4095 1704 0
4095 1778 835
4095 1762 1840
4095 1482 2686
4095 981 3486
4095 153 4038
4095 323 4095
4095 623 4095
4095 2480 0
4095 2608 0
4095 2703 594
4095 2742 1719
4095 2715 2736
4095 2490 3537
4095 2287 4049
4095 2379 4095
4095 2543 4095
4018 3337 0
4086 3462 0
4095 3560 127
4095 3616 1539
4095 3613 2629
4095 3563 3561
4095 3449 4028
4095 3509 4095
4095 3602 4095
3806 4067 0
3885 4095 0
3952 4095 0
3994 4095 1362
4019 4095 2538
4019 4082 3505
4033 4034 4027
4057 4037 4095
4090 4070 4095
3754 4095 0
3845 4095 0
3914 4095 0
3967 4095 1448
3990 4095 2647
4001 4095 3581
4018 4095 4047
4007 4095 4095
4050 4095 4095
3805 4095 0
3890 4095 0
3963 4095 0
4004 4095 1615
4028 4095 2789
4029 4095 3668
4049 4095 4081
4040 4095 4095
4038 4095 4095
4095 0 27
4095 0 341
4095 0 929
4095 0 1702
4095 0 2505
4095 0 3299
4095 0 3946
4095 0 4095
4095 0 4095
4095 0 0
4095 0 383
4095 0 1034
4095 0 1825
4095 0 2631
4095 0 3419
4095 0 4021
4095 0 4095
4095 0 4095
4095 688 0
4095 808 277
4095 822 1099
4095 402 1919
4095 0 2739
4095 0 3525
4095 0 4071
4095 0 4095
4095 0 4095
4095 1694 0
4095 1824 6
4095 1894 972
4095 1880 1975
4095 1606 2817
4095 1146 3598
4095 560 4095
4095 279 4095
4095 577 4095
4095 2602 0
4095 2731 0
4095 2824 743
4095 2859 1856
4095 2836 2867
4095 2623 3638
4095 2453 4093
4095 2367 4095
4095 2534 4095
4095 3458 0
4095 3579 0
4095 3674 338
4095 3716 1687
4095 3702 2766
4095 3648 3655
4095 3548 4071
4095 3503 4095
4095 3597 4095
4095 4095 0
4095 4095 0
4095 4095 0
4095 4095 1537
4095 4095 2689
4095 4095 3605
4095 4064 4063
4095 4033 4095
4095 4066 4095
4095 4095 0
4095 4095 0
4095 4095 0
4095 4095 1455
4095 4095 2651
4095 4095 3583
4095 4095 4048
4095 4095 4095
4095 4095 4095
4095 4095 0
4095 4095 0
4095 4095 0
4095 4095 1621
4095 4095 2791
4095 4095 3669
4095 4095 4082
4095 4095 4095
4095 4095 4095
4095 0 79
4095 0 423
4095 0 1058
4095 0 1839
4095 0 2640
4095 0 3427
4095 0 4026
4095 0 4095
4095 0 4095
4095 0 30
4095 0 469
4095 0 1162
4095 0 1959
4095 0 2765
4095 0 3544
4095 0 4086
4095 0 4095
4095 0 4095
4095 838 0
4095 962 356
4095 972 1224
4095 595 2050
4095 0 2869
4095 0 3635
4095 0 4095
4095 0 4095
4095 0 4095
4095 1838 0
4095 1963 86
4095 2030 1098
4095 2015 2104
4095 1747 2946
4095 1339 3697
4095 931 4095
4095 661 4095
4095 563 4095
4095 2739 0
4095 2868 0
4095 2955 881
4095 2990 1986
4095 2963 2992
4095 2762 3727
4095 2616 4095
4095 2549 4095
4095 2531 4095
4095 3586 0
4095 3705 0
4095 3784 525
4095 3813 1829
4095 3787 2896
4095 3728 3736
4095 3642 4095
4095 3606 4095
4095 3595 4095
4095 4095 0
4095 4095 0
4095 4095 73
4095 4095 1704
4095 4095 2829
4095 4095 3692
4095 4095 4095
4095 4073 4095
4095 4065 4095
4095 4095 0
4095 4095 0
4095 4095 0
4095 4095 1641
4095 4095 2800
4095 4095 3675
4095 4095 4086
4095 4095 4095
4095 4095 4095
4095 4095 0
4095 4095 0
4095 4095 0
4095 4095 1623
4095 4095 2792
4095 4095 3670
4095 4095 4082
4095 4095 4095
4095 4095 4095
