Postproduction/IWLTBAP - Humble/LUTs by IWLTBAP (3DL)/UTILITY/Panasonic V-Log to Rec.709/U-PANASONIC-V-LOG-HDR-LTR.3dl
# Copyright: (C) Copyright 2010-2018 by IWLTBAP SAS
# Cannot be resold, shared or otherwise redistributed
# Website: https://luts.iwltbap.com
0 256 512 768 1023
1 1 1
15 2 538
295 200 1741
1021 595 3585
1204 619 4017
44 550 73
92 541 537
349 622 1641
877 588 3703
1094 615 4019
415 1715 605
458 1702 771
579 1682 1653
840 1778 3385
810 1807 3958
845 3603 1566
849 3603 1599
853 3599 1917
669 3656 3609
143 3754 4045
784 3957 1776
781 3957 1801
740 3957 2066
418 4001 3617
0 4086 4086
571 0 17
569 41 479
690 231 1609
1155 625 3551
1311 651 4012
689 605 63
545 545 554
609 525 1800
1093 737 3597
1259 761 4014
372 1732 400
571 1733 755
701 1696 1663
839 1767 3438
803 1778 3986
842 3607 1533
845 3607 1570
853 3602 1901
667 3660 3612
138 3756 4047
786 3957 1751
784 3957 1779
743 3957 2050
419 4001 3616
0 4086 4086
1880 196 319
1856 287 594
1823 385 1608
1920 785 3317
2035 875 3905
1990 325 169
1880 498 596
1857 550 1647
1922 893 3350
2028 955 3917
1986 1834 449
2132 1991 688
1688 1685 1670
1738 1589 3729
1811 1567 4000
863 3663 794
835 3654 892
1469 3641 1859
1317 3675 3627
597 3776 4066
1002 3949 1432
1002 3949 1471
1322 3962 1965
1035 4009 3613
484 4095 4086
3644 667 1161
3638 689 1227
3607 807 1712
3655 828 3405
3792 807 3874
3685 643 1094
3671 670 1171
3628 809 1701
3674 830 3423
3808 806 3886
3828 1273 549
3844 1230 543
3644 1580 1718
3738 1512 3494
3875 1439 3941
3853 3684 796
3860 3693 796
3925 3796 1476
3635 3643 3630
3705 3636 4070
3537 4035 1808
3535 4035 1808
3529 4042 2001
3422 4088 3621
3276 4095 4095
3907 749 1390
3903 762 1435
3880 829 1826
3896 992 3364
3978 1078 3912
3910 734 1339
3906 751 1395
3880 828 1811
3892 1042 3366
3977 1114 3917
3926 1277 983
3922 1293 1067
3874 1556 1817
3882 1513 3420
3988 1521 3949
3961 3679 2065
3962 3682 2067
3970 3731 2289
4048 3621 3605
4086 3596 4067
4093 4085 3069
4093 4085 3070
4095 4087 3207
4095 4092 3624
4095 4095 4095
