Postproduction/IWLTBAP - Humble/LUTs by IWLTBAP (3DL)/UTILITY/Panasonic V-Log to Rec.709/U-PANASONIC-V-LOG-V2-LTR.3dl
# Copyright: (C) Copyright 2010-2018 by IWLTBAP SAS
# Cannot be resold, shared or otherwise redistributed
# Website: https://luts.iwltbap.com
0 64 128 192 256 320 384 448 512 576 640 704 768 832 896 960 1023
0 0 0
0 0 69
0 0 176
0 0 343
0 0 592
0 4 924
0 13 1330
0 24 1789
0 35 2271
0 46 2745
0 56 3175
0 64 3534
0 70 3802
0 73 3969
0 75 4044
0 75 4063
0 76 4074
0 99 4
0 101 89
0 103 196
0 107 364
0 112 611
0 120 944
0 129 1350
0 140 1808
0 150 2291
0 161 2764
0 171 3195
0 179 3555
0 185 3822
0 189 3989
0 190 4064
0 191 4078
0 191 4079
0 242 28
0 244 114
0 247 221
0 250 388
0 256 636
0 263 968
0 273 1374
0 283 1833
0 294 2316
0 305 2789
0 314 3220
0 323 3579
0 329 3847
0 332 4013
0 334 4077
0 334 4079
0 334 4079
0 467 67
0 468 152
0 471 259
0 475 426
0 481 675
0 488 1007
0 497 1413
0 508 1872
0 519 2354
0 529 2827
0 539 3258
0 547 3618
0 554 3885
0 557 4048
0 559 4079
0 559 4079
0 560 4079
0 800 124
0 802 209
0 804 316
0 808 484
0 813 732
0 821 1064
0 830 1470
0 841 1929
0 851 2411
0 862 2885
0 872 3315
0 880 3675
0 886 3943
0 890 4072
0 891 4079
0 892 4079
0 892 4079
0 1246 200
0 1248 286
0 1250 393
0 1254 561
0 1259 809
0 1266 1140
0 1276 1547
0 1286 2005
0 1297 2488
0 1308 2961
0 1318 3392
0 1326 3752
0 1332 4010
0 1335 4079
0 1337 4079
0 1337 4079
0 1338 4079
0 1790 293
0 1792 380
0 1794 487
0 1798 654
0 1804 902
0 1811 1234
0 1820 1640
0 1831 2099
0 1842 2581
0 1853 3055
0 1862 3485
0 1870 3846
0 1876 4058
0 1880 4079
0 1882 4079
0 1882 4079
0 1882 4079
0 2405 399
0 2407 485
0 2410 592
0 2414 759
0 2419 1008
0 2427 1340
0 2436 1746
0 2446 2204
0 2457 2687
0 2468 3160
0 2478 3591
0 2486 3942
0 2492 4076
0 2496 4079
0 2497 4079
0 2498 4079
0 2498 4079
0 3052 510
0 3055 596
0 3057 703
0 3061 871
0 3067 1118
0 3074 1451
0 3083 1857
0 3093 2315
0 3104 2798
0 3115 3271
0 3125 3703
0 3133 4022
0 3139 4079
0 3143 4079
0 3145 4079
0 3145 4079
0 3145 4079
0 3688 619
0 3690 705
0 3692 812
0 3696 980
0 3702 1228
0 3709 1560
0 3718 1966
0 3729 2425
0 3740 2907
0 3750 3380
0 3760 3811
0 3768 4056
0 3774 4079
0 3777 4079
0 3779 4079
0 3779 4079
0 3779 4079
0 4036 718
0 4037 804
0 4038 912
0 4040 1079
0 4042 1327
0 4046 1659
0 4051 2065
0 4056 2524
0 4061 3006
0 4066 3480
0 4071 3900
0 4075 4076
0 4078 4079
0 4079 4079
0 4079 4079
0 4079 4079
0 4079 4079
0 4079 801
0 4079 887
0 4079 994
0 4079 1162
0 4079 1410
0 4079 1742
0 4079 2148
0 4079 2607
0 4079 3089
0 4079 3562
0 4079 3964
0 4079 4079
0 4079 4079
0 4079 4079
0 4079 4079
0 4079 4079
0 4079 4079
0 4079 862
0 4079 948
0 4079 1056
0 4079 1223
0 4079 1471
0 4079 1803
0 4079 2209
0 4079 2668
0 4079 3151
0 4079 3624
0 4079 4001
0 4079 4079
0 4079 4079
0 4079 4079
0 4079 4079
0 4079 4079
0 4079 4079
0 4079 901
0 4079 987
0 4079 1094
0 4079 1262
0 4079 1509
0 4079 1841
0 4079 2248
0 4079 2706
0 4079 3189
0 4079 3662
0 4079 3983
0 4079 4079
0 4079 4079
0 4079 4079
0 4079 4079
0 4079 4079
0 4079 4079
0 4079 918
0 4079 1004
0 4079 1111
0 4079 1279
0 4079 1527
0 4079 1859
0 4079 2265
0 4079 2724
0 4079 3206
0 4079 3680
0 4079 3993
0 4079 4079
0 4079 4079
0 4079 4079
0 4079 4079
0 4079 4079
0 4079 4079
0 4079 922
0 4079 1009
0 4079 1116
0 4079 1283
0 4079 1531
0 4079 1863
0 4079 2269
0 4079 2728
0 4079 3211
0 4079 3684
0 4079 3995
0 4079 4079
0 4079 4079
0 4079 4079
0 4079 4079
0 4079 4079
0 4079 4079
0 4079 925
0 4079 1011
0 4079 1118
0 4079 1286
0 4079 1534
0 4079 1866
0 4079 2272
0 4079 2731
0 4079 3213
0 4079 3686
0 4079 3996
0 4079 4079
0 4079 4079
0 4079 4079
0 4079 4079
0 4079 4079
0 4079 4079
89 0 0
88 0 50
87 0 157
86 0 324
83 0 572
80 0 904
77 0 1310
72 0 1769
67 4 2251
63 14 2725
59 24 3156
55 32 3515
53 38 3782
51 42 3949
50 44 4024
50 44 4043
50 44 4054
70 67 0
69 69 69
68 72 176
67 76 344
64 82 592
61 89 924
57 98 1330
53 108 1789
49 119 2271
44 130 2745
41 140 3176
38 148 3535
35 154 3802
34 158 3969
33 160 4044
33 160 4064
33 160 4073
47 211 9
47 213 94
46 216 201
44 220 368
42 225 617
39 232 949
35 242 1355
31 252 1813
27 263 2296
23 273 2769
19 283 3200
16 291 3559
14 298 3827
12 301 3993
12 303 4068
12 303 4078
11 304 4079
13 436 46
12 438 133
12 440 240
10 444 407
8 449 655
5 457 987
3 466 1394
3 476 1852
2 487 2334
1 498 2808
0 508 3239
0 516 3598
0 522 3866
0 526 4031
0 527 4079
0 528 4079
0 528 4079
0 768 104
0 770 190
0 773 297
0 776 464
0 782 712
0 790 1044
0 799 1450
0 809 1909
0 820 2391
0 831 2865
0 841 3296
0 849 3655
0 855 3923
0 858 4067
0 860 4079
0 861 4079
0 861 4079
0 1214 181
0 1216 266
0 1218 373
0 1222 541
0 1228 789
0 1235 1121
0 1245 1527
0 1255 1986
0 1266 2468
0 1277 2941
0 1286 3372
0 1294 3732
0 1300 3994
0 1304 4078
0 1306 4079
0 1307 4079
0 1307 4079
0 1759 274
0 1761 360
0 1763 467
0 1767 634
0 1773 882
0 1780 1214
0 1789 1620
0 1800 2079
0 1811 2561
0 1821 3035
0 1831 3466
0 1839 3826
0 1845 4052
0 1849 4079
0 1851 4079
0 1851 4079
0 1851 4079
0 2374 379
0 2376 465
0 2378 572
0 2382 740
0 2388 988
0 2396 1320
0 2405 1726
0 2415 2185
0 2426 2667
0 2436 3140
0 2446 3571
0 2455 3927
0 2461 4075
0 2464 4079
0 2466 4079
0 2466 4079
0 2467 4079
0 3021 491
0 3024 576
0 3026 683
0 3030 851
0 3035 1099
0 3043 1431
0 3052 1837
0 3062 2296
0 3073 2778
0 3084 3252
0 3094 3683
0 3102 4011
0 3108 4079
0 3112 4079
0 3113 4079
0 3114 4079
0 3114 4079
0 3657 600
0 3659 685
0 3661 792
0 3665 960
0 3671 1208
0 3678 1540
0 3687 1946
0 3698 2405
0 3709 2887
0 3719 3361
0 3729 3792
0 3737 4052
0 3743 4079
0 3747 4079
0 3749 4079
0 3749 4079
0 3749 4079
0 4020 699
0 4021 785
0 4022 892
0 4024 1059
0 4027 1307
0 4031 1639
0 4035 2045
0 4040 2504
0 4046 2986
0 4051 3460
0 4056 3885
0 4060 4074
0 4063 4079
0 4065 4079
0 4066 4079
0 4067 4079
0 4067 4079
0 4079 782
0 4079 868
0 4079 975
0 4079 1142
0 4079 1390
0 4079 1722
0 4079 2128
0 4079 2587
0 4079 3069
0 4079 3543
0 4079 3950
0 4079 4079
0 4079 4079
0 4079 4079
0 4079 4079
0 4079 4079
0 4079 4079
0 4079 843
0 4079 929
0 4079 1036
0 4079 1203
0 4079 1451
0 4079 1784
0 4079 2190
0 4079 2648
0 4079 3131
0 4079 3604
0 4079 3987
0 4079 4079
0 4079 4079
0 4079 4079
0 4079 4079
0 4079 4079
0 4079 4079
0 4079 881
0 4079 967
0 4079 1074
0 4079 1242
0 4079 1489
0 4079 1822
0 4079 2228
0 4079 2687
0 4079 3169
0 4079 3643
0 4079 3974
0 4079 4078
0 4079 4079
0 4079 4079
0 4079 4079
0 4079 4079
0 4079 4079
0 4079 898
0 4079 985
0 4079 1091
0 4079 1259
0 4079 1507
0 4079 1839
0 4079 2245
0 4079 2704
0 4079 3186
0 4079 3660
0 4079 3983
0 4079 4079
0 4079 4079
0 4079 4079
0 4079 4079
0 4079 4079
0 4079 4079
0 4079 903
0 4079 989
0 4079 1096
0 4079 1263
0 4079 1511
0 4079 1843
0 4079 2250
0 4079 2708
0 4079 3191
0 4079 3664
0 4079 3985
0 4079 4079
0 4079 4079
0 4079 4079
0 4079 4079
0 4079 4079
0 4079 4079
0 4079 906
0 4079 992
0 4079 1099
0 4079 1266
0 4079 1514
0 4079 1846
0 4079 2252
0 4079 2711
0 4079 3193
0 4079 3667
0 4079 3987
0 4079 4079
0 4079 4079
0 4079 4079
0 4079 4079
0 4079 4079
0 4079 4079
220 0 0
219 0 26
218 0 132
216 0 299
214 0 547
211 0 880
207 0 1286
203 0 1744
198 0 2227
194 0 2700
190 1 3131
187 2 3490
184 2 3758
183 3 3924
182 5 4000
182 5 4019
182 5 4030
201 30 0
201 32 45
200 34 152
198 38 320
196 43 567
193 50 900
189 59 1306
185 70 1764
180 80 2247
176 91 2720
172 101 3151
168 109 3511
166 115 3777
164 119 3944
164 121 4020
164 121 4039
163 121 4050
178 172 0
177 174 69
177 176 176
175 180 344
173 186 592
169 194 924
165 203 1330
161 213 1789
157 224 2271
152 234 2745
148 244 3176
145 252 3535
142 258 3802
141 263 3969
140 264 4044
140 265 4063
140 265 4074
143 397 22
141 399 108
140 401 215
139 405 382
137 410 630
133 418 963
129 427 1369
125 438 1827
121 449 2310
116 459 2783
112 469 3214
109 477 3573
106 483 3841
105 487 4007
104 489 4074
104 489 4079
104 489 4079
89 729 79
88 731 165
87 734 272
85 737 440
83 743 687
80 751 1020
76 760 1426
72 770 1884
68 781 2367
64 792 2840
60 802 3271
57 810 3631
55 816 3898
53 820 4056
52 821 4079
52 822 4079
52 822 4079
23 1175 156
22 1177 242
21 1179 349
20 1183 516
18 1189 764
15 1196 1096
12 1206 1503
10 1216 1961
9 1227 2443
8 1238 2917
7 1247 3348
6 1255 3708
5 1261 3973
5 1265 4076
4 1267 4079
4 1267 4079
4 1267 4079
0 1720 249
0 1722 335
0 1724 442
0 1728 610
0 1734 858
0 1741 1190
0 1750 1596
0 1761 2055
0 1772 2537
0 1782 3010
0 1792 3441
0 1800 3801
0 1806 4042
0 1810 4079
0 1812 4079
0 1812 4079
0 1812 4079
0 2335 355
0 2337 441
0 2340 548
0 2343 715
0 2349 963
0 2357 1295
0 2366 1701
0 2376 2160
0 2387 2643
0 2398 3116
0 2408 3547
0 2416 3904
0 2422 4071
0 2426 4079
0 2427 4079
0 2428 4079
0 2428 4079
0 2983 466
0 2985 552
0 2987 659
0 2991 826
0 2997 1074
0 3004 1407
0 3013 1813
0 3024 2271
0 3034 2754
0 3045 3227
0 3055 3658
0 3063 3995
0 3069 4079
0 3073 4079
0 3075 4079
0 3075 4079
0 3075 4079
0 3618 575
0 3620 661
0 3622 768
0 3626 935
0 3632 1183
0 3639 1515
0 3648 1922
0 3659 2380
0 3670 2863
0 3681 3336
0 3690 3767
0 3698 4047
0 3704 4079
0 3708 4079
0 3710 4079
0 3710 4079
0 3711 4079
0 4001 674
0 4002 760
0 4004 867
0 4005 1035
0 4008 1283
0 4012 1615
0 4016 2021
0 4021 2479
0 4027 2962
0 4032 3435
0 4037 3864
0 4041 4069
0 4044 4079
0 4046 4079
0 4047 4079
0 4047 4079
0 4048 4079
0 4079 757
0 4079 843
0 4079 950
0 4079 1118
0 4079 1365
0 4079 1697
0 4079 2104
0 4079 2562
0 4079 3045
0 4079 3518
0 4079 3931
0 4079 4079
0 4079 4079
0 4079 4079
0 4079 4079
0 4079 4079
0 4079 4079
0 4079 818
0 4079 905
0 4079 1012
0 4079 1179
0 4079 1427
0 4079 1759
0 4079 2165
0 4079 2624
0 4079 3106
0 4079 3580
0 4079 3969
0 4079 4079
0 4079 4079
0 4079 4079
0 4079 4079
0 4079 4079
0 4079 4079
0 4079 857
0 4079 943
0 4079 1050
0 4079 1217
0 4079 1465
0 4079 1797
0 4079 2203
0 4079 2662
0 4079 3144
0 4079 3618
0 4079 3962
0 4079 4077
0 4079 4079
0 4079 4079
0 4079 4079
0 4079 4079
0 4079 4079
0 4079 874
0 4079 960
0 4079 1067
0 4079 1234
0 4079 1482
0 4079 1815
0 4079 2221
0 4079 2679
0 4079 3162
0 4079 3636
0 4079 3971
0 4079 4079
0 4079 4079
0 4079 4079
0 4079 4079
0 4079 4079
0 4079 4079
0 4079 878
0 4079 965
0 4079 1072
0 4079 1239
0 4079 1487
0 4079 1819
0 4079 2225
0 4079 2684
0 4079 3166
0 4079 3640
0 4079 3974
0 4079 4079
0 4079 4079
0 4079 4079
0 4079 4079
0 4079 4079
0 4079 4079
0 4079 881
0 4079 967
0 4079 1074
0 4079 1241
0 4079 1489
0 4079 1822
0 4079 2228
0 4079 2686
0 4079 3169
0 4079 3642
0 4079 3975
0 4079 4079
0 4079 4079
0 4079 4079
0 4079 4079
0 4079 4079
0 4079 4079
425 0 0
425 0 1
424 0 94
422 0 261
420 0 509
417 0 841
413 0 1247
408 0 1706
404 0 2189
399 0 2662
395 0 3093
392 0 3452
390 0 3719
388 0 3886
387 0 3962
387 0 3981
387 0 3992
407 0 0
406 0 9
405 1 114
403 2 281
401 3 529
398 4 861
394 5 1267
390 12 1726
385 22 2209
381 32 2682
377 41 3113
373 49 3472
371 55 3739
369 58 3906
369 60 3981
369 60 4000
