Postproduction/IWLTBAP - Humble/LUTs by IWLTBAP (3DL)/UTILITY/Panasonic V-Log to Rec.709/U-PANASONIC-V-LOG-V3-LTR.3dl
# Copyright: (C) Copyright 2010-2018 by IWLTBAP SAS
# Cannot be resold, shared or otherwise redistributed
# Website: https://luts.iwltbap.com
0 64 128 192 256 320 384 448 512 576 640 704 768 832 896 960 1023
60 58 53
60 58 66
60 58 82
54 63 156
35 71 426
16 60 821
12 17 1224
14 0 1590
6 0 1919
0 12 2220
0 181 2524
0 299 2647
0 299 2660
0 299 2673
0 299 2686
0 299 2699
0 299 2712
60 71 53
60 71 66
60 71 82
54 76 156
35 84 426
16 73 821
12 31 1224
14 13 1590
6 13 1919
0 25 2220
0 194 2524
0 312 2647
0 312 2660
0 312 2673
0 312 2686
0 312 2699
0 312 2712
61 86 53
61 86 66
61 86 82
55 92 153
36 101 419
16 92 814
11 52 1222
13 34 1594
6 38 1927
0 60 2229
0 228 2532
0 344 2655
0 344 2668
0 344 2681
0 344 2694
0 344 2707
0 344 2720
70 140 60
70 140 73
70 140 87
64 142 146
44 159 364
15 175 748
1 174 1201
1 166 1630
1 194 2006
0 301 2328
0 479 2625
0 567 2743
0 567 2756
0 567 2769
0 567 2783
0 567 2796
0 567 2809
82 335 79
82 335 92
82 335 105
76 329 161
41 357 383
3 403 772
0 446 1257
0 485 1726
0 544 2132
0 642 2464
0 779 2752
0 849 2868
0 849 2881
0 849 2894
0 849 2907
0 849 2920
0 849 2933
104 692 94
104 692 107
104 692 120
103 690 166
44 720 428
1 779 843
0 842 1360
0 900 1864
0 966 2293
0 1054 2638
0 1166 2921
0 1222 3033
0 1222 3046
0 1222 3059
0 1222 3072
0 1222 3085
0 1222 3098
248 1168 78
248 1168 91
248 1168 104
247 1168 123
162 1203 443
16 1271 921
0 1345 1476
0 1414 2014
0 1481 2473
0 1558 2832
0 1651 3112
0 1697 3224
0 1697 3237
0 1697 3250
0 1697 3263
0 1697 3276
0 1697 3289
568 1705 50
568 1705 63
568 1705 76
568 1705 89
520 1734 360
328 1816 971
100 1899 1576
8 1971 2145
0 2034 2630
0 2096 3005
9 2164 3284
18 2198 3401
18 2198 3414
18 2198 3427
18 2198 3440
18 2198 3453
18 2198 3466
952 2247 113
952 2247 126
952 2247 139
952 2247 152
947 2251 203
819 2339 971
638 2429 1644
446 2503 2240
320 2566 2748
318 2621 3143
410 2676 3428
488 2705 3556
488 2705 3569
488 2705 3582
488 2705 3595
488 2705 3608
488 2705 3621
1383 2757 378
1383 2757 391
1383 2757 404
1383 2757 417
1383 2757 430
1331 2810 894
1211 2911 1680
1109 2988 2309
1047 3050 2837
1037 3099 3248
1083 3142 3539
1119 3166 3681
1119 3166 3694
1119 3166 3707
1119 3166 3720
1119 3166 3733
1119 3166 3746
1799 3220 741
1799 3220 754
1799 3220 767
1799 3220 780
1799 3220 793
1790 3230 897
1693 3332 1699
1611 3413 2354
1555 3476 2900
1540 3523 3322
1567 3561 3619
1590 3582 3777
1590 3582 3790
1590 3582 3803
1590 3582 3816
1590 3582 3829
1590 3582 3842
2038 3440 969
2038 3440 983
2038 3440 996
2038 3440 1009
2038 3440 1022
2038 3440 1035
1974 3522 1676
1905 3608 2367
1860 3673 2922
1850 3720 3352
1876 3756 3653
1899 3777 3822
1899 3777 3835
1899 3777 3848
1899 3777 3862
1899 3777 3874
1899 3777 3888
2038 3453 970
2038 3453 983
2038 3453 996
2038 3453 1009
2038 3453 1022
2038 3453 1035
1974 3535 1676
1905 3621 2367
1861 3686 2922
1850 3734 3352
1876 3769 3653
1899 3790 3822
1899 3790 3835
1899 3790 3848
1899 3790 3862
1899 3790 3874
1899 3790 3888
2038 3466 970
2038 3466 983
2038 3466 996
2038 3466 1009
2038 3466 1022
2038 3466 1035
1974 3548 1676
1905 3634 2367
1861 3699 2922
1850 3747 3352
1876 3782 3653
1899 3803 3822
1899 3803 3835
1899 3803 3848
1899 3803 3862
1899 3803 3874
1899 3803 3888
2038 3479 970
2038 3479 983
2038 3479 996
2038 3479 1009
2038 3479 1022
2038 3479 1035
1974 3561 1676
1905 3647 2367
1861 3712 2922
1850 3760 3352
1876 3795 3653
1899 3816 3822
1899 3816 3835
1899 3816 3848
1899 3816 3862
1899 3816 3874
1899 3816 3888
2038 3492 970
2038 3492 983
2038 3492 996
2038 3492 1009
2038 3492 1022
2038 3492 1035
1974 3574 1676
1905 3660 2367
1861 3725 2922
1850 3773 3352
1876 3808 3653
1899 3829 3822
1899 3829 3835
1899 3829 3848
1899 3829 3862
1899 3829 3874
1899 3829 3888
2038 3505 970
2038 3505 983
2038 3505 996
2038 3505 1009
2038 3505 1022
2038 3505 1035
1974 3587 1676
1905 3674 2367
1861 3738 2922
1850 3786 3352
1876 3822 3653
1899 3842 3822
1899 3842 3835
1899 3842 3848
1899 3842 3862
1899 3842 3874
1899 3842 3888
73 58 53
73 58 66
73 58 82
67 63 156
48 71 426
30 60 821
25 17 1224
27 0 1590
19 0 1919
13 12 2220
13 181 2524
13 299 2647
13 299 2660
13 299 2673
13 299 2686
13 299 2699
13 299 2712
73 71 53
73 71 66
73 71 82
67 76 156
48 84 426
30 73 821
25 31 1224
27 13 1590
19 13 1919
13 25 2220
13 194 2524
13 312 2647
13 312 2660
13 312 2673
13 312 2686
13 312 2699
13 312 2712
74 86 53
74 86 66
74 86 82
68 92 153
49 101 419
29 92 814
24 52 1222
26 34 1594
19 38 1927
13 60 2229
13 228 2532
13 344 2655
13 344 2668
13 344 2681
13 344 2694
13 344 2707
13 344 2720
83 140 60
83 140 73
83 140 87
77 142 146
57 159 364
28 175 748
14 174 1201
14 166 1630
14 194 2006
13 301 2328
13 479 2625
13 567 2743
13 567 2756
13 567 2769
13 567 2783
13 567 2796
13 567 2809
95 335 79
95 335 92
95 335 105
89 329 161
54 357 383
16 403 772
13 446 1257
13 485 1726
13 544 2132
13 642 2464
13 779 2752
13 849 2868
13 849 2881
13 849 2894
13 849 2907
13 849 2920
13 849 2933
117 692 94
117 692 107
117 692 120
116 690 166
57 720 428
14 779 843
13 842 1360
13 900 1864
13 966 2293
13 1054 2638
13 1166 2921
13 1222 3033
13 1222 3046
13 1222 3059
13 1222 3072
13 1222 3085
13 1222 3098
261 1168 78
261 1168 91
261 1168 104
260 1168 123
175 1203 443
29 1271 921
13 1345 1476
13 1414 2014
13 1481 2473
13 1558 2832
13 1651 3112
13 1697 3224
13 1697 3237
13 1697 3250
13 1697 3263
13 1697 3276
13 1697 3289
581 1705 50
581 1705 63
581 1705 76
581 1705 89
533 1734 360
341 1816 971
113 1899 1576
21 1971 2145
13 2034 2630
13 2096 3005
22 2164 3284
31 2198 3401
31 2198 3414
31 2198 3427
31 2198 3440
31 2198 3453
31 2198 3466
965 2247 113
965 2247 126
965 2247 139
965 2247 152
961 2251 203
832 2339 971
651 2429 1644
459 2503 2240
333 2566 2748
331 2621 3143
423 2676 3428
501 2705 3556
501 2705 3569
501 2705 3582
501 2705 3595
501 2705 3608
501 2705 3621
1397 2757 378
1397 2757 391
1397 2757 404
1397 2757 417
1397 2757 430
1344 2810 894
1224 2911 1680
1122 2988 2309
1060 3050 2837
1050 3099 3248
1096 3142 3539
1132 3166 3681
1132 3166 3694
1132 3166 3707
1132 3166 3720
1132 3166 3733
1132 3166 3746
1812 3220 741
1812 3220 754
1812 3220 767
1812 3220 780
1812 3220 793
1803 3230 897
1707 3332 1699
1624 3413 2354
1568 3476 2900
1553 3523 3322
1580 3561 3619
1603 3582 3777
1603 3582 3790
1603 3582 3803
1603 3582 3816
1603 3582 3829
1603 3582 3842
2051 3440 969
2051 3440 983
2051 3440 996
2051 3440 1009
2051 3440 1022
2051 3440 1035
1987 3522 1676
1918 3608 2367
1874 3673 2922
1863 3720 3352
1889 3756 3653
1912 3777 3822
1912 3777 3835
1912 3777 3848
1912 3777 3862
1912 3777 3874
1912 3777 3888
2051 3453 970
2051 3453 983
2051 3453 996
2051 3453 1009
2051 3453 1022
2051 3453 1035
1987 3535 1676
1918 3621 2367
1874 3686 2922
1863 3734 3352
1889 3769 3653
1912 3790 3822
1912 3790 3835
1912 3790 3848
1912 3790 3862
1912 3790 3874
1912 3790 3888
2051 3466 970
2051 3466 983
2051 3466 996
2051 3466 1009
2051 3466 1022
2051 3466 1035
1987 3548 1676
1918 3634 2367
1874 3699 2922
1863 3747 3352
1889 3782 3653
1912 3803 3822
1912 3803 3835
1912 3803 3848
1912 3803 3862
1912 3803 3874
1912 3803 3888
2051 3479 970
2051 3479 983
2051 3479 996
2051 3479 1009
2051 3479 1022
2051 3479 1035
1987 3561 1676
1918 3647 2367
1874 3712 2922
1863 3760 3352
1889 3795 3653
1912 3816 3822
1912 3816 3835
1912 3816 3848
1912 3816 3862
1912 3816 3874
1912 3816 3888
2051 3492 970
2051 3492 983
2051 3492 996
2051 3492 1009
2051 3492 1022
2051 3492 1035
1987 3574 1676
1918 3660 2367
1874 3725 2922
1863 3773 3352
1889 3808 3653
1912 3829 3822
1912 3829 3835
1912 3829 3848
1912 3829 3862
1912 3829 3874
1912 3829 3888
2051 3505 970
2051 3505 983
2051 3505 996
2051 3505 1009
2051 3505 1022
2051 3505 1035
1987 3587 1676
1918 3674 2367
1874 3738 2922
1863 3786 3352
1889 3822 3653
1912 3842 3822
1912 3842 3835
1912 3842 3848
1912 3842 3862
1912 3842 3874
1912 3842 3888
91 59 53
91 59 66
93 59 82
89 64 155
69 72 422
49 62 816
44 18 1223
49 0 1594
45 0 1926
41 11 2228
43 181 2532
44 299 2655
44 299 2668
44 299 2681
44 299 2694
44 299 2707
44 299 2720
91 72 53
91 72 66
93 72 82
89 77 155
69 85 422
49 75 816
44 31 1223
49 13 1594
45 13 1926
41 24 2228
43 194 2532
44 312 2655
44 312 2668
44 312 2681
44 312 2694
44 312 2707
44 312 2720
90 87 53
90 87 66
91 87 82
85 92 153
66 101 419
47 92 814
41 51 1224
45 33 1596
38 35 1930
33 55 2232
35 224 2536
36 340 2658
36 340 2671
36 340 2684
36 340 2697
36 340 2710
36 340 2723
98 140 60
98 140 73
98 140 87
92 142 146
72 159 364
43 174 748
28 172 1202
28 163 1630
28 191 2006
27 298 2328
28 476 2625
28 564 2743
28 564 2756
28 564 2770
28 564 2783
28 564 2796
28 564 2809
108 335 79
108 335 92
108 336 105
102 329 160
67 357 383
29 402 772
26 444 1257
26 484 1726
26 542 2132
26 640 2463
26 778 2752
26 847 2867
26 847 2880
26 847 2894
26 847 2907
26 847 2920
26 847 2933
130 692 94
130 692 107
130 692 120
129 691 164
71 721 427
27 779 844
26 842 1360
26 900 1863
26 965 2293
26 1053 2638
26 1165 2921
26 1221 3032
26 1221 3045
26 1221 3058
26 1221 3071
26 1221 3084
26 1221 3098
274 1168 78
274 1168 91
274 1168 104
273 1168 122
188 1203 441
42 1271 921
26 1346 1476
26 1414 2014
26 1481 2473
26 1557 2832
26 1651 3112
26 1697 3223
26 1697 3237
26 1697 3250
26 1697 3263
26 1697 3276
26 1697 3289
594 1704 50
594 1704 63
594 1705 76
594 1705 89
547 1733 357
355 1816 970
126 1899 1576
34 1971 2145
26 2034 2630
26 2096 3005
35 2164 3284
44 2197 3400
44 2197 3413
44 2197 3426
44 2197 3439
44 2197 3453
44 2197 3466
978 2247 113
978 2247 126
978 2247 139
978 2247 152
974 2251 203
845 2339 970
664 2429 1643
472 2503 2240
347 2566 2749
344 2621 3143
436 2676 3428
514 2705 3556
514 2705 3569
514 2705 3582
514 2705 3595
514 2705 3608
514 2705 3621
1410 2757 378
1410 2757 391
1410 2757 404
1410 2757 417
1410 2757 430
1357 2810 892
1238 2911 1679
1135 2988 2309
1073 3050 2837
1063 3099 3248
1110 3142 3539
1145 3166 3681
1145 3166 3694
1145 3166 3707
1145 3166 3720
1145 3166 3733
1145 3166 3746
1825 3220 741
1825 3220 754
1825 3220 767
1825 3220 780
1825 3220 793
1816 3230 896
1720 3332 1698
1637 3413 2354
1581 3476 2900
1566 3523 3322
1593 3561 3619
1616 3582 3777
1616 3582 3790
1616 3582 3803
1616 3582 3816
1616 3582 3829
1616 3582 3842
2064 3440 969
2064 3440 983
2064 3440 996
2064 3440 1009
2064 3440 1022
2064 3440 1035
2000 3521 1675
1931 3608 2366
1887 3673 2922
1876 3720 3352
1902 3756 3652
1925 3777 3822
1925 3777 3835
1925 3777 3848
1925 3777 3862
1925 3777 3874
1925 3777 3888
2064 3453 970
2064 3453 983
2064 3453 996
2064 3453 1009
2064 3453 1022
2064 3453 1035
2001 3535 1675
1931 3621 2366
1887 3686 2921
1876 3734 3352
1902 3769 3652
1925 3790 3822
1925 3790 3835
1925 3790 3848
1925 3790 3862
1925 3790 3874
1925 3790 3888
2064 3466 970
2064 3466 983
2064 3466 996
2064 3466 1009
2064 3466 1022
2064 3466 1035
2001 3548 1675
1931 3634 2366
1887 3699 2921
1876 3747 3352
1902 3782 3652
1925 3803 3822
1925 3803 3835
1925 3803 3848
1925 3803 3862
1925 3803 3874
1925 3803 3888
2064 3479 970
2064 3479 983
2064 3479 996
2064 3479 1009
2064 3479 1022
2064 3479 1035
2001 3561 1675
1931 3647 2366
1887 3712 2921
1876 3760 3352
1902 3795 3652
1925 3816 3822
1925 3816 3835
1925 3816 3848
1925 3816 3862
1925 3816 3874
1925 3816 3888
2064 3492 970
2064 3492 983
2064 3492 996
2064 3492 1009
2064 3492 1022
2064 3492 1035
2001 3574 1675
1931 3660 2366
1887 3725 2921
1876 3773 3352
1902 3808 3652
1925 3829 3822
1925 3829 3835
1925 3829 3848
1925 3829 3862
1925 3829 3874
1925 3829 3888
2064 3505 970
2064 3505 983
2064 3505 996
2064 3505 1009
2064 3505 1022
2064 3505 1035
2001 3587 1675
1931 3674 2366
1887 3738 2921
1876 3786 3352
1902 3822 3652
1925 3842 3822
1925 3842 3835
1925 3842 3848
1925 3842 3862
1925 3842 3874
1925 3842 3888
205 72 58
205 72 71
208 73 86
234 80 152
213 88 391
173 77 782
162 29 1223
181 0 1638
210 0 2004
236 8 2318
264 181 2622
279 308 2743
279 308 2756
279 308 2769
279 308 2782
279 308 2795
279 308 2808
205 85 58
205 85 71
208 86 86
234 93 152
213 101 391
173 90 782
162 42 1223
181 13 1638
210 13 2004
236 21 2318
264 194 2622
279 321 2743
279 321 2756
279 321 2769
279 321 2782
279 321 2795
