Postproduction/IWLTBAP - Humble/LUTs by IWLTBAP (3DL)/UTILITY/Panasonic V-Log to Rec.709/U-PANASONIC-V-LOG-V4-LTR.3dl
# Copyright: (C) Copyright 2010-2018 by IWLTBAP SAS
# Cannot be resold, shared or otherwise redistributed
# Website: https://luts.iwltbap.com
0 128 256 384 512 639 767 895 1023
64 64 64
52 80 287
52 96 771
70 122 1536
72 136 2409
48 183 3242
64 177 3814
76 179 4063
80 177 4063
34 365 98
32 379 333
48 377 797
52 395 1536
52 412 2433
40 442 3254
46 456 3858
60 456 4079
62 460 4079
0 988 249
2 988 456
12 988 903
0 988 1654
12 1012 2533
0 1026 3354
8 1056 3942
4 1050 4095
4 1064 4095
6 1969 418
0 1959 616
0 1967 1052
0 1989 1805
0 1993 2682
0 2007 3541
0 2017 4077
6 2034 4089
6 2027 4095
16 3147 634
16 3135 829
8 3143 1265
10 3164 2003
8 3180 2899
28 3178 3728
16 3204 4095
24 3212 4095
24 3212 4095
6 4043 835
8 4037 1046
6 4041 1463
6 4047 2196
8 4061 3081
12 4069 3896
4 4083 4083
4 4085 4085
6 4085 4073
0 4079 964
6 4091 1144
8 4083 1598
10 4089 2318
8 4095 3196
6 4095 4031
0 4095 4095
0 4095 4095
0 4095 4071
0 4095 1044
12 4091 1230
2 4091 1670
22 4087 2411
14 4095 3282
10 4089 4001
0 4095 4095
0 4095 4095
14 4081 4095
0 4095 1012
14 4093 1233
12 4091 1670
26 4079 2389
8 4079 3260
0 4089 4017
4 4095 4095
16 4095 4095
16 4095 4095
349 0 32
349 28 225
305 32 693
291 52 1469
293 72 2339
293 110 3202
291 126 3768
287 145 4019
287 130 4051
271 299 78
313 285 327
301 289 771
305 325 1524
305 349 2397
307 371 3236
285 371 3830
285 397 4063
285 395 4095
189 909 191
185 897 408
199 909 857
213 925 1580
211 933 2477
195 958 3292
199 974 3898
197 984 4095
185 978 4095
56 1889 371
50 1891 556
54 1885 994
66 1905 1752
66 1909 2632
62 1933 3465
74 1941 4029
60 1941 4089
60 1949 4083
0 3079 584
0 3063 777
6 3073 1235
4 3085 1961
2 3093 2832
6 3101 3679
4 3123 4095
0 3129 4089
0 3133 4095
12 3999 781
6 3995 996
10 3997 1425
14 4009 2148
8 4027 3041
22 4031 3874
20 4039 4095
2 4037 4091
8 4047 4095
6 4089 915
4 4089 1104
12 4091 1552
12 4081 2270
20 4091 3160
12 4077 3971
12 4091 4091
6 4085 4085
16 4095 4087
28 4081 984
14 4081 1172
2 4085 1614
4 4085 2335
12 4089 3212
0 4093 3985
12 4093 4093
4 4095 4095
2 4079 4083
0 4095 980
14 4081 1200
28 4069 1622
28 4081 2345
8 4087 3224
6 4095 3997
14 4095 4095
14 4095 4095
14 4095 4095
939 0 0
939 0 136
887 0 586
877 2 1365
843 8 2276
829 0 3083
815 4 3653
839 2 3938
811 12 3950
899 102 12
895 118 189
857 132 654
827 161 1393
809 193 2284
805 199 3109
799 235 3704
807 241 3934
809 229 3981
767 743 72
751 737 295
739 763 751
739 767 1512
735 795 2377
721 799 3218
731 831 3822
715 843 4063
707 835 4087
582 1736 265
576 1748 476
578 1736 913
604 1742 1666
598 1754 2539
600 1779 3380
596 1793 3965
588 1799 4095
592 1797 4095
385 2927 490
397 2927 699
418 2927 1132
408 2937 1839
397 2947 2718
420 2963 3579
406 2967 4087
399 2977 4085
397 2975 4087
209 3926 686
225 3924 885
237 3920 1335
255 3932 2053
241 3950 2929
235 3946 3756
233 3959 4091
221 3961 4091
179 3973 4091
100 4091 831
106 4095 996
104 4091 1457
124 4095 2186
128 4091 3063
122 4087 3896
124 4091 4095
108 4091 4085
60 4087 4087
72 4093 855
72 4093 1096
88 4083 1526
86 4093 2246
72 4091 3117
68 4095 3924
80 4095 4093
56 4085 4077
10 4095 4095
80 4095 887
64 4095 1104
60 4095 1514
46 4095 2220
32 4095 3099
0 4095 3932
0 4095 4095
0 4095 4095
4 4083 4083
1879 6 10
1857 10 14
1841 0 416
1809 0 1174
1742 2 2066
1712 0 2897
1702 0 3495
1698 8 3732
1686 0 3760
1825 10 2
1815 0 26
1783 12 482
1746 0 1212
1716 2 2124
1678 10 2949
1662 14 3537
1668 12 3790
1672 8 3834
1716 440 10
1668 460 102
1660 482 584
1642 504 1321
1626 530 2214
1602 548 3049
1592 570 3631
1602 562 3898
1598 584 3944
1490 1451 102
1510 1457 305
1504 1457 755
1494 1473 1483
1483 1500 2383
1477 1522 3216
1463 1536 3802
1457 1532 4039
1423 1544 4073
1301 2648 319
1287 2652 528
1283 2652 960
1279 2670 1704
1281 2692 2583
1281 2694 3402
1277 2710 3999
1269 2718 4095
1269 2718 4095
1096 3754 532
1104 3764 705
1110 3756 1148
1118 3770 1877
1120 3790 2764
1124 3798 3585
1108 3818 4081
1092 3820 4091
1048 3834 4095
976 4083 662
960 4091 855
972 4089 1289
986 4089 2015
994 4089 2905
966 4087 3728
978 4089 4095
935 4095 4085
881 4089 4095
917 4095 733
911 4095 903
929 4089 1359
931 4095 2090
917 4093 2957
895 4093 3782
891 4087 4095
859 4087 4087
757 4089 4087
909 4089 719
899 4089 917
919 4095 1359
893 4095 2074
869 4095 2943
817 4095 3780
789 4089 4091
739 4095 4075
556 4089 4089
2979 0 0
2963 0 8
2931 0 205
2923 10 952
2875 8 1863
2834 0 2716
2794 4 3288
2798 8 3545
2810 0 3581
2921 8 2
2901 16 0
2875 8 245
2871 2 994
2828 10 1895
2784 0 2754
2758 6 3340
2764 10 3577
2770 8 3609
2814 96 8
2776 126 14
2754 157 393
2748 177 1124
2714 209 2003
2696 233 2840
2678 253 3433
2670 261 3693
2682 265 3730
2622 1086 8
2595 1118 82
2591 1136 550
2571 1164 1271
2561 1182 2152
2541 1198 2995
2517 1212 3575
2525 1222 3862
2543 1222 3904
2393 2312 120
2385 2306 309
2385 2325 759
2375 2343 1479
2369 2369 2369
2353 2375 3208
2345 2393 3806
2347 2399 4039
2361 2401 4095
2194 3437 311
2192 3435 520
2200 3443 956
2190 3469 1690
2188 3479 2553
2174 3497 3378
2164 3509 4001
2146 3509 4087
2138 3527 4095
2036 4095 442
2048 4087 654
2051 4095 1092
2066 4089 1803
2055 4095 2682
2048 4087 3529
2031 4087 4075
2011 4095 4095
1959 4087 4095
2005 4093 526
2009 4093 725
1999 4095 1152
2005 4091 1879
1999 4095 2746
1971 4087 3579
1973 4083 4095
1949 4095 4095
1853 4093 4095
1999 4087 514
2005 4087 711
2007 4091 1172
2001 4087 1863
1959 4087 2754
1921 4079 3583
1851 4091 4095
1823 4087 4095
1702 4095 4095
3946 0 6
3948 2 0
3930 0 42
3926 0 743
3910 10 1652
3874 0 2507
3840 10 3091
3844 0 3340
3858 0 3372
3926 8 16
3888 0 10
3880 6 92
3856 6 807
3838 0 1716
3814 0 2553
3806 4 3139
3788 6 3400
3802 8 3445
3830 6 0
3810 8 6
3798 12 193
3760 6 905
3756 12 1811
3732 6 2640
3732 6 3246
3726 12 3517
3744 18 3547
3663 773 12
3649 787 2
3633 823 349
3605 859 1104
3587 887 1975
3569 909 2806
3567 927 3409
3569 935 3661
3587 913 3696
3441 1989 0
3437 2003 112
3421 2025 572
3404 2038 1307
3396 2070 2194
3394 2074 3011
3372 2096 3611
3372 2108 3848
3390 2086 3900
3222 3129 96
3228 3131 311
3226 3135 763
3228 3145 1473
3206 3172 2357
3200 3188 3194
3190 3194 3798
3200 3210 4085
3190 3210 4095
3091 3926 275
3095 3934 456
3095 3946 899
3093 3957 1620
3071 3991 2497
3067 4001 3338
3071 4015 3930
3049 4031 4075
3033 4033 4093
3051 4095 309
3055 4095 518
3045 4083 982
3045 4089 1708
3043 4085 2567
3027 4095 3380
2993 4095 4001
2985 4085 4085
2923 4095 4095
3061 4085 329
3045 4087 516
3039 4089 962
3041 4089 1692
3009 4089 2559
2981 4085 3390
2945 4095 4021
2923 4095 4087
2846 4095 4095
4079 12 0
4093 14 14
4087 8 8
4089 6 632
4095 8 1526
4095 2 2375
4091 0 2963
4079 2 3208
4091 12 3256
4091 12 32
4081 12 2
4091 12 16
4091 12 650
4087 6 1558
4089 2 2413
4095 2 3015
4083 0 3276
4095 0 3304
4083 4 4
4087 8 24
4083 8 64
4081 2 779
4087 16 1658
4087 18 2501
4079 8 3091
4083 12 3340
4095 12 3384
4089 558 0
4095 574 6
4095 600 225
4083 634 950
4095 666 1829
4089 691 2678
4089 703 3258
4091 703 3521
4087 693 3555
4087 1766 4
4075 1770 12
4063 1799 426
4067 1829 1164
4059 1859 2040
4057 1867 2883
4071 1871 3493
4067 1883 3738
4063 1879 3738
3993 2887 10
3977 2909 193
3963 2917 628
3944 2943 1337
3936 2961 2228
3932 2979 3083
3940 2995 3671
3934 2993 3922
3948 2983 3953
3838 3706 120
3840 3716 327
3854 3718 767
3838 3732 1490
3818 3758 2373
3816 3782 3198
3794 3798 3826
3796 3802 4073
3818 3790 4095
3774 4059 179
3790 4071 387
3766 4073 819
3774 4091 1536
3762 4093 2411
3766 4093 3232
3738 4083 3854
3730 4095 4095
3716 4081 4093
3786 4083 217
3786 4083 393
3778 4095 831
3790 4089 1538
3778 4083 2417
3768 4085 3258
3738 4083 3878
3700 4093 4095
3657 4091 4083
4093 14 14
4081 2 2
4083 4 4
4091 6 560
4095 0 1461
4095 10 2314
4095 12 2899
4095 0 3121
4081 14 3180
4079 2 0
4079 0 0
4079 0 0
4073 16 606
4077 14 1500
4089 12 2343
4093 24 2973
4093 12 3220
4079 0 3240
4079 2 0
4081 2 30
4085 6 50
4091 2 727
4079 0 1614
4081 4 2437
4095 10 3033
4085 0 3294
4085 0 3322
4077 460 8
4091 488 4
4091 510 151
4079 562 887
4083 592 1777
4081 608 2614
4081 610 3200
4089 616 3451
4095 604 3499
4093 1660 20
4089 1672 0
4081 1696 353
4079 1720 1082
4079 1756 1981
4087 1774 2808
4091 1777 3431
4079 1783 3653
4087 1789 3706
4085 2788 0
4095 2788 116
4095 2820 558
4095 2840 1293
4095 2860 2180
4095 2879 3005
4095 2879 3587
4095 2899 3860
4095 2885 3886
4093 3603 68
4095 3627 273
4095 3633 723
4095 3663 1431
4093 3675 2316
4093 3693 3154
4095 3702 3744
4083 3700 3993
4095 3698 4047
4095 3969 114
4095 3979 343
4077 3985 781
4081 3995 1481
4075 4003 2371
4069 4019 3196
4081 4049 3816
4077 4063 4035
4049 4063 4095
4095 4015 128
4079 4015 333
4077 4031 775
4095 4047 1490
4053 4073 2343
4061 4083 3184
4037 4093 3780
4035 4095 4079
4035 4095 4093
4079 0 0
4079 0 0
4079 0 0
4095 0 574
4095 0 1445
4085 0 2284
4095 12 2887
4095 0 3149
4079 16 3180
4079 0 0
4079 0 0
4079 0 0
4095 0 606
4077 14 1496
4089 16 2327
4079 12 2939
4079 2 3208
4079 0 3240
4079 12 0
4079 0 0
4079 0 44
4079 14 727
4079 4 1606
4091 0 2445
4091 8 3031
4091 10 3290
4095 0 3332
4069 444 0
4083 474 0
4089 496 140
4095 540 893
4093 570 1764
4095 600 2610
4091 610 3206
4083 604 3457
4085 588 3495
4095 1638 0
4095 1662 8
4087 1678 353
4093 1718 1098
4095 1734 1967
4093 1758 2818
4087 1774 3404
4095 1766 3669
4079 1750 3693
4095 2778 0
4093 2802 122
4095 2810 568
4091 2826 1269
4095 2865 2180
4095 2875 3001
4095 2875 3603
4095 2875 3844
4089 2869 3880
4083 3609 64
4095 3627 267
4095 3621 703
4089 3639 1421
4087 3661 2284
4095 3671 3143
4095 3693 3738
4095 3698 3991
4083 3693 4019
4095 3953 98
4095 3981 315
4091 3969 771
4085 3977 1471
4095 4001 2347
4093 4033 3190
4083 4035 3780
4095 4051 4061
4095 4035 4095
4095 3999 112
4081 4015 331
4095 4015 743
4089 4021 1461
4095 4071 2329
4089 4089 3162
4091 4095 3790
4095 4095 4063
4095 4095 4095
