Postproduction/IWLTBAP - Humble/LUTs by IWLTBAP (3DL)/UTILITY/Panasonic V-Log to Rec.709/U-PANASONIC-V-LOG-V2-LTR.3dl
# Copyright: (C) Copyright 2010-2018 by IWLTBAP SAS
# Cannot be resold, shared or otherwise redistributed
# Website: https://luts.iwltbap.com
0 256 512 768 1023
0 0 0
0 0 592
0 35 2271
0 70 3802
0 76 4074
0 800 124
0 813 732
0 851 2411
0 886 3943
0 892 4079
0 3052 510
0 3067 1118
0 3104 2798
0 3139 4079
0 3145 4079
0 4079 862
0 4079 1471
0 4079 3151
0 4079 4079
0 4079 4079
0 4079 925
0 4079 1534
0 4079 3213
0 4079 4079
0 4079 4079
730 0 0
724 0 452
708 0 2132
694 0 3662
691 0 3935
598 579 3
593 592 593
577 630 2272
562 665 3803
560 671 4069
235 2832 371
229 2846 979
214 2884 2659
199 2918 4074
196 2925 4079
0 4079 723
0 4079 1332
0 4079 3011
0 4079 4079
0 4079 4079
0 4079 786
0 4079 1394
0 4079 3074
0 4079 4079
0 4079 4079
2790 0 0
2785 0 78
2769 0 1747
2755 0 3278
2752 0 3549
2659 24 0
2653 29 208
2637 52 1887
2623 78 3418
2620 82 3689
2296 2222 11
2290 2236 595
2274 2274 2274
2259 2309 3805
2257 2315 4063
1965 4064 339
1959 4079 947
1943 4079 2627
1929 4079 4070
1926 4079 4079
1906 4079 401
1900 4079 1010
1884 4079 2689
1870 4079 4079
1867 4079 4079
4079 0 0
4079 0 0
4079 0 1397
4079 0 2927
4079 0 3198
4079 0 0
4079 0 0
4079 0 1537
4079 0 3067
4079 0 3339
4043 1667 0
4074 1681 244
4071 1718 1924
4068 1753 3454
4067 1759 3726
3828 3704 2
3838 3734 597
3822 3772 2276
3807 3807 3805
3804 3813 4074
3768 4072 51
3778 4076 659
3762 4079 2338
3748 4079 3870
3745 4079 4079
4079 0 0
4079 0 0
4079 0 1335
4079 0 2865
4079 0 3136
4079 0 0
4079 0 0
4079 0 1475
4079 0 3005
4079 0 3276
4079 1568 0
4079 1582 182
4079 1620 1861
4079 1655 3392
4079 1661 3663
4079 3605 0
4079 3635 535
4079 3673 2214
4079 3708 3742
4079 3714 4016
4079 3983 0
4079 4001 597
4079 4039 2276
4079 4074 3807
4079 4079 4079
