Postproduction/IWLTBAP - Humble/LUTs by IWLTBAP (3DL)/UTILITY/Panasonic V-Log to Rec.709/U-PANASONIC-V-LOG-V8-LTR.3dl
# Copyright: (C) Copyright 2010-2018 by IWLTBAP SAS
# Cannot be resold, shared or otherwise redistributed
# Website: https://luts.iwltbap.com
0 64 128 192 256 320 384 448 512 576 640 704 768 832 896 960 1023
158 158 158
164 147 276
165 122 421
155 62 602
124 0 835
49 0 1151
0 0 1525
0 0 1915
0 0 2308
0 0 2698
0 0 3084
0 0 3455
0 0 3764
0 0 3979
0 0 4089
0 0 4095
0 0 4095
133 290 160
124 270 266
123 252 413
111 201 596
79 85 830
24 0 1148
0 0 1523
0 0 1914
0 0 2306
0 0 2697
0 0 3083
0 0 3454
0 0 3763
0 0 3978
0 0 4088
0 0 4095
0 0 4095
82 448 155
74 432 266
61 408 400
45 382 587
20 310 823
0 97 1142
0 0 1519
0 0 1911
0 0 2304
0 0 2694
0 0 3081
0 0 3452
0 0 3761
0 0 3977
0 0 4088
0 0 4095
0 0 4095
13 644 134
11 632 252
9 614 399
5 583 571
0 551 811
0 437 1134
0 105 1513
0 0 1906
0 0 2299
0 0 2691
0 0 3078
0 0 3449
0 0 3758
0 0 3974
0 0 4087
0 0 4095
0 0 4095
0 892 81
0 883 207
0 869 381
0 847 570
0 807 791
0 756 1119
0 631 1501
0 334 1896
0 0 2292
0 0 2684
0 0 3072
0 0 3443
0 0 3753
0 0 3969
0 0 4084
0 0 4095
0 0 4095
0 1228 0
0 1222 102
0 1212 312
0 1195 537
0 1167 784
0 1114 1092
0 1065 1481
0 962 1881
0 777 2279
0 385 2673
0 163 3062
0 0 3435
0 0 3745
0 0 3961
0 0 4081
0 0 4095
0 0 4095
0 1624 0
0 1619 0
0 1612 143
0 1600 448
0 1578 754
0 1540 1093
0 1477 1449
0 1434 1856
0 1352 2259
0 1222 2657
0 955 3048
0 602 3422
0 71 3733
0 205 3950
0 38 4077
0 0 4095
0 0 4095
0 2037 0
0 2033 0
0 2027 0
0 2018 254
0 2001 687
0 1970 1074
0 1923 1455
0 1857 1822
0 1817 2232
0 1748 2635
0 1647 3029
0 1496 3406
0 1333 3718
0 1203 3936
0 1184 4070
0 1279 4095
0 1364 4095
0 2451 0
0 2448 0
0 2443 0
0 2435 64
0 2421 541
0 2397 1031
0 2359 1445
0 2307 1829
0 2238 2197
0 2202 2606
0 2143 3005
0 2064 3386
0 1981 3700
0 1948 3918
0 1951 4054
0 1993 4095
0 2066 4095
0 2863 0
0 2860 0
0 2856 0
0 2849 0
0 2837 307
0 2816 952
0 2785 1419
0 2743 1824
0 2687 2206
0 2618 2571
0 2583 2976
0 2536 3360
0 2494 3677
0 2475 3897
0 2493 4033
0 2537 4095
0 2605 4095
0 3270 0
0 3268 0
0 3264 0
0 3258 0
0 3247 44
0 3228 821
0 3202 1367
0 3167 1808
0 3121 2205
0 3064 2580
0 2994 2941
0 2964 3330
0 2939 3650
0 2935 3871
0 2959 4009
0 3003 4083
0 3059 4095
0 3661 0
0 3659 0
0 3656 0
0 3650 0
0 3640 0
0 3623 638
0 3600 1303
0 3569 1779
0 3530 2198
0 3481 2584
0 3423 2951
0 3355 3296
0 3340 3620
0 3343 3844
0 3356 3983
0 3387 4060
0 3431 4091
0 3984 0
0 3982 0
0 3980 0
0 3976 0
0 3966 0
0 3951 487
0 3930 1245
0 3902 1755
0 3866 2191
0 3823 2592
0 3771 2965
0 3712 3312
0 3656 3591
0 3645 3819
0 3652 3960
0 3674 4038
0 3702 4073
0 4095 0
0 4095 0
0 4095 0
0 4095 0
0 4095 0
0 4092 253
0 4090 1210
0 4087 1754
0 4082 2208
0 4058 2612
0 4010 2990
0 3955 3338
0 3906 3602
0 3866 3798
0 3863 3941
0 3868 4022
0 3884 4058
0 4095 0
0 4095 0
0 4095 0
0 4095 0
0 4095 0
0 4095 194
0 4095 1227
0 4095 1785
0 4095 2240
0 4095 2648
0 4095 3028
0 4086 3365
0 4060 3622
0 4023 3808
0 3998 3928
0 3998 4010
0 4007 4047
0 4095 0
0 4095 0
0 4095 0
0 4095 0
0 4095 0
0 4095 374
0 4095 1283
0 4095 1839
0 4095 2289
0 4095 2696
0 4095 3075
0 4095 3400
0 4095 3650
0 4095 3821
0 4084 3935
0 4073 4002
0 4073 4040
0 4095 0
0 4095 0
0 4095 0
0 4095 0
0 4095 0
0 4095 551
0 4095 1377
0 4095 1903
0 4095 2349
0 4095 2755
0 4095 3127
0 4095 3443
0 4095 3678
0 4095 3838
0 4095 3947
0 4095 4005
0 4095 4037
307 169 173
300 144 277
307 119 421
306 58 603
287 0 835
231 0 1151
106 0 1525
13 0 1916
0 0 2308
0 0 2698
0 0 3084
0 0 3455
0 0 3764
0 0 3979
0 0 4089
0 0 4095
0 0 4095
274 288 161
284 284 284
290 266 435
285 207 626
264 92 867
194 0 1199
69 0 1578
0 0 1969
0 0 2362
0 0 2752
0 0 3137
0 0 3505
0 0 3797
0 0 4003
0 0 4092
0 0 4095
0 0 4095
235 446 156
242 452 285
229 427 422
213 403 616
186 327 859
111 89 1194
19 0 1574
0 0 1966
0 0 2360
0 0 2750
0 0 3134
0 0 3503
0 0 3795
0 0 4001
0 0 4092
0 0 4095
0 0 4095
138 642 135
132 661 268
116 641 423
90 610 600
66 575 847
17 450 1185
0 116 1567
0 0 1961
0 0 2355
0 0 2746
0 0 3131
0 0 3500
0 0 3792
0 0 3998
0 0 4091
0 0 4095
0 0 4095
18 891 82
17 920 225
14 905 404
9 882 598
1 842 826
0 796 1169
0 670 1555
0 391 1952
0 0 2347
0 0 2739
0 0 3125
0 0 3494
0 0 3787
0 0 3992
0 0 4090
0 0 4095
0 0 4095
0 1227 0
0 1275 107
0 1264 329
0 1248 560
0 1218 827
0 1163 1142
0 1114 1534
0 1014 1935
0 837 2334
0 471 2727
0 171 3115
0 0 3485
0 0 3778
0 0 3984
0 0 4089
0 0 4095
0 0 4095
0 1623 0
0 1677 0
0 1669 153
0 1657 475
0 1634 797
0 1594 1143
0 1531 1502
0 1487 1910
0 1407 2313
0 1283 2711
0 1053 3100
0 704 3473
0 271 3766
0 330 3973
0 46 4087
0 0 4095
0 198 4095
0 2036 0
0 2091 0
0 2085 0
0 2075 290
0 2057 732
0 2026 1125
0 1978 1508
0 1911 1876
0 1870 2286
0 1805 2688
0 1707 3081
0 1557 3456
0 1424 3751
0 1331 3958
0 1354 4082
0 1398 4095
0 1491 4095
0 2450 0
0 2506 0
0 2501 0
0 2493 94
0 2478 595
0 2453 1085
0 2414 1499
0 2361 1883
0 2293 2251
0 2256 2660
0 2198 3057
0 2120 3435
0 2056 3732
0 2025 3940
0 2035 4066
0 2086 4095
0 2163 4095
0 2862 0
0 2918 0
0 2914 0
0 2906 0
0 2894 355
0 2871 1012
0 2840 1475
0 2797 1880
0 2741 2259
0 2672 2624
0 2638 3028
0 2592 3410
0 2555 3709
0 2543 3918
0 2567 4045
0 2618 4095
0 2682 4095
0 3270 0
0 3324 0
0 3320 0
0 3314 0
0 3302 124
0 3282 894
0 3255 1429
0 3220 1864
0 3173 2259
0 3115 2634
0 3046 2992
0 3016 3379
0 2997 3682
0 2999 3893
0 3025 4020
0 3068 4086
0 3125 4095
0 3660 0
0 3713 0
0 3709 0
0 3703 0
0 3692 0
0 3675 735
0 3651 1369
0 3620 1835
0 3580 2252
0 3531 2639
0 3472 3003
0 3405 3345
0 3393 3652
0 3389 3865
0 3406 3995
0 3440 4063
0 3486 4091
0 3984 0
0 4015 0
0 4013 0
0 4011 0
0 4001 0
0 3985 586
0 3963 1317
0 3934 1819
0 3898 2254
0 3854 2649
0 3801 3020
0 3742 3363
0 3689 3625
0 3681 3841
0 3691 3972
0 3709 4042
0 3734 4073
0 4095 0
0 4095 0
0 4095 0
0 4095 0
0 4095 0
0 4095 393
0 4095 1296
0 4095 1827
0 4094 2270
0 4072 2671
0 4027 3047
0 3975 3382
0 3928 3637
0 3890 3822
0 3884 3955
0 3891 4026
0 3909 4058
0 4095 0
0 4095 0
0 4095 0
0 4095 0
0 4095 0
0 4095 401
0 4095 1324
0 4095 1862
0 4095 2306
0 4095 2710
0 4095 3085
0 4091 3410
0 4070 3659
0 4037 3829
0 4012 3943
0 4013 4015
0 4018 4048
0 4095 0
0 4095 0
0 4095 0
0 4095 0
0 4095 0
0 4095 568
0 4095 1394
0 4095 1914
0 4095 2357
0 4095 2762
0 4095 3131
0 4095 3447
0 4095 3682
0 4095 3842
0 4086 3950
0 4079 4009
0 4080 4042
0 4095 0
0 4095 0
0 4095 0
0 4095 0
0 4095 0
0 4095 739
0 4095 1470
0 4095 1980
0 4095 2419
0 4095 2818
0 4095 3184
0 4095 3491
0 4095 3707
0 4095 3861
0 4095 3957
0 4095 4012
0 4095 4039
478 178 190
473 152 297
466 113 422
475 53 604
477 0 836
454 0 1152
385 0 1526
235 0 1916
55 0 2308
0 0 2698
0 0 3084
0 0 3455
0 0 3764
0 0 3980
0 0 4089
0 0 4095
0 0 4095
454 301 177
472 297 304
464 260 436
475 201 627
474 85 867
444 0 1200
366 0 1578
200 0 1970
69 0 2362
0 0 2752
0 0 3137
0 0 3505
0 0 3797
0 0 4003
0 0 4092
0 0 4095
0 0 4095
416 442 158
432 449 286
447 447 447
456 422 646
449 335 904
409 77 1246
313 0 1630
137 0 2022
19 0 2415
0 0 2805
0 0 3188
0 0 3553
0 0 3830
0 0 4021
0 0 4095
0 0 4095
0 0 4095
360 640 137
376 658 270
387 668 448
367 635 629
351 595 892
288 469 1236
168 133 1623
51 0 2016
0 0 2410
0 0 2801
0 0 3184
0 0 3550
0 0 3826
0 0 4018
0 0 4095
0 0 4095
0 0 4095
212 889 84
221 918 227
205 949 425
179 925 625
140 882 870
87 835 1220
11 710 1610
0 446 2006
0 25 2402
0 0 2793
0 0 3178
0 0 3543
0 0 3821
0 0 4012
0 0 4095
0 0 4095
0 0 4095
20 1226 2
18 1273 110
13 1317 347
8 1299 590
1 1267 869
0 1211 1191
0 1163 1588
0 1066 1989
0 899 2387
0 553 2781
0 163 3167
0 0 3534
0 0 3812
0 0 4003
0 0 4095
0 0 4095
0 0 4095
0 1622 0
0 1676 0
0 1726 164
0 1713 508
0 1689 840
0 1648 1193
0 1583 1556
0 1541 1963
0 1462 2367
0 1343 2765
0 1140 3153
0 781 3521
0 472 3800
0 408 3991
0 41 4095
0 207 4095
0 459 4095
0 2035 0
0 2090 0
0 2142 1
0 2132 327
0 2113 778
0 2080 1177
0 2031 1562
0 1964 1929
0 1925 2339
0 1860 2742
0 1763 3133
0 1621 3504
0 1518 3784
0 1465 3977
0 1457 4093
0 1516 4095
0 1617 4095
0 2450 0
0 2506 0
0 2558 0
0 2549 95
0 2533 662
0 2507 1142
0 2467 1553
0 2414 1937
0 2345 2305
0 2310 2713
0 2254 3109
0 2180 3483
0 2123 3765
0 2102 3958
0 2119 4077
0 2178 4095
0 2257 4095
0 2862 0
0 2917 0
0 2971 0
0 2963 0
0 2949 422
0 2926 1071
0 2894 1532
0 2850 1934
0 2794 2314
0 2725 2678
0 2692 3079
0 2646 3457
0 2616 3741
0 2615 3936
0 2642 4056
0 2692 4095
0 2756 4095
0 3269 0
0 3323 0
0 3376 0
0 3369 0
0 3356 200
0 3336 970
0 3308 1490
0 3272 1920
0 3225 2314
0 3167 2688
0 3098 3044
0 3069 3427
0 3056 3714
0 3062 3910
0 3086 4031
0 3134 4088
0 3193 4095
0 3660 0
0 3712 0
0 3761 0
0 3754 0
0 3742 0
0 3725 842
0 3700 1430
0 3668 1894
0 3628 2309
0 3579 2692
0 3519 3056
0 3453 3393
0 3436 3684
0 3436 3883
0 3456 4006
0 3492 4067
0 3529 4090
0 3983 0
0 4015 0
0 4047 0
0 4046 0
0 4035 0
0 4019 686
0 3996 1392
0 3966 1887
0 3929 2313
0 3885 2705
0 3832 3075
0 3774 3405
0 3722 3658
0 3717 3860
0 3723 3984
0 3741 4047
0 3767 4073
0 4095 0
0 4095 0
0 4095 0
0 4095 0
0 4095 0
0 4095 561
0 4095 1385
0 4095 1900
0 4095 2334
0 4075 2733
0 4039 3103
0 3990 3426
0 3944 3672
0 3909 3842
0 3905 3968
0 3915 4032
0 3931 4059
0 4095 0
0 4095 0
0 4095 0
0 4095 0
0 4095 0
0 4095 604
0 4095 1425
0 4095 1934
0 4095 2372
0 4095 2773
0 4095 3141
0 4095 3456
0 4080 3690
0 4048 3850
0 4026 3957
0 4024 4021
0 4029 4050
0 4095 0
0 4095 0
0 4095 0
0 4095 0
0 4095 0
0 4095 759
0 4095 1486
0 4095 1989
0 4095 2426
0 4095 2824
0 4095 3189
0 4095 3495
0 4095 3711
0 4095 3864
0 4090 3961
0 4085 4015
0 4087 4044
0 4095 0
0 4095 0
0 4095 0
0 4095 0
0 4095 0
0 4095 902
0 4095 1560
0 4095 2057
0 4095 2489
0 4095 2881
0 4095 3242
0 4095 3530
0 4095 3737
0 4095 3882
0 4095 3969
0 4095 4019
0 4095 4042
689 183 208
685 156 317
680 114 446
670 43 605
685 0 837
682 0 1152
655 0 1526
598 0 1916
491 0 2308
307 0 2699
105 0 3084
0 0 3455
0 0 3764
0 0 3980
0 0 4089
0 0 4095
28 0 4095
671 311 195
699 306 324
693 264 463
683 191 628
696 74 868
690 0 1201
664 0 1579
607 0 1970
491 0 2363
313 0 2753
42 0 3137
69 0 3506
0 0 3798
0 0 4003
0 0 4092
25 0 4095
