Postproduction/IWLTBAP - Humble/LUTs by IWLTBAP (3DL)/UTILITY/Panasonic V-Log to Rec.709/U-PANASONIC-V-LOG-V6-LTR.3dl
# Copyright: (C) Copyright 2010-2018 by IWLTBAP SAS
# Cannot be resold, shared or otherwise redistributed
# Website: https://luts.iwltbap.com
0 256 512 768 1023
0 0 0
64 78 341
225 266 870
350 412 1311
461 544 1715
119 483 138
46 511 519
153 557 1025
328 685 1623
419 745 1928
362 1234 416
316 1295 676
162 1418 1447
274 1515 2172
399 1621 2622
797 2621 914
762 2719 1191
642 2924 1954
458 3175 3059
474 3336 3321
987 3229 1132
938 3322 1451
823 3513 2206
974 3562 3091
982 3567 3119
521 76 166
669 139 585
644 270 1029
652 445 1506
657 566 1841
646 484 14
450 375 404
370 445 1283
390 693 1797
431 651 1836
604 1437 239
405 1379 471
174 1502 1526
329 1571 2376
399 1623 2623
950 2899 763
835 2745 959
698 3005 1868
502 3281 3081
516 3399 3287
1147 3495 944
965 3274 1279
843 3511 2152
1061 3580 3115
1106 3594 3165
1085 223 402
1222 274 672
1403 350 1238
1472 512 1846
1494 669 2284
1421 420 268
1548 346 599
1689 433 1485
1594 650 2252
1402 659 2238
2129 1705 88
2155 1747 92
1547 1414 1464
1008 1118 3303
874 1287 3510
2197 3556 619
1930 3549 641
1478 3572 1451
1311 3658 3331
1453 3699 3584
2450 3541 1114
2310 3530 1213
2254 3786 2306
2259 3767 3472
2341 3770 3519
1873 443 718
1979 481 938
2180 559 1468
2489 677 2235
2724 782 2854
2306 543 641
2263 554 958
2556 663 1634
2931 793 2641
2981 811 2938
3312 1584 481
3475 1490 594
3956 1106 1655
3635 1295 3334
3511 1411 3642
3941 3696 1452
3922 3725 1470
3693 3570 1946
3823 3795 3794
3702 3759 4044
3774 3663 1848
3534 3398 1797
3997 3879 2911
4066 4088 4065
4068 4090 4087
2649 655 1025
2733 687 1234
2947 766 1773
3232 843 2533
3495 973 3114
3045 746 972
2682 667 1109
2945 765 1765
3295 868 2687
3495 973 3114
4060 1799 898
3997 1569 890
4025 1353 1908
3633 1633 3284
3621 1758 3490
3892 3675 1838
3876 3652 1848
3876 3629 2497
4083 3870 3830
4073 3967 4066
3774 3663 1848
3586 3443 1938
4013 3904 3038
4093 4093 4074
4095 4095 4095
