Postproduction/IWLTBAP - Humble/LUTs by IWLTBAP (3DL)/UTILITY/Panasonic V-Log to Rec.709/U-PANASONIC-V-LOG-HDR-LTR.3dl
# Copyright: (C) Copyright 2010-2018 by IWLTBAP SAS
# Cannot be resold, shared or otherwise redistributed
# Website: https://luts.iwltbap.com
0 128 256 384 512 640 768 896 1023
1 1 1
1 1 100
15 2 538
96 67 1086
295 200 1741
614 408 2495
1021 595 3585
1204 619 4017
1204 619 4017
5 64 12
8 70 75
14 84 498
83 135 1117
250 214 1825
585 411 2524
1006 594 3600
1192 616 4017
1192 616 4017
44 550 73
48 540 123
92 541 537
188 560 1025
349 622 1641
466 612 2564
877 588 3703
1094 615 4019
1094 615 4019
179 1104 262
186 1098 304
242 1095 567
310 1075 1066
458 1068 1587
627 1140 2354
689 1096 3654
653 833 4012
653 833 4012
415 1715 605
422 1714 630
458 1702 771
524 1695 1063
579 1682 1653
741 1686 2335
840 1778 3385
810 1807 3958
810 1807 3958
688 2479 1071
690 2479 1081
705 2474 1145
745 2465 1312
819 2467 1677
867 2462 2435
888 2499 3398
789 2552 3927
789 2552 3927
845 3603 1566
845 3603 1570
849 3603 1599
855 3601 1687
853 3599 1917
807 3619 2442
669 3656 3609
143 3754 4045
143 3754 4045
784 3957 1776
784 3957 1779
781 3957 1801
775 3957 1869
740 3957 2066
609 3983 2525
418 4001 3617
0 4086 4086
0 4086 4086
784 3957 1776
784 3957 1779
781 3957 1801
775 3957 1869
740 3957 2066
609 3983 2525
418 4001 3617
0 4086 4086
0 4086 4086
77 0 1
89 1 73
117 8 431
192 74 1035
362 205 1719
650 412 2485
1039 601 3581
1219 623 4017
1219 623 4017
108 86 6
74 70 75
89 70 628
160 124 1135
339 240 1756
636 434 2498
1030 614 3587
1211 635 4016
1211 635 4016
62 571 42
89 564 119
129 551 546
205 561 1063
350 613 1684
457 561 2607
902 588 3700
1112 615 4019
1112 615 4019
171 1113 223
193 1110 281
254 1098 559
325 1080 1070
462 1070 1600
627 1136 2367
685 1078 3671
646 795 4015
646 795 4015
408 1717 580
417 1718 611
455 1705 759
523 1697 1058
580 1686 1656
742 1687 2340
840 1777 3392
809 1804 3961
809 1804 3961
686 2480 1061
689 2480 1073
703 2476 1138
744 2466 1308
819 2468 1675
867 2464 2436
887 2499 3400
789 2552 3929
789 2552 3929
844 3604 1562
845 3604 1567
848 3603 1595
855 3602 1684
854 3599 1915
807 3620 2441
669 3656 3609
143 3754 4045
143 3754 4045
784 3957 1773
784 3957 1776
782 3957 1798
775 3957 1867
740 3957 2064
609 3983 2524
419 4001 3617
0 4086 4086
0 4086 4086
784 3957 1773
784 3957 1776
782 3957 1798
775 3957 1867
740 3957 2064
609 3983 2524
419 4001 3617
0 4086 4086
0 4086 4086
571 0 17
579 1 79
569 41 479
599 97 959
690 231 1609
837 443 2428
1155 625 3551
1311 651 4012
1311 651 4012
647 50 6
595 54 75
605 89 529
620 140 997
683 264 1632
831 463 2439
1148 639 3557
1306 665 4013
1306 665 4013
689 605 63
747 670 132
545 545 554
545 524 1173
609 525 1800
774 614 2524
1093 737 3597
1259 761 4014
1259 761 4014
368 1146 161
351 1155 174
489 1131 586
528 1089 1086
572 1070 1660
655 1109 2449
706 945 3769
842 715 4019
842 715 4019
372 1732 400
378 1734 429
571 1733 755
640 1701 1059
701 1696 1663
748 1690 2373
839 1767 3438
803 1778 3986
803 1778 3986
671 2487 987
674 2488 1000
702 2488 1088
742 2472 1275
835 2472 1662
895 2467 2442
886 2501 3416
786 2551 3940
786 2551 3940
842 3607 1533
842 3607 1538
845 3607 1570
854 3606 1661
853 3602 1901
807 3622 2435
667 3660 3612
138 3756 4047
138 3756 4047
786 3957 1751
786 3957 1755
784 3957 1779
777 3957 1849
743 3957 2050
610 3983 2516
419 4001 3616
0 4086 4086
0 4086 4086
786 3957 1751
786 3957 1755
784 3957 1779
777 3957 1849
743 3957 2050
610 3983 2516
419 4001 3616
0 4086 4086
0 4086 4086
1175 43 96
1176 52 145
1172 117 480
1151 157 1017
1126 292 1546
1215 496 2328
1420 693 3461
1555 729 3979
1555 729 3979
1252 41 52
1195 88 136
1209 141 491
1178 175 1039
1132 320 1555
1215 516 2337
1418 708 3467
1552 745 3982
1552 745 3982
1280 492 95
1301 504 141
1193 496 523
1198 477 1066
1172 541 1629
1206 662 2392
1398 805 3503
1529 835 3995
1529 835 3995
1296 1163 210
1347 1215 236
1281 1186 601
1059 1056 1067
1074 1042 1756
1103 1018 2561
1291 1048 3634
1424 1048 4000
1424 1048 4000
808 1766 383
800 1771 384
821 1804 541
998 1764 1104
1028 1722 1677
1037 1699 2425
968 1725 3566
976 1687 4000
976 1687 4000
641 2520 639
637 2520 654
655 2519 800
1044 2509 1283
1122 2470 1665
1181 2475 2444
882 2506 3472
778 2546 3974
778 2546 3974
833 3619 1428
833 3619 1433
836 3619 1470
935 3617 1602
925 3610 1862
926 3626 2420
813 3665 3616
125 3762 4052
125 3762 4052
793 3956 1675
792 3957 1679
790 3957 1705
783 3957 1788
754 3957 2003
616 3981 2490
428 4001 3612
0 4086 4086
0 4086 4086
793 3956 1675
792 3957 1679
790 3957 1705
783 3957 1788
754 3957 2003
616 3981 2490
428 4001 3612
0 4086 4086
0 4086 4086
1880 196 319
1876 211 361
1856 287 594
1834 341 967
1823 385 1608
1765 591 2265
1920 785 3317
2035 875 3905
2035 875 3905
1908 185 282
1899 202 329
1878 285 580
1851 347 970
1840 391 1622
1767 609 2268
1920 800 3321
2034 885 3906
2034 885 3906
1990 325 169
2007 294 172
1880 498 596
1870 521 997
1857 550 1647
1780 740 2292
1922 893 3350
2028 955 3917
2028 955 3917
1986 974 258
2003 973 261
2022 1047 592
1820 994 1024
1848 987 1664
1813 1039 2361
1913 1115 3436
2003 1139 3954
2003 1139 3954
1986 1834 449
2006 1855 456
2132 1991 688
1944 1838 1122
1688 1685 1670
1696 1650 2530
1738 1589 3729
1811 1567 4000
1811 1567 4000
1357 2543 646
1353 2545 646
1329 2555 650
1378 2583 1016
1585 2532 1717
1608 2494 2458
1429 2498 3563
1304 2520 4024
1304 2520 4024
863 3663 794
856 3663 803
835 3654 892
929 3650 1209
1469 3641 1859
1448 3635 2411
1317 3675 3627
597 3776 4066
597 3776 4066
1002 3949 1432
1002 3949 1436
1002 3949 1471
954 3951 1563
1322 3962 1965
1189 3986 2476
1035 4009 3613
484 4095 4086
484 4095 4086
1002 3949 1432
1002 3949 1436
1002 3949 1471
954 3951 1563
1322 3962 1965
1189 3986 2476
1035 4009 3613
484 4095 4086
484 4095 4086
2644 414 685
2642 421 706
2628 464 832
2599 546 1097
2612 599 1535
2577 650 2362
2593 933 3233
2740 989 3792
2740 989 3792
2656 408 663
2651 416 688
2637 460 820
2607 546 1094
2618 601 1537
2582 652 2367
2595 943 3235
2741 998 3794
2741 998 3794
2739 344 463
2736 357 498
2662 547 785
2635 616 1075
2663 617 1551
2616 666 2398
2605 1012 3247
2752 1054 3808
2752 1054 3808
2799 743 346
2806 731 347
2803 737 503
2630 982 1095
2636 1012 1591
2606 1016 2396
2629 1198 3291
2776 1206 3843
2776 1206 3843
2784 1581 488
2790 1582 489
2816 1602 614
2807 1687 1109
2580 1613 1626
2609 1586 2431
2681 1606 3418
2835 1579 3926
2835 1579 3926
2754 2598 686
2760 2604 688
2802 2651 700
2918 2762 1147
2697 2590 1706
2441 2447 2449
2455 2399 3722
2450 2340 4017
2450 2340 4017
2051 3676 793
2050 3676 793
2039 3679 793
2004 3688 830
2030 3712 1439
2179 3692 2432
2032 3699 3636
1606 3768 4067
1606 3768 4067
2058 3962 1400
2056 3962 1400
2057 3963 1435
2032 3964 1489
1996 3963 1730
2037 4003 2466
1839 4025 3607
1578 4095 4095
1578 4095 4095
2058 3962 1400
2056 3962 1400
2057 3963 1435
2032 3964 1489
1996 3963 1730
2037 4003 2466
1839 4025 3607
1578 4095 4095
1578 4095 4095
3644 667 1161
3643 670 1170
3638 689 1227
3625 738 1383
3607 807 1712
3622 817 2326
3655 828 3405
3792 807 3874
3792 807 3874
3649 664 1154
3647 667 1163
3643 687 1220
3629 737 1379
3609 807 1710
3625 817 2328
3658 829 3407
3794 807 3875
3794 807 3875
3685 643 1094
3683 646 1104
3671 670 1171
3653 728 1344
3628 809 1701
3644 818 2334
3674 830 3423
3808 806 3886
3808 806 3886
3781 546 768
3778 551 790
3766 586 912
3663 1009 1326
3645 1054 1700
3688 895 2342
3718 891 3466
3846 859 3913
3846 859 3913
3828 1273 549
3830 1267 548
3844 1230 543
3818 1291 972
3644 1580 1718
3677 1544 2381
3738 1512 3494
3875 1439 3941
3875 1439 3941
3797 2390 702
3799 2390 702
3810 2391 702
3812 2415 1043
3803 2479 1660
3678 2368 2399
3797 2268 3577
3940 2200 3995
3940 2200 3995
3853 3684 796
3854 3685 796
3860 3693 796
3880 3720 801
3925 3796 1476
3831 3707 2326
3635 3643 3630
3705 3636 4070
3705 3636 4070
3537 4035 1808
3537 4035 1808
3535 4035 1808
3536 4037 1878
3529 4042 2001
3516 4057 2394
3422 4088 3621
3276 4095 4095
3276 4095 4095
3537 4035 1808
3537 4035 1808
3535 4035 1808
3536 4037 1878
3529 4042 2001
3516 4057 2394
3422 4088 3621
3276 4095 4095
3276 4095 4095
3907 749 1390
3906 750 1395
3903 762 1435
3891 794 1550
3880 829 1826
3880 840 2408
3896 992 3364
3978 1078 3912
3978 1078 3912
3907 747 1384
3906 749 1390
3904 761 1430
3892 793 1547
3880 829 1824
3880 840 2408
3896 992 3365
3979 1078 3914
3979 1078 3914
3910 734 1339
3909 736 1347
3906 751 1395
3895 786 1519
3880 828 1811
3880 840 2407
3892 1042 3366
3977 1114 3917
3977 1114 3917
3914 885 1238
3914 888 1247
3912 899 1303
3896 972 1473
3880 976 1790
3877 1047 2408
3878 1209 3377
3979 1223 3926
3979 1223 3926
3926 1277 983
3927 1271 982
3922 1293 1067
3915 1230 1160
3874 1556 1817
3871 1520 2425
3882 1513 3420
3988 1521 3949
3988 1521 3949
3884 2399 1418
3884 2398 1418
3881 2406 1477
3880 2398 1528
3871 2383 1749
3877 2333 2432
3913 2176 3536
4027 2187 4004
4027 2187 4004
3961 3679 2065
3961 3679 2065
3962 3682 2067
3967 3694 2123
3970 3731 2289
3976 3726 2508
4048 3621 3605
4086 3596 4067
4086 3596 4067
4093 4085 3069
4093 4085 3069
4093 4085 3070
4093 4085 3113
4095 4087 3207
4095 4089 3274
4095 4092 3624
4095 4095 4095
4095 4095 4095
4093 4085 3069
4093 4085 3069
4093 4085 3070
4093 4085 3113
4095 4087 3207
4095 4089 3274
4095 4092 3624
4095 4095 4095
4095 4095 4095
3907 749 1390
3906 750 1395
3903 762 1435
3891 794 1550
3880 829 1826
3880 840 2408
3896 992 3364
3978 1078 3912
3978 1078 3912
3907 747 1384
3906 749 1390
3904 761 1430
3892 793 1547
3880 829 1824
3880 840 2408
3896 992 3365
3979 1078 3914
3979 1078 3914
3910 734 1339
3909 736 1347
3906 751 1395
3895 786 1519
3880 828 1811
3880 840 2407
3892 1042 3366
3977 1114 3917
3977 1114 3917
3914 885 1238
3914 888 1247
3912 899 1303
3896 972 1473
3880 976 1790
3877 1047 2408
3878 1209 3377
3979 1223 3926
3979 1223 3926
3926 1277 983
3927 1271 982
3922 1293 1067
3915 1230 1160
3874 1556 1817
3871 1520 2425
3882 1513 3420
3988 1521 3949
3988 1521 3949
3884 2399 1418
3884 2398 1418
3881 2406 1477
3880 2398 1528
3871 2383 1749
3877 2333 2432
3913 2176 3536
4027 2187 4004
4027 2187 4004
3961 3679 2065
3961 3679 2065
3962 3682 2067
3967 3694 2123
3970 3731 2289
3976 3726 2508
4048 3621 3605
4086 3596 4067
4086 3596 4067
4093 4085 3069
4093 4085 3069
4093 4085 3070
4093 4085 3113
4095 4087 3207
4095 4089 3274
4095 4092 3624
4095 4095 4095
4095 4095 4095
4093 4085 3069
4093 4085 3069
4093 4085 3070
4093 4085 3113
4095 4087 3207
4095 4089 3274
4095 4092 3624
4095 4095 4095
4095 4095 4095
