Postproduction/IWLTBAP - Humble/LUTs by IWLTBAP (3DL)/UTILITY/Panasonic V-Log to Rec.709/U-PANASONIC-V-LOG-V6-LTR.3dl
# Copyright: (C) Copyright 2010-2018 by IWLTBAP SAS
# Cannot be resold, shared or otherwise redistributed
# Website: https://luts.iwltbap.com
0 64 128 192 256 320 384 448 512 576 640 704 768 832 896 960 1023
0 0 0
0 0 2
7 8 100
36 44 246
64 78 341
100 120 451
152 180 618
195 231 766
225 266 870
258 304 985
280 330 1063
315 371 1188
350 412 1311
388 458 1451
433 511 1614
452 534 1682
461 544 1715
0 3 1
1 3 2
5 7 67
64 79 345
120 144 514
155 185 631
185 219 731
215 255 837
252 297 963
275 325 1047
307 362 1160
339 399 1273
373 439 1394
418 493 1558
442 522 1647
459 542 1708
461 544 1715
11 60 13
12 62 15
12 63 55
34 95 275
86 145 453
129 178 569
161 203 663
201 237 785
235 278 906
268 316 1020
311 367 1174
349 412 1310
400 472 1493
440 519 1637
455 537 1693
461 544 1715
461 544 1715
63 291 73
68 312 80
65 307 88
29 307 304
36 320 485
72 337 617
111 355 729
147 373 835
182 396 946
227 430 1093
258 454 1193
310 495 1363
361 536 1527
410 582 1691
434 595 1756
447 586 1764
455 562 1736
119 483 138
125 499 144
123 497 145
77 502 324
46 511 519
50 518 681
79 526 797
116 539 909
153 557 1025
197 583 1166
231 607 1283
282 646 1458
328 685 1623
379 732 1807
407 755 1906
419 754 1936
419 745 1928
179 659 206
182 669 210
181 668 210
145 682 352
103 699 540
70 713 732
68 721 881
95 730 1006
133 744 1125
175 762 1256
215 785 1387
265 819 1557
313 857 1728
373 908 1941
405 935 2056
417 946 2101
417 940 2096
236 837 272
237 842 274
238 843 274
212 862 392
174 885 567
130 907 762
98 925 944
90 938 1102
113 949 1239
155 965 1370
200 985 1515
246 1012 1667
297 1047 1843
353 1091 2039
399 1131 2204
414 1145 2262
414 1145 2262
296 1026 341
297 1029 342
298 1031 343
276 1052 451
243 1080 614
205 1107 798
166 1133 982
128 1156 1176
114 1175 1358
138 1190 1509
185 1208 1659
230 1232 1809
285 1265 1993
345 1308 2200
391 1346 2365
409 1364 2431
408 1368 2434
362 1234 416
363 1239 418
363 1239 418
344 1263 524
316 1295 676
281 1328 856
246 1358 1033
205 1388 1231
162 1418 1447
142 1442 1657
169 1462 1827
217 1483 1983
274 1515 2172
335 1554 2381
381 1591 2545
400 1612 2615
399 1621 2622
441 1485 507
442 1490 509
444 1495 511
425 1520 617
402 1558 762
369 1594 940
338 1631 1111
301 1668 1306
257 1707 1525
204 1751 1797
179 1787 2016
204 1818 2224
261 1853 2419
328 1899 2651
367 1940 2799
383 1972 2872
383 1989 2884
542 1808 623
544 1814 625
544 1815 625
528 1844 731
502 1884 888
473 1924 1057
444 1962 1221
410 2003 1413
369 2045 1630
311 2097 1922
267 2137 2151
221 2185 2461
251 2220 2697
323 2258 2940
354 2288 3055
365 2312 3106
364 2330 3118
655 2167 752
657 2174 754
658 2178 756
641 2211 868
617 2254 1026
589 2298 1196
563 2341 1360
530 2389 1552
493 2439 1769
441 2499 2056
395 2547 2301
329 2611 2645
273 2671 2999
305 2708 3259
337 2731 3341
344 2754 3360
345 2780 3366
797 2621 914
799 2628 917
802 2638 920
784 2671 1038
762 2719 1191
738 2769 1360
712 2817 1530
680 2870 1727
642 2924 1954
596 2987 2221
546 3044 2489
493 3102 2781
458 3175 3059
440 3233 3261
443 3274 3346
458 3305 3334
474 3336 3321
961 3148 1103
963 3153 1104
965 3160 1107
950 3198 1220
924 3249 1395
900 3296 1552
865 3335 1732
833 3377 1909
813 3429 2080
802 3482 2229
808 3533 2425
855 3554 2645
905 3533 2909
952 3555 3057
981 3567 3119
981 3567 3119
981 3567 3119
987 3229 1132
987 3229 1132
987 3229 1132
972 3260 1233
941 3318 1433
910 3358 1605
872 3393 1786
845 3431 1948
829 3487 2123
820 3530 2268
848 3562 2492
897 3552 2709
944 3543 2971
978 3565 3107
982 3567 3119
982 3567 3119
982 3567 3119
987 3229 1132
987 3229 1132
987 3229 1132
967 3270 1267
939 3322 1448
902 3365 1640
865 3400 1819
840 3445 1992
826 3500 2163
820 3545 2334
870 3566 2576
913 3530 2827
959 3553 3032
982 3567 3119
982 3567 3119
982 3567 3119
982 3567 3119
987 3229 1132
987 3229 1132
987 3229 1132
961 3282 1306
938 3322 1451
896 3370 1668
861 3404 1841
837 3457 2029
823 3513 2206
829 3556 2409
890 3563 2662
937 3539 2941
974 3562 3091
982 3567 3119
982 3567 3119
982 3567 3119
982 3567 3119
3 0 0
3 0 2
7 5 63
32 36 221
70 78 343
130 141 513
158 188 640
204 242 798
234 276 901
262 309 999
286 337 1084
319 376 1201
356 419 1333
392 463 1466
435 514 1621
454 536 1688
461 544 1715
3 3 1
4 3 3
15 16 143
70 85 360
117 141 506
153 182 623
189 224 744
225 266 871
263 310 1003
283 333 1073
315 372 1188
345 406 1294
379 447 1416
421 498 1572
444 524 1653
460 543 1712
461 544 1715
13 56 12
18 91 20
15 79 69
44 103 314
97 149 478
140 181 596
179 214 712
216 255 839
259 306 990
280 330 1064
329 387 1236
372 438 1392
404 477 1509
441 521 1643
458 541 1703
461 544 1715
461 544 1715
64 286 71
69 313 80
70 320 85
30 319 314
42 333 525
86 348 662
125 362 770
163 384 887
203 408 1010
241 434 1130
283 466 1265
328 501 1409
365 535 1532
426 574 1706
450 579 1755
449 579 1756
457 556 1728
120 482 137
125 502 145
128 510 149
88 515 301
47 523 530
53 527 707
87 534 827
128 548 948
164 564 1061
209 591 1209
247 616 1335
294 653 1497
343 693 1671
392 738 1848
416 752 1926
419 750 1933
420 743 1926
179 659 206
183 674 211
185 679 213
157 689 321
110 708 526
71 722 740
70 730 899
100 738 1029
140 750 1150
186 770 1294
223 791 1416
272 824 1582
323 863 1760
375 909 1949
406 935 2058
417 943 2099
417 937 2094
237 840 273
240 849 276
240 851 277
221 866 367
183 891 544
135 914 755
99 933 951
91 945 1119
118 956 1259
162 971 1397
205 991 1534
252 1018 1690
304 1053 1867
367 1102 2089
399 1131 2207
414 1142 2260
414 1144 2261
297 1030 342
299 1036 345
300 1037 345
283 1054 428
252 1084 590
211 1114 784
169 1141 980
130 1164 1184
115 1182 1372
143 1197 1530
188 1214 1674
238 1239 1837
291 1271 2016
357 1318 2242
391 1346 2366
409 1364 2431
408 1368 2434
363 1238 418
365 1244 420
366 1248 421
352 1264 499
322 1298 658
286 1332 844
250 1364 1025
208 1395 1229
163 1425 1455
143 1450 1675
171 1469 1840
223 1491 2006
279 1522 2193
344 1563 2413
384 1595 2556
400 1614 2617
399 1622 2623
442 1489 508
445 1497 511
447 1505 514
433 1523 595
409 1564 743
375 1602 926
344 1641 1102
305 1677 1302
261 1717 1526
206 1764 1809
180 1799 2029
207 1830 2243
265 1864 2440
337 1914 2689
370 1948 2812
383 1974 2874
382 1994 2887
544 1812 625
545 1818 627
546 1822 628
536 1844 700
508 1885 866
479 1927 1040
450 1968 1208
413 2007 1408
373 2053 1625
314 2104 1924
268 2145 2159
222 2194 2475
253 2227 2711
327 2266 2955
356 2295 3066
365 2317 3110
364 2335 3122
656 2173 754
658 2179 756
661 2188 759
651 2212 835
625 2257 1001
597 2304 1176
569 2348 1346
537 2397 1539
496 2444 1766
444 2506 2055
398 2557 2304
331 2621 2654
274 2680 3013
306 2715 3266
339 2737 3346
345 2761 3362
346 2784 3367
798 2626 916
800 2633 919
804 2644 922
795 2672 998
767 2722 1181
741 2773 1355
716 2822 1523
684 2876 1722
649 2934 1944
601 2998 2217
551 3055 2486
499 3115 2779
463 3186 3062
445 3243 3260
448 3283 3343
462 3313 3331
479 3345 3316
963 3152 1104
965 3158 1106
967 3165 1109
953 3199 1212
935 3250 1356
903 3299 1544
873 3340 1709
840 3382 1890
819 3433 2061
805 3485 2225
811 3536 2421
861 3557 2642
912 3533 2908
958 3556 3058
981 3567 3119
981 3567 3119
981 3567 3119
987 3229 1132
987 3229 1132
987 3229 1132
973 3257 1223
949 3305 1388
917 3350 1568
878 3387 1755
846 3430 1942
830 3486 2119
820 3529 2264
845 3562 2482
897 3553 2708
944 3543 2971
979 3565 3108
982 3567 3119
982 3567 3119
982 3567 3119
987 3229 1132
987 3229 1132
987 3229 1132
970 3265 1249
940 3319 1440
911 3356 1598
867 3398 1810
843 3437 1968
827 3499 2160
820 3544 2328
866 3566 2560
912 3530 2824
959 3552 3029
982 3567 3119
982 3567 3119
982 3567 3119
982 3567 3119
987 3229 1132
987 3229 1132
987 3229 1132
975 3254 1212
940 3320 1442
906 3361 1623
863 3402 1831
837 3455 2025
824 3508 2189
828 3556 2404
886 3565 2643
935 3538 2932
974 3562 3090
982 3567 3119
982 3567 3119
982 3567 3119
982 3567 3119
175 8 29
175 8 30
160 12 82
218 43 280
267 93 453
282 143 587
269 195 716
248 235 804
246 271 893
265 312 1009
288 340 1092
328 387 1234
363 428 1359
402 475 1503
439 518 1634
456 538 1696
461 544 1715
156 8 25
257 18 53
248 27 168
260 72 392
245 129 538
210 175 636
186 220 733
222 263 860
264 311 1006
293 345 1108
321 379 1210
354 417 1325
385 454 1441
428 506 1596
447 528 1664
461 544 1715
461 544 1715
150 42 22
167 45 25
127 42 51
133 73 312
147 129 477
145 169 584
177 210 704
214 253 831
258 305 987
295 348 1116
343 404 1287
390 460 1459
427 504 1593
445 526 1659
460 543 1711
461 544 1715
461 544 1715
186 272 38
134 294 56
78 307 77
31 307 298
42 322 514
87 339 657
130 357 779
172 379 904
221 411 1056
260 435 1173
302 467 1307
352 503 1458
398 543 1608
447 556 1712
454 566 1741
460 548 1719
461 544 1715
216 489 87
129 499 141
129 511 148
91 515 286
48 525 530
56 532 724
97 540 857
142 553 990
188 576 1136
228 599 1266
267 625 1398
308 657 1541
362 701 1730
401 734 1869
418 747 1926
420 729 1914
422 716 1901
222 678 169
184 675 211
188 689 217
175 696 272
119 717 504
74 736 751
74 744 934
111 749 1069
154 761 1199
203 781 1351
242 804 1480
290 835 1643
336 871 1805
394 918 2010
413 934 2078
417 932 2090
418 924 2083
241 844 269
241 854 278
245 866 282
244 870 293
198 900 502
146 929 737
102 947 962
94 959 1147
126 968 1293
179 984 1455
215 999 1570
269 1031 1750
321 1066 1927
380 1112 2135
405 1133 2225
415 1138 2256
415 1137 2256
298 1033 343
301 1042 347
304 1053 351
303 1056 359
266 1090 548
223 1124 756
177 1153 972
132 1178 1196
116 1195 1397
153 1210 1572
195 1223 1701
247 1248 1871
303 1281 2059
373 1332 2301
400 1354 2398
409 1363 2431
409 1366 2432
365 1243 420
367 1251 422
370 1260 426
370 1265 433
338 1303 608
300 1341 808
259 1375 1009
214 1407 1226
165 1438 1466
146 1464 1707
176 1480 1861
232 1503 2042
288 1532 2228
357 1576 2463
388 1601 2571
400 1616 2618
399 1623 2623
445 1498 511
448 1507 515
452 1520 519
451 1530 536
421 1573 715
390 1618 897
355 1657 1087
317 1698 1292
271 1740 1527
210 1786 1828
182 1820 2054
212 1850 2275
272 1882 2475
343 1928 2718
374 1961 2836
383 1984 2880
382 1999 2891
546 1819 627
547 1824 629
550 1834 632
548 1842 652
523 1887 817
491 1933 1003
458 1975 1189
423 2019 1389
380 2065 1618
319 2118 1926
270 2160 2173
223 2209 2499
258 2241 2738
330 2277 2976
359 2305 3082
365 2324 3115
364 2342 3127
660 2183 757
661 2188 759
665 2199 763
663 2211 787
636 2262 965
607 2311 1148
578 2357 1327
546 2407 1524
507 2460 1749
451 2521 2052
403 2571 2308
333 2637 2670
275 2697 3039
309 2728 3279
342 2749 3354
345 2771 3364
346 2793 3369
802 2638 920
804 2644 922
808 2656 927
810 2672 940
786 2729 1118
752 2782 1325
726 2833 1503
695 2889 1702
659 2949 1928
610 3016 2212
557 3068 2483
506 3130 2777
470 3205 3067
452 3260 3259
455 3297 3337
469 3326 3325
486 3357 3311
966 3162 1108
967 3166 1109
970 3177 1113
967 3193 1149
940 3252 1339
915 3304 1510
884 3346 1680
848 3389 1868
824 3437 2048
813 3494 2210
818 3544 2408
872 3561 2635
922 3534 2908
967 3558 3061
981 3567 3119
981 3567 3119
981 3567 3119
987 3229 1132
987 3229 1132
987 3229 1132
986 3231 1139
952 3300 1367
920 3347 1553
886 3379 1717
849 3422 1916
832 3478 2093
821 3524 2246
843 3561 2474
896 3554 2704
944 3543 2970
979 3565 3109
982 3567 3119
982 3567 3119
982 3567 3119
987 3229 1132
987 3229 1132
987 3229 1132
982 3238 1161
952 3300 1369
914 3353 1583
876 3389 1767
844 3434 1957
828 3493 2141
819 3539 2304
864 3565 2552
909 3531 2804
958 3552 3028
982 3567 3119
982 3567 3119
982 3567 3119
982 3567 3119
987 3229 1132
987 3229 1132
987 3229 1132
980 3243 1177
944 3314 1420
909 3358 1607
866 3399 1816
840 3445 1993
825 3506 2182
824 3552 2374
884 3566 2635
934 3537 2926
972 3561 3084
982 3567 3119
982 3567 3119
982 3567 3119
982 3567 3119
399 46 111
416 50 119
427 54 185
465 79 382
488 117 555
481 156 679
468 193 779
459 227 871
453 265 970
459 306 1081
461 337 1164
468 384 1291
463 437 1433
492 487 1578
522 525 1691
492 546 1732
483 546 1730
372 41 99
480 66 148
473 65 197
502 91 424
504 130 602
480 172 724
452 214 835
421 258 942
387 309 1063
328 352 1145
332 386 1234
366 431 1370
400 473 1496
435 513 1620
451 533 1680
461 544 1715
