Postproduction/IWLTBAP - Humble/LUTs by IWLTBAP (3DL)/UTILITY/Panasonic V-Log to Rec.709/U-PANASONIC-V-LOG-V5-LTR.3dl
# Copyright: (C) Copyright 2010-2018 by IWLTBAP SAS
# Cannot be resold, shared or otherwise redistributed
# Website: https://luts.iwltbap.com
0 256 512 768 1023
0 0 0
0 0 256
0 0 2058
0 0 3840
0 0 4095
0 448 0
0 348 202
0 0 2039
0 0 3826
0 0 4095
0 2296 0
0 2261 0
0 2044 1923
0 1739 3762
0 1840 4095
0 4095 0
0 4093 0
0 3974 1916
0 3725 3629
0 3779 4095
0 4095 0
0 4095 0
0 4095 2108
0 4095 3735
0 4095 4095
505 0 0
475 0 260
463 0 2060
0 0 3841
262 0 4095
352 435 0
512 528 408
461 0 2308
0 0 3987
362 0 4095
0 2291 0
0 2523 190
0 2295 2187
0 2063 3915
0 2256 4095
0 4095 0
0 4095 0
0 4095 2213
0 3874 3788
0 3926 4095
0 4095 0
0 4095 0
0 4095 2444
0 4095 3877
0 4095 4095
2471 0 0
2460 0 500
2397 0 2069
2545 0 3847
2796 0 4095
2418 553 0
2685 650 668
2616 0 2319
2758 0 3993
3006 0 4095
2088 2264 0
2335 2494 241
2508 2516 2460
2629 2351 4038
2876 2595 4095
1349 4095 0
1748 4095 0
2033 4095 2520
1834 3973 3921
2255 4015 4095
1275 4095 0
1894 4095 0
2281 4095 2773
2123 4095 3993
2086 4095 4095
4095 0 0
4095 0 793
4095 0 2363
4095 0 3858
4095 0 4095
4095 596 0
4095 715 965
4095 0 2604
4095 0 4004
4095 0 4095
4095 2480 0
4095 2703 594
4095 2715 2736
4095 2287 4049
4095 2543 4095
3806 4067 0
3952 4095 0
4019 4095 2538
4033 4034 4027
4090 4070 4095
3805 4095 0
3963 4095 0
4028 4095 2789
4049 4095 4081
4038 4095 4095
4095 0 79
4095 0 1058
4095 0 2640
4095 0 4026
4095 0 4095
4095 838 0
4095 972 1224
4095 0 2869
4095 0 4095
4095 0 4095
4095 2739 0
4095 2955 881
4095 2963 2992
4095 2616 4095
4095 2531 4095
4095 4095 0
4095 4095 73
4095 4095 2829
4095 4095 4095
4095 4065 4095
4095 4095 0
4095 4095 0
4095 4095 2792
4095 4095 4082
4095 4095 4095
