Postproduction/IWLTBAP - Humble/LUTs by IWLTBAP (CUBE)/UTILITY/Canon C-Log to Rec.709/U-CANON-C-LOG-V4-LTR.cube
# Copyright: (C) Copyright 2010-2018 by IWLTBAP SAS
# Cannot be resold, shared or otherwise redistributed
# Website: https://luts.iwltbap.com
TITLE "Canon C-Log V4 (Utility LOG to Rec.709)"
LUT_3D_SIZE 8
DOMAIN_MIN 0.000000 0.000000 0.000000
DOMAIN_MAX 0.903226 0.903226 0.903226
0.003906 0.003906 0.003906
0.070709 0.003906 0.003906
0.304443 0.003906 0.003906
0.499481 0.003906 0.003906
0.661407 0.003906 0.003906
0.786957 0.003906 0.003906
0.882904 0.003906 0.003906
0.953094 0.003906 0.003906
0.003906 0.070709 0.003906
0.070709 0.070709 0.003906
0.304443 0.070709 0.003906
0.499481 0.070709 0.003906
0.661407 0.070709 0.003906
0.786957 0.070709 0.003906
0.882904 0.070709 0.003906
0.953094 0.070709 0.003906
0.003906 0.304443 0.003906
0.070709 0.304443 0.003906
0.304443 0.304443 0.003906
0.499481 0.304443 0.003906
0.661407 0.304443 0.003906
0.786957 0.304443 0.003906
0.882904 0.304443 0.003906
0.953094 0.304443 0.003906
0.003906 0.499481 0.003906
0.070709 0.499481 0.003906
0.304443 0.499481 0.003906
0.499481 0.499481 0.003906
0.661407 0.499481 0.003906
0.786957 0.499481 0.003906
0.882904 0.499481 0.003906
0.953094 0.499481 0.003906
0.003906 0.661407 0.003906
0.070709 0.661407 0.003906
0.304443 0.661407 0.003906
0.499481 0.661407 0.003906
0.661407 0.661407 0.003906
0.786957 0.661407 0.003906
0.882904 0.661407 0.003906
0.953094 0.661407 0.003906
0.003906 0.786957 0.003906
0.070709 0.786957 0.003906
0.304443 0.786957 0.003906
0.499481 0.786957 0.003906
0.661407 0.786957 0.003906
0.786957 0.786957 0.003906
0.882904 0.786957 0.003906
0.953094 0.786957 0.003906
0.003906 0.882904 0.003906
0.070709 0.882904 0.003906
0.304443 0.882904 0.003906
0.499481 0.882904 0.003906
0.661407 0.882904 0.003906
0.786957 0.882904 0.003906
0.882904 0.882904 0.003906
0.953094 0.882904 0.003906
0.003906 0.953094 0.003906
0.070709 0.953094 0.003906
0.304443 0.953094 0.003906
0.499481 0.953094 0.003906
0.661407 0.953094 0.003906
0.786957 0.953094 0.003906
0.882904 0.953094 0.003906
0.953094 0.953094 0.003906
0.003906 0.003906 0.070709
0.070709 0.003906 0.070709
0.304443 0.003906 0.070709
0.499481 0.003906 0.070709
0.661407 0.003906 0.070709
0.786957 0.003906 0.070709
0.882904 0.003906 0.070709
0.953094 0.003906 0.070709
0.003906 0.070709 0.070709
0.070709 0.070709 0.070709
0.304443 0.070709 0.070709
0.499481 0.070709 0.070709
0.661407 0.070709 0.070709
0.786957 0.070709 0.070709
0.882904 0.070709 0.070709
0.953094 0.070709 0.070709
0.003906 0.304443 0.070709
0.070709 0.304443 0.070709
0.304443 0.304443 0.070709
0.499481 0.304443 0.070709
0.661407 0.304443 0.070709
0.786957 0.304443 0.070709
0.882904 0.304443 0.070709
0.953094 0.304443 0.070709
0.003906 0.499481 0.070709
0.070709 0.499481 0.070709
0.304443 0.499481 0.070709
0.499481 0.499481 0.070709
0.661407 0.499481 0.070709
0.786957 0.499481 0.070709
0.882904 0.499481 0.070709
0.953094 0.499481 0.070709
0.003906 0.661407 0.070709
0.070709 0.661407 0.070709
0.304443 0.661407 0.070709
0.499481 0.661407 0.070709
0.661407 0.661407 0.070709
0.786957 0.661407 0.070709
0.882904 0.661407 0.070709
0.953094 0.661407 0.070709
0.003906 0.786957 0.070709
0.070709 0.786957 0.070709
0.304443 0.786957 0.070709
0.499481 0.786957 0.070709
0.661407 0.786957 0.070709
0.786957 0.786957 0.070709
0.882904 0.786957 0.070709
0.953094 0.786957 0.070709
0.003906 0.882904 0.070709
0.070709 0.882904 0.070709
0.304443 0.882904 0.070709
0.499481 0.882904 0.070709
0.661407 0.882904 0.070709
0.786957 0.882904 0.070709
0.882904 0.882904 0.070709
0.953094 0.882904 0.070709
0.003906 0.953094 0.070709
0.070709 0.953094 0.070709
0.304443 0.953094 0.070709
0.499481 0.953094 0.070709
0.661407 0.953094 0.070709
0.786957 0.953094 0.070709
0.882904 0.953094 0.070709
0.953094 0.953094 0.070709
0.003906 0.003906 0.304443
0.070709 0.003906 0.304443
0.304443 0.003906 0.304443
0.499481 0.003906 0.304443
0.661407 0.003906 0.304443
0.786957 0.003906 0.304443
0.882904 0.003906 0.304443
0.953094 0.003906 0.304443
0.003906 0.070709 0.304443
0.070709 0.070709 0.304443
0.304443 0.070709 0.304443
0.499481 0.070709 0.304443
0.661407 0.070709 0.304443
0.786957 0.070709 0.304443
0.882904 0.070709 0.304443
0.953094 0.070709 0.304443
0.003906 0.304443 0.304443
0.070709 0.304443 0.304443
0.304443 0.304443 0.304443
0.499481 0.304443 0.304443
0.661407 0.304443 0.304443
0.786957 0.304443 0.304443
0.882904 0.304443 0.304443
0.953094 0.304443 0.304443
0.003906 0.499481 0.304443
0.070709 0.499481 0.304443
0.304443 0.499481 0.304443
0.499481 0.499481 0.304443
0.661407 0.499481 0.304443
0.786957 0.499481 0.304443
0.882904 0.499481 0.304443
0.953094 0.499481 0.304443
0.003906 0.661407 0.304443
0.070709 0.661407 0.304443
0.304443 0.661407 0.304443
0.499481 0.661407 0.304443
0.661407 0.661407 0.304443
0.786957 0.661407 0.304443
0.882904 0.661407 0.304443
0.953094 0.661407 0.304443
0.003906 0.786957 0.304443
0.070709 0.786957 0.304443
0.304443 0.786957 0.304443
0.499481 0.786957 0.304443
0.661407 0.786957 0.304443
0.786957 0.786957 0.304443
0.882904 0.786957 0.304443
0.953094 0.786957 0.304443
0.003906 0.882904 0.304443
0.070709 0.882904 0.304443
0.304443 0.882904 0.304443
0.499481 0.882904 0.304443
0.661407 0.882904 0.304443
0.786957 0.882904 0.304443
0.882904 0.882904 0.304443
0.953094 0.882904 0.304443
0.003906 0.953094 0.304443
0.070709 0.953094 0.304443
0.304443 0.953094 0.304443
0.499481 0.953094 0.304443
0.661407 0.953094 0.304443
0.786957 0.953094 0.304443
0.882904 0.953094 0.304443
0.953094 0.953094 0.304443
0.003906 0.003906 0.499481
0.070709 0.003906 0.499481
0.304443 0.003906 0.499481
0.499481 0.003906 0.499481
0.661407 0.003906 0.499481
0.786957 0.003906 0.499481
0.882904 0.003906 0.499481
0.953094 0.003906 0.499481
0.003906 0.070709 0.499481
0.070709 0.070709 0.499481
0.304443 0.070709 0.499481
0.499481 0.070709 0.499481
0.661407 0.070709 0.499481
0.786957 0.070709 0.499481
0.882904 0.070709 0.499481
0.953094 0.070709 0.499481
0.003906 0.304443 0.499481
0.070709 0.304443 0.499481
0.304443 0.304443 0.499481
0.499481 0.304443 0.499481
0.661407 0.304443 0.499481
0.786957 0.304443 0.499481
0.882904 0.304443 0.499481
0.953094 0.304443 0.499481
0.003906 0.499481 0.499481
0.070709 0.499481 0.499481
0.304443 0.499481 0.499481
0.499481 0.499481 0.499481
0.661407 0.499481 0.499481
0.786957 0.499481 0.499481
0.882904 0.499481 0.499481
0.953094 0.499481 0.499481
0.003906 0.661407 0.499481
0.070709 0.661407 0.499481
0.304443 0.661407 0.499481
0.499481 0.661407 0.499481
0.661407 0.661407 0.499481
0.786957 0.661407 0.499481
0.882904 0.661407 0.499481
0.953094 0.661407 0.499481
0.003906 0.786957 0.499481
0.070709 0.786957 0.499481
0.304443 0.786957 0.499481
0.499481 0.786957 0.499481
0.661407 0.786957 0.499481
0.786957 0.786957 0.499481
0.882904 0.786957 0.499481
0.953094 0.786957 0.499481
0.003906 0.882904 0.499481
0.070709 0.882904 0.499481
0.304443 0.882904 0.499481
0.499481 0.882904 0.499481
0.661407 0.882904 0.499481
0.786957 0.882904 0.499481
0.882904 0.882904 0.499481
0.953094 0.882904 0.499481
0.003906 0.953094 0.499481
0.070709 0.953094 0.499481
0.304443 0.953094 0.499481
0.499481 0.953094 0.499481
0.661407 0.953094 0.499481
0.786957 0.953094 0.499481
0.882904 0.953094 0.499481
0.953094 0.953094 0.499481
0.003906 0.003906 0.661407
0.070709 0.003906 0.661407
0.304443 0.003906 0.661407
0.499481 0.003906 0.661407
0.661407 0.003906 0.661407
0.786957 0.003906 0.661407
0.882904 0.003906 0.661407
0.953094 0.003906 0.661407
0.003906 0.070709 0.661407
0.070709 0.070709 0.661407
0.304443 0.070709 0.661407
0.499481 0.070709 0.661407
0.661407 0.070709 0.661407
0.786957 0.070709 0.661407
0.882904 0.070709 0.661407
0.953094 0.070709 0.661407
0.003906 0.304443 0.661407
0.070709 0.304443 0.661407
0.304443 0.304443 0.661407
0.499481 0.304443 0.661407
0.661407 0.304443 0.661407
0.786957 0.304443 0.661407
0.882904 0.304443 0.661407
0.953094 0.304443 0.661407
0.003906 0.499481 0.661407
0.070709 0.499481 0.661407
0.304443 0.499481 0.661407
0.499481 0.499481 0.661407
0.661407 0.499481 0.661407
0.786957 0.499481 0.661407
0.882904 0.499481 0.661407
0.953094 0.499481 0.661407
0.003906 0.661407 0.661407
0.070709 0.661407 0.661407
0.304443 0.661407 0.661407
0.499481 0.661407 0.661407
0.661407 0.661407 0.661407
0.786957 0.661407 0.661407
0.882904 0.661407 0.661407
0.953094 0.661407 0.661407
0.003906 0.786957 0.661407
0.070709 0.786957 0.661407
0.304443 0.786957 0.661407
0.499481 0.786957 0.661407
0.661407 0.786957 0.661407
0.786957 0.786957 0.661407
0.882904 0.786957 0.661407
0.953094 0.786957 0.661407
0.003906 0.882904 0.661407
0.070709 0.882904 0.661407
0.304443 0.882904 0.661407
0.499481 0.882904 0.661407
0.661407 0.882904 0.661407
0.786957 0.882904 0.661407
0.882904 0.882904 0.661407
0.953094 0.882904 0.661407
0.003906 0.953094 0.661407
0.070709 0.953094 0.661407
0.304443 0.953094 0.661407
0.499481 0.953094 0.661407
0.661407 0.953094 0.661407
0.786957 0.953094 0.661407
0.882904 0.953094 0.661407
0.953094 0.953094 0.661407
0.003906 0.003906 0.786957
0.070709 0.003906 0.786957
0.304443 0.003906 0.786957
0.499481 0.003906 0.786957
0.661407 0.003906 0.786957
0.786957 0.003906 0.786957
0.882904 0.003906 0.786957
0.953094 0.003906 0.786957
0.003906 0.070709 0.786957
0.070709 0.070709 0.786957
0.304443 0.070709 0.786957
0.499481 0.070709 0.786957
0.661407 0.070709 0.786957
0.786957 0.070709 0.786957
0.882904 0.070709 0.786957
0.953094 0.070709 0.786957
0.003906 0.304443 0.786957
0.070709 0.304443 0.786957
0.304443 0.304443 0.786957
0.499481 0.304443 0.786957
0.661407 0.304443 0.786957
0.786957 0.304443 0.786957
0.882904 0.304443 0.786957
0.953094 0.304443 0.786957
0.003906 0.499481 0.786957
0.070709 0.499481 0.786957
0.304443 0.499481 0.786957
0.499481 0.499481 0.786957
0.661407 0.499481 0.786957
0.786957 0.499481 0.786957
0.882904 0.499481 0.786957
0.953094 0.499481 0.786957
0.003906 0.661407 0.786957
0.070709 0.661407 0.786957
0.304443 0.661407 0.786957
0.499481 0.661407 0.786957
0.661407 0.661407 0.786957
0.786957 0.661407 0.786957
0.882904 0.661407 0.786957
0.953094 0.661407 0.786957
0.003906 0.786957 0.786957
0.070709 0.786957 0.786957
0.304443 0.786957 0.786957
0.499481 0.786957 0.786957
0.661407 0.786957 0.786957
0.786957 0.786957 0.786957
0.882904 0.786957 0.786957
0.953094 0.786957 0.786957
0.003906 0.882904 0.786957
0.070709 0.882904 0.786957
0.304443 0.882904 0.786957
0.499481 0.882904 0.786957
0.661407 0.882904 0.786957
0.786957 0.882904 0.786957
0.882904 0.882904 0.786957
0.953094 0.882904 0.786957
0.003906 0.953094 0.786957
0.070709 0.953094 0.786957
0.304443 0.953094 0.786957
0.499481 0.953094 0.786957
0.661407 0.953094 0.786957
0.786957 0.953094 0.786957
0.882904 0.953094 0.786957
0.953094 0.953094 0.786957
0.003906 0.003906 0.882904
0.070709 0.003906 0.882904
0.304443 0.003906 0.882904
0.499481 0.003906 0.882904
0.661407 0.003906 0.882904
0.786957 0.003906 0.882904
0.882904 0.003906 0.882904
0.953094 0.003906 0.882904
0.003906 0.070709 0.882904
0.070709 0.070709 0.882904
0.304443 0.070709 0.882904
0.499481 0.070709 0.882904
0.661407 0.070709 0.882904
0.786957 0.070709 0.882904
0.882904 0.070709 0.882904
0.953094 0.070709 0.882904
0.003906 0.304443 0.882904
0.070709 0.304443 0.882904
0.304443 0.304443 0.882904
0.499481 0.304443 0.882904
0.661407 0.304443 0.882904
0.786957 0.304443 0.882904
0.882904 0.304443 0.882904
0.953094 0.304443 0.882904
0.003906 0.499481 0.882904
0.070709 0.499481 0.882904
0.304443 0.499481 0.882904
0.499481 0.499481 0.882904
0.661407 0.499481 0.882904
0.786957 0.499481 0.882904
0.882904 0.499481 0.882904
0.953094 0.499481 0.882904
0.003906 0.661407 0.882904
0.070709 0.661407 0.882904
0.304443 0.661407 0.882904
0.499481 0.661407 0.882904
0.661407 0.661407 0.882904
0.786957 0.661407 0.882904
0.882904 0.661407 0.882904
0.953094 0.661407 0.882904
0.003906 0.786957 0.882904
0.070709 0.786957 0.882904
0.304443 0.786957 0.882904
0.499481 0.786957 0.882904
0.661407 0.786957 0.882904
0.786957 0.786957 0.882904
0.882904 0.786957 0.882904
0.953094 0.786957 0.882904
0.003906 0.882904 0.882904
0.070709 0.882904 0.882904
0.304443 0.882904 0.882904
0.499481 0.882904 0.882904
0.661407 0.882904 0.882904
0.786957 0.882904 0.882904
0.882904 0.882904 0.882904
0.953094 0.882904 0.882904
0.003906 0.953094 0.882904
0.070709 0.953094 0.882904
0.304443 0.953094 0.882904
0.499481 0.953094 0.882904
0.661407 0.953094 0.882904
0.786957 0.953094 0.882904
0.882904 0.953094 0.882904
0.953094 0.953094 0.882904
0.003906 0.003906 0.953094
0.070709 0.003906 0.953094
0.304443 0.003906 0.953094
0.499481 0.003906 0.953094
0.661407 0.003906 0.953094
0.786957 0.003906 0.953094
0.882904 0.003906 0.953094
0.953094 0.003906 0.953094
0.003906 0.070709 0.953094
0.070709 0.070709 0.953094
0.304443 0.070709 0.953094
0.499481 0.070709 0.953094
0.661407 0.070709 0.953094
0.786957 0.070709 0.953094
0.882904 0.070709 0.953094
0.953094 0.070709 0.953094
0.003906 0.304443 0.953094
0.070709 0.304443 0.953094
0.304443 0.304443 0.953094
0.499481 0.304443 0.953094
0.661407 0.304443 0.953094
0.786957 0.304443 0.953094
0.882904 0.304443 0.953094
0.953094 0.304443 0.953094
0.003906 0.499481 0.953094
0.070709 0.499481 0.953094
0.304443 0.499481 0.953094
0.499481 0.499481 0.953094
0.661407 0.499481 0.953094
0.786957 0.499481 0.953094
0.882904 0.499481 0.953094
0.953094 0.499481 0.953094
0.003906 0.661407 0.953094
0.070709 0.661407 0.953094
0.304443 0.661407 0.953094
0.499481 0.661407 0.953094
0.661407 0.661407 0.953094
0.786957 0.661407 0.953094
0.882904 0.661407 0.953094
0.953094 0.661407 0.953094
0.003906 0.786957 0.953094
0.070709 0.786957 0.953094
0.304443 0.786957 0.953094
0.499481 0.786957 0.953094
0.661407 0.786957 0.953094
0.786957 0.786957 0.953094
0.882904 0.786957 0.953094
0.953094 0.786957 0.953094
0.003906 0.882904 0.953094
0.070709 0.882904 0.953094
0.304443 0.882904 0.953094
0.499481 0.882904 0.953094
0.661407 0.882904 0.953094
0.786957 0.882904 0.953094
0.882904 0.882904 0.953094
0.953094 0.882904 0.953094
0.003906 0.953094 0.953094
0.070709 0.953094 0.953094
0.304443 0.953094 0.953094
0.499481 0.953094 0.953094
0.661407 0.953094 0.953094
0.786957 0.953094 0.953094
0.882904 0.953094 0.953094
0.953094 0.953094 0.953094
