Postproduction/IWLTBAP - Humble/LUTs by IWLTBAP (CUBE)/UTILITY/Canon C-Log to Rec.709/U-CANON-C-LOG-V2-LTR.cube
# Copyright: (C) Copyright 2010-2018 by IWLTBAP SAS
# Cannot be resold, shared or otherwise redistributed
# Website: https://luts.iwltbap.com
TITLE "Canon C-Log V2 (Utility LOG to Rec.709)"
LUT_3D_SIZE 5
DOMAIN_MIN 0.000000 0.000000 0.000000
DOMAIN_MAX 0.903226 0.903226 0.903226
0.003906 0.003906 0.003906
0.252380 0.003906 0.003906
0.615356 0.003906 0.003906
0.993591 0.003906 0.003906
0.996094 0.003906 0.003906
0.003906 0.252380 0.003906
0.252380 0.252380 0.003906
0.615356 0.252380 0.003906
0.993591 0.252380 0.003906
0.996094 0.252380 0.003906
0.003906 0.615356 0.003906
0.252380 0.615356 0.003906
0.615356 0.615356 0.003906
0.993591 0.615356 0.003906
0.996094 0.615356 0.003906
0.003906 0.993591 0.003906
0.252380 0.993591 0.003906
0.615356 0.993591 0.003906
0.993591 0.993591 0.003906
0.996094 0.993591 0.003906
0.003906 0.996094 0.003906
0.252380 0.996094 0.003906
0.615356 0.996094 0.003906
0.993591 0.996094 0.003906
0.996094 0.996094 0.003906
0.003906 0.003906 0.252380
0.252380 0.003906 0.252380
0.615356 0.003906 0.252380
0.993591 0.003906 0.252380
0.996094 0.003906 0.252380
0.003906 0.252380 0.252380
0.252380 0.252380 0.252380
0.615356 0.252380 0.252380
0.993591 0.252380 0.252380
0.996094 0.252380 0.252380
0.003906 0.615356 0.252380
0.252380 0.615356 0.252380
0.615356 0.615356 0.252380
0.993591 0.615356 0.252380
0.996094 0.615356 0.252380
0.003906 0.993591 0.252380
0.252380 0.993591 0.252380
0.615356 0.993591 0.252380
0.993591 0.993591 0.252380
0.996094 0.993591 0.252380
0.003906 0.996094 0.252380
0.252380 0.996094 0.252380
0.615356 0.996094 0.252380
0.993591 0.996094 0.252380
0.996094 0.996094 0.252380
0.003906 0.003906 0.615356
0.252380 0.003906 0.615356
0.615356 0.003906 0.615356
0.993591 0.003906 0.615356
0.996094 0.003906 0.615356
0.003906 0.252380 0.615356
0.252380 0.252380 0.615356
0.615356 0.252380 0.615356
0.993591 0.252380 0.615356
0.996094 0.252380 0.615356
0.003906 0.615356 0.615356
0.252380 0.615356 0.615356
0.615356 0.615356 0.615356
0.993591 0.615356 0.615356
0.996094 0.615356 0.615356
0.003906 0.993591 0.615356
0.252380 0.993591 0.615356
0.615356 0.993591 0.615356
0.993591 0.993591 0.615356
0.996094 0.993591 0.615356
0.003906 0.996094 0.615356
0.252380 0.996094 0.615356
0.615356 0.996094 0.615356
0.993591 0.996094 0.615356
0.996094 0.996094 0.615356
0.003906 0.003906 0.993591
0.252380 0.003906 0.993591
0.615356 0.003906 0.993591
0.993591 0.003906 0.993591
0.996094 0.003906 0.993591
0.003906 0.252380 0.993591
0.252380 0.252380 0.993591
0.615356 0.252380 0.993591
0.993591 0.252380 0.993591
0.996094 0.252380 0.993591
0.003906 0.615356 0.993591
0.252380 0.615356 0.993591
0.615356 0.615356 0.993591
0.993591 0.615356 0.993591
0.996094 0.615356 0.993591
0.003906 0.993591 0.993591
0.252380 0.993591 0.993591
0.615356 0.993591 0.993591
0.993591 0.993591 0.993591
0.996094 0.993591 0.993591
0.003906 0.996094 0.993591
0.252380 0.996094 0.993591
0.615356 0.996094 0.993591
0.993591 0.996094 0.993591
0.996094 0.996094 0.993591
0.003906 0.003906 0.996094
0.252380 0.003906 0.996094
0.615356 0.003906 0.996094
0.993591 0.003906 0.996094
0.996094 0.003906 0.996094
0.003906 0.252380 0.996094
0.252380 0.252380 0.996094
0.615356 0.252380 0.996094
0.993591 0.252380 0.996094
0.996094 0.252380 0.996094
0.003906 0.615356 0.996094
0.252380 0.615356 0.996094
0.615356 0.615356 0.996094
0.993591 0.615356 0.996094
0.996094 0.615356 0.996094
0.003906 0.993591 0.996094
0.252380 0.993591 0.996094
0.615356 0.993591 0.996094
0.993591 0.993591 0.996094
0.996094 0.993591 0.996094
0.003906 0.996094 0.996094
0.252380 0.996094 0.996094
0.615356 0.996094 0.996094
0.993591 0.996094 0.996094
0.996094 0.996094 0.996094
