Postproduction/IWLTBAP - Humble/LUTs by IWLTBAP (CUBE)/UTILITY/Canon C-Log to Rec.709/U-CANON-C-LOG-V3-LTR.cube
# Copyright: (C) Copyright 2010-2018 by IWLTBAP SAS
# Cannot be resold, shared or otherwise redistributed
# Website: https://luts.iwltbap.com
TITLE "Canon C-Log V3 (Utility LOG to Rec.709)"
LUT_3D_SIZE 8
DOMAIN_MIN 0.000000 0.000000 0.000000
DOMAIN_MAX 0.903226 0.903226 0.903226
0.065948 0.065948 0.065948
0.123260 0.065948 0.065948
0.322632 0.065948 0.065948
0.494598 0.065948 0.065948
0.694885 0.065948 0.065948
0.906067 0.065948 0.065948
0.915497 0.065948 0.065948
0.915497 0.065948 0.065948
0.065948 0.123260 0.065948
0.123260 0.123260 0.065948
0.322632 0.123260 0.065948
0.494598 0.123260 0.065948
0.694885 0.123260 0.065948
0.906067 0.123260 0.065948
0.915497 0.123260 0.065948
0.915497 0.123260 0.065948
0.065948 0.322632 0.065948
0.123260 0.322632 0.065948
0.322632 0.322632 0.065948
0.494598 0.322632 0.065948
0.694885 0.322632 0.065948
0.906067 0.322632 0.065948
0.915497 0.322632 0.065948
0.915497 0.322632 0.065948
0.065948 0.494598 0.065948
0.123260 0.494598 0.065948
0.322632 0.494598 0.065948
0.494598 0.494598 0.065948
0.694885 0.494598 0.065948
0.906067 0.494598 0.065948
0.915497 0.494598 0.065948
0.915497 0.494598 0.065948
0.065948 0.694885 0.065948
0.123260 0.694885 0.065948
0.322632 0.694885 0.065948
0.494598 0.694885 0.065948
0.694885 0.694885 0.065948
0.906067 0.694885 0.065948
0.915497 0.694885 0.065948
0.915497 0.694885 0.065948
0.065948 0.906067 0.065948
0.123260 0.906067 0.065948
0.322632 0.906067 0.065948
0.494598 0.906067 0.065948
0.694885 0.906067 0.065948
0.906067 0.906067 0.065948
0.915497 0.906067 0.065948
0.915497 0.906067 0.065948
0.065948 0.915497 0.065948
0.123260 0.915497 0.065948
0.322632 0.915497 0.065948
0.494598 0.915497 0.065948
0.694885 0.915497 0.065948
0.906067 0.915497 0.065948
0.915497 0.915497 0.065948
0.915497 0.915497 0.065948
0.065948 0.915497 0.065948
0.123260 0.915497 0.065948
0.322632 0.915497 0.065948
0.494598 0.915497 0.065948
0.694885 0.915497 0.065948
0.906067 0.915497 0.065948
0.915497 0.915497 0.065948
0.915497 0.915497 0.065948
0.065948 0.065948 0.123260
0.123260 0.065948 0.123260
0.322632 0.065948 0.123260
0.494598 0.065948 0.123260
0.694885 0.065948 0.123260
0.906067 0.065948 0.123260
0.915497 0.065948 0.123260
0.915497 0.065948 0.123260
0.065948 0.123260 0.123260
0.123260 0.123260 0.123260
0.322632 0.123260 0.123260
0.494598 0.123260 0.123260
0.694885 0.123260 0.123260
0.906067 0.123260 0.123260
0.915497 0.123260 0.123260
0.915497 0.123260 0.123260
0.065948 0.322632 0.123260
0.123260 0.322632 0.123260
0.322632 0.322632 0.123260
0.494598 0.322632 0.123260
0.694885 0.322632 0.123260
0.906067 0.322632 0.123260
0.915497 0.322632 0.123260
0.915497 0.322632 0.123260
0.065948 0.494598 0.123260
0.123260 0.494598 0.123260
0.322632 0.494598 0.123260
0.494598 0.494598 0.123260
0.694885 0.494598 0.123260
0.906067 0.494598 0.123260
0.915497 0.494598 0.123260
0.915497 0.494598 0.123260
0.065948 0.694885 0.123260
0.123260 0.694885 0.123260
0.322632 0.694885 0.123260
0.494598 0.694885 0.123260
0.694885 0.694885 0.123260
0.906067 0.694885 0.123260
0.915497 0.694885 0.123260
0.915497 0.694885 0.123260
0.065948 0.906067 0.123260
0.123260 0.906067 0.123260
0.322632 0.906067 0.123260
0.494598 0.906067 0.123260
0.694885 0.906067 0.123260
0.906067 0.906067 0.123260
0.915497 0.906067 0.123260
0.915497 0.906067 0.123260
0.065948 0.915497 0.123260
0.123260 0.915497 0.123260
0.322632 0.915497 0.123260
0.494598 0.915497 0.123260
0.694885 0.915497 0.123260
0.906067 0.915497 0.123260
0.915497 0.915497 0.123260
0.915497 0.915497 0.123260
0.065948 0.915497 0.123260
0.123260 0.915497 0.123260
0.322632 0.915497 0.123260
0.494598 0.915497 0.123260
0.694885 0.915497 0.123260
0.906067 0.915497 0.123260
0.915497 0.915497 0.123260
0.915497 0.915497 0.123260
0.065948 0.065948 0.322632
0.123260 0.065948 0.322632
0.322632 0.065948 0.322632
0.494598 0.065948 0.322632
0.694885 0.065948 0.322632
0.906067 0.065948 0.322632
0.915497 0.065948 0.322632
0.915497 0.065948 0.322632
0.065948 0.123260 0.322632
0.123260 0.123260 0.322632
0.322632 0.123260 0.322632
0.494598 0.123260 0.322632
0.694885 0.123260 0.322632
0.906067 0.123260 0.322632
0.915497 0.123260 0.322632
0.915497 0.123260 0.322632
0.065948 0.322632 0.322632
0.123260 0.322632 0.322632
0.322632 0.322632 0.322632
0.494598 0.322632 0.322632
0.694885 0.322632 0.322632
0.906067 0.322632 0.322632
0.915497 0.322632 0.322632
0.915497 0.322632 0.322632
0.065948 0.494598 0.322632
0.123260 0.494598 0.322632
0.322632 0.494598 0.322632
0.494598 0.494598 0.322632
0.694885 0.494598 0.322632
0.906067 0.494598 0.322632
0.915497 0.494598 0.322632
0.915497 0.494598 0.322632
0.065948 0.694885 0.322632
0.123260 0.694885 0.322632
0.322632 0.694885 0.322632
0.494598 0.694885 0.322632
0.694885 0.694885 0.322632
0.906067 0.694885 0.322632
0.915497 0.694885 0.322632
0.915497 0.694885 0.322632
0.065948 0.906067 0.322632
0.123260 0.906067 0.322632
0.322632 0.906067 0.322632
0.494598 0.906067 0.322632
0.694885 0.906067 0.322632
0.906067 0.906067 0.322632
0.915497 0.906067 0.322632
0.915497 0.906067 0.322632
0.065948 0.915497 0.322632
0.123260 0.915497 0.322632
0.322632 0.915497 0.322632
0.494598 0.915497 0.322632
0.694885 0.915497 0.322632
0.906067 0.915497 0.322632
0.915497 0.915497 0.322632
0.915497 0.915497 0.322632
0.065948 0.915497 0.322632
0.123260 0.915497 0.322632
0.322632 0.915497 0.322632
0.494598 0.915497 0.322632
0.694885 0.915497 0.322632
0.906067 0.915497 0.322632
0.915497 0.915497 0.322632
0.915497 0.915497 0.322632
0.065948 0.065948 0.494598
0.123260 0.065948 0.494598
0.322632 0.065948 0.494598
0.494598 0.065948 0.494598
0.694885 0.065948 0.494598
0.906067 0.065948 0.494598
0.915497 0.065948 0.494598
0.915497 0.065948 0.494598
0.065948 0.123260 0.494598
0.123260 0.123260 0.494598
0.322632 0.123260 0.494598
0.494598 0.123260 0.494598
0.694885 0.123260 0.494598
0.906067 0.123260 0.494598
0.915497 0.123260 0.494598
0.915497 0.123260 0.494598
0.065948 0.322632 0.494598
0.123260 0.322632 0.494598
0.322632 0.322632 0.494598
0.494598 0.322632 0.494598
0.694885 0.322632 0.494598
0.906067 0.322632 0.494598
0.915497 0.322632 0.494598
0.915497 0.322632 0.494598
0.065948 0.494598 0.494598
0.123260 0.494598 0.494598
0.322632 0.494598 0.494598
0.494598 0.494598 0.494598
0.694885 0.494598 0.494598
0.906067 0.494598 0.494598
0.915497 0.494598 0.494598
0.915497 0.494598 0.494598
0.065948 0.694885 0.494598
0.123260 0.694885 0.494598
0.322632 0.694885 0.494598
0.494598 0.694885 0.494598
0.694885 0.694885 0.494598
0.906067 0.694885 0.494598
0.915497 0.694885 0.494598
0.915497 0.694885 0.494598
0.065948 0.906067 0.494598
0.123260 0.906067 0.494598
0.322632 0.906067 0.494598
0.494598 0.906067 0.494598
0.694885 0.906067 0.494598
0.906067 0.906067 0.494598
0.915497 0.906067 0.494598
0.915497 0.906067 0.494598
0.065948 0.915497 0.494598
0.123260 0.915497 0.494598
0.322632 0.915497 0.494598
0.494598 0.915497 0.494598
0.694885 0.915497 0.494598
0.906067 0.915497 0.494598
0.915497 0.915497 0.494598
0.915497 0.915497 0.494598
0.065948 0.915497 0.494598
0.123260 0.915497 0.494598
0.322632 0.915497 0.494598
0.494598 0.915497 0.494598
0.694885 0.915497 0.494598
0.906067 0.915497 0.494598
0.915497 0.915497 0.494598
0.915497 0.915497 0.494598
0.065948 0.065948 0.694885
0.123260 0.065948 0.694885
0.322632 0.065948 0.694885
0.494598 0.065948 0.694885
0.694885 0.065948 0.694885
0.906067 0.065948 0.694885
0.915497 0.065948 0.694885
0.915497 0.065948 0.694885
0.065948 0.123260 0.694885
0.123260 0.123260 0.694885
0.322632 0.123260 0.694885
0.494598 0.123260 0.694885
0.694885 0.123260 0.694885
0.906067 0.123260 0.694885
0.915497 0.123260 0.694885
0.915497 0.123260 0.694885
0.065948 0.322632 0.694885
0.123260 0.322632 0.694885
0.322632 0.322632 0.694885
0.494598 0.322632 0.694885
0.694885 0.322632 0.694885
0.906067 0.322632 0.694885
0.915497 0.322632 0.694885
0.915497 0.322632 0.694885
0.065948 0.494598 0.694885
0.123260 0.494598 0.694885
0.322632 0.494598 0.694885
0.494598 0.494598 0.694885
0.694885 0.494598 0.694885
0.906067 0.494598 0.694885
0.915497 0.494598 0.694885
0.915497 0.494598 0.694885
0.065948 0.694885 0.694885
0.123260 0.694885 0.694885
0.322632 0.694885 0.694885
0.494598 0.694885 0.694885
0.694885 0.694885 0.694885
0.906067 0.694885 0.694885
0.915497 0.694885 0.694885
0.915497 0.694885 0.694885
0.065948 0.906067 0.694885
0.123260 0.906067 0.694885
0.322632 0.906067 0.694885
0.494598 0.906067 0.694885
0.694885 0.906067 0.694885
0.906067 0.906067 0.694885
0.915497 0.906067 0.694885
0.915497 0.906067 0.694885
0.065948 0.915497 0.694885
0.123260 0.915497 0.694885
0.322632 0.915497 0.694885
0.494598 0.915497 0.694885
0.694885 0.915497 0.694885
0.906067 0.915497 0.694885
0.915497 0.915497 0.694885
0.915497 0.915497 0.694885
0.065948 0.915497 0.694885
0.123260 0.915497 0.694885
0.322632 0.915497 0.694885
0.494598 0.915497 0.694885
0.694885 0.915497 0.694885
0.906067 0.915497 0.694885
0.915497 0.915497 0.694885
0.915497 0.915497 0.694885
0.065948 0.065948 0.906067
0.123260 0.065948 0.906067
0.322632 0.065948 0.906067
0.494598 0.065948 0.906067
0.694885 0.065948 0.906067
0.906067 0.065948 0.906067
0.915497 0.065948 0.906067
0.915497 0.065948 0.906067
0.065948 0.123260 0.906067
0.123260 0.123260 0.906067
0.322632 0.123260 0.906067
0.494598 0.123260 0.906067
0.694885 0.123260 0.906067
0.906067 0.123260 0.906067
0.915497 0.123260 0.906067
0.915497 0.123260 0.906067
0.065948 0.322632 0.906067
0.123260 0.322632 0.906067
0.322632 0.322632 0.906067
0.494598 0.322632 0.906067
0.694885 0.322632 0.906067
0.906067 0.322632 0.906067
0.915497 0.322632 0.906067
0.915497 0.322632 0.906067
0.065948 0.494598 0.906067
0.123260 0.494598 0.906067
0.322632 0.494598 0.906067
0.494598 0.494598 0.906067
0.694885 0.494598 0.906067
0.906067 0.494598 0.906067
0.915497 0.494598 0.906067
0.915497 0.494598 0.906067
0.065948 0.694885 0.906067
0.123260 0.694885 0.906067
0.322632 0.694885 0.906067
0.494598 0.694885 0.906067
0.694885 0.694885 0.906067
0.906067 0.694885 0.906067
0.915497 0.694885 0.906067
0.915497 0.694885 0.906067
0.065948 0.906067 0.906067
0.123260 0.906067 0.906067
0.322632 0.906067 0.906067
0.494598 0.906067 0.906067
0.694885 0.906067 0.906067
0.906067 0.906067 0.906067
0.915497 0.906067 0.906067
0.915497 0.906067 0.906067
0.065948 0.915497 0.906067
0.123260 0.915497 0.906067
0.322632 0.915497 0.906067
0.494598 0.915497 0.906067
0.694885 0.915497 0.906067
0.906067 0.915497 0.906067
0.915497 0.915497 0.906067
0.915497 0.915497 0.906067
0.065948 0.915497 0.906067
0.123260 0.915497 0.906067
0.322632 0.915497 0.906067
0.494598 0.915497 0.906067
0.694885 0.915497 0.906067
0.906067 0.915497 0.906067
0.915497 0.915497 0.906067
0.915497 0.915497 0.906067
0.065948 0.065948 0.915497
0.123260 0.065948 0.915497
0.322632 0.065948 0.915497
0.494598 0.065948 0.915497
0.694885 0.065948 0.915497
0.906067 0.065948 0.915497
0.915497 0.065948 0.915497
0.915497 0.065948 0.915497
0.065948 0.123260 0.915497
0.123260 0.123260 0.915497
0.322632 0.123260 0.915497
0.494598 0.123260 0.915497
0.694885 0.123260 0.915497
0.906067 0.123260 0.915497
0.915497 0.123260 0.915497
0.915497 0.123260 0.915497
0.065948 0.322632 0.915497
0.123260 0.322632 0.915497
0.322632 0.322632 0.915497
0.494598 0.322632 0.915497
0.694885 0.322632 0.915497
0.906067 0.322632 0.915497
0.915497 0.322632 0.915497
0.915497 0.322632 0.915497
0.065948 0.494598 0.915497
0.123260 0.494598 0.915497
0.322632 0.494598 0.915497
0.494598 0.494598 0.915497
0.694885 0.494598 0.915497
0.906067 0.494598 0.915497
0.915497 0.494598 0.915497
0.915497 0.494598 0.915497
0.065948 0.694885 0.915497
0.123260 0.694885 0.915497
0.322632 0.694885 0.915497
0.494598 0.694885 0.915497
0.694885 0.694885 0.915497
0.906067 0.694885 0.915497
0.915497 0.694885 0.915497
0.915497 0.694885 0.915497
0.065948 0.906067 0.915497
0.123260 0.906067 0.915497
0.322632 0.906067 0.915497
0.494598 0.906067 0.915497
0.694885 0.906067 0.915497
0.906067 0.906067 0.915497
0.915497 0.906067 0.915497
0.915497 0.906067 0.915497
0.065948 0.915497 0.915497
0.123260 0.915497 0.915497
0.322632 0.915497 0.915497
0.494598 0.915497 0.915497
0.694885 0.915497 0.915497
0.906067 0.915497 0.915497
0.915497 0.915497 0.915497
0.915497 0.915497 0.915497
0.065948 0.915497 0.915497
0.123260 0.915497 0.915497
0.322632 0.915497 0.915497
0.494598 0.915497 0.915497
0.694885 0.915497 0.915497
0.906067 0.915497 0.915497
0.915497 0.915497 0.915497
0.915497 0.915497 0.915497
0.065948 0.065948 0.915497
0.123260 0.065948 0.915497
0.322632 0.065948 0.915497
0.494598 0.065948 0.915497
0.694885 0.065948 0.915497
0.906067 0.065948 0.915497
0.915497 0.065948 0.915497
0.915497 0.065948 0.915497
0.065948 0.123260 0.915497
0.123260 0.123260 0.915497
0.322632 0.123260 0.915497
0.494598 0.123260 0.915497
0.694885 0.123260 0.915497
0.906067 0.123260 0.915497
0.915497 0.123260 0.915497
0.915497 0.123260 0.915497
0.065948 0.322632 0.915497
0.123260 0.322632 0.915497
0.322632 0.322632 0.915497
0.494598 0.322632 0.915497
0.694885 0.322632 0.915497
0.906067 0.322632 0.915497
0.915497 0.322632 0.915497
0.915497 0.322632 0.915497
0.065948 0.494598 0.915497
0.123260 0.494598 0.915497
0.322632 0.494598 0.915497
0.494598 0.494598 0.915497
0.694885 0.494598 0.915497
0.906067 0.494598 0.915497
0.915497 0.494598 0.915497
0.915497 0.494598 0.915497
0.065948 0.694885 0.915497
0.123260 0.694885 0.915497
0.322632 0.694885 0.915497
0.494598 0.694885 0.915497
0.694885 0.694885 0.915497
0.906067 0.694885 0.915497
0.915497 0.694885 0.915497
0.915497 0.694885 0.915497
0.065948 0.906067 0.915497
0.123260 0.906067 0.915497
0.322632 0.906067 0.915497
0.494598 0.906067 0.915497
0.694885 0.906067 0.915497
0.906067 0.906067 0.915497
0.915497 0.906067 0.915497
0.915497 0.906067 0.915497
0.065948 0.915497 0.915497
0.123260 0.915497 0.915497
0.322632 0.915497 0.915497
0.494598 0.915497 0.915497
0.694885 0.915497 0.915497
0.906067 0.915497 0.915497
0.915497 0.915497 0.915497
0.915497 0.915497 0.915497
0.065948 0.915497 0.915497
0.123260 0.915497 0.915497
0.322632 0.915497 0.915497
0.494598 0.915497 0.915497
0.694885 0.915497 0.915497
0.906067 0.915497 0.915497
0.915497 0.915497 0.915497
0.915497 0.915497 0.915497
