Postproduction/IWLTBAP - Humble/LUTs by IWLTBAP (CUBE)/UTILITY/Canon C-Log to Rec.709/U-CANON-C-LOG-V5-LTR.cube
# Copyright: (C) Copyright 2010-2018 by IWLTBAP SAS
# Cannot be resold, shared or otherwise redistributed
# Website: https://luts.iwltbap.com
TITLE "Canon C-Log V5 (Utility LOG to Rec.709)"
LUT_3D_SIZE 8
DOMAIN_MIN 0.000000 0.000000 0.000000
DOMAIN_MAX 0.903226 0.903226 0.903226
0.065948 0.065948 0.065948
0.123230 0.065948 0.065948
0.323151 0.065948 0.065948
0.490356 0.065948 0.065948
0.628845 0.065948 0.065948
0.736389 0.065948 0.065948
0.818481 0.065948 0.065948
0.878754 0.065948 0.065948
0.065948 0.123230 0.065948
0.123230 0.123230 0.065948
0.323151 0.123230 0.065948
0.490356 0.123230 0.065948
0.628845 0.123230 0.065948
0.736389 0.123230 0.065948
0.818481 0.123230 0.065948
0.878754 0.123230 0.065948
0.065948 0.323151 0.065948
0.123230 0.323151 0.065948
0.323151 0.323151 0.065948
0.490356 0.323151 0.065948
0.628845 0.323151 0.065948
0.736389 0.323151 0.065948
0.818481 0.323151 0.065948
0.878754 0.323151 0.065948
0.065948 0.490356 0.065948
0.123230 0.490356 0.065948
0.323151 0.490356 0.065948
0.490356 0.490356 0.065948
0.628845 0.490356 0.065948
0.736389 0.490356 0.065948
0.818481 0.490356 0.065948
0.878754 0.490356 0.065948
0.065948 0.628845 0.065948
0.123230 0.628845 0.065948
0.323151 0.628845 0.065948
0.490356 0.628845 0.065948
0.628845 0.628845 0.065948
0.736389 0.628845 0.065948
0.818481 0.628845 0.065948
0.878754 0.628845 0.065948
0.065948 0.736389 0.065948
0.123230 0.736389 0.065948
0.323151 0.736389 0.065948
0.490356 0.736389 0.065948
0.628845 0.736389 0.065948
0.736389 0.736389 0.065948
0.818481 0.736389 0.065948
0.878754 0.736389 0.065948
0.065948 0.818481 0.065948
0.123230 0.818481 0.065948
0.323151 0.818481 0.065948
0.490356 0.818481 0.065948
0.628845 0.818481 0.065948
0.736389 0.818481 0.065948
0.818481 0.818481 0.065948
0.878754 0.818481 0.065948
0.065948 0.878754 0.065948
0.123230 0.878754 0.065948
0.323151 0.878754 0.065948
0.490356 0.878754 0.065948
0.628845 0.878754 0.065948
0.736389 0.878754 0.065948
0.818481 0.878754 0.065948
0.878754 0.878754 0.065948
0.065948 0.065948 0.123230
0.123230 0.065948 0.123230
0.323151 0.065948 0.123230
0.490356 0.065948 0.123230
0.628845 0.065948 0.123230
0.736389 0.065948 0.123230
0.818481 0.065948 0.123230
0.878754 0.065948 0.123230
0.065948 0.123230 0.123230
0.123230 0.123230 0.123230
0.323151 0.123230 0.123230
0.490356 0.123230 0.123230
0.628845 0.123230 0.123230
0.736389 0.123230 0.123230
0.818481 0.123230 0.123230
0.878754 0.123230 0.123230
0.065948 0.323151 0.123230
0.123230 0.323151 0.123230
0.323151 0.323151 0.123230
0.490356 0.323151 0.123230
0.628845 0.323151 0.123230
0.736389 0.323151 0.123230
0.818481 0.323151 0.123230
0.878754 0.323151 0.123230
0.065948 0.490356 0.123230
0.123230 0.490356 0.123230
0.323151 0.490356 0.123230
0.490356 0.490356 0.123230
0.628845 0.490356 0.123230
0.736389 0.490356 0.123230
0.818481 0.490356 0.123230
0.878754 0.490356 0.123230
0.065948 0.628845 0.123230
0.123230 0.628845 0.123230
0.323151 0.628845 0.123230
0.490356 0.628845 0.123230
0.628845 0.628845 0.123230
0.736389 0.628845 0.123230
0.818481 0.628845 0.123230
0.878754 0.628845 0.123230
0.065948 0.736389 0.123230
0.123230 0.736389 0.123230
0.323151 0.736389 0.123230
0.490356 0.736389 0.123230
0.628845 0.736389 0.123230
0.736389 0.736389 0.123230
0.818481 0.736389 0.123230
0.878754 0.736389 0.123230
0.065948 0.818481 0.123230
0.123230 0.818481 0.123230
0.323151 0.818481 0.123230
0.490356 0.818481 0.123230
0.628845 0.818481 0.123230
0.736389 0.818481 0.123230
0.818481 0.818481 0.123230
0.878754 0.818481 0.123230
0.065948 0.878754 0.123230
0.123230 0.878754 0.123230
0.323151 0.878754 0.123230
0.490356 0.878754 0.123230
0.628845 0.878754 0.123230
0.736389 0.878754 0.123230
0.818481 0.878754 0.123230
0.878754 0.878754 0.123230
0.065948 0.065948 0.323151
0.123230 0.065948 0.323151
0.323151 0.065948 0.323151
0.490356 0.065948 0.323151
0.628845 0.065948 0.323151
0.736389 0.065948 0.323151
0.818481 0.065948 0.323151
0.878754 0.065948 0.323151
0.065948 0.123230 0.323151
0.123230 0.123230 0.323151
0.323151 0.123230 0.323151
0.490356 0.123230 0.323151
0.628845 0.123230 0.323151
0.736389 0.123230 0.323151
0.818481 0.123230 0.323151
0.878754 0.123230 0.323151
0.065948 0.323151 0.323151
0.123230 0.323151 0.323151
0.323151 0.323151 0.323151
0.490356 0.323151 0.323151
0.628845 0.323151 0.323151
0.736389 0.323151 0.323151
0.818481 0.323151 0.323151
0.878754 0.323151 0.323151
0.065948 0.490356 0.323151
0.123230 0.490356 0.323151
0.323151 0.490356 0.323151
0.490356 0.490356 0.323151
0.628845 0.490356 0.323151
0.736389 0.490356 0.323151
0.818481 0.490356 0.323151
0.878754 0.490356 0.323151
0.065948 0.628845 0.323151
0.123230 0.628845 0.323151
0.323151 0.628845 0.323151
0.490356 0.628845 0.323151
0.628845 0.628845 0.323151
0.736389 0.628845 0.323151
0.818481 0.628845 0.323151
0.878754 0.628845 0.323151
0.065948 0.736389 0.323151
0.123230 0.736389 0.323151
0.323151 0.736389 0.323151
0.490356 0.736389 0.323151
0.628845 0.736389 0.323151
0.736389 0.736389 0.323151
0.818481 0.736389 0.323151
0.878754 0.736389 0.323151
0.065948 0.818481 0.323151
0.123230 0.818481 0.323151
0.323151 0.818481 0.323151
0.490356 0.818481 0.323151
0.628845 0.818481 0.323151
0.736389 0.818481 0.323151
0.818481 0.818481 0.323151
0.878754 0.818481 0.323151
0.065948 0.878754 0.323151
0.123230 0.878754 0.323151
0.323151 0.878754 0.323151
0.490356 0.878754 0.323151
0.628845 0.878754 0.323151
0.736389 0.878754 0.323151
0.818481 0.878754 0.323151
0.878754 0.878754 0.323151
0.065948 0.065948 0.490356
0.123230 0.065948 0.490356
0.323151 0.065948 0.490356
0.490356 0.065948 0.490356
0.628845 0.065948 0.490356
0.736389 0.065948 0.490356
0.818481 0.065948 0.490356
0.878754 0.065948 0.490356
0.065948 0.123230 0.490356
0.123230 0.123230 0.490356
0.323151 0.123230 0.490356
0.490356 0.123230 0.490356
0.628845 0.123230 0.490356
0.736389 0.123230 0.490356
0.818481 0.123230 0.490356
0.878754 0.123230 0.490356
0.065948 0.323151 0.490356
0.123230 0.323151 0.490356
0.323151 0.323151 0.490356
0.490356 0.323151 0.490356
0.628845 0.323151 0.490356
0.736389 0.323151 0.490356
0.818481 0.323151 0.490356
0.878754 0.323151 0.490356
0.065948 0.490356 0.490356
0.123230 0.490356 0.490356
0.323151 0.490356 0.490356
0.490356 0.490356 0.490356
0.628845 0.490356 0.490356
0.736389 0.490356 0.490356
0.818481 0.490356 0.490356
0.878754 0.490356 0.490356
0.065948 0.628845 0.490356
0.123230 0.628845 0.490356
0.323151 0.628845 0.490356
0.490356 0.628845 0.490356
0.628845 0.628845 0.490356
0.736389 0.628845 0.490356
0.818481 0.628845 0.490356
0.878754 0.628845 0.490356
0.065948 0.736389 0.490356
0.123230 0.736389 0.490356
0.323151 0.736389 0.490356
0.490356 0.736389 0.490356
0.628845 0.736389 0.490356
0.736389 0.736389 0.490356
0.818481 0.736389 0.490356
0.878754 0.736389 0.490356
0.065948 0.818481 0.490356
0.123230 0.818481 0.490356
0.323151 0.818481 0.490356
0.490356 0.818481 0.490356
0.628845 0.818481 0.490356
0.736389 0.818481 0.490356
0.818481 0.818481 0.490356
0.878754 0.818481 0.490356
0.065948 0.878754 0.490356
0.123230 0.878754 0.490356
0.323151 0.878754 0.490356
0.490356 0.878754 0.490356
0.628845 0.878754 0.490356
0.736389 0.878754 0.490356
0.818481 0.878754 0.490356
0.878754 0.878754 0.490356
0.065948 0.065948 0.628845
0.123230 0.065948 0.628845
0.323151 0.065948 0.628845
0.490356 0.065948 0.628845
0.628845 0.065948 0.628845
0.736389 0.065948 0.628845
0.818481 0.065948 0.628845
0.878754 0.065948 0.628845
0.065948 0.123230 0.628845
0.123230 0.123230 0.628845
0.323151 0.123230 0.628845
0.490356 0.123230 0.628845
0.628845 0.123230 0.628845
0.736389 0.123230 0.628845
0.818481 0.123230 0.628845
0.878754 0.123230 0.628845
0.065948 0.323151 0.628845
0.123230 0.323151 0.628845
0.323151 0.323151 0.628845
0.490356 0.323151 0.628845
0.628845 0.323151 0.628845
0.736389 0.323151 0.628845
0.818481 0.323151 0.628845
0.878754 0.323151 0.628845
0.065948 0.490356 0.628845
0.123230 0.490356 0.628845
0.323151 0.490356 0.628845
0.490356 0.490356 0.628845
0.628845 0.490356 0.628845
0.736389 0.490356 0.628845
0.818481 0.490356 0.628845
0.878754 0.490356 0.628845
0.065948 0.628845 0.628845
0.123230 0.628845 0.628845
0.323151 0.628845 0.628845
0.490356 0.628845 0.628845
0.628845 0.628845 0.628845
0.736389 0.628845 0.628845
0.818481 0.628845 0.628845
0.878754 0.628845 0.628845
0.065948 0.736389 0.628845
0.123230 0.736389 0.628845
0.323151 0.736389 0.628845
0.490356 0.736389 0.628845
0.628845 0.736389 0.628845
0.736389 0.736389 0.628845
0.818481 0.736389 0.628845
0.878754 0.736389 0.628845
0.065948 0.818481 0.628845
0.123230 0.818481 0.628845
0.323151 0.818481 0.628845
0.490356 0.818481 0.628845
0.628845 0.818481 0.628845
0.736389 0.818481 0.628845
0.818481 0.818481 0.628845
0.878754 0.818481 0.628845
0.065948 0.878754 0.628845
0.123230 0.878754 0.628845
0.323151 0.878754 0.628845
0.490356 0.878754 0.628845
0.628845 0.878754 0.628845
0.736389 0.878754 0.628845
0.818481 0.878754 0.628845
0.878754 0.878754 0.628845
0.065948 0.065948 0.736389
0.123230 0.065948 0.736389
0.323151 0.065948 0.736389
0.490356 0.065948 0.736389
0.628845 0.065948 0.736389
0.736389 0.065948 0.736389
0.818481 0.065948 0.736389
0.878754 0.065948 0.736389
0.065948 0.123230 0.736389
0.123230 0.123230 0.736389
0.323151 0.123230 0.736389
0.490356 0.123230 0.736389
0.628845 0.123230 0.736389
0.736389 0.123230 0.736389
0.818481 0.123230 0.736389
0.878754 0.123230 0.736389
0.065948 0.323151 0.736389
0.123230 0.323151 0.736389
0.323151 0.323151 0.736389
0.490356 0.323151 0.736389
0.628845 0.323151 0.736389
0.736389 0.323151 0.736389
0.818481 0.323151 0.736389
0.878754 0.323151 0.736389
0.065948 0.490356 0.736389
0.123230 0.490356 0.736389
0.323151 0.490356 0.736389
0.490356 0.490356 0.736389
0.628845 0.490356 0.736389
0.736389 0.490356 0.736389
0.818481 0.490356 0.736389
0.878754 0.490356 0.736389
0.065948 0.628845 0.736389
0.123230 0.628845 0.736389
0.323151 0.628845 0.736389
0.490356 0.628845 0.736389
0.628845 0.628845 0.736389
0.736389 0.628845 0.736389
0.818481 0.628845 0.736389
0.878754 0.628845 0.736389
0.065948 0.736389 0.736389
0.123230 0.736389 0.736389
0.323151 0.736389 0.736389
0.490356 0.736389 0.736389
0.628845 0.736389 0.736389
0.736389 0.736389 0.736389
0.818481 0.736389 0.736389
0.878754 0.736389 0.736389
0.065948 0.818481 0.736389
0.123230 0.818481 0.736389
0.323151 0.818481 0.736389
0.490356 0.818481 0.736389
0.628845 0.818481 0.736389
0.736389 0.818481 0.736389
0.818481 0.818481 0.736389
0.878754 0.818481 0.736389
0.065948 0.878754 0.736389
0.123230 0.878754 0.736389
0.323151 0.878754 0.736389
0.490356 0.878754 0.736389
0.628845 0.878754 0.736389
0.736389 0.878754 0.736389
0.818481 0.878754 0.736389
0.878754 0.878754 0.736389
0.065948 0.065948 0.818481
0.123230 0.065948 0.818481
0.323151 0.065948 0.818481
0.490356 0.065948 0.818481
0.628845 0.065948 0.818481
0.736389 0.065948 0.818481
0.818481 0.065948 0.818481
0.878754 0.065948 0.818481
0.065948 0.123230 0.818481
0.123230 0.123230 0.818481
0.323151 0.123230 0.818481
0.490356 0.123230 0.818481
0.628845 0.123230 0.818481
0.736389 0.123230 0.818481
0.818481 0.123230 0.818481
0.878754 0.123230 0.818481
0.065948 0.323151 0.818481
0.123230 0.323151 0.818481
0.323151 0.323151 0.818481
0.490356 0.323151 0.818481
0.628845 0.323151 0.818481
0.736389 0.323151 0.818481
0.818481 0.323151 0.818481
0.878754 0.323151 0.818481
0.065948 0.490356 0.818481
0.123230 0.490356 0.818481
0.323151 0.490356 0.818481
0.490356 0.490356 0.818481
0.628845 0.490356 0.818481
0.736389 0.490356 0.818481
0.818481 0.490356 0.818481
0.878754 0.490356 0.818481
0.065948 0.628845 0.818481
0.123230 0.628845 0.818481
0.323151 0.628845 0.818481
0.490356 0.628845 0.818481
0.628845 0.628845 0.818481
0.736389 0.628845 0.818481
0.818481 0.628845 0.818481
0.878754 0.628845 0.818481
0.065948 0.736389 0.818481
0.123230 0.736389 0.818481
0.323151 0.736389 0.818481
0.490356 0.736389 0.818481
0.628845 0.736389 0.818481
0.736389 0.736389 0.818481
0.818481 0.736389 0.818481
0.878754 0.736389 0.818481
0.065948 0.818481 0.818481
0.123230 0.818481 0.818481
0.323151 0.818481 0.818481
0.490356 0.818481 0.818481
0.628845 0.818481 0.818481
0.736389 0.818481 0.818481
0.818481 0.818481 0.818481
0.878754 0.818481 0.818481
0.065948 0.878754 0.818481
0.123230 0.878754 0.818481
0.323151 0.878754 0.818481
0.490356 0.878754 0.818481
0.628845 0.878754 0.818481
0.736389 0.878754 0.818481
0.818481 0.878754 0.818481
0.878754 0.878754 0.818481
0.065948 0.065948 0.878754
0.123230 0.065948 0.878754
0.323151 0.065948 0.878754
0.490356 0.065948 0.878754
0.628845 0.065948 0.878754
0.736389 0.065948 0.878754
0.818481 0.065948 0.878754
0.878754 0.065948 0.878754
0.065948 0.123230 0.878754
0.123230 0.123230 0.878754
0.323151 0.123230 0.878754
0.490356 0.123230 0.878754
0.628845 0.123230 0.878754
0.736389 0.123230 0.878754
0.818481 0.123230 0.878754
0.878754 0.123230 0.878754
0.065948 0.323151 0.878754
0.123230 0.323151 0.878754
0.323151 0.323151 0.878754
0.490356 0.323151 0.878754
0.628845 0.323151 0.878754
0.736389 0.323151 0.878754
0.818481 0.323151 0.878754
0.878754 0.323151 0.878754
0.065948 0.490356 0.878754
0.123230 0.490356 0.878754
0.323151 0.490356 0.878754
0.490356 0.490356 0.878754
0.628845 0.490356 0.878754
0.736389 0.490356 0.878754
0.818481 0.490356 0.878754
0.878754 0.490356 0.878754
0.065948 0.628845 0.878754
0.123230 0.628845 0.878754
0.323151 0.628845 0.878754
0.490356 0.628845 0.878754
0.628845 0.628845 0.878754
0.736389 0.628845 0.878754
0.818481 0.628845 0.878754
0.878754 0.628845 0.878754
0.065948 0.736389 0.878754
0.123230 0.736389 0.878754
0.323151 0.736389 0.878754
0.490356 0.736389 0.878754
0.628845 0.736389 0.878754
0.736389 0.736389 0.878754
0.818481 0.736389 0.878754
0.878754 0.736389 0.878754
0.065948 0.818481 0.878754
0.123230 0.818481 0.878754
0.323151 0.818481 0.878754
0.490356 0.818481 0.878754
0.628845 0.818481 0.878754
0.736389 0.818481 0.878754
0.818481 0.818481 0.878754
0.878754 0.818481 0.878754
0.065948 0.878754 0.878754
0.123230 0.878754 0.878754
0.323151 0.878754 0.878754
0.490356 0.878754 0.878754
0.628845 0.878754 0.878754
0.736389 0.878754 0.878754
0.818481 0.878754 0.878754
0.878754 0.878754 0.878754
