Postproduction/IWLTBAP - Humble/LUTs by IWLTBAP (CUBE)/UTILITY/Canon C-Log to Rec.709/U-CANON-C-LOG-V3-LTR.cube
# Copyright: (C) Copyright 2010-2018 by IWLTBAP SAS
# Cannot be resold, shared or otherwise redistributed
# Website: https://luts.iwltbap.com
TITLE "Canon C-Log V3 (Utility LOG to Rec.709)"
LUT_3D_SIZE 5
DOMAIN_MIN 0.000000 0.000000 0.000000
DOMAIN_MAX 0.903226 0.903226 0.903226
0.065948 0.065948 0.065948
0.278687 0.065948 0.065948
0.589508 0.065948 0.065948
0.913391 0.065948 0.065948
0.915497 0.065948 0.065948
0.065948 0.278687 0.065948
0.278687 0.278687 0.065948
0.589508 0.278687 0.065948
0.913391 0.278687 0.065948
0.915497 0.278687 0.065948
0.065948 0.589508 0.065948
0.278687 0.589508 0.065948
0.589508 0.589508 0.065948
0.913391 0.589508 0.065948
0.915497 0.589508 0.065948
0.065948 0.913391 0.065948
0.278687 0.913391 0.065948
0.589508 0.913391 0.065948
0.913391 0.913391 0.065948
0.915497 0.913391 0.065948
0.065948 0.915497 0.065948
0.278687 0.915497 0.065948
0.589508 0.915497 0.065948
0.913391 0.915497 0.065948
0.915497 0.915497 0.065948
0.065948 0.065948 0.278687
0.278687 0.065948 0.278687
0.589508 0.065948 0.278687
0.913391 0.065948 0.278687
0.915497 0.065948 0.278687
0.065948 0.278687 0.278687
0.278687 0.278687 0.278687
0.589508 0.278687 0.278687
0.913391 0.278687 0.278687
0.915497 0.278687 0.278687
0.065948 0.589508 0.278687
0.278687 0.589508 0.278687
0.589508 0.589508 0.278687
0.913391 0.589508 0.278687
0.915497 0.589508 0.278687
0.065948 0.913391 0.278687
0.278687 0.913391 0.278687
0.589508 0.913391 0.278687
0.913391 0.913391 0.278687
0.915497 0.913391 0.278687
0.065948 0.915497 0.278687
0.278687 0.915497 0.278687
0.589508 0.915497 0.278687
0.913391 0.915497 0.278687
0.915497 0.915497 0.278687
0.065948 0.065948 0.589508
0.278687 0.065948 0.589508
0.589508 0.065948 0.589508
0.913391 0.065948 0.589508
0.915497 0.065948 0.589508
0.065948 0.278687 0.589508
0.278687 0.278687 0.589508
0.589508 0.278687 0.589508
0.913391 0.278687 0.589508
0.915497 0.278687 0.589508
0.065948 0.589508 0.589508
0.278687 0.589508 0.589508
0.589508 0.589508 0.589508
0.913391 0.589508 0.589508
0.915497 0.589508 0.589508
0.065948 0.913391 0.589508
0.278687 0.913391 0.589508
0.589508 0.913391 0.589508
0.913391 0.913391 0.589508
0.915497 0.913391 0.589508
0.065948 0.915497 0.589508
0.278687 0.915497 0.589508
0.589508 0.915497 0.589508
0.913391 0.915497 0.589508
0.915497 0.915497 0.589508
0.065948 0.065948 0.913391
0.278687 0.065948 0.913391
0.589508 0.065948 0.913391
0.913391 0.065948 0.913391
0.915497 0.065948 0.913391
0.065948 0.278687 0.913391
0.278687 0.278687 0.913391
0.589508 0.278687 0.913391
0.913391 0.278687 0.913391
0.915497 0.278687 0.913391
0.065948 0.589508 0.913391
0.278687 0.589508 0.913391
0.589508 0.589508 0.913391
0.913391 0.589508 0.913391
0.915497 0.589508 0.913391
0.065948 0.913391 0.913391
0.278687 0.913391 0.913391
0.589508 0.913391 0.913391
0.913391 0.913391 0.913391
0.915497 0.913391 0.913391
0.065948 0.915497 0.913391
0.278687 0.915497 0.913391
0.589508 0.915497 0.913391
0.913391 0.915497 0.913391
0.915497 0.915497 0.913391
0.065948 0.065948 0.915497
0.278687 0.065948 0.915497
0.589508 0.065948 0.915497
0.913391 0.065948 0.915497
0.915497 0.065948 0.915497
0.065948 0.278687 0.915497
0.278687 0.278687 0.915497
0.589508 0.278687 0.915497
0.913391 0.278687 0.915497
0.915497 0.278687 0.915497
0.065948 0.589508 0.915497
0.278687 0.589508 0.915497
0.589508 0.589508 0.915497
0.913391 0.589508 0.915497
0.915497 0.589508 0.915497
0.065948 0.913391 0.915497
0.278687 0.913391 0.915497
0.589508 0.913391 0.915497
0.913391 0.913391 0.915497
0.915497 0.913391 0.915497
0.065948 0.915497 0.915497
0.278687 0.915497 0.915497
0.589508 0.915497 0.915497
0.913391 0.915497 0.915497
0.915497 0.915497 0.915497
