Postproduction/IWLTBAP - Humble/LUTs by IWLTBAP (CUBE)/UTILITY/Canon C-Log to Rec.709/U-CANON-C-LOG-V1-LTR.cube
# Copyright: (C) Copyright 2010-2018 by IWLTBAP SAS
# Cannot be resold, shared or otherwise redistributed
# Website: https://luts.iwltbap.com
TITLE "Canon C-Log V1 (Utility LOG to Rec.709)"
LUT_3D_SIZE 5
DOMAIN_MIN 0.000000 0.000000 0.000000
DOMAIN_MAX 0.903226 0.903226 0.903226
0.000977 0.000977 0.000977
0.238770 0.000977 0.000977
0.580780 0.000977 0.000977
0.882568 0.000977 0.000977
0.999023 0.000977 0.000977
0.000977 0.205658 0.000977
0.190582 0.190582 0.000977
0.529663 0.171204 0.000977
0.851685 0.149902 0.000977
0.999023 0.127228 0.000977
0.000977 0.500000 0.000977
0.125397 0.485413 0.000977
0.467041 0.467041 0.000977
0.812714 0.446838 0.000977
0.999023 0.425537 0.000977
0.000977 0.803375 0.000977
0.065521 0.794189 0.000977
0.400055 0.782623 0.000977
0.769897 0.769897 0.000977
0.995880 0.756317 0.000977
0.000977 0.998688 0.000977
0.021240 0.994202 0.000977
0.330505 0.987732 0.000977
0.714539 0.980591 0.000977
0.973846 0.973846 0.000977
0.000977 0.000977 0.248016
0.234009 0.000977 0.234009
0.575592 0.000977 0.216339
0.879456 0.000977 0.196259
0.999023 0.000977 0.173645
0.000977 0.200714 0.200714
0.185333 0.185333 0.185333
0.524506 0.165955 0.165955
0.848602 0.144684 0.144684
0.999023 0.122040 0.122040
0.000977 0.495026 0.135529
0.120178 0.480499 0.120178
0.462097 0.462097 0.104126
0.809601 0.441895 0.086670
0.999023 0.420715 0.068085
0.000977 0.800262 0.073822
0.061249 0.791077 0.061249
0.395233 0.779480 0.046844
0.766754 0.766754 0.035248
0.994751 0.753204 0.024902
0.000977 0.997162 0.025421
0.019073 0.992676 0.019073
0.325775 0.986206 0.012390
0.710205 0.979065 0.004517
0.972321 0.972321 0.001648
0.000977 0.000977 0.604004
0.227997 0.000977 0.588287
0.569092 0.000977 0.569092
0.875519 0.000977 0.548035
0.999023 0.000977 0.525604
0.000977 0.194092 0.552368
0.178772 0.178772 0.537201
0.518005 0.159393 0.518005
0.844666 0.138092 0.497498
0.999023 0.116150 0.475983
0.000977 0.488800 0.488800
0.114655 0.474243 0.474243
0.455872 0.455872 0.455872
0.805664 0.435669 0.435669
0.999023 0.414673 0.414673
0.000977 0.796326 0.421143
0.055817 0.787140 0.407013
0.389191 0.775543 0.389191
0.762817 0.762817 0.369629
0.992798 0.749268 0.348938
0.000977 0.994965 0.351135
0.016815 0.990479 0.337311
0.319855 0.984039 0.319855
0.704742 0.976868 0.300659
0.970123 0.970123 0.280243
0.000977 0.000977 0.904694
0.221375 0.000977 0.895508
0.561951 0.000977 0.883942
0.871185 0.000977 0.871185
0.999023 0.000977 0.857635
0.000977 0.186859 0.873810
0.171539 0.171539 0.864655
0.510864 0.152161 0.853058
0.840302 0.130890 0.840302
0.999023 0.110229 0.826782
0.000977 0.481934 0.834839
0.108704 0.467407 0.825653
0.449005 0.449005 0.814087
0.801331 0.428833 0.801331
0.999023 0.408051 0.787811
0.000977 0.791992 0.791992
0.050171 0.782837 0.782837
0.382568 0.771240 0.771240
0.758514 0.758514 0.758514
0.990387 0.743225 0.743225
0.000977 0.992554 0.745300
0.014160 0.988037 0.732513
0.313354 0.981567 0.716461
0.698730 0.974457 0.698730
0.967712 0.967712 0.679901
0.000977 0.000977 0.999023
0.214386 0.000977 0.999023
0.554352 0.000977 0.999023
0.866577 0.000977 0.999023
0.999023 0.000977 0.999023
0.000977 0.179199 0.999023
0.163849 0.163849 0.999023
0.503510 0.144470 0.999023
0.835724 0.123138 0.999023
0.999023 0.103912 0.999023
0.000977 0.474640 0.999023
0.102417 0.460083 0.999023
0.441711 0.441711 0.999023
0.796753 0.421783 0.999023
0.999023 0.400970 0.999023
0.000977 0.787384 0.999023
0.045563 0.778229 0.999023
0.375488 0.766632 0.999023
0.753876 0.753876 0.994263
0.988098 0.736847 0.988098
0.000977 0.990265 0.990265
0.011230 0.985748 0.985748
0.306396 0.979279 0.979279
0.692322 0.972168 0.972168
0.964081 0.964081 0.964081
