Postproduction/IWLTBAP - Humble/LUTs by IWLTBAP (CUBE)/UTILITY/Canon C-Log to Rec.709/U-CANON-C-LOG-V1-LTR.cube
# Copyright: (C) Copyright 2010-2018 by IWLTBAP SAS
# Cannot be resold, shared or otherwise redistributed
# Website: https://luts.iwltbap.com
TITLE "Canon C-Log V1 (Utility LOG to Rec.709)"
LUT_3D_SIZE 8
DOMAIN_MIN 0.000000 0.000000 0.000000
DOMAIN_MAX 0.903226 0.903226 0.903226
0.000977 0.000977 0.000977
0.105133 0.000977 0.000977
0.283447 0.000977 0.000977
0.474396 0.000977 0.000977
0.693207 0.000977 0.000977
0.847229 0.000977 0.000977
0.977081 0.000977 0.000977
0.999023 0.000977 0.000977
0.000977 0.089783 0.000977
0.083282 0.083282 0.000977
0.259186 0.075043 0.000977
0.449127 0.066010 0.000977
0.668854 0.056427 0.000977
0.831299 0.047607 0.000977
0.967682 0.040009 0.000977
0.999023 0.032196 0.000977
0.000977 0.244812 0.000977
0.055603 0.237579 0.000977
0.228394 0.228394 0.000977
0.417603 0.218353 0.000977
0.633789 0.207672 0.000977
0.811127 0.195892 0.000977
0.954468 0.183197 0.000977
0.999023 0.170135 0.000977
0.000977 0.410156 0.000977
0.032196 0.402863 0.000977
0.193817 0.393677 0.000977
0.383545 0.383545 0.000977
0.595306 0.372772 0.000977
0.789001 0.361542 0.000977
0.932343 0.349976 0.000977
0.999023 0.338196 0.000977
0.000977 0.596619 0.000977
0.009521 0.588623 0.000977
0.154449 0.578705 0.000977
0.347534 0.567810 0.000977
0.556213 0.556213 0.000977
0.765442 0.544128 0.000977
0.908813 0.531525 0.000977
0.999023 0.518585 0.000977
0.000977 0.772461 0.000977
0.002533 0.767731 0.000977
0.114380 0.761719 0.000977
0.310394 0.755157 0.000977
0.515442 0.747681 0.000977
0.737518 0.737518 0.000977
0.884186 0.726929 0.000977
0.999023 0.716064 0.000977
0.000977 0.897858 0.000977
0.000977 0.893127 0.000977
0.079346 0.887146 0.000977
0.271820 0.880554 0.000977
0.474731 0.873535 0.000977
0.701996 0.866241 0.000977
0.858643 0.858643 0.000977
0.987762 0.850830 0.000977
0.000977 0.998688 0.000977
0.000977 0.996216 0.000977
0.045288 0.993042 0.000977
0.231598 0.989563 0.000977
0.432983 0.985870 0.000977
0.661774 0.981995 0.000977
0.832336 0.977997 0.000977
0.973846 0.973846 0.000977
0.000977 0.000977 0.109436
0.102936 0.000977 0.102936
0.281036 0.000977 0.094727
0.471863 0.000977 0.085693
0.690979 0.000977 0.076080
0.845612 0.000977 0.066010
0.976135 0.000977 0.055603
0.999023 0.000977 0.046509
0.000977 0.087585 0.087585
0.081085 0.081085 0.081085
0.256744 0.072845 0.072845
0.446594 0.063812 0.063812
0.666077 0.054230 0.054230
0.829681 0.045990 0.045990
0.966736 0.038391 0.038391
0.999023 0.030579 0.030579
0.000977 0.242340 0.059906
0.053406 0.235107 0.053406
0.225952 0.225952 0.046753
0.415100 0.215912 0.040161
0.631012 0.205231 0.033173
0.809509 0.193207 0.025818
0.952881 0.180511 0.018250
0.999023 0.167419 0.010773
0.000977 0.407684 0.035339
0.030609 0.400421 0.030609
0.191162 0.391205 0.024597
0.381073 0.381073 0.018005
0.592529 0.370331 0.011688
0.787384 0.359100 0.005432
0.930756 0.347534 0.003235
0.999023 0.335724 0.002747
0.000977 0.593842 0.012054
0.008209 0.585968 0.008209
0.151794 0.576050 0.003540
0.345062 0.565155 0.003143
0.553589 0.553589 0.002686
0.763855 0.541443 0.002228
0.907196 0.528870 0.001740
0.999023 0.515930 0.001251
0.000977 0.770844 0.002869
0.002380 0.766113 0.002380
0.112152 0.760132 0.001984
0.307983 0.753540 0.001587
0.512787 0.745453 0.001129
0.735260 0.735260 0.000977
0.882568 0.724701 0.000977
0.999023 0.713837 0.000977
0.000977 0.896240 0.001221
0.000977 0.891510 0.000977
0.077118 0.885529 0.000977
0.269318 0.878937 0.000977
0.472198 0.871948 0.000977
0.699768 0.864624 0.000977
0.857056 0.857056 0.000977
0.986908 0.849213 0.000977
0.000977 0.997864 0.000977
0.000977 0.995361 0.000977
0.043701 0.992188 0.000977
0.229156 0.988708 0.000977
0.430420 0.985016 0.000977
0.658936 0.981140 0.000977
0.830719 0.977142 0.000977
0.972992 0.972992 0.000977
0.000977 0.000977 0.294128
0.100159 0.000977 0.286987
0.277954 0.000977 0.277954
0.468628 0.000977 0.267914
0.688171 0.000977 0.257233
0.843597 0.000977 0.246033
0.974915 0.000977 0.234467
0.999023 0.000977 0.222504
0.000977 0.084778 0.269989
0.078247 0.078247 0.262787
0.253632 0.070038 0.253632
0.443359 0.061035 0.243591
0.662537 0.051392 0.232910
0.827637 0.043945 0.221710
0.965546 0.036377 0.210114
0.999023 0.028534 0.197723
0.000977 0.239258 0.239258
0.050690 0.231995 0.231995
0.222839 0.222839 0.222839
0.411987 0.212799 0.212799
0.627472 0.202057 0.202057
0.807495 0.189819 0.189819
0.950867 0.177124 0.177124
0.999023 0.164001 0.164001
0.000977 0.404572 0.205444
0.028534 0.397278 0.197754
0.187744 0.388092 0.187744
0.377960 0.377960 0.176727
0.589142 0.367188 0.165039
0.785370 0.355957 0.152771
0.928711 0.344452 0.140076
0.999023 0.332672 0.127014
0.000977 0.590424 0.166290
0.006622 0.582611 0.158386
0.148376 0.572662 0.148376
0.342010 0.561798 0.137360
0.550171 0.550171 0.125671
0.761810 0.538086 0.114502
0.905151 0.525513 0.104065
0.999023 0.512573 0.093353
0.000977 0.768799 0.125153
0.002228 0.764069 0.117584
0.109375 0.758087 0.109375
0.304901 0.751495 0.100372
0.509460 0.742615 0.090729
0.732422 0.732422 0.080688
0.880554 0.721893 0.070282
0.999023 0.710999 0.059570
0.000977 0.894226 0.089050
0.000977 0.889496 0.082550
0.074341 0.883484 0.074341
0.266266 0.876923 0.065308
0.468964 0.869904 0.055695
0.696930 0.862610 0.047089
0.855011 0.855011 0.039490
0.985840 0.847168 0.031647
0.000977 0.996765 0.052948
0.000977 0.994293 0.047668
0.041656 0.991119 0.041656
0.226044 0.987640 0.035095
0.427307 0.983948 0.028076
0.655396 0.980072 0.020752
0.828674 0.976074 0.014557
0.971924 0.971924 0.009430
0.000977 0.000977 0.492554
0.097076 0.000977 0.485016
0.274536 0.000977 0.475525
0.465088 0.000977 0.465088
0.685059 0.000977 0.453979
0.841339 0.000977 0.442383
0.973602 0.000977 0.430359
0.999023 0.000977 0.418335
0.000977 0.081696 0.467285
0.075226 0.075226 0.459747
0.250214 0.066986 0.450256
0.439789 0.057953 0.439789
0.658630 0.049042 0.428772
0.825409 0.041748 0.417511
0.964203 0.034119 0.405853
0.999023 0.026306 0.393829
0.000977 0.235809 0.435303
0.048462 0.228607 0.427887
0.219421 0.219421 0.418671
0.408569 0.209381 0.408569
0.623566 0.198303 0.397797
0.805237 0.186066 0.386536
0.948608 0.173370 0.374878
0.999023 0.160309 0.362854
0.000977 0.401123 0.401123
0.026337 0.393829 0.393829
0.183990 0.384644 0.384644
0.374512 0.374512 0.374512
0.585449 0.363770 0.363770
0.783112 0.352539 0.352539
0.926453 0.341095 0.341095
0.999023 0.329285 0.329285
0.000977 0.586731 0.364960
0.004883 0.578888 0.357635
0.144623 0.569000 0.348541
0.338623 0.558075 0.338623
0.546509 0.546509 0.328094
0.759583 0.534393 0.317078
0.902954 0.521790 0.305634
0.999023 0.508911 0.293854
0.000977 0.766571 0.327606
0.002106 0.761841 0.320465
0.106323 0.755859 0.311462
0.301514 0.749237 0.301514
0.505920 0.739502 0.290985
0.729309 0.729309 0.279938
0.878296 0.718781 0.268341
0.998138 0.707886 0.256409
0.000977 0.891998 0.289124
0.000977 0.887238 0.282013
0.071289 0.881256 0.272888
0.262848 0.874664 0.262848
0.465393 0.867676 0.252167
0.693817 0.860352 0.240967
0.852783 0.852783 0.229370
0.984650 0.844940 0.217438
0.000977 0.995605 0.249054
0.000977 0.993103 0.241821
0.039429 0.989929 0.232697
0.222626 0.986481 0.222626
0.423889 0.982758 0.211975
0.651550 0.978912 0.200592
0.826447 0.974884 0.187866
0.970734 0.970734 0.174805
0.000977 0.000977 0.715515
0.093811 0.000977 0.708954
0.270905 0.000977 0.700623
0.461334 0.000977 0.691467
0.681732 0.000977 0.681732
0.838959 0.000977 0.669495
0.972198 0.000977 0.656250
0.999023 0.000977 0.642639
0.000977 0.078430 0.693390
0.071960 0.071960 0.686798
0.246582 0.063721 0.678101
0.436035 0.054688 0.666656
0.654510 0.046661 0.654510
0.823029 0.039368 0.641785
0.962799 0.031738 0.628540
0.999023 0.023926 0.614960
0.000977 0.232208 0.661682
0.046082 0.224945 0.653473
0.215790 0.215790 0.643036
0.404907 0.205750 0.631592
0.619446 0.194336 0.619446
0.802887 0.182098 0.606720
0.946228 0.169403 0.593536
0.999023 0.156342 0.580536
0.000977 0.397461 0.623230
0.023956 0.390198 0.614990
0.180023 0.380981 0.604584
0.370850 0.370850 0.593140
0.581543 0.360107 0.581543
0.780731 0.348969 0.569397
0.924103 0.337524 0.556824
0.999023 0.325714 0.543884
0.000977 0.582794 0.582794
0.003510 0.574951 0.574951
0.140656 0.565033 0.565033
0.335052 0.554138 0.554138
0.542572 0.542572 0.542572
0.757202 0.530457 0.530457
0.900543 0.517853 0.517853
0.999023 0.505157 0.505157
0.000977 0.764191 0.542053
0.001953 0.759460 0.534210
0.103058 0.753479 0.524261
0.297943 0.745941 0.513367
0.502136 0.736206 0.502136
0.726044 0.726044 0.490540
0.875916 0.715454 0.478485
0.996887 0.704590 0.466095
0.000977 0.889618 0.500183
0.000977 0.884857 0.492676
0.067993 0.878876 0.483185
0.259216 0.872314 0.472717
0.461639 0.865295 0.461639
0.690521 0.857971 0.450012
0.850403 0.850403 0.437988
0.983398 0.842590 0.425720
0.000977 0.994324 0.458435
0.000977 0.991852 0.450928
0.037048 0.988678 0.441437
0.219025 0.985199 0.431000
0.420227 0.981506 0.420227
0.647430 0.977661 0.408966
0.824066 0.973633 0.397278
0.969513 0.969513 0.385254
0.000977 0.000977 0.868103
0.090393 0.000977 0.863373
0.267120 0.000977 0.857391
0.457397 0.000977 0.850800
0.677856 0.000977 0.843811
0.836487 0.000977 0.836487
0.970734 0.000977 0.828888
0.999023 0.000977 0.821075
0.000977 0.075012 0.852173
0.068542 0.068542 0.847443
0.242767 0.060303 0.841461
0.432098 0.051270 0.834839
0.650177 0.044189 0.827881
0.820557 0.036865 0.820557
0.961243 0.029266 0.812958
0.999023 0.021454 0.805145
0.000977 0.228394 0.832031
0.043579 0.221161 0.827271
0.212036 0.212036 0.821289
0.401093 0.201904 0.814697
0.615112 0.190186 0.807709
0.800385 0.177917 0.800385
0.943756 0.165222 0.792786
0.999023 0.152161 0.784973
0.000977 0.393616 0.809875
0.021454 0.386383 0.805145
0.175873 0.377136 0.799133
0.367035 0.367035 0.792572
0.577423 0.356262 0.785553
0.778259 0.345215 0.778259
0.921631 0.333771 0.770660
0.999023 0.321991 0.762848
0.000977 0.578674 0.786346
0.003357 0.570831 0.781616
0.136505 0.560913 0.775604
0.331329 0.550018 0.769043
0.538452 0.538452 0.762054
0.754700 0.526337 0.754700
0.898071 0.513763 0.746246
0.999023 0.501190 0.735382
0.000977 0.761719 0.761719
0.001801 0.756958 0.756958
0.099640 0.750977 0.750977
0.294189 0.742462 0.742462
0.498230 0.732758 0.732758
0.722565 0.722565 0.722565
0.873444 0.712036 0.712036
0.995575 0.701141 0.701141
0.000977 0.887115 0.731018
0.000977 0.882385 0.724457
0.064606 0.876404 0.716125
0.255402 0.869812 0.706970
0.457672 0.862793 0.697266
0.687042 0.855499 0.687042
0.847900 0.847900 0.675659
0.982086 0.840088 0.662048
0.000977 0.993042 0.694458
0.000977 0.990540 0.687836
0.034546 0.987366 0.679413
0.215210 0.983887 0.667969
0.416412 0.980194 0.655792
0.643097 0.976318 0.643097
0.821594 0.972321 0.629883
0.968170 0.968170 0.616302
0.000977 0.000977 0.992371
0.086853 0.000977 0.989594
0.263153 0.000977 0.986023
0.453278 0.000977 0.982147
0.673370 0.000977 0.978027
0.833893 0.000977 0.973694
0.969208 0.000977 0.969208
0.999023 0.000977 0.964355
0.000977 0.071472 0.982971
0.064972 0.064972 0.980194
0.238831 0.056763 0.976654
0.428101 0.048584 0.972748
0.645660 0.041595 0.968628
0.817963 0.034271 0.964294
0.959564 0.026703 0.959564
0.999023 0.018860 0.953522
0.000977 0.224457 0.971069
0.041016 0.217224 0.968262
0.208099 0.208099 0.964752
0.397095 0.197571 0.960480
0.610657 0.185883 0.955475
0.797821 0.173645 0.948761
0.941162 0.160950 0.941162
0.999023 0.147827 0.933350
0.000977 0.389709 0.957062
0.018890 0.382416 0.953186
0.171539 0.373169 0.947510
0.363098 0.363098 0.940948
0.573151 0.352325 0.933929
0.775665 0.341309 0.926636
0.919037 0.329895 0.919037
0.999023 0.318085 0.911194
0.000977 0.574402 0.934723
0.003204 0.566559 0.929962
0.132202 0.556641 0.924011
0.327423 0.545746 0.917419
0.534180 0.534180 0.910400
0.752136 0.522064 0.903076
0.895508 0.509552 0.895508
0.999023 0.497101 0.887665
0.000977 0.759155 0.910065
0.001617 0.754395 0.905334
0.096100 0.748047 0.899353
0.290344 0.738892 0.892761
0.494141 0.729156 0.885773
0.718994 0.718994 0.878479
0.870880 0.708435 0.870880
0.994232 0.697571 0.863037
0.000977 0.884552 0.884552
0.000977 0.879822 0.879822
0.061066 0.873810 0.873810
0.251465 0.867249 0.867249
0.453583 0.860260 0.860260
0.683502 0.852905 0.852905
0.845306 0.845306 0.845306
0.980743 0.837494 0.837494
0.000977 0.991669 0.858215
0.000977 0.989166 0.853485
0.031982 0.986023 0.847504
0.211304 0.982544 0.840912
0.412445 0.978821 0.833923
0.638580 0.974976 0.826599
0.819000 0.970947 0.819000
0.966705 0.966705 0.811157
0.000977 0.000977 0.999023
0.083221 0.000977 0.999023
0.259125 0.000977 0.999023
0.449097 0.000977 0.999023
0.668762 0.000977 0.999023
0.831238 0.000977 0.999023
0.967560 0.000977 0.999023
0.999023 0.000977 0.999023
0.000977 0.067841 0.999023
0.061340 0.061340 0.999023
0.234772 0.053131 0.999023
0.424042 0.045929 0.999023
0.641052 0.038940 0.999023
0.815308 0.031647 0.999023
0.957764 0.024048 0.999023
0.999023 0.016205 0.999023
0.000977 0.220398 0.999023
0.038361 0.213196 0.999023
0.204041 0.204041 0.999023
0.393036 0.193146 0.999023
0.606018 0.181458 0.999023
0.795135 0.169189 0.999023
0.938507 0.156494 0.999023
0.999023 0.143402 0.999023
0.000977 0.385620 0.999023
0.016235 0.378296 0.999023
0.167114 0.369110 0.999023
0.358978 0.358978 0.999023
0.568756 0.348358 0.999023
0.773010 0.337311 0.999023
0.916382 0.325897 0.999023
0.999023 0.314117 0.999023
0.000977 0.570007 0.999023
0.003021 0.562164 0.999023
0.127747 0.552246 0.999023
0.323395 0.541351 0.999023
0.529785 0.529785 0.999023
0.749481 0.517670 0.999023
0.892853 0.505341 0.999023
0.999023 0.492889 0.999023
0.000977 0.756470 0.999023
0.001465 0.751740 0.999023
0.092468 0.744354 0.999023
0.286316 0.735199 0.999023
0.489929 0.725464 0.999023
0.715302 0.715302 0.999023
0.868195 0.704742 0.996948
0.992828 0.693848 0.992828
0.000977 0.881897 0.999023
0.000977 0.877136 0.999023
0.057434 0.871155 0.998505
0.247406 0.864594 0.995026
0.449371 0.857574 0.991333
0.679779 0.850250 0.987488
0.842682 0.842682 0.983459
0.979309 0.834839 0.979309
0.000977 0.990265 0.990265
0.000977 0.987762 0.987762
0.029327 0.984589 0.984589
0.207214 0.981110 0.981110
0.408356 0.977417 0.977417
0.634003 0.973541 0.973541
0.816345 0.969543 0.969543
0.964081 0.964081 0.964081
