Postproduction/IWLTBAP - Humble/LUTs by IWLTBAP (CUBE)/UTILITY/Canon C-Log to Rec.709/U-CANON-C-LOG-V5-LTR.cube
# Copyright: (C) Copyright 2010-2018 by IWLTBAP SAS
# Cannot be resold, shared or otherwise redistributed
# Website: https://luts.iwltbap.com
TITLE "Canon C-Log V5 (Utility LOG to Rec.709)"
LUT_3D_SIZE 32
0.065948 0.065948 0.065948
0.065948 0.065948 0.065948
0.067596 0.065948 0.065948
0.093475 0.065948 0.065948
0.123230 0.065948 0.065948
0.179352 0.065948 0.065948
0.233398 0.065948 0.065948
0.278687 0.065948 0.065948
0.323151 0.065948 0.065948
0.365173 0.065948 0.065948
0.407257 0.065948 0.065948
0.449524 0.065948 0.065948
0.490356 0.065948 0.065948
0.528961 0.065948 0.065948
0.564972 0.065948 0.065948
0.597748 0.065948 0.065948
0.628845 0.065948 0.065948
0.658234 0.065948 0.065948
0.685852 0.065948 0.065948
0.712219 0.065948 0.065948
0.736389 0.065948 0.065948
0.759369 0.065948 0.065948
0.780365 0.065948 0.065948
0.800537 0.065948 0.065948
0.818481 0.065948 0.065948
0.835785 0.065948 0.065948
0.850952 0.065948 0.065948
0.865692 0.065948 0.065948
0.878754 0.065948 0.065948
0.891632 0.065948 0.065948
0.903595 0.065948 0.065948
0.915497 0.065948 0.065948
0.065948 0.065948 0.065948
0.065948 0.065948 0.065948
0.067596 0.065948 0.065948
0.093475 0.065948 0.065948
0.123230 0.065948 0.065948
0.179352 0.065948 0.065948
0.233398 0.065948 0.065948
0.278687 0.065948 0.065948
0.323151 0.065948 0.065948
0.365173 0.065948 0.065948
0.407257 0.065948 0.065948
0.449524 0.065948 0.065948
0.490356 0.065948 0.065948
0.528961 0.065948 0.065948
0.564972 0.065948 0.065948
0.597748 0.065948 0.065948
0.628845 0.065948 0.065948
0.658234 0.065948 0.065948
0.685852 0.065948 0.065948
0.712219 0.065948 0.065948
0.736389 0.065948 0.065948
0.759369 0.065948 0.065948
0.780365 0.065948 0.065948
0.800537 0.065948 0.065948
0.818481 0.065948 0.065948
0.835785 0.065948 0.065948
0.850952 0.065948 0.065948
0.865692 0.065948 0.065948
0.878754 0.065948 0.065948
0.891632 0.065948 0.065948
0.903595 0.065948 0.065948
0.915497 0.065948 0.065948
0.065948 0.067596 0.065948
0.065948 0.067596 0.065948
0.067596 0.067596 0.065948
0.093475 0.067596 0.065948
0.123230 0.067596 0.065948
0.179352 0.067596 0.065948
0.233398 0.067596 0.065948
0.278687 0.067596 0.065948
0.323151 0.067596 0.065948
0.365173 0.067596 0.065948
0.407257 0.067596 0.065948
0.449524 0.067596 0.065948
0.490356 0.067596 0.065948
0.528961 0.067596 0.065948
0.564972 0.067596 0.065948
0.597748 0.067596 0.065948
0.628845 0.067596 0.065948
0.658234 0.067596 0.065948
0.685852 0.067596 0.065948
0.712219 0.067596 0.065948
0.736389 0.067596 0.065948
0.759369 0.067596 0.065948
0.780365 0.067596 0.065948
0.800537 0.067596 0.065948
0.818481 0.067596 0.065948
0.835785 0.067596 0.065948
0.850952 0.067596 0.065948
0.865692 0.067596 0.065948
0.878754 0.067596 0.065948
0.891632 0.067596 0.065948
0.903595 0.067596 0.065948
0.915497 0.067596 0.065948
0.065948 0.093475 0.065948
0.065948 0.093475 0.065948
0.067596 0.093475 0.065948
0.093475 0.093475 0.065948
0.123230 0.093475 0.065948
0.179352 0.093475 0.065948
0.233398 0.093475 0.065948
0.278687 0.093475 0.065948
0.323151 0.093475 0.065948
0.365173 0.093475 0.065948
0.407257 0.093475 0.065948
0.449524 0.093475 0.065948
0.490356 0.093475 0.065948
0.528961 0.093475 0.065948
0.564972 0.093475 0.065948
0.597748 0.093475 0.065948
0.628845 0.093475 0.065948
0.658234 0.093475 0.065948
0.685852 0.093475 0.065948
0.712219 0.093475 0.065948
0.736389 0.093475 0.065948
0.759369 0.093475 0.065948
0.780365 0.093475 0.065948
0.800537 0.093475 0.065948
0.818481 0.093475 0.065948
0.835785 0.093475 0.065948
0.850952 0.093475 0.065948
0.865692 0.093475 0.065948
0.878754 0.093475 0.065948
0.891632 0.093475 0.065948
0.903595 0.093475 0.065948
0.915497 0.093475 0.065948
0.065948 0.123230 0.065948
0.065948 0.123230 0.065948
0.067596 0.123230 0.065948
0.093475 0.123230 0.065948
0.123230 0.123230 0.065948
0.179352 0.123230 0.065948
0.233398 0.123230 0.065948
0.278687 0.123230 0.065948
0.323151 0.123230 0.065948
0.365173 0.123230 0.065948
0.407257 0.123230 0.065948
0.449524 0.123230 0.065948
0.490356 0.123230 0.065948
0.528961 0.123230 0.065948
0.564972 0.123230 0.065948
0.597748 0.123230 0.065948
0.628845 0.123230 0.065948
0.658234 0.123230 0.065948
0.685852 0.123230 0.065948
0.712219 0.123230 0.065948
0.736389 0.123230 0.065948
0.759369 0.123230 0.065948
0.780365 0.123230 0.065948
0.800537 0.123230 0.065948
0.818481 0.123230 0.065948
0.835785 0.123230 0.065948
0.850952 0.123230 0.065948
0.865692 0.123230 0.065948
0.878754 0.123230 0.065948
0.891632 0.123230 0.065948
0.903595 0.123230 0.065948
0.915497 0.123230 0.065948
0.065948 0.179352 0.065948
0.065948 0.179352 0.065948
0.067596 0.179352 0.065948
0.093475 0.179352 0.065948
0.123230 0.179352 0.065948
0.179352 0.179352 0.065948
0.233398 0.179352 0.065948
0.278687 0.179352 0.065948
0.323151 0.179352 0.065948
0.365173 0.179352 0.065948
0.407257 0.179352 0.065948
0.449524 0.179352 0.065948
0.490356 0.179352 0.065948
0.528961 0.179352 0.065948
0.564972 0.179352 0.065948
0.597748 0.179352 0.065948
0.628845 0.179352 0.065948
0.658234 0.179352 0.065948
0.685852 0.179352 0.065948
0.712219 0.179352 0.065948
0.736389 0.179352 0.065948
0.759369 0.179352 0.065948
0.780365 0.179352 0.065948
0.800537 0.179352 0.065948
0.818481 0.179352 0.065948
0.835785 0.179352 0.065948
0.850952 0.179352 0.065948
0.865692 0.179352 0.065948
0.878754 0.179352 0.065948
0.891632 0.179352 0.065948
0.903595 0.179352 0.065948
0.915497 0.179352 0.065948
0.065948 0.233398 0.065948
0.065948 0.233398 0.065948
0.067596 0.233398 0.065948
0.093475 0.233398 0.065948
0.123230 0.233398 0.065948
0.179352 0.233398 0.065948
0.233398 0.233398 0.065948
0.278687 0.233398 0.065948
0.323151 0.233398 0.065948
0.365173 0.233398 0.065948
0.407257 0.233398 0.065948
0.449524 0.233398 0.065948
0.490356 0.233398 0.065948
0.528961 0.233398 0.065948
0.564972 0.233398 0.065948
0.597748 0.233398 0.065948
0.628845 0.233398 0.065948
0.658234 0.233398 0.065948
0.685852 0.233398 0.065948
0.712219 0.233398 0.065948
0.736389 0.233398 0.065948
0.759369 0.233398 0.065948
0.780365 0.233398 0.065948
0.800537 0.233398 0.065948
0.818481 0.233398 0.065948
0.835785 0.233398 0.065948
0.850952 0.233398 0.065948
0.865692 0.233398 0.065948
0.878754 0.233398 0.065948
0.891632 0.233398 0.065948
0.903595 0.233398 0.065948
0.915497 0.233398 0.065948
0.065948 0.278687 0.065948
0.065948 0.278687 0.065948
0.067596 0.278687 0.065948
0.093475 0.278687 0.065948
0.123230 0.278687 0.065948
0.179352 0.278687 0.065948
0.233398 0.278687 0.065948
0.278687 0.278687 0.065948
0.323151 0.278687 0.065948
0.365173 0.278687 0.065948
0.407257 0.278687 0.065948
0.449524 0.278687 0.065948
0.490356 0.278687 0.065948
0.528961 0.278687 0.065948
0.564972 0.278687 0.065948
0.597748 0.278687 0.065948
0.628845 0.278687 0.065948
0.658234 0.278687 0.065948
0.685852 0.278687 0.065948
0.712219 0.278687 0.065948
0.736389 0.278687 0.065948
0.759369 0.278687 0.065948
0.780365 0.278687 0.065948
0.800537 0.278687 0.065948
0.818481 0.278687 0.065948
0.835785 0.278687 0.065948
0.850952 0.278687 0.065948
0.865692 0.278687 0.065948
0.878754 0.278687 0.065948
0.891632 0.278687 0.065948
0.903595 0.278687 0.065948
0.915497 0.278687 0.065948
0.065948 0.323151 0.065948
0.065948 0.323151 0.065948
0.067596 0.323151 0.065948
0.093475 0.323151 0.065948
0.123230 0.323151 0.065948
0.179352 0.323151 0.065948
0.233398 0.323151 0.065948
0.278687 0.323151 0.065948
0.323151 0.323151 0.065948
0.365173 0.323151 0.065948
0.407257 0.323151 0.065948
0.449524 0.323151 0.065948
0.490356 0.323151 0.065948
0.528961 0.323151 0.065948
0.564972 0.323151 0.065948
0.597748 0.323151 0.065948
0.628845 0.323151 0.065948
0.658234 0.323151 0.065948
0.685852 0.323151 0.065948
0.712219 0.323151 0.065948
0.736389 0.323151 0.065948
0.759369 0.323151 0.065948
0.780365 0.323151 0.065948
0.800537 0.323151 0.065948
0.818481 0.323151 0.065948
0.835785 0.323151 0.065948
0.850952 0.323151 0.065948
0.865692 0.323151 0.065948
0.878754 0.323151 0.065948
0.891632 0.323151 0.065948
0.903595 0.323151 0.065948
0.915497 0.323151 0.065948
0.065948 0.365173 0.065948
0.065948 0.365173 0.065948
0.067596 0.365173 0.065948
0.093475 0.365173 0.065948
0.123230 0.365173 0.065948
0.179352 0.365173 0.065948
0.233398 0.365173 0.065948
0.278687 0.365173 0.065948
0.323151 0.365173 0.065948
0.365173 0.365173 0.065948
0.407257 0.365173 0.065948
0.449524 0.365173 0.065948
0.490356 0.365173 0.065948
0.528961 0.365173 0.065948
0.564972 0.365173 0.065948
0.597748 0.365173 0.065948
0.628845 0.365173 0.065948
0.658234 0.365173 0.065948
0.685852 0.365173 0.065948
0.712219 0.365173 0.065948
0.736389 0.365173 0.065948
0.759369 0.365173 0.065948
0.780365 0.365173 0.065948
0.800537 0.365173 0.065948
0.818481 0.365173 0.065948
0.835785 0.365173 0.065948
0.850952 0.365173 0.065948
0.865692 0.365173 0.065948
0.878754 0.365173 0.065948
0.891632 0.365173 0.065948
0.903595 0.365173 0.065948
0.915497 0.365173 0.065948
0.065948 0.407257 0.065948
0.065948 0.407257 0.065948
0.067596 0.407257 0.065948
0.093475 0.407257 0.065948
0.123230 0.407257 0.065948
0.179352 0.407257 0.065948
0.233398 0.407257 0.065948
0.278687 0.407257 0.065948
0.323151 0.407257 0.065948
0.365173 0.407257 0.065948
0.407257 0.407257 0.065948
0.449524 0.407257 0.065948
0.490356 0.407257 0.065948
0.528961 0.407257 0.065948
0.564972 0.407257 0.065948
0.597748 0.407257 0.065948
0.628845 0.407257 0.065948
0.658234 0.407257 0.065948
0.685852 0.407257 0.065948
0.712219 0.407257 0.065948
0.736389 0.407257 0.065948
0.759369 0.407257 0.065948
0.780365 0.407257 0.065948
0.800537 0.407257 0.065948
0.818481 0.407257 0.065948
0.835785 0.407257 0.065948
0.850952 0.407257 0.065948
0.865692 0.407257 0.065948
0.878754 0.407257 0.065948
0.891632 0.407257 0.065948
0.903595 0.407257 0.065948
0.915497 0.407257 0.065948
0.065948 0.449524 0.065948
0.065948 0.449524 0.065948
0.067596 0.449524 0.065948
0.093475 0.449524 0.065948
0.123230 0.449524 0.065948
0.179352 0.449524 0.065948
0.233398 0.449524 0.065948
0.278687 0.449524 0.065948
0.323151 0.449524 0.065948
0.365173 0.449524 0.065948
0.407257 0.449524 0.065948
0.449524 0.449524 0.065948
0.490356 0.449524 0.065948
0.528961 0.449524 0.065948
0.564972 0.449524 0.065948
0.597748 0.449524 0.065948
0.628845 0.449524 0.065948
0.658234 0.449524 0.065948
0.685852 0.449524 0.065948
0.712219 0.449524 0.065948
0.736389 0.449524 0.065948
0.759369 0.449524 0.065948
0.780365 0.449524 0.065948
0.800537 0.449524 0.065948
0.818481 0.449524 0.065948
0.835785 0.449524 0.065948
0.850952 0.449524 0.065948
0.865692 0.449524 0.065948
0.878754 0.449524 0.065948
0.891632 0.449524 0.065948
0.903595 0.449524 0.065948
0.915497 0.449524 0.065948
0.065948 0.490356 0.065948
0.065948 0.490356 0.065948
0.067596 0.490356 0.065948
0.093475 0.490356 0.065948
0.123230 0.490356 0.065948
0.179352 0.490356 0.065948
0.233398 0.490356 0.065948
0.278687 0.490356 0.065948
0.323151 0.490356 0.065948
0.365173 0.490356 0.065948
0.407257 0.490356 0.065948
0.449524 0.490356 0.065948
0.490356 0.490356 0.065948
0.528961 0.490356 0.065948
0.564972 0.490356 0.065948
0.597748 0.490356 0.065948
0.628845 0.490356 0.065948
0.658234 0.490356 0.065948
0.685852 0.490356 0.065948
0.712219 0.490356 0.065948
0.736389 0.490356 0.065948
0.759369 0.490356 0.065948
0.780365 0.490356 0.065948
0.800537 0.490356 0.065948
0.818481 0.490356 0.065948
0.835785 0.490356 0.065948
0.850952 0.490356 0.065948
0.865692 0.490356 0.065948
0.878754 0.490356 0.065948
0.891632 0.490356 0.065948
0.903595 0.490356 0.065948
0.915497 0.490356 0.065948
0.065948 0.528961 0.065948
0.065948 0.528961 0.065948
0.067596 0.528961 0.065948
0.093475 0.528961 0.065948
0.123230 0.528961 0.065948
0.179352 0.528961 0.065948
0.233398 0.528961 0.065948
0.278687 0.528961 0.065948
0.323151 0.528961 0.065948
0.365173 0.528961 0.065948
0.407257 0.528961 0.065948
0.449524 0.528961 0.065948
0.490356 0.528961 0.065948
0.528961 0.528961 0.065948
0.564972 0.528961 0.065948
0.597748 0.528961 0.065948
0.628845 0.528961 0.065948
0.658234 0.528961 0.065948
0.685852 0.528961 0.065948
0.712219 0.528961 0.065948
0.736389 0.528961 0.065948
0.759369 0.528961 0.065948
0.780365 0.528961 0.065948
0.800537 0.528961 0.065948
0.818481 0.528961 0.065948
0.835785 0.528961 0.065948
0.850952 0.528961 0.065948
0.865692 0.528961 0.065948
0.878754 0.528961 0.065948
0.891632 0.528961 0.065948
0.903595 0.528961 0.065948
0.915497 0.528961 0.065948
0.065948 0.564972 0.065948
0.065948 0.564972 0.065948
0.067596 0.564972 0.065948
0.093475 0.564972 0.065948
0.123230 0.564972 0.065948
0.179352 0.564972 0.065948
0.233398 0.564972 0.065948
0.278687 0.564972 0.065948
0.323151 0.564972 0.065948
0.365173 0.564972 0.065948
0.407257 0.564972 0.065948
0.449524 0.564972 0.065948
0.490356 0.564972 0.065948
0.528961 0.564972 0.065948
0.564972 0.564972 0.065948
0.597748 0.564972 0.065948
0.628845 0.564972 0.065948
0.658234 0.564972 0.065948
0.685852 0.564972 0.065948
0.712219 0.564972 0.065948
0.736389 0.564972 0.065948
0.759369 0.564972 0.065948
0.780365 0.564972 0.065948
0.800537 0.564972 0.065948
0.818481 0.564972 0.065948
0.835785 0.564972 0.065948
0.850952 0.564972 0.065948
0.865692 0.564972 0.065948
0.878754 0.564972 0.065948
0.891632 0.564972 0.065948
0.903595 0.564972 0.065948
0.915497 0.564972 0.065948
0.065948 0.597748 0.065948
0.065948 0.597748 0.065948
0.067596 0.597748 0.065948
0.093475 0.597748 0.065948
0.123230 0.597748 0.065948
0.179352 0.597748 0.065948
0.233398 0.597748 0.065948
0.278687 0.597748 0.065948
0.323151 0.597748 0.065948
0.365173 0.597748 0.065948
0.407257 0.597748 0.065948
0.449524 0.597748 0.065948
0.490356 0.597748 0.065948
0.528961 0.597748 0.065948
0.564972 0.597748 0.065948
0.597748 0.597748 0.065948
0.628845 0.597748 0.065948
0.658234 0.597748 0.065948
0.685852 0.597748 0.065948
0.712219 0.597748 0.065948
0.736389 0.597748 0.065948
0.759369 0.597748 0.065948
0.780365 0.597748 0.065948
0.800537 0.597748 0.065948
0.818481 0.597748 0.065948
0.835785 0.597748 0.065948
0.850952 0.597748 0.065948
0.865692 0.597748 0.065948
0.878754 0.597748 0.065948
0.891632 0.597748 0.065948
0.903595 0.597748 0.065948
0.915497 0.597748 0.065948
0.065948 0.628845 0.065948
0.065948 0.628845 0.065948
0.067596 0.628845 0.065948
0.093475 0.628845 0.065948
0.123230 0.628845 0.065948
0.179352 0.628845 0.065948
0.233398 0.628845 0.065948
0.278687 0.628845 0.065948
0.323151 0.628845 0.065948
0.365173 0.628845 0.065948
0.407257 0.628845 0.065948
0.449524 0.628845 0.065948
0.490356 0.628845 0.065948
0.528961 0.628845 0.065948
0.564972 0.628845 0.065948
0.597748 0.628845 0.065948
0.628845 0.628845 0.065948
0.658234 0.628845 0.065948
0.685852 0.628845 0.065948
0.712219 0.628845 0.065948
0.736389 0.628845 0.065948
0.759369 0.628845 0.065948
0.780365 0.628845 0.065948
0.800537 0.628845 0.065948
0.818481 0.628845 0.065948
0.835785 0.628845 0.065948
0.850952 0.628845 0.065948
0.865692 0.628845 0.065948
0.878754 0.628845 0.065948
0.891632 0.628845 0.065948
0.903595 0.628845 0.065948
0.915497 0.628845 0.065948
0.065948 0.658234 0.065948
0.065948 0.658234 0.065948
0.067596 0.658234 0.065948
0.093475 0.658234 0.065948
0.123230 0.658234 0.065948
0.179352 0.658234 0.065948
0.233398 0.658234 0.065948
0.278687 0.658234 0.065948
0.323151 0.658234 0.065948
0.365173 0.658234 0.065948
0.407257 0.658234 0.065948
0.449524 0.658234 0.065948
0.490356 0.658234 0.065948
0.528961 0.658234 0.065948
0.564972 0.658234 0.065948
0.597748 0.658234 0.065948
0.628845 0.658234 0.065948
0.658234 0.658234 0.065948
0.685852 0.658234 0.065948
0.712219 0.658234 0.065948
0.736389 0.658234 0.065948
0.759369 0.658234 0.065948
0.780365 0.658234 0.065948
0.800537 0.658234 0.065948
0.818481 0.658234 0.065948
0.835785 0.658234 0.065948
0.850952 0.658234 0.065948
0.865692 0.658234 0.065948
0.878754 0.658234 0.065948
0.891632 0.658234 0.065948
0.903595 0.658234 0.065948
0.915497 0.658234 0.065948
0.065948 0.685852 0.065948
0.065948 0.685852 0.065948
0.067596 0.685852 0.065948
0.093475 0.685852 0.065948
0.123230 0.685852 0.065948
0.179352 0.685852 0.065948
0.233398 0.685852 0.065948
0.278687 0.685852 0.065948
0.323151 0.685852 0.065948
0.365173 0.685852 0.065948
0.407257 0.685852 0.065948
0.449524 0.685852 0.065948
0.490356 0.685852 0.065948
0.528961 0.685852 0.065948
0.564972 0.685852 0.065948
0.597748 0.685852 0.065948
0.628845 0.685852 0.065948
0.658234 0.685852 0.065948
0.685852 0.685852 0.065948
0.712219 0.685852 0.065948
0.736389 0.685852 0.065948
0.759369 0.685852 0.065948
0.780365 0.685852 0.065948
0.800537 0.685852 0.065948
0.818481 0.685852 0.065948
0.835785 0.685852 0.065948
0.850952 0.685852 0.065948
0.865692 0.685852 0.065948
0.878754 0.685852 0.065948
0.891632 0.685852 0.065948
0.903595 0.685852 0.065948
0.915497 0.685852 0.065948
0.065948 0.712219 0.065948
0.065948 0.712219 0.065948
0.067596 0.712219 0.065948
0.093475 0.712219 0.065948
0.123230 0.712219 0.065948
0.179352 0.712219 0.065948
0.233398 0.712219 0.065948
0.278687 0.712219 0.065948
0.323151 0.712219 0.065948
0.365173 0.712219 0.065948
0.407257 0.712219 0.065948
0.449524 0.712219 0.065948
0.490356 0.712219 0.065948
0.528961 0.712219 0.065948
0.564972 0.712219 0.065948
0.597748 0.712219 0.065948
0.628845 0.712219 0.065948
0.658234 0.712219 0.065948
0.685852 0.712219 0.065948
0.712219 0.712219 0.065948
0.736389 0.712219 0.065948
0.759369 0.712219 0.065948
0.780365 0.712219 0.065948
0.800537 0.712219 0.065948
0.818481 0.712219 0.065948
0.835785 0.712219 0.065948
0.850952 0.712219 0.065948
0.865692 0.712219 0.065948
0.878754 0.712219 0.065948
0.891632 0.712219 0.065948
0.903595 0.712219 0.065948
0.915497 0.712219 0.065948
0.065948 0.736389 0.065948
0.065948 0.736389 0.065948
0.067596 0.736389 0.065948
0.093475 0.736389 0.065948
0.123230 0.736389 0.065948
0.179352 0.736389 0.065948
0.233398 0.736389 0.065948
0.278687 0.736389 0.065948
0.323151 0.736389 0.065948
0.365173 0.736389 0.065948
0.407257 0.736389 0.065948
0.449524 0.736389 0.065948
0.490356 0.736389 0.065948
0.528961 0.736389 0.065948
0.564972 0.736389 0.065948
0.597748 0.736389 0.065948
0.628845 0.736389 0.065948
0.658234 0.736389 0.065948
0.685852 0.736389 0.065948
0.712219 0.736389 0.065948
0.736389 0.736389 0.065948
0.759369 0.736389 0.065948
0.780365 0.736389 0.065948
0.800537 0.736389 0.065948
0.818481 0.736389 0.065948
0.835785 0.736389 0.065948
0.850952 0.736389 0.065948
0.865692 0.736389 0.065948
0.878754 0.736389 0.065948
0.891632 0.736389 0.065948
0.903595 0.736389 0.065948
0.915497 0.736389 0.065948
0.065948 0.759369 0.065948
0.065948 0.759369 0.065948
0.067596 0.759369 0.065948
0.093475 0.759369 0.065948
0.123230 0.759369 0.065948
0.179352 0.759369 0.065948
0.233398 0.759369 0.065948
0.278687 0.759369 0.065948
0.323151 0.759369 0.065948
0.365173 0.759369 0.065948
0.407257 0.759369 0.065948
0.449524 0.759369 0.065948
0.490356 0.759369 0.065948
0.528961 0.759369 0.065948
0.564972 0.759369 0.065948
0.597748 0.759369 0.065948
0.628845 0.759369 0.065948
0.658234 0.759369 0.065948
0.685852 0.759369 0.065948
0.712219 0.759369 0.065948
0.736389 0.759369 0.065948
0.759369 0.759369 0.065948
0.780365 0.759369 0.065948
0.800537 0.759369 0.065948
0.818481 0.759369 0.065948
0.835785 0.759369 0.065948
0.850952 0.759369 0.065948
0.865692 0.759369 0.065948
0.878754 0.759369 0.065948
0.891632 0.759369 0.065948
0.903595 0.759369 0.065948
0.915497 0.759369 0.065948
0.065948 0.780365 0.065948
0.065948 0.780365 0.065948
0.067596 0.780365 0.065948
0.093475 0.780365 0.065948
0.123230 0.780365 0.065948
0.179352 0.780365 0.065948
0.233398 0.780365 0.065948
0.278687 0.780365 0.065948
0.323151 0.780365 0.065948
0.365173 0.780365 0.065948
0.407257 0.780365 0.065948
0.449524 0.780365 0.065948
0.490356 0.780365 0.065948
0.528961 0.780365 0.065948
0.564972 0.780365 0.065948
0.597748 0.780365 0.065948
0.628845 0.780365 0.065948
0.658234 0.780365 0.065948
0.685852 0.780365 0.065948
0.712219 0.780365 0.065948
0.736389 0.780365 0.065948
0.759369 0.780365 0.065948
0.780365 0.780365 0.065948
0.800537 0.780365 0.065948
0.818481 0.780365 0.065948
0.835785 0.780365 0.065948
0.850952 0.780365 0.065948
0.865692 0.780365 0.065948
0.878754 0.780365 0.065948
0.891632 0.780365 0.065948
0.903595 0.780365 0.065948
0.915497 0.780365 0.065948
0.065948 0.800537 0.065948
0.065948 0.800537 0.065948
0.067596 0.800537 0.065948
0.093475 0.800537 0.065948
0.123230 0.800537 0.065948
0.179352 0.800537 0.065948
0.233398 0.800537 0.065948
0.278687 0.800537 0.065948
0.323151 0.800537 0.065948
0.365173 0.800537 0.065948
0.407257 0.800537 0.065948
0.449524 0.800537 0.065948
0.490356 0.800537 0.065948
0.528961 0.800537 0.065948
0.564972 0.800537 0.065948
0.597748 0.800537 0.065948
0.628845 0.800537 0.065948
0.658234 0.800537 0.065948
0.685852 0.800537 0.065948
0.712219 0.800537 0.065948
0.736389 0.800537 0.065948
0.759369 0.800537 0.065948
0.780365 0.800537 0.065948
0.800537 0.800537 0.065948
0.818481 0.800537 0.065948
0.835785 0.800537 0.065948
0.850952 0.800537 0.065948
0.865692 0.800537 0.065948
0.878754 0.800537 0.065948
0.891632 0.800537 0.065948
0.903595 0.800537 0.065948
0.915497 0.800537 0.065948
0.065948 0.818481 0.065948
0.065948 0.818481 0.065948
0.067596 0.818481 0.065948
0.093475 0.818481 0.065948
0.123230 0.818481 0.065948
0.179352 0.818481 0.065948
0.233398 0.818481 0.065948
0.278687 0.818481 0.065948
0.323151 0.818481 0.065948
0.365173 0.818481 0.065948
0.407257 0.818481 0.065948
0.449524 0.818481 0.065948
0.490356 0.818481 0.065948
0.528961 0.818481 0.065948
0.564972 0.818481 0.065948
0.597748 0.818481 0.065948
0.628845 0.818481 0.065948
0.658234 0.818481 0.065948
0.685852 0.818481 0.065948
0.712219 0.818481 0.065948
0.736389 0.818481 0.065948
0.759369 0.818481 0.065948
0.780365 0.818481 0.065948
0.800537 0.818481 0.065948
0.818481 0.818481 0.065948
0.835785 0.818481 0.065948
0.850952 0.818481 0.065948
0.865692 0.818481 0.065948
0.878754 0.818481 0.065948
0.891632 0.818481 0.065948
0.903595 0.818481 0.065948
0.915497 0.818481 0.065948
0.065948 0.835785 0.065948
0.065948 0.835785 0.065948
0.067596 0.835785 0.065948
0.093475 0.835785 0.065948
0.123230 0.835785 0.065948
0.179352 0.835785 0.065948
0.233398 0.835785 0.065948
0.278687 0.835785 0.065948
0.323151 0.835785 0.065948
0.365173 0.835785 0.065948
0.407257 0.835785 0.065948
0.449524 0.835785 0.065948
0.490356 0.835785 0.065948
0.528961 0.835785 0.065948
0.564972 0.835785 0.065948
0.597748 0.835785 0.065948
0.628845 0.835785 0.065948
0.658234 0.835785 0.065948
0.685852 0.835785 0.065948
0.712219 0.835785 0.065948
0.736389 0.835785 0.065948
0.759369 0.835785 0.065948
0.780365 0.835785 0.065948
0.800537 0.835785 0.065948
0.818481 0.835785 0.065948
0.835785 0.835785 0.065948
0.850952 0.835785 0.065948
0.865692 0.835785 0.065948
0.878754 0.835785 0.065948
0.891632 0.835785 0.065948
0.903595 0.835785 0.065948
0.915497 0.835785 0.065948
0.065948 0.850952 0.065948
0.065948 0.850952 0.065948
0.067596 0.850952 0.065948
0.093475 0.850952 0.065948
0.123230 0.850952 0.065948
0.179352 0.850952 0.065948
0.233398 0.850952 0.065948
0.278687 0.850952 0.065948
0.323151 0.850952 0.065948
0.365173 0.850952 0.065948
0.407257 0.850952 0.065948
0.449524 0.850952 0.065948
0.490356 0.850952 0.065948
0.528961 0.850952 0.065948
0.564972 0.850952 0.065948
0.597748 0.850952 0.065948
0.628845 0.850952 0.065948
0.658234 0.850952 0.065948
0.685852 0.850952 0.065948
0.712219 0.850952 0.065948
0.736389 0.850952 0.065948
0.759369 0.850952 0.065948
0.780365 0.850952 0.065948
0.800537 0.850952 0.065948
0.818481 0.850952 0.065948
0.835785 0.850952 0.065948
0.850952 0.850952 0.065948
0.865692 0.850952 0.065948
0.878754 0.850952 0.065948
0.891632 0.850952 0.065948
0.903595 0.850952 0.065948
0.915497 0.850952 0.065948
0.065948 0.865692 0.065948
0.065948 0.865692 0.065948
0.067596 0.865692 0.065948
0.093475 0.865692 0.065948
0.123230 0.865692 0.065948
0.179352 0.865692 0.065948
0.233398 0.865692 0.065948
0.278687 0.865692 0.065948
0.323151 0.865692 0.065948
0.365173 0.865692 0.065948
0.407257 0.865692 0.065948
0.449524 0.865692 0.065948
0.490356 0.865692 0.065948
0.528961 0.865692 0.065948
0.564972 0.865692 0.065948
0.597748 0.865692 0.065948
0.628845 0.865692 0.065948
