Postproduction/IWLTBAP - Humble/LUTs by IWLTBAP (CUBE)/UTILITY/Canon C-Log to Rec.709/U-CANON-C-LOG-V3-LTR.cube
# Copyright: (C) Copyright 2010-2018 by IWLTBAP SAS
# Cannot be resold, shared or otherwise redistributed
# Website: https://luts.iwltbap.com
TITLE "Canon C-Log V3 (Utility LOG to Rec.709)"
LUT_3D_SIZE 32
0.065948 0.065948 0.065948
0.065948 0.065948 0.065948
0.067596 0.065948 0.065948
0.093475 0.065948 0.065948
0.123260 0.065948 0.065948
0.179779 0.065948 0.065948
0.234009 0.065948 0.065948
0.278687 0.065948 0.065948
0.322632 0.065948 0.065948
0.364502 0.065948 0.065948
0.406830 0.065948 0.065948
0.450104 0.065948 0.065948
0.494598 0.065948 0.065948
0.541016 0.065948 0.065948
0.589508 0.065948 0.065948
0.640472 0.065948 0.065948
0.694885 0.065948 0.065948
0.752380 0.065948 0.065948
0.813934 0.065948 0.065948
0.878418 0.065948 0.065948
0.906067 0.065948 0.065948
0.913391 0.065948 0.065948
0.915497 0.065948 0.065948
0.915497 0.065948 0.065948
0.915497 0.065948 0.065948
0.915497 0.065948 0.065948
0.915497 0.065948 0.065948
0.915497 0.065948 0.065948
0.915497 0.065948 0.065948
0.915497 0.065948 0.065948
0.915497 0.065948 0.065948
0.915497 0.065948 0.065948
0.065948 0.065948 0.065948
0.065948 0.065948 0.065948
0.067596 0.065948 0.065948
0.093475 0.065948 0.065948
0.123260 0.065948 0.065948
0.179779 0.065948 0.065948
0.234009 0.065948 0.065948
0.278687 0.065948 0.065948
0.322632 0.065948 0.065948
0.364502 0.065948 0.065948
0.406830 0.065948 0.065948
0.450104 0.065948 0.065948
0.494598 0.065948 0.065948
0.541016 0.065948 0.065948
0.589508 0.065948 0.065948
0.640472 0.065948 0.065948
0.694885 0.065948 0.065948
0.752380 0.065948 0.065948
0.813934 0.065948 0.065948
0.878418 0.065948 0.065948
0.906067 0.065948 0.065948
0.913391 0.065948 0.065948
0.915497 0.065948 0.065948
0.915497 0.065948 0.065948
0.915497 0.065948 0.065948
0.915497 0.065948 0.065948
0.915497 0.065948 0.065948
0.915497 0.065948 0.065948
0.915497 0.065948 0.065948
0.915497 0.065948 0.065948
0.915497 0.065948 0.065948
0.915497 0.065948 0.065948
0.065948 0.067596 0.065948
0.065948 0.067596 0.065948
0.067596 0.067596 0.065948
0.093475 0.067596 0.065948
0.123260 0.067596 0.065948
0.179779 0.067596 0.065948
0.234009 0.067596 0.065948
0.278687 0.067596 0.065948
0.322632 0.067596 0.065948
0.364502 0.067596 0.065948
0.406830 0.067596 0.065948
0.450104 0.067596 0.065948
0.494598 0.067596 0.065948
0.541016 0.067596 0.065948
0.589508 0.067596 0.065948
0.640472 0.067596 0.065948
0.694885 0.067596 0.065948
0.752380 0.067596 0.065948
0.813934 0.067596 0.065948
0.878418 0.067596 0.065948
0.906067 0.067596 0.065948
0.913391 0.067596 0.065948
0.915497 0.067596 0.065948
0.915497 0.067596 0.065948
0.915497 0.067596 0.065948
0.915497 0.067596 0.065948
0.915497 0.067596 0.065948
0.915497 0.067596 0.065948
0.915497 0.067596 0.065948
0.915497 0.067596 0.065948
0.915497 0.067596 0.065948
0.915497 0.067596 0.065948
0.065948 0.093475 0.065948
0.065948 0.093475 0.065948
0.067596 0.093475 0.065948
0.093475 0.093475 0.065948
0.123260 0.093475 0.065948
0.179779 0.093475 0.065948
0.234009 0.093475 0.065948
0.278687 0.093475 0.065948
0.322632 0.093475 0.065948
0.364502 0.093475 0.065948
0.406830 0.093475 0.065948
0.450104 0.093475 0.065948
0.494598 0.093475 0.065948
0.541016 0.093475 0.065948
0.589508 0.093475 0.065948
0.640472 0.093475 0.065948
0.694885 0.093475 0.065948
0.752380 0.093475 0.065948
0.813934 0.093475 0.065948
0.878418 0.093475 0.065948
0.906067 0.093475 0.065948
0.913391 0.093475 0.065948
0.915497 0.093475 0.065948
0.915497 0.093475 0.065948
0.915497 0.093475 0.065948
0.915497 0.093475 0.065948
0.915497 0.093475 0.065948
0.915497 0.093475 0.065948
0.915497 0.093475 0.065948
0.915497 0.093475 0.065948
0.915497 0.093475 0.065948
0.915497 0.093475 0.065948
0.065948 0.123260 0.065948
0.065948 0.123260 0.065948
0.067596 0.123260 0.065948
0.093475 0.123260 0.065948
0.123260 0.123260 0.065948
0.179779 0.123260 0.065948
0.234009 0.123260 0.065948
0.278687 0.123260 0.065948
0.322632 0.123260 0.065948
0.364502 0.123260 0.065948
0.406830 0.123260 0.065948
0.450104 0.123260 0.065948
0.494598 0.123260 0.065948
0.541016 0.123260 0.065948
0.589508 0.123260 0.065948
0.640472 0.123260 0.065948
0.694885 0.123260 0.065948
0.752380 0.123260 0.065948
0.813934 0.123260 0.065948
0.878418 0.123260 0.065948
0.906067 0.123260 0.065948
0.913391 0.123260 0.065948
0.915497 0.123260 0.065948
0.915497 0.123260 0.065948
0.915497 0.123260 0.065948
0.915497 0.123260 0.065948
0.915497 0.123260 0.065948
0.915497 0.123260 0.065948
0.915497 0.123260 0.065948
0.915497 0.123260 0.065948
0.915497 0.123260 0.065948
0.915497 0.123260 0.065948
0.065948 0.179779 0.065948
0.065948 0.179779 0.065948
0.067596 0.179779 0.065948
0.093475 0.179779 0.065948
0.123260 0.179779 0.065948
0.179779 0.179779 0.065948
0.234009 0.179779 0.065948
0.278687 0.179779 0.065948
0.322632 0.179779 0.065948
0.364502 0.179779 0.065948
0.406830 0.179779 0.065948
0.450104 0.179779 0.065948
0.494598 0.179779 0.065948
0.541016 0.179779 0.065948
0.589508 0.179779 0.065948
0.640472 0.179779 0.065948
0.694885 0.179779 0.065948
0.752380 0.179779 0.065948
0.813934 0.179779 0.065948
0.878418 0.179779 0.065948
0.906067 0.179779 0.065948
0.913391 0.179779 0.065948
0.915497 0.179779 0.065948
0.915497 0.179779 0.065948
0.915497 0.179779 0.065948
0.915497 0.179779 0.065948
0.915497 0.179779 0.065948
0.915497 0.179779 0.065948
0.915497 0.179779 0.065948
0.915497 0.179779 0.065948
0.915497 0.179779 0.065948
0.915497 0.179779 0.065948
0.065948 0.234009 0.065948
0.065948 0.234009 0.065948
0.067596 0.234009 0.065948
0.093475 0.234009 0.065948
0.123260 0.234009 0.065948
0.179779 0.234009 0.065948
0.234009 0.234009 0.065948
0.278687 0.234009 0.065948
0.322632 0.234009 0.065948
0.364502 0.234009 0.065948
0.406830 0.234009 0.065948
0.450104 0.234009 0.065948
0.494598 0.234009 0.065948
0.541016 0.234009 0.065948
0.589508 0.234009 0.065948
0.640472 0.234009 0.065948
0.694885 0.234009 0.065948
0.752380 0.234009 0.065948
0.813934 0.234009 0.065948
0.878418 0.234009 0.065948
0.906067 0.234009 0.065948
0.913391 0.234009 0.065948
0.915497 0.234009 0.065948
0.915497 0.234009 0.065948
0.915497 0.234009 0.065948
0.915497 0.234009 0.065948
0.915497 0.234009 0.065948
0.915497 0.234009 0.065948
0.915497 0.234009 0.065948
0.915497 0.234009 0.065948
0.915497 0.234009 0.065948
0.915497 0.234009 0.065948
0.065948 0.278687 0.065948
0.065948 0.278687 0.065948
0.067596 0.278687 0.065948
0.093475 0.278687 0.065948
0.123260 0.278687 0.065948
0.179779 0.278687 0.065948
0.234009 0.278687 0.065948
0.278687 0.278687 0.065948
0.322632 0.278687 0.065948
0.364502 0.278687 0.065948
0.406830 0.278687 0.065948
0.450104 0.278687 0.065948
0.494598 0.278687 0.065948
0.541016 0.278687 0.065948
0.589508 0.278687 0.065948
0.640472 0.278687 0.065948
0.694885 0.278687 0.065948
0.752380 0.278687 0.065948
0.813934 0.278687 0.065948
0.878418 0.278687 0.065948
0.906067 0.278687 0.065948
0.913391 0.278687 0.065948
0.915497 0.278687 0.065948
0.915497 0.278687 0.065948
0.915497 0.278687 0.065948
0.915497 0.278687 0.065948
0.915497 0.278687 0.065948
0.915497 0.278687 0.065948
0.915497 0.278687 0.065948
0.915497 0.278687 0.065948
0.915497 0.278687 0.065948
0.915497 0.278687 0.065948
0.065948 0.322632 0.065948
0.065948 0.322632 0.065948
0.067596 0.322632 0.065948
0.093475 0.322632 0.065948
0.123260 0.322632 0.065948
0.179779 0.322632 0.065948
0.234009 0.322632 0.065948
0.278687 0.322632 0.065948
0.322632 0.322632 0.065948
0.364502 0.322632 0.065948
0.406830 0.322632 0.065948
0.450104 0.322632 0.065948
0.494598 0.322632 0.065948
0.541016 0.322632 0.065948
0.589508 0.322632 0.065948
0.640472 0.322632 0.065948
0.694885 0.322632 0.065948
0.752380 0.322632 0.065948
0.813934 0.322632 0.065948
0.878418 0.322632 0.065948
0.906067 0.322632 0.065948
0.913391 0.322632 0.065948
0.915497 0.322632 0.065948
0.915497 0.322632 0.065948
0.915497 0.322632 0.065948
0.915497 0.322632 0.065948
0.915497 0.322632 0.065948
0.915497 0.322632 0.065948
0.915497 0.322632 0.065948
0.915497 0.322632 0.065948
0.915497 0.322632 0.065948
0.915497 0.322632 0.065948
0.065948 0.364502 0.065948
0.065948 0.364502 0.065948
0.067596 0.364502 0.065948
0.093475 0.364502 0.065948
0.123260 0.364502 0.065948
0.179779 0.364502 0.065948
0.234009 0.364502 0.065948
0.278687 0.364502 0.065948
0.322632 0.364502 0.065948
0.364502 0.364502 0.065948
0.406830 0.364502 0.065948
0.450104 0.364502 0.065948
0.494598 0.364502 0.065948
0.541016 0.364502 0.065948
0.589508 0.364502 0.065948
0.640472 0.364502 0.065948
0.694885 0.364502 0.065948
0.752380 0.364502 0.065948
0.813934 0.364502 0.065948
0.878418 0.364502 0.065948
0.906067 0.364502 0.065948
0.913391 0.364502 0.065948
0.915497 0.364502 0.065948
0.915497 0.364502 0.065948
0.915497 0.364502 0.065948
0.915497 0.364502 0.065948
0.915497 0.364502 0.065948
0.915497 0.364502 0.065948
0.915497 0.364502 0.065948
0.915497 0.364502 0.065948
0.915497 0.364502 0.065948
0.915497 0.364502 0.065948
0.065948 0.406830 0.065948
0.065948 0.406830 0.065948
0.067596 0.406830 0.065948
0.093475 0.406830 0.065948
0.123260 0.406830 0.065948
0.179779 0.406830 0.065948
0.234009 0.406830 0.065948
0.278687 0.406830 0.065948
0.322632 0.406830 0.065948
0.364502 0.406830 0.065948
0.406830 0.406830 0.065948
0.450104 0.406830 0.065948
0.494598 0.406830 0.065948
0.541016 0.406830 0.065948
0.589508 0.406830 0.065948
0.640472 0.406830 0.065948
0.694885 0.406830 0.065948
0.752380 0.406830 0.065948
0.813934 0.406830 0.065948
0.878418 0.406830 0.065948
0.906067 0.406830 0.065948
0.913391 0.406830 0.065948
0.915497 0.406830 0.065948
0.915497 0.406830 0.065948
0.915497 0.406830 0.065948
0.915497 0.406830 0.065948
0.915497 0.406830 0.065948
0.915497 0.406830 0.065948
0.915497 0.406830 0.065948
0.915497 0.406830 0.065948
0.915497 0.406830 0.065948
0.915497 0.406830 0.065948
0.065948 0.450104 0.065948
0.065948 0.450104 0.065948
0.067596 0.450104 0.065948
0.093475 0.450104 0.065948
0.123260 0.450104 0.065948
0.179779 0.450104 0.065948
0.234009 0.450104 0.065948
0.278687 0.450104 0.065948
0.322632 0.450104 0.065948
0.364502 0.450104 0.065948
0.406830 0.450104 0.065948
0.450104 0.450104 0.065948
0.494598 0.450104 0.065948
0.541016 0.450104 0.065948
0.589508 0.450104 0.065948
0.640472 0.450104 0.065948
0.694885 0.450104 0.065948
0.752380 0.450104 0.065948
0.813934 0.450104 0.065948
0.878418 0.450104 0.065948
0.906067 0.450104 0.065948
0.913391 0.450104 0.065948
0.915497 0.450104 0.065948
0.915497 0.450104 0.065948
0.915497 0.450104 0.065948
0.915497 0.450104 0.065948
0.915497 0.450104 0.065948
0.915497 0.450104 0.065948
0.915497 0.450104 0.065948
0.915497 0.450104 0.065948
0.915497 0.450104 0.065948
0.915497 0.450104 0.065948
0.065948 0.494598 0.065948
0.065948 0.494598 0.065948
0.067596 0.494598 0.065948
0.093475 0.494598 0.065948
0.123260 0.494598 0.065948
0.179779 0.494598 0.065948
0.234009 0.494598 0.065948
0.278687 0.494598 0.065948
0.322632 0.494598 0.065948
0.364502 0.494598 0.065948
0.406830 0.494598 0.065948
0.450104 0.494598 0.065948
0.494598 0.494598 0.065948
0.541016 0.494598 0.065948
0.589508 0.494598 0.065948
0.640472 0.494598 0.065948
0.694885 0.494598 0.065948
0.752380 0.494598 0.065948
0.813934 0.494598 0.065948
0.878418 0.494598 0.065948
0.906067 0.494598 0.065948
0.913391 0.494598 0.065948
0.915497 0.494598 0.065948
0.915497 0.494598 0.065948
0.915497 0.494598 0.065948
0.915497 0.494598 0.065948
0.915497 0.494598 0.065948
0.915497 0.494598 0.065948
0.915497 0.494598 0.065948
0.915497 0.494598 0.065948
0.915497 0.494598 0.065948
0.915497 0.494598 0.065948
0.065948 0.541016 0.065948
0.065948 0.541016 0.065948
0.067596 0.541016 0.065948
0.093475 0.541016 0.065948
0.123260 0.541016 0.065948
0.179779 0.541016 0.065948
0.234009 0.541016 0.065948
0.278687 0.541016 0.065948
0.322632 0.541016 0.065948
0.364502 0.541016 0.065948
0.406830 0.541016 0.065948
0.450104 0.541016 0.065948
0.494598 0.541016 0.065948
0.541016 0.541016 0.065948
0.589508 0.541016 0.065948
0.640472 0.541016 0.065948
0.694885 0.541016 0.065948
0.752380 0.541016 0.065948
0.813934 0.541016 0.065948
0.878418 0.541016 0.065948
0.906067 0.541016 0.065948
0.913391 0.541016 0.065948
0.915497 0.541016 0.065948
0.915497 0.541016 0.065948
0.915497 0.541016 0.065948
0.915497 0.541016 0.065948
0.915497 0.541016 0.065948
0.915497 0.541016 0.065948
0.915497 0.541016 0.065948
0.915497 0.541016 0.065948
0.915497 0.541016 0.065948
0.915497 0.541016 0.065948
0.065948 0.589508 0.065948
0.065948 0.589508 0.065948
0.067596 0.589508 0.065948
0.093475 0.589508 0.065948
0.123260 0.589508 0.065948
0.179779 0.589508 0.065948
0.234009 0.589508 0.065948
0.278687 0.589508 0.065948
0.322632 0.589508 0.065948
0.364502 0.589508 0.065948
0.406830 0.589508 0.065948
0.450104 0.589508 0.065948
0.494598 0.589508 0.065948
0.541016 0.589508 0.065948
0.589508 0.589508 0.065948
0.640472 0.589508 0.065948
0.694885 0.589508 0.065948
0.752380 0.589508 0.065948
0.813934 0.589508 0.065948
0.878418 0.589508 0.065948
0.906067 0.589508 0.065948
0.913391 0.589508 0.065948
0.915497 0.589508 0.065948
0.915497 0.589508 0.065948
0.915497 0.589508 0.065948
0.915497 0.589508 0.065948
0.915497 0.589508 0.065948
0.915497 0.589508 0.065948
0.915497 0.589508 0.065948
0.915497 0.589508 0.065948
0.915497 0.589508 0.065948
0.915497 0.589508 0.065948
0.065948 0.640472 0.065948
0.065948 0.640472 0.065948
0.067596 0.640472 0.065948
0.093475 0.640472 0.065948
0.123260 0.640472 0.065948
0.179779 0.640472 0.065948
0.234009 0.640472 0.065948
0.278687 0.640472 0.065948
0.322632 0.640472 0.065948
0.364502 0.640472 0.065948
0.406830 0.640472 0.065948
0.450104 0.640472 0.065948
0.494598 0.640472 0.065948
0.541016 0.640472 0.065948
0.589508 0.640472 0.065948
0.640472 0.640472 0.065948
0.694885 0.640472 0.065948
0.752380 0.640472 0.065948
0.813934 0.640472 0.065948
0.878418 0.640472 0.065948
0.906067 0.640472 0.065948
0.913391 0.640472 0.065948
0.915497 0.640472 0.065948
0.915497 0.640472 0.065948
0.915497 0.640472 0.065948
0.915497 0.640472 0.065948
0.915497 0.640472 0.065948
0.915497 0.640472 0.065948
0.915497 0.640472 0.065948
0.915497 0.640472 0.065948
0.915497 0.640472 0.065948
0.915497 0.640472 0.065948
0.065948 0.694885 0.065948
0.065948 0.694885 0.065948
0.067596 0.694885 0.065948
0.093475 0.694885 0.065948
0.123260 0.694885 0.065948
0.179779 0.694885 0.065948
0.234009 0.694885 0.065948
0.278687 0.694885 0.065948
0.322632 0.694885 0.065948
0.364502 0.694885 0.065948
0.406830 0.694885 0.065948
0.450104 0.694885 0.065948
0.494598 0.694885 0.065948
0.541016 0.694885 0.065948
0.589508 0.694885 0.065948
0.640472 0.694885 0.065948
0.694885 0.694885 0.065948
0.752380 0.694885 0.065948
0.813934 0.694885 0.065948
0.878418 0.694885 0.065948
0.906067 0.694885 0.065948
0.913391 0.694885 0.065948
0.915497 0.694885 0.065948
0.915497 0.694885 0.065948
0.915497 0.694885 0.065948
0.915497 0.694885 0.065948
0.915497 0.694885 0.065948
0.915497 0.694885 0.065948
0.915497 0.694885 0.065948
0.915497 0.694885 0.065948
0.915497 0.694885 0.065948
0.915497 0.694885 0.065948
0.065948 0.752380 0.065948
0.065948 0.752380 0.065948
0.067596 0.752380 0.065948
0.093475 0.752380 0.065948
0.123260 0.752380 0.065948
0.179779 0.752380 0.065948
0.234009 0.752380 0.065948
0.278687 0.752380 0.065948
0.322632 0.752380 0.065948
0.364502 0.752380 0.065948
0.406830 0.752380 0.065948
0.450104 0.752380 0.065948
0.494598 0.752380 0.065948
0.541016 0.752380 0.065948
0.589508 0.752380 0.065948
0.640472 0.752380 0.065948
0.694885 0.752380 0.065948
0.752380 0.752380 0.065948
0.813934 0.752380 0.065948
0.878418 0.752380 0.065948
0.906067 0.752380 0.065948
0.913391 0.752380 0.065948
0.915497 0.752380 0.065948
0.915497 0.752380 0.065948
0.915497 0.752380 0.065948
0.915497 0.752380 0.065948
0.915497 0.752380 0.065948
0.915497 0.752380 0.065948
0.915497 0.752380 0.065948
0.915497 0.752380 0.065948
0.915497 0.752380 0.065948
0.915497 0.752380 0.065948
0.065948 0.813934 0.065948
0.065948 0.813934 0.065948
0.067596 0.813934 0.065948
0.093475 0.813934 0.065948
0.123260 0.813934 0.065948
0.179779 0.813934 0.065948
0.234009 0.813934 0.065948
0.278687 0.813934 0.065948
0.322632 0.813934 0.065948
0.364502 0.813934 0.065948
0.406830 0.813934 0.065948
0.450104 0.813934 0.065948
0.494598 0.813934 0.065948
0.541016 0.813934 0.065948
0.589508 0.813934 0.065948
0.640472 0.813934 0.065948
0.694885 0.813934 0.065948
0.752380 0.813934 0.065948
0.813934 0.813934 0.065948
0.878418 0.813934 0.065948
0.906067 0.813934 0.065948
0.913391 0.813934 0.065948
0.915497 0.813934 0.065948
0.915497 0.813934 0.065948
0.915497 0.813934 0.065948
0.915497 0.813934 0.065948
0.915497 0.813934 0.065948
0.915497 0.813934 0.065948
0.915497 0.813934 0.065948
0.915497 0.813934 0.065948
0.915497 0.813934 0.065948
0.915497 0.813934 0.065948
0.065948 0.878418 0.065948
0.065948 0.878418 0.065948
0.067596 0.878418 0.065948
0.093475 0.878418 0.065948
0.123260 0.878418 0.065948
0.179779 0.878418 0.065948
0.234009 0.878418 0.065948
0.278687 0.878418 0.065948
0.322632 0.878418 0.065948
0.364502 0.878418 0.065948
0.406830 0.878418 0.065948
0.450104 0.878418 0.065948
0.494598 0.878418 0.065948
0.541016 0.878418 0.065948
0.589508 0.878418 0.065948
0.640472 0.878418 0.065948
0.694885 0.878418 0.065948
0.752380 0.878418 0.065948
0.813934 0.878418 0.065948
0.878418 0.878418 0.065948
0.906067 0.878418 0.065948
0.913391 0.878418 0.065948
0.915497 0.878418 0.065948
0.915497 0.878418 0.065948
0.915497 0.878418 0.065948
0.915497 0.878418 0.065948
0.915497 0.878418 0.065948
0.915497 0.878418 0.065948
0.915497 0.878418 0.065948
0.915497 0.878418 0.065948
0.915497 0.878418 0.065948
0.915497 0.878418 0.065948
0.065948 0.906067 0.065948
0.065948 0.906067 0.065948
0.067596 0.906067 0.065948
0.093475 0.906067 0.065948
0.123260 0.906067 0.065948
0.179779 0.906067 0.065948
0.234009 0.906067 0.065948
0.278687 0.906067 0.065948
0.322632 0.906067 0.065948
0.364502 0.906067 0.065948
0.406830 0.906067 0.065948
0.450104 0.906067 0.065948
0.494598 0.906067 0.065948
0.541016 0.906067 0.065948
0.589508 0.906067 0.065948
0.640472 0.906067 0.065948
0.694885 0.906067 0.065948
0.752380 0.906067 0.065948
0.813934 0.906067 0.065948
0.878418 0.906067 0.065948
0.906067 0.906067 0.065948
0.913391 0.906067 0.065948
0.915497 0.906067 0.065948
0.915497 0.906067 0.065948
0.915497 0.906067 0.065948
0.915497 0.906067 0.065948
0.915497 0.906067 0.065948
0.915497 0.906067 0.065948
0.915497 0.906067 0.065948
0.915497 0.906067 0.065948
0.915497 0.906067 0.065948
0.915497 0.906067 0.065948
0.065948 0.913391 0.065948
0.065948 0.913391 0.065948
0.067596 0.913391 0.065948
0.093475 0.913391 0.065948
0.123260 0.913391 0.065948
0.179779 0.913391 0.065948
0.234009 0.913391 0.065948
0.278687 0.913391 0.065948
0.322632 0.913391 0.065948
0.364502 0.913391 0.065948
0.406830 0.913391 0.065948
0.450104 0.913391 0.065948
0.494598 0.913391 0.065948
0.541016 0.913391 0.065948
0.589508 0.913391 0.065948
0.640472 0.913391 0.065948
0.694885 0.913391 0.065948
0.752380 0.913391 0.065948
0.813934 0.913391 0.065948
0.878418 0.913391 0.065948
0.906067 0.913391 0.065948
0.913391 0.913391 0.065948
0.915497 0.913391 0.065948
0.915497 0.913391 0.065948
0.915497 0.913391 0.065948
0.915497 0.913391 0.065948
0.915497 0.913391 0.065948
0.915497 0.913391 0.065948
0.915497 0.913391 0.065948
0.915497 0.913391 0.065948
0.915497 0.913391 0.065948
0.915497 0.913391 0.065948
0.065948 0.915497 0.065948
0.065948 0.915497 0.065948
0.067596 0.915497 0.065948
0.093475 0.915497 0.065948
0.123260 0.915497 0.065948
0.179779 0.915497 0.065948
0.234009 0.915497 0.065948
0.278687 0.915497 0.065948
0.322632 0.915497 0.065948
0.364502 0.915497 0.065948
0.406830 0.915497 0.065948
0.450104 0.915497 0.065948
0.494598 0.915497 0.065948
0.541016 0.915497 0.065948
0.589508 0.915497 0.065948
0.640472 0.915497 0.065948
0.694885 0.915497 0.065948
0.752380 0.915497 0.065948
0.813934 0.915497 0.065948
0.878418 0.915497 0.065948
0.906067 0.915497 0.065948
0.913391 0.915497 0.065948
0.915497 0.915497 0.065948
0.915497 0.915497 0.065948
0.915497 0.915497 0.065948
0.915497 0.915497 0.065948
0.915497 0.915497 0.065948
0.915497 0.915497 0.065948
0.915497 0.915497 0.065948
0.915497 0.915497 0.065948
0.915497 0.915497 0.065948
0.915497 0.915497 0.065948
0.065948 0.915497 0.065948
0.065948 0.915497 0.065948
0.067596 0.915497 0.065948
0.093475 0.915497 0.065948
0.123260 0.915497 0.065948
0.179779 0.915497 0.065948
0.234009 0.915497 0.065948
0.278687 0.915497 0.065948
0.322632 0.915497 0.065948
0.364502 0.915497 0.065948
0.406830 0.915497 0.065948
0.450104 0.915497 0.065948
0.494598 0.915497 0.065948
0.541016 0.915497 0.065948
0.589508 0.915497 0.065948
0.640472 0.915497 0.065948
0.694885 0.915497 0.065948
0.752380 0.915497 0.065948
0.813934 0.915497 0.065948
0.878418 0.915497 0.065948
0.906067 0.915497 0.065948
0.913391 0.915497 0.065948
0.915497 0.915497 0.065948
0.915497 0.915497 0.065948
0.915497 0.915497 0.065948
0.915497 0.915497 0.065948
0.915497 0.915497 0.065948
0.915497 0.915497 0.065948
0.915497 0.915497 0.065948
0.915497 0.915497 0.065948
0.915497 0.915497 0.065948
0.915497 0.915497 0.065948
0.065948 0.915497 0.065948
0.065948 0.915497 0.065948
0.067596 0.915497 0.065948
0.093475 0.915497 0.065948
0.123260 0.915497 0.065948
0.179779 0.915497 0.065948
0.234009 0.915497 0.065948
0.278687 0.915497 0.065948
0.322632 0.915497 0.065948
0.364502 0.915497 0.065948
0.406830 0.915497 0.065948
0.450104 0.915497 0.065948
0.494598 0.915497 0.065948
0.541016 0.915497 0.065948
0.589508 0.915497 0.065948
0.640472 0.915497 0.065948
0.694885 0.915497 0.065948
0.752380 0.915497 0.065948
0.813934 0.915497 0.065948
0.878418 0.915497 0.065948
0.906067 0.915497 0.065948
0.913391 0.915497 0.065948
0.915497 0.915497 0.065948
0.915497 0.915497 0.065948
0.915497 0.915497 0.065948
0.915497 0.915497 0.065948
0.915497 0.915497 0.065948
0.915497 0.915497 0.065948
0.915497 0.915497 0.065948
0.915497 0.915497 0.065948
0.915497 0.915497 0.065948
0.915497 0.915497 0.065948
0.065948 0.915497 0.065948
0.065948 0.915497 0.065948
0.067596 0.915497 0.065948
0.093475 0.915497 0.065948
0.123260 0.915497 0.065948
0.179779 0.915497 0.065948
0.234009 0.915497 0.065948
0.278687 0.915497 0.065948
0.322632 0.915497 0.065948
0.364502 0.915497 0.065948
0.406830 0.915497 0.065948
0.450104 0.915497 0.065948
0.494598 0.915497 0.065948
0.541016 0.915497 0.065948
0.589508 0.915497 0.065948
0.640472 0.915497 0.065948
0.694885 0.915497 0.065948
0.752380 0.915497 0.065948
0.813934 0.915497 0.065948
0.878418 0.915497 0.065948
0.906067 0.915497 0.065948
0.913391 0.915497 0.065948
0.915497 0.915497 0.065948
0.915497 0.915497 0.065948
0.915497 0.915497 0.065948
0.915497 0.915497 0.065948
0.915497 0.915497 0.065948
0.915497 0.915497 0.065948
0.915497 0.915497 0.065948
0.915497 0.915497 0.065948
0.915497 0.915497 0.065948
0.915497 0.915497 0.065948
0.065948 0.915497 0.065948
0.065948 0.915497 0.065948
0.067596 0.915497 0.065948
0.093475 0.915497 0.065948
0.123260 0.915497 0.065948
0.179779 0.915497 0.065948
0.234009 0.915497 0.065948
0.278687 0.915497 0.065948
0.322632 0.915497 0.065948
0.364502 0.915497 0.065948
0.406830 0.915497 0.065948
0.450104 0.915497 0.065948
0.494598 0.915497 0.065948
0.541016 0.915497 0.065948
0.589508 0.915497 0.065948
0.640472 0.915497 0.065948
0.694885 0.915497 0.065948
0.752380 0.915497 0.065948
0.813934 0.915497 0.065948
0.878418 0.915497 0.065948
0.906067 0.915497 0.065948
0.913391 0.915497 0.065948
0.915497 0.915497 0.065948
0.915497 0.915497 0.065948
0.915497 0.915497 0.065948
0.915497 0.915497 0.065948
0.915497 0.915497 0.065948
0.915497 0.915497 0.065948
0.915497 0.915497 0.065948
0.915497 0.915497 0.065948
0.915497 0.915497 0.065948
0.915497 0.915497 0.065948
0.065948 0.915497 0.065948
0.065948 0.915497 0.065948
0.067596 0.915497 0.065948
0.093475 0.915497 0.065948
0.123260 0.915497 0.065948
0.179779 0.915497 0.065948
0.234009 0.915497 0.065948
0.278687 0.915497 0.065948
0.322632 0.915497 0.065948
0.364502 0.915497 0.065948
0.406830 0.915497 0.065948
0.450104 0.915497 0.065948
0.494598 0.915497 0.065948
0.541016 0.915497 0.065948
0.589508 0.915497 0.065948
0.640472 0.915497 0.065948
0.694885 0.915497 0.065948
