Postproduction/IWLTBAP - Humble/LUTs by IWLTBAP (CUBE)/UTILITY/Canon C-Log to Rec.709/U-CANON-C-LOG-V2-LTR.cube
# Copyright: (C) Copyright 2010-2018 by IWLTBAP SAS
# Cannot be resold, shared or otherwise redistributed
# Website: https://luts.iwltbap.com
TITLE "Canon C-Log V2 (Utility LOG to Rec.709)"
LUT_3D_SIZE 32
0.003906 0.003906 0.003906
0.003906 0.003906 0.003906
0.005859 0.003906 0.003906
0.036011 0.003906 0.003906
0.070770 0.003906 0.003906
0.136902 0.003906 0.003906
0.200287 0.003906 0.003906
0.252380 0.003906 0.003906
0.303680 0.003906 0.003906
0.352631 0.003906 0.003906
0.402069 0.003906 0.003906
0.452545 0.003906 0.003906
0.504456 0.003906 0.003906
0.558716 0.003906 0.003906
0.615356 0.003906 0.003906
0.674896 0.003906 0.003906
0.738403 0.003906 0.003906
0.805511 0.003906 0.003906
0.877380 0.003906 0.003906
0.952698 0.003906 0.003906
0.985016 0.003906 0.003906
0.993591 0.003906 0.003906
0.996094 0.003906 0.003906
0.996094 0.003906 0.003906
0.996094 0.003906 0.003906
0.996094 0.003906 0.003906
0.996094 0.003906 0.003906
0.996094 0.003906 0.003906
0.996094 0.003906 0.003906
0.996094 0.003906 0.003906
0.996094 0.003906 0.003906
0.996094 0.003906 0.003906
0.003906 0.003906 0.003906
0.003906 0.003906 0.003906
0.005859 0.003906 0.003906
0.036011 0.003906 0.003906
0.070770 0.003906 0.003906
0.136902 0.003906 0.003906
0.200287 0.003906 0.003906
0.252380 0.003906 0.003906
0.303680 0.003906 0.003906
0.352631 0.003906 0.003906
0.402069 0.003906 0.003906
0.452545 0.003906 0.003906
0.504456 0.003906 0.003906
0.558716 0.003906 0.003906
0.615356 0.003906 0.003906
0.674896 0.003906 0.003906
0.738403 0.003906 0.003906
0.805511 0.003906 0.003906
0.877380 0.003906 0.003906
0.952698 0.003906 0.003906
0.985016 0.003906 0.003906
0.993591 0.003906 0.003906
0.996094 0.003906 0.003906
0.996094 0.003906 0.003906
0.996094 0.003906 0.003906
0.996094 0.003906 0.003906
0.996094 0.003906 0.003906
0.996094 0.003906 0.003906
0.996094 0.003906 0.003906
0.996094 0.003906 0.003906
0.996094 0.003906 0.003906
0.996094 0.003906 0.003906
0.003906 0.005859 0.003906
0.003906 0.005859 0.003906
0.005859 0.005859 0.003906
0.036011 0.005859 0.003906
0.070770 0.005859 0.003906
0.136902 0.005859 0.003906
0.200287 0.005859 0.003906
0.252380 0.005859 0.003906
0.303680 0.005859 0.003906
0.352631 0.005859 0.003906
0.402069 0.005859 0.003906
0.452545 0.005859 0.003906
0.504456 0.005859 0.003906
0.558716 0.005859 0.003906
0.615356 0.005859 0.003906
0.674896 0.005859 0.003906
0.738403 0.005859 0.003906
0.805511 0.005859 0.003906
0.877380 0.005859 0.003906
0.952698 0.005859 0.003906
0.985016 0.005859 0.003906
0.993591 0.005859 0.003906
0.996094 0.005859 0.003906
0.996094 0.005859 0.003906
0.996094 0.005859 0.003906
0.996094 0.005859 0.003906
0.996094 0.005859 0.003906
0.996094 0.005859 0.003906
0.996094 0.005859 0.003906
0.996094 0.005859 0.003906
0.996094 0.005859 0.003906
0.996094 0.005859 0.003906
0.003906 0.036011 0.003906
0.003906 0.036011 0.003906
0.005859 0.036011 0.003906
0.036011 0.036011 0.003906
0.070770 0.036011 0.003906
0.136902 0.036011 0.003906
0.200287 0.036011 0.003906
0.252380 0.036011 0.003906
0.303680 0.036011 0.003906
0.352631 0.036011 0.003906
0.402069 0.036011 0.003906
0.452545 0.036011 0.003906
0.504456 0.036011 0.003906
0.558716 0.036011 0.003906
0.615356 0.036011 0.003906
0.674896 0.036011 0.003906
0.738403 0.036011 0.003906
0.805511 0.036011 0.003906
0.877380 0.036011 0.003906
0.952698 0.036011 0.003906
0.985016 0.036011 0.003906
0.993591 0.036011 0.003906
0.996094 0.036011 0.003906
0.996094 0.036011 0.003906
0.996094 0.036011 0.003906
0.996094 0.036011 0.003906
0.996094 0.036011 0.003906
0.996094 0.036011 0.003906
0.996094 0.036011 0.003906
0.996094 0.036011 0.003906
0.996094 0.036011 0.003906
0.996094 0.036011 0.003906
0.003906 0.070770 0.003906
0.003906 0.070770 0.003906
0.005859 0.070770 0.003906
0.036011 0.070770 0.003906
0.070770 0.070770 0.003906
0.136902 0.070770 0.003906
0.200287 0.070770 0.003906
0.252380 0.070770 0.003906
0.303680 0.070770 0.003906
0.352631 0.070770 0.003906
0.402069 0.070770 0.003906
0.452545 0.070770 0.003906
0.504456 0.070770 0.003906
0.558716 0.070770 0.003906
0.615356 0.070770 0.003906
0.674896 0.070770 0.003906
0.738403 0.070770 0.003906
0.805511 0.070770 0.003906
0.877380 0.070770 0.003906
0.952698 0.070770 0.003906
0.985016 0.070770 0.003906
0.993591 0.070770 0.003906
0.996094 0.070770 0.003906
0.996094 0.070770 0.003906
0.996094 0.070770 0.003906
0.996094 0.070770 0.003906
0.996094 0.070770 0.003906
0.996094 0.070770 0.003906
0.996094 0.070770 0.003906
0.996094 0.070770 0.003906
0.996094 0.070770 0.003906
0.996094 0.070770 0.003906
0.003906 0.136902 0.003906
0.003906 0.136902 0.003906
0.005859 0.136902 0.003906
0.036011 0.136902 0.003906
0.070770 0.136902 0.003906
0.136902 0.136902 0.003906
0.200287 0.136902 0.003906
0.252380 0.136902 0.003906
0.303680 0.136902 0.003906
0.352631 0.136902 0.003906
0.402069 0.136902 0.003906
0.452545 0.136902 0.003906
0.504456 0.136902 0.003906
0.558716 0.136902 0.003906
0.615356 0.136902 0.003906
0.674896 0.136902 0.003906
0.738403 0.136902 0.003906
0.805511 0.136902 0.003906
0.877380 0.136902 0.003906
0.952698 0.136902 0.003906
0.985016 0.136902 0.003906
0.993591 0.136902 0.003906
0.996094 0.136902 0.003906
0.996094 0.136902 0.003906
0.996094 0.136902 0.003906
0.996094 0.136902 0.003906
0.996094 0.136902 0.003906
0.996094 0.136902 0.003906
0.996094 0.136902 0.003906
0.996094 0.136902 0.003906
0.996094 0.136902 0.003906
0.996094 0.136902 0.003906
0.003906 0.200287 0.003906
0.003906 0.200287 0.003906
0.005859 0.200287 0.003906
0.036011 0.200287 0.003906
0.070770 0.200287 0.003906
0.136902 0.200287 0.003906
0.200287 0.200287 0.003906
0.252380 0.200287 0.003906
0.303680 0.200287 0.003906
0.352631 0.200287 0.003906
0.402069 0.200287 0.003906
0.452545 0.200287 0.003906
0.504456 0.200287 0.003906
0.558716 0.200287 0.003906
0.615356 0.200287 0.003906
0.674896 0.200287 0.003906
0.738403 0.200287 0.003906
0.805511 0.200287 0.003906
0.877380 0.200287 0.003906
0.952698 0.200287 0.003906
0.985016 0.200287 0.003906
0.993591 0.200287 0.003906
0.996094 0.200287 0.003906
0.996094 0.200287 0.003906
0.996094 0.200287 0.003906
0.996094 0.200287 0.003906
0.996094 0.200287 0.003906
0.996094 0.200287 0.003906
0.996094 0.200287 0.003906
0.996094 0.200287 0.003906
0.996094 0.200287 0.003906
0.996094 0.200287 0.003906
0.003906 0.252380 0.003906
0.003906 0.252380 0.003906
0.005859 0.252380 0.003906
0.036011 0.252380 0.003906
0.070770 0.252380 0.003906
0.136902 0.252380 0.003906
0.200287 0.252380 0.003906
0.252380 0.252380 0.003906
0.303680 0.252380 0.003906
0.352631 0.252380 0.003906
0.402069 0.252380 0.003906
0.452545 0.252380 0.003906
0.504456 0.252380 0.003906
0.558716 0.252380 0.003906
0.615356 0.252380 0.003906
0.674896 0.252380 0.003906
0.738403 0.252380 0.003906
0.805511 0.252380 0.003906
0.877380 0.252380 0.003906
0.952698 0.252380 0.003906
0.985016 0.252380 0.003906
0.993591 0.252380 0.003906
0.996094 0.252380 0.003906
0.996094 0.252380 0.003906
0.996094 0.252380 0.003906
0.996094 0.252380 0.003906
0.996094 0.252380 0.003906
0.996094 0.252380 0.003906
0.996094 0.252380 0.003906
0.996094 0.252380 0.003906
0.996094 0.252380 0.003906
0.996094 0.252380 0.003906
0.003906 0.303680 0.003906
0.003906 0.303680 0.003906
0.005859 0.303680 0.003906
0.036011 0.303680 0.003906
0.070770 0.303680 0.003906
0.136902 0.303680 0.003906
0.200287 0.303680 0.003906
0.252380 0.303680 0.003906
0.303680 0.303680 0.003906
0.352631 0.303680 0.003906
0.402069 0.303680 0.003906
0.452545 0.303680 0.003906
0.504456 0.303680 0.003906
0.558716 0.303680 0.003906
0.615356 0.303680 0.003906
0.674896 0.303680 0.003906
0.738403 0.303680 0.003906
0.805511 0.303680 0.003906
0.877380 0.303680 0.003906
0.952698 0.303680 0.003906
0.985016 0.303680 0.003906
0.993591 0.303680 0.003906
0.996094 0.303680 0.003906
0.996094 0.303680 0.003906
0.996094 0.303680 0.003906
0.996094 0.303680 0.003906
0.996094 0.303680 0.003906
0.996094 0.303680 0.003906
0.996094 0.303680 0.003906
0.996094 0.303680 0.003906
0.996094 0.303680 0.003906
0.996094 0.303680 0.003906
0.003906 0.352631 0.003906
0.003906 0.352631 0.003906
0.005859 0.352631 0.003906
0.036011 0.352631 0.003906
0.070770 0.352631 0.003906
0.136902 0.352631 0.003906
0.200287 0.352631 0.003906
0.252380 0.352631 0.003906
0.303680 0.352631 0.003906
0.352631 0.352631 0.003906
0.402069 0.352631 0.003906
0.452545 0.352631 0.003906
0.504456 0.352631 0.003906
0.558716 0.352631 0.003906
0.615356 0.352631 0.003906
0.674896 0.352631 0.003906
0.738403 0.352631 0.003906
0.805511 0.352631 0.003906
0.877380 0.352631 0.003906
0.952698 0.352631 0.003906
0.985016 0.352631 0.003906
0.993591 0.352631 0.003906
0.996094 0.352631 0.003906
0.996094 0.352631 0.003906
0.996094 0.352631 0.003906
0.996094 0.352631 0.003906
0.996094 0.352631 0.003906
0.996094 0.352631 0.003906
0.996094 0.352631 0.003906
0.996094 0.352631 0.003906
0.996094 0.352631 0.003906
0.996094 0.352631 0.003906
0.003906 0.402069 0.003906
0.003906 0.402069 0.003906
0.005859 0.402069 0.003906
0.036011 0.402069 0.003906
0.070770 0.402069 0.003906
0.136902 0.402069 0.003906
0.200287 0.402069 0.003906
0.252380 0.402069 0.003906
0.303680 0.402069 0.003906
0.352631 0.402069 0.003906
0.402069 0.402069 0.003906
0.452545 0.402069 0.003906
0.504456 0.402069 0.003906
0.558716 0.402069 0.003906
0.615356 0.402069 0.003906
0.674896 0.402069 0.003906
0.738403 0.402069 0.003906
0.805511 0.402069 0.003906
0.877380 0.402069 0.003906
0.952698 0.402069 0.003906
0.985016 0.402069 0.003906
0.993591 0.402069 0.003906
0.996094 0.402069 0.003906
0.996094 0.402069 0.003906
0.996094 0.402069 0.003906
0.996094 0.402069 0.003906
0.996094 0.402069 0.003906
0.996094 0.402069 0.003906
0.996094 0.402069 0.003906
0.996094 0.402069 0.003906
0.996094 0.402069 0.003906
0.996094 0.402069 0.003906
0.003906 0.452545 0.003906
0.003906 0.452545 0.003906
0.005859 0.452545 0.003906
0.036011 0.452545 0.003906
0.070770 0.452545 0.003906
0.136902 0.452545 0.003906
0.200287 0.452545 0.003906
0.252380 0.452545 0.003906
0.303680 0.452545 0.003906
0.352631 0.452545 0.003906
0.402069 0.452545 0.003906
0.452545 0.452545 0.003906
0.504456 0.452545 0.003906
0.558716 0.452545 0.003906
0.615356 0.452545 0.003906
0.674896 0.452545 0.003906
0.738403 0.452545 0.003906
0.805511 0.452545 0.003906
0.877380 0.452545 0.003906
0.952698 0.452545 0.003906
0.985016 0.452545 0.003906
0.993591 0.452545 0.003906
0.996094 0.452545 0.003906
0.996094 0.452545 0.003906
0.996094 0.452545 0.003906
0.996094 0.452545 0.003906
0.996094 0.452545 0.003906
0.996094 0.452545 0.003906
0.996094 0.452545 0.003906
0.996094 0.452545 0.003906
0.996094 0.452545 0.003906
0.996094 0.452545 0.003906
0.003906 0.504456 0.003906
0.003906 0.504456 0.003906
0.005859 0.504456 0.003906
0.036011 0.504456 0.003906
0.070770 0.504456 0.003906
0.136902 0.504456 0.003906
0.200287 0.504456 0.003906
0.252380 0.504456 0.003906
0.303680 0.504456 0.003906
0.352631 0.504456 0.003906
0.402069 0.504456 0.003906
0.452545 0.504456 0.003906
0.504456 0.504456 0.003906
0.558716 0.504456 0.003906
0.615356 0.504456 0.003906
0.674896 0.504456 0.003906
0.738403 0.504456 0.003906
0.805511 0.504456 0.003906
0.877380 0.504456 0.003906
0.952698 0.504456 0.003906
0.985016 0.504456 0.003906
0.993591 0.504456 0.003906
0.996094 0.504456 0.003906
0.996094 0.504456 0.003906
0.996094 0.504456 0.003906
0.996094 0.504456 0.003906
0.996094 0.504456 0.003906
0.996094 0.504456 0.003906
0.996094 0.504456 0.003906
0.996094 0.504456 0.003906
0.996094 0.504456 0.003906
0.996094 0.504456 0.003906
0.003906 0.558716 0.003906
0.003906 0.558716 0.003906
0.005859 0.558716 0.003906
0.036011 0.558716 0.003906
0.070770 0.558716 0.003906
0.136902 0.558716 0.003906
0.200287 0.558716 0.003906
0.252380 0.558716 0.003906
0.303680 0.558716 0.003906
0.352631 0.558716 0.003906
0.402069 0.558716 0.003906
0.452545 0.558716 0.003906
0.504456 0.558716 0.003906
0.558716 0.558716 0.003906
0.615356 0.558716 0.003906
0.674896 0.558716 0.003906
0.738403 0.558716 0.003906
0.805511 0.558716 0.003906
0.877380 0.558716 0.003906
0.952698 0.558716 0.003906
0.985016 0.558716 0.003906
0.993591 0.558716 0.003906
0.996094 0.558716 0.003906
0.996094 0.558716 0.003906
0.996094 0.558716 0.003906
0.996094 0.558716 0.003906
0.996094 0.558716 0.003906
0.996094 0.558716 0.003906
0.996094 0.558716 0.003906
0.996094 0.558716 0.003906
0.996094 0.558716 0.003906
0.996094 0.558716 0.003906
0.003906 0.615356 0.003906
0.003906 0.615356 0.003906
0.005859 0.615356 0.003906
0.036011 0.615356 0.003906
0.070770 0.615356 0.003906
0.136902 0.615356 0.003906
0.200287 0.615356 0.003906
0.252380 0.615356 0.003906
0.303680 0.615356 0.003906
0.352631 0.615356 0.003906
0.402069 0.615356 0.003906
0.452545 0.615356 0.003906
0.504456 0.615356 0.003906
0.558716 0.615356 0.003906
0.615356 0.615356 0.003906
0.674896 0.615356 0.003906
0.738403 0.615356 0.003906
0.805511 0.615356 0.003906
0.877380 0.615356 0.003906
0.952698 0.615356 0.003906
0.985016 0.615356 0.003906
0.993591 0.615356 0.003906
0.996094 0.615356 0.003906
0.996094 0.615356 0.003906
0.996094 0.615356 0.003906
0.996094 0.615356 0.003906
0.996094 0.615356 0.003906
0.996094 0.615356 0.003906
0.996094 0.615356 0.003906
0.996094 0.615356 0.003906
0.996094 0.615356 0.003906
0.996094 0.615356 0.003906
0.003906 0.674896 0.003906
0.003906 0.674896 0.003906
0.005859 0.674896 0.003906
0.036011 0.674896 0.003906
0.070770 0.674896 0.003906
0.136902 0.674896 0.003906
0.200287 0.674896 0.003906
0.252380 0.674896 0.003906
0.303680 0.674896 0.003906
0.352631 0.674896 0.003906
0.402069 0.674896 0.003906
0.452545 0.674896 0.003906
0.504456 0.674896 0.003906
0.558716 0.674896 0.003906
0.615356 0.674896 0.003906
0.674896 0.674896 0.003906
0.738403 0.674896 0.003906
0.805511 0.674896 0.003906
0.877380 0.674896 0.003906
0.952698 0.674896 0.003906
0.985016 0.674896 0.003906
0.993591 0.674896 0.003906
0.996094 0.674896 0.003906
0.996094 0.674896 0.003906
0.996094 0.674896 0.003906
0.996094 0.674896 0.003906
0.996094 0.674896 0.003906
0.996094 0.674896 0.003906
0.996094 0.674896 0.003906
0.996094 0.674896 0.003906
0.996094 0.674896 0.003906
0.996094 0.674896 0.003906
0.003906 0.738403 0.003906
0.003906 0.738403 0.003906
0.005859 0.738403 0.003906
0.036011 0.738403 0.003906
0.070770 0.738403 0.003906
0.136902 0.738403 0.003906
0.200287 0.738403 0.003906
0.252380 0.738403 0.003906
0.303680 0.738403 0.003906
0.352631 0.738403 0.003906
0.402069 0.738403 0.003906
0.452545 0.738403 0.003906
0.504456 0.738403 0.003906
0.558716 0.738403 0.003906
0.615356 0.738403 0.003906
0.674896 0.738403 0.003906
0.738403 0.738403 0.003906
0.805511 0.738403 0.003906
0.877380 0.738403 0.003906
0.952698 0.738403 0.003906
0.985016 0.738403 0.003906
0.993591 0.738403 0.003906
0.996094 0.738403 0.003906
0.996094 0.738403 0.003906
0.996094 0.738403 0.003906
0.996094 0.738403 0.003906
0.996094 0.738403 0.003906
0.996094 0.738403 0.003906
0.996094 0.738403 0.003906
0.996094 0.738403 0.003906
0.996094 0.738403 0.003906
0.996094 0.738403 0.003906
0.003906 0.805511 0.003906
0.003906 0.805511 0.003906
0.005859 0.805511 0.003906
0.036011 0.805511 0.003906
0.070770 0.805511 0.003906
0.136902 0.805511 0.003906
0.200287 0.805511 0.003906
0.252380 0.805511 0.003906
0.303680 0.805511 0.003906
0.352631 0.805511 0.003906
0.402069 0.805511 0.003906
0.452545 0.805511 0.003906
0.504456 0.805511 0.003906
0.558716 0.805511 0.003906
0.615356 0.805511 0.003906
0.674896 0.805511 0.003906
0.738403 0.805511 0.003906
0.805511 0.805511 0.003906
0.877380 0.805511 0.003906
0.952698 0.805511 0.003906
0.985016 0.805511 0.003906
0.993591 0.805511 0.003906
0.996094 0.805511 0.003906
0.996094 0.805511 0.003906
0.996094 0.805511 0.003906
0.996094 0.805511 0.003906
0.996094 0.805511 0.003906
0.996094 0.805511 0.003906
0.996094 0.805511 0.003906
0.996094 0.805511 0.003906
0.996094 0.805511 0.003906
0.996094 0.805511 0.003906
0.003906 0.877380 0.003906
0.003906 0.877380 0.003906
0.005859 0.877380 0.003906
0.036011 0.877380 0.003906
0.070770 0.877380 0.003906
0.136902 0.877380 0.003906
0.200287 0.877380 0.003906
0.252380 0.877380 0.003906
0.303680 0.877380 0.003906
0.352631 0.877380 0.003906
0.402069 0.877380 0.003906
0.452545 0.877380 0.003906
0.504456 0.877380 0.003906
0.558716 0.877380 0.003906
0.615356 0.877380 0.003906
0.674896 0.877380 0.003906
0.738403 0.877380 0.003906
0.805511 0.877380 0.003906
0.877380 0.877380 0.003906
0.952698 0.877380 0.003906
0.985016 0.877380 0.003906
0.993591 0.877380 0.003906
0.996094 0.877380 0.003906
0.996094 0.877380 0.003906
0.996094 0.877380 0.003906
0.996094 0.877380 0.003906
0.996094 0.877380 0.003906
0.996094 0.877380 0.003906
0.996094 0.877380 0.003906
0.996094 0.877380 0.003906
0.996094 0.877380 0.003906
0.996094 0.877380 0.003906
0.003906 0.952698 0.003906
0.003906 0.952698 0.003906
0.005859 0.952698 0.003906
0.036011 0.952698 0.003906
0.070770 0.952698 0.003906
0.136902 0.952698 0.003906
0.200287 0.952698 0.003906
0.252380 0.952698 0.003906
0.303680 0.952698 0.003906
0.352631 0.952698 0.003906
0.402069 0.952698 0.003906
0.452545 0.952698 0.003906
0.504456 0.952698 0.003906
0.558716 0.952698 0.003906
0.615356 0.952698 0.003906
0.674896 0.952698 0.003906
0.738403 0.952698 0.003906
0.805511 0.952698 0.003906
0.877380 0.952698 0.003906
0.952698 0.952698 0.003906
0.985016 0.952698 0.003906
0.993591 0.952698 0.003906
0.996094 0.952698 0.003906
0.996094 0.952698 0.003906
0.996094 0.952698 0.003906
0.996094 0.952698 0.003906
0.996094 0.952698 0.003906
0.996094 0.952698 0.003906
0.996094 0.952698 0.003906
0.996094 0.952698 0.003906
0.996094 0.952698 0.003906
0.996094 0.952698 0.003906
0.003906 0.985016 0.003906
0.003906 0.985016 0.003906
0.005859 0.985016 0.003906
0.036011 0.985016 0.003906
0.070770 0.985016 0.003906
0.136902 0.985016 0.003906
0.200287 0.985016 0.003906
0.252380 0.985016 0.003906
0.303680 0.985016 0.003906
0.352631 0.985016 0.003906
0.402069 0.985016 0.003906
0.452545 0.985016 0.003906
0.504456 0.985016 0.003906
0.558716 0.985016 0.003906
0.615356 0.985016 0.003906
0.674896 0.985016 0.003906
0.738403 0.985016 0.003906
0.805511 0.985016 0.003906
0.877380 0.985016 0.003906
0.952698 0.985016 0.003906
0.985016 0.985016 0.003906
0.993591 0.985016 0.003906
0.996094 0.985016 0.003906
0.996094 0.985016 0.003906
0.996094 0.985016 0.003906
0.996094 0.985016 0.003906
0.996094 0.985016 0.003906
0.996094 0.985016 0.003906
0.996094 0.985016 0.003906
0.996094 0.985016 0.003906
0.996094 0.985016 0.003906
0.996094 0.985016 0.003906
0.003906 0.993591 0.003906
0.003906 0.993591 0.003906
0.005859 0.993591 0.003906
0.036011 0.993591 0.003906
0.070770 0.993591 0.003906
0.136902 0.993591 0.003906
0.200287 0.993591 0.003906
0.252380 0.993591 0.003906
0.303680 0.993591 0.003906
0.352631 0.993591 0.003906
0.402069 0.993591 0.003906
0.452545 0.993591 0.003906
0.504456 0.993591 0.003906
0.558716 0.993591 0.003906
0.615356 0.993591 0.003906
0.674896 0.993591 0.003906
0.738403 0.993591 0.003906
0.805511 0.993591 0.003906
0.877380 0.993591 0.003906
0.952698 0.993591 0.003906
0.985016 0.993591 0.003906
0.993591 0.993591 0.003906
0.996094 0.993591 0.003906
0.996094 0.993591 0.003906
0.996094 0.993591 0.003906
0.996094 0.993591 0.003906
0.996094 0.993591 0.003906
0.996094 0.993591 0.003906
0.996094 0.993591 0.003906
0.996094 0.993591 0.003906
0.996094 0.993591 0.003906
0.996094 0.993591 0.003906
0.003906 0.996094 0.003906
0.003906 0.996094 0.003906
0.005859 0.996094 0.003906
0.036011 0.996094 0.003906
0.070770 0.996094 0.003906
0.136902 0.996094 0.003906
0.200287 0.996094 0.003906
0.252380 0.996094 0.003906
0.303680 0.996094 0.003906
0.352631 0.996094 0.003906
0.402069 0.996094 0.003906
0.452545 0.996094 0.003906
0.504456 0.996094 0.003906
0.558716 0.996094 0.003906
0.615356 0.996094 0.003906
0.674896 0.996094 0.003906
0.738403 0.996094 0.003906
0.805511 0.996094 0.003906
0.877380 0.996094 0.003906
0.952698 0.996094 0.003906
0.985016 0.996094 0.003906
0.993591 0.996094 0.003906
0.996094 0.996094 0.003906
0.996094 0.996094 0.003906
0.996094 0.996094 0.003906
0.996094 0.996094 0.003906
0.996094 0.996094 0.003906
0.996094 0.996094 0.003906
0.996094 0.996094 0.003906
0.996094 0.996094 0.003906
0.996094 0.996094 0.003906
0.996094 0.996094 0.003906
0.003906 0.996094 0.003906
0.003906 0.996094 0.003906
0.005859 0.996094 0.003906
0.036011 0.996094 0.003906
0.070770 0.996094 0.003906
0.136902 0.996094 0.003906
0.200287 0.996094 0.003906
0.252380 0.996094 0.003906
0.303680 0.996094 0.003906
0.352631 0.996094 0.003906
0.402069 0.996094 0.003906
0.452545 0.996094 0.003906
0.504456 0.996094 0.003906
0.558716 0.996094 0.003906
0.615356 0.996094 0.003906
0.674896 0.996094 0.003906
0.738403 0.996094 0.003906
0.805511 0.996094 0.003906
0.877380 0.996094 0.003906
0.952698 0.996094 0.003906
0.985016 0.996094 0.003906
0.993591 0.996094 0.003906
0.996094 0.996094 0.003906
0.996094 0.996094 0.003906
0.996094 0.996094 0.003906
0.996094 0.996094 0.003906
0.996094 0.996094 0.003906
0.996094 0.996094 0.003906
0.996094 0.996094 0.003906
0.996094 0.996094 0.003906
0.996094 0.996094 0.003906
0.996094 0.996094 0.003906
0.003906 0.996094 0.003906
0.003906 0.996094 0.003906
0.005859 0.996094 0.003906
0.036011 0.996094 0.003906
0.070770 0.996094 0.003906
0.136902 0.996094 0.003906
0.200287 0.996094 0.003906
0.252380 0.996094 0.003906
0.303680 0.996094 0.003906
0.352631 0.996094 0.003906
0.402069 0.996094 0.003906
0.452545 0.996094 0.003906
0.504456 0.996094 0.003906
0.558716 0.996094 0.003906
0.615356 0.996094 0.003906
0.674896 0.996094 0.003906
0.738403 0.996094 0.003906
0.805511 0.996094 0.003906
0.877380 0.996094 0.003906
0.952698 0.996094 0.003906
0.985016 0.996094 0.003906
0.993591 0.996094 0.003906
0.996094 0.996094 0.003906
0.996094 0.996094 0.003906
0.996094 0.996094 0.003906
0.996094 0.996094 0.003906
0.996094 0.996094 0.003906
0.996094 0.996094 0.003906
0.996094 0.996094 0.003906
0.996094 0.996094 0.003906
0.996094 0.996094 0.003906
0.996094 0.996094 0.003906
0.003906 0.996094 0.003906
0.003906 0.996094 0.003906
0.005859 0.996094 0.003906
0.036011 0.996094 0.003906
0.070770 0.996094 0.003906
0.136902 0.996094 0.003906
0.200287 0.996094 0.003906
0.252380 0.996094 0.003906
0.303680 0.996094 0.003906
0.352631 0.996094 0.003906
0.402069 0.996094 0.003906
0.452545 0.996094 0.003906
0.504456 0.996094 0.003906
0.558716 0.996094 0.003906
0.615356 0.996094 0.003906
0.674896 0.996094 0.003906
0.738403 0.996094 0.003906
0.805511 0.996094 0.003906
0.877380 0.996094 0.003906
0.952698 0.996094 0.003906
0.985016 0.996094 0.003906
0.993591 0.996094 0.003906
0.996094 0.996094 0.003906
0.996094 0.996094 0.003906
0.996094 0.996094 0.003906
0.996094 0.996094 0.003906
0.996094 0.996094 0.003906
0.996094 0.996094 0.003906
0.996094 0.996094 0.003906
0.996094 0.996094 0.003906
0.996094 0.996094 0.003906
0.996094 0.996094 0.003906
0.003906 0.996094 0.003906
0.003906 0.996094 0.003906
0.005859 0.996094 0.003906
0.036011 0.996094 0.003906
0.070770 0.996094 0.003906
0.136902 0.996094 0.003906
0.200287 0.996094 0.003906
0.252380 0.996094 0.003906
0.303680 0.996094 0.003906
0.352631 0.996094 0.003906
0.402069 0.996094 0.003906
0.452545 0.996094 0.003906
0.504456 0.996094 0.003906
0.558716 0.996094 0.003906
0.615356 0.996094 0.003906
0.674896 0.996094 0.003906
0.738403 0.996094 0.003906
0.805511 0.996094 0.003906
0.877380 0.996094 0.003906
0.952698 0.996094 0.003906
0.985016 0.996094 0.003906
0.993591 0.996094 0.003906
0.996094 0.996094 0.003906
0.996094 0.996094 0.003906
0.996094 0.996094 0.003906
0.996094 0.996094 0.003906
0.996094 0.996094 0.003906
0.996094 0.996094 0.003906
0.996094 0.996094 0.003906
0.996094 0.996094 0.003906
0.996094 0.996094 0.003906
0.996094 0.996094 0.003906
0.003906 0.996094 0.003906
0.003906 0.996094 0.003906
0.005859 0.996094 0.003906
0.036011 0.996094 0.003906
0.070770 0.996094 0.003906
0.136902 0.996094 0.003906
0.200287 0.996094 0.003906
0.252380 0.996094 0.003906
0.303680 0.996094 0.003906
0.352631 0.996094 0.003906
0.402069 0.996094 0.003906
0.452545 0.996094 0.003906
0.504456 0.996094 0.003906
0.558716 0.996094 0.003906
0.615356 0.996094 0.003906
0.674896 0.996094 0.003906
0.738403 0.996094 0.003906
