Postproduction/IWLTBAP - Humble/LUTs by IWLTBAP (CUBE)/UTILITY/Canon C-Log to Rec.709/U-CANON-C-LOG-V1-LTR.cube
# Copyright: (C) Copyright 2010-2018 by IWLTBAP SAS
# Cannot be resold, shared or otherwise redistributed
# Website: https://luts.iwltbap.com
TITLE "Canon C-Log V1 (Utility LOG to Rec.709)"
LUT_3D_SIZE 32
0.000977 0.000977 0.000977
0.020569 0.000977 0.000977
0.040497 0.000977 0.000977
0.070679 0.000977 0.000977
0.105133 0.000977 0.000977
0.147583 0.000977 0.000977
0.193695 0.000977 0.000977
0.238770 0.000977 0.000977
0.283447 0.000977 0.000977
0.329163 0.000977 0.000977
0.375824 0.000977 0.000977
0.424164 0.000977 0.000977
0.474396 0.000977 0.000977
0.526520 0.000977 0.000977
0.580780 0.000977 0.000977
0.638000 0.000977 0.000977
0.693207 0.000977 0.000977
0.740509 0.000977 0.000977
0.777405 0.000977 0.000977
0.812103 0.000977 0.000977
0.847229 0.000977 0.000977
0.882568 0.000977 0.000977
0.918304 0.000977 0.000977
0.954254 0.000977 0.000977
0.977081 0.000977 0.000977
0.995575 0.000977 0.000977
0.999023 0.000977 0.000977
0.999023 0.000977 0.000977
0.999023 0.000977 0.000977
0.999023 0.000977 0.000977
0.999023 0.000977 0.000977
0.999023 0.000977 0.000977
0.000977 0.018127 0.000977
0.017090 0.017090 0.000977
0.037018 0.016998 0.000977
0.065857 0.015778 0.000977
0.100342 0.015594 0.000977
0.141754 0.014343 0.000977
0.187866 0.014038 0.000977
0.233429 0.012787 0.000977
0.278198 0.012390 0.000977
0.323883 0.011169 0.000977
0.370422 0.010681 0.000977
0.418793 0.009521 0.000977
0.468872 0.008881 0.000977
0.520752 0.007812 0.000977
0.574982 0.007050 0.000977
0.631927 0.006042 0.000977
0.688354 0.005127 0.000977
0.735626 0.004242 0.000977
0.773895 0.003204 0.000977
0.808624 0.002411 0.000977
0.843750 0.001495 0.000977
0.879089 0.000977 0.000977
0.914825 0.000977 0.000977
0.950745 0.000977 0.000977
0.976196 0.000977 0.000977
0.995575 0.000977 0.000977
0.999023 0.000977 0.000977
0.999023 0.000977 0.000977
0.999023 0.000977 0.000977
0.999023 0.000977 0.000977
0.999023 0.000977 0.000977
0.999023 0.000977 0.000977
0.000977 0.035553 0.000977
0.016785 0.034515 0.000977
0.033447 0.033447 0.000977
0.061005 0.032135 0.000977
0.095490 0.030823 0.000977
0.135803 0.029358 0.000977
0.181946 0.027893 0.000977
0.228027 0.026367 0.000977
0.272736 0.024811 0.000977
0.318542 0.023224 0.000977
0.364990 0.021606 0.000977
0.413330 0.019928 0.000977
0.463226 0.018250 0.000977
0.514832 0.016510 0.000977
0.569122 0.014801 0.000977
0.625763 0.013031 0.000977
0.683441 0.011230 0.000977
0.730713 0.009430 0.000977
0.770355 0.007599 0.000977
0.805054 0.005768 0.000977
0.840179 0.004181 0.000977
0.875549 0.002747 0.000977
0.911255 0.002197 0.000977
0.947205 0.002197 0.000977
0.972931 0.002075 0.000977
0.994904 0.002075 0.000977
0.999023 0.001953 0.000977
0.999023 0.001953 0.000977
0.999023 0.001831 0.000977
0.999023 0.001831 0.000977
0.999023 0.001831 0.000977
0.999023 0.001831 0.000977
0.000977 0.059631 0.000977
0.012665 0.058197 0.000977
0.029022 0.056732 0.000977
0.054962 0.054962 0.000977
0.089417 0.053131 0.000977
0.128418 0.051117 0.000977
0.174561 0.049591 0.000977
0.221252 0.048065 0.000977
0.266022 0.046509 0.000977
0.311890 0.044922 0.000977
0.358215 0.043304 0.000977
0.406555 0.041626 0.000977
0.456207 0.039948 0.000977
0.507660 0.038239 0.000977
0.561798 0.036499 0.000977
0.618042 0.034729 0.000977
0.676636 0.032959 0.000977
0.724579 0.031158 0.000977
0.765930 0.029327 0.000977
0.800659 0.027496 0.000977
0.835754 0.025635 0.000977
0.871094 0.024017 0.000977
0.906860 0.022247 0.000977
0.942780 0.021545 0.000977
0.971558 0.020081 0.000977
0.994904 0.019501 0.000977
0.999023 0.017883 0.000977
0.999023 0.017426 0.000977
0.999023 0.015686 0.000977
0.999023 0.015289 0.000977
0.999023 0.015198 0.000977
0.999023 0.015198 0.000977
0.000977 0.089783 0.000977
0.012054 0.088348 0.000977
0.024567 0.086914 0.000977
0.049377 0.085083 0.000977
0.083282 0.083282 0.000977
0.120941 0.081299 0.000977
0.167053 0.079285 0.000977
0.214447 0.077179 0.000977
0.259186 0.075043 0.000977
0.305145 0.072845 0.000977
0.351379 0.070648 0.000977
0.399658 0.068329 0.000977
0.449127 0.066010 0.000977
0.500549 0.063660 0.000977
0.554413 0.061279 0.000977
0.610291 0.058868 0.000977
0.668854 0.056427 0.000977
0.718353 0.053955 0.000977
0.761475 0.051422 0.000977
0.796173 0.049469 0.000977
0.831299 0.047607 0.000977
0.866638 0.045746 0.000977
0.902374 0.043854 0.000977
0.938293 0.041931 0.000977
0.967682 0.040009 0.000977
0.994080 0.038086 0.000977
0.999023 0.036133 0.000977
0.999023 0.034180 0.000977
0.999023 0.032196 0.000977
0.999023 0.030182 0.000977
0.999023 0.029999 0.000977
0.999023 0.029877 0.000977
0.000977 0.123138 0.000977
0.007812 0.121429 0.000977
0.019714 0.119659 0.000977
0.044525 0.117798 0.000977
0.076630 0.115997 0.000977
0.114014 0.114014 0.000977
0.158966 0.112000 0.000977
0.207001 0.109894 0.000977
0.251770 0.107758 0.000977
0.297852 0.105591 0.000977
0.344086 0.103363 0.000977
0.392181 0.101074 0.000977
0.441437 0.098724 0.000977
0.492859 0.096375 0.000977
0.546356 0.093994 0.000977
0.601837 0.091583 0.000977
0.660370 0.089142 0.000977
0.711609 0.086670 0.000977
0.756592 0.084198 0.000977
0.791321 0.081635 0.000977
0.826416 0.079102 0.000977
0.861786 0.076538 0.000977
0.897522 0.073914 0.000977
0.933441 0.071320 0.000977
0.965881 0.068695 0.000977
0.994080 0.066010 0.000977
0.999023 0.063354 0.000977
0.999023 0.060669 0.000977
0.999023 0.057922 0.000977
0.999023 0.055237 0.000977
0.999023 0.054932 0.000977
0.999023 0.054779 0.000977
0.000977 0.163513 0.000977
0.006836 0.161743 0.000977
0.014801 0.160004 0.000977
0.039612 0.157806 0.000977
0.069885 0.155579 0.000977
0.107269 0.153168 0.000977
0.150757 0.150757 0.000977
0.199188 0.148193 0.000977
0.244293 0.145599 0.000977
0.290436 0.142883 0.000977
0.336670 0.140167 0.000977
0.384674 0.137360 0.000977
0.433624 0.134583 0.000977
0.485046 0.131714 0.000977
0.538208 0.128815 0.000977
0.593292 0.125824 0.000977
0.651825 0.122833 0.000977
0.704773 0.119873 0.000977
0.751678 0.117279 0.000977
0.786407 0.114746 0.000977
0.821533 0.112183 0.000977
0.856873 0.109619 0.000977
0.892609 0.107056 0.000977
0.928558 0.104462 0.000977
0.961914 0.101776 0.000977
0.993164 0.099152 0.000977
0.999023 0.096436 0.000977
0.999023 0.093781 0.000977
0.999023 0.091064 0.000977
0.999023 0.088318 0.000977
0.999023 0.088043 0.000977
0.999023 0.087891 0.000977
0.000977 0.205658 0.000977
0.002655 0.204071 0.000977
0.009613 0.202393 0.000977
0.034454 0.200195 0.000977
0.062805 0.197998 0.000977
0.100189 0.195557 0.000977
0.142120 0.193146 0.000977
0.190582 0.190582 0.000977
0.236389 0.187988 0.000977
0.282654 0.185272 0.000977
0.328888 0.182556 0.000977
0.376740 0.179749 0.000977
0.425598 0.176971 0.000977
0.476868 0.174072 0.000977
0.529663 0.171204 0.000977
0.584747 0.168243 0.000977
0.642883 0.165222 0.000977
0.697601 0.162262 0.000977
0.745422 0.159210 0.000977
0.781250 0.156128 0.000977
0.816345 0.153015 0.000977
0.851685 0.149902 0.000977
0.887451 0.146729 0.000977
0.923370 0.143524 0.000977
0.959656 0.140320 0.000977
0.993164 0.137115 0.000977
0.999023 0.133820 0.000977
0.999023 0.130585 0.000977
0.999023 0.127228 0.000977
0.999023 0.123932 0.000977
0.999023 0.123566 0.000977
0.999023 0.123383 0.000977
0.000977 0.244812 0.000977
0.002228 0.243225 0.000977
0.005096 0.241577 0.000977
0.029205 0.239594 0.000977
0.055603 0.237579 0.000977
0.093018 0.235352 0.000977
0.133362 0.233124 0.000977
0.181824 0.230774 0.000977
0.228394 0.228394 0.000977
0.274719 0.225952 0.000977
0.320984 0.223480 0.000977
0.368683 0.220917 0.000977
0.417603 0.218353 0.000977
0.468597 0.215729 0.000977
0.521027 0.213074 0.000977
0.576080 0.210419 0.000977
0.633789 0.207672 0.000977
0.690369 0.204956 0.000977
0.738190 0.202087 0.000977
0.776001 0.199036 0.000977
0.811127 0.195892 0.000977
0.846497 0.192749 0.000977
0.882202 0.189636 0.000977
0.918152 0.186401 0.000977
0.954468 0.183197 0.000977
0.990845 0.179993 0.000977
0.999023 0.176697 0.000977
0.999023 0.173462 0.000977
0.999023 0.170135 0.000977
0.999023 0.166809 0.000977
0.999023 0.166412 0.000977
0.999023 0.166260 0.000977
0.000977 0.285187 0.000977
0.000977 0.283661 0.000977
0.003448 0.282074 0.000977
0.024536 0.280090 0.000977
0.048950 0.278046 0.000977
0.085632 0.275848 0.000977
0.124329 0.273621 0.000977
0.172791 0.271271 0.000977
0.220154 0.268921 0.000977
0.266479 0.266479 0.000977
0.312866 0.264008 0.000977
0.360382 0.261444 0.000977
0.409302 0.258881 0.000977
0.460022 0.256256 0.000977
0.512115 0.253601 0.000977
0.567169 0.250916 0.000977
0.624420 0.248199 0.000977
0.682831 0.245422 0.000977
0.730682 0.242645 0.000977
0.770630 0.239838 0.000977
0.805725 0.237030 0.000977
0.841064 0.234161 0.000977
0.876831 0.231262 0.000977
0.912750 0.228363 0.000977
0.949097 0.225433 0.000977
0.985535 0.222473 0.000977
0.996674 0.219513 0.000977
0.999023 0.216492 0.000977
0.999023 0.213501 0.000977
0.999023 0.210449 0.000977
0.999023 0.210114 0.000977
0.999023 0.209961 0.000977
0.000977 0.325653 0.000977
0.000977 0.324097 0.000977
0.001953 0.322510 0.000977
0.021606 0.320496 0.000977
0.043488 0.318512 0.000977
0.078094 0.316345 0.000977
0.115967 0.314148 0.000977
0.163666 0.311829 0.000977
0.211823 0.309479 0.000977
0.258148 0.307068 0.000977
0.304626 0.304626 0.000977
0.352020 0.302124 0.000977
0.400879 0.299561 0.000977
0.451324 0.296997 0.000977
0.503357 0.294373 0.000977
0.558136 0.291718 0.000977
0.614899 0.289032 0.000977
0.674072 0.286316 0.000977
0.723083 0.283569 0.000977
0.765167 0.280792 0.000977
0.800262 0.277985 0.000977
0.835602 0.275116 0.000977
0.871368 0.272217 0.000977
0.907288 0.269318 0.000977
0.943604 0.266388 0.000977
0.980103 0.263428 0.000977
0.993011 0.260468 0.000977
0.998352 0.257477 0.000977
0.999023 0.254456 0.000977
0.999023 0.251434 0.000977
0.999023 0.251068 0.000977
0.999023 0.250946 0.000977
0.000977 0.367371 0.000977
0.000977 0.365784 0.000977
0.001953 0.364136 0.000977
0.017426 0.362152 0.000977
0.037872 0.360107 0.000977
0.070404 0.357880 0.000977
0.108276 0.355621 0.000977
0.154266 0.353302 0.000977
0.203278 0.350952 0.000977
0.249573 0.348511 0.000977
0.296204 0.346069 0.000977
0.343597 0.343597 0.000977
0.392273 0.341034 0.000977
0.442444 0.338470 0.000977
0.494446 0.335846 0.000977
0.548828 0.333191 0.000977
0.605164 0.330505 0.000977
0.664307 0.327789 0.000977
0.715271 0.325012 0.000977
0.759552 0.322266 0.000977
0.794678 0.319427 0.000977
0.830017 0.316650 0.000977
0.865753 0.313782 0.000977
0.901703 0.310944 0.000977
0.938019 0.308014 0.000977
0.974487 0.305115 0.000977
0.990234 0.302155 0.000977
0.998352 0.299225 0.000977
0.999023 0.296234 0.000977
0.999023 0.293243 0.000977
0.999023 0.292908 0.000977
0.999023 0.292755 0.000977
0.000977 0.410156 0.000977
0.000977 0.408569 0.000977
0.001587 0.406952 0.000977
0.015259 0.404907 0.000977
0.032196 0.402863 0.000977
0.062622 0.400665 0.000977
0.100494 0.398407 0.000977
0.144836 0.396057 0.000977
0.193817 0.393677 0.000977
0.240936 0.391205 0.000977
0.287659 0.388702 0.000977
0.335052 0.386139 0.000977
0.383545 0.383545 0.000977
0.433441 0.380920 0.000977
0.485504 0.378235 0.000977
0.539429 0.375519 0.000977
0.595306 0.372772 0.000977
0.654449 0.369995 0.000977
0.707397 0.367249 0.000977
0.753876 0.364380 0.000977
0.789001 0.361542 0.000977
0.824341 0.358673 0.000977
0.860077 0.355743 0.000977
0.896027 0.352844 0.000977
0.932343 0.349976 0.000977
0.968811 0.347046 0.000977
0.986725 0.344116 0.000977
0.997650 0.341156 0.000977
0.999023 0.338196 0.000977
0.999023 0.335175 0.000977
0.999023 0.334839 0.000977
0.999023 0.334717 0.000977
0.000977 0.454468 0.000977
0.000977 0.452850 0.000977
0.001587 0.451141 0.000977
0.011292 0.449097 0.000977
0.026428 0.446991 0.000977
0.054718 0.444702 0.000977
0.092560 0.442383 0.000977
0.135162 0.439911 0.000977
0.184204 0.437469 0.000977
0.232086 0.434906 0.000977
0.278931 0.432343 0.000977
0.326324 0.429718 0.000977
0.374695 0.427155 0.000977
0.424530 0.424530 0.000977
0.476318 0.421844 0.000977
0.529907 0.419159 0.000977
0.585632 0.416412 0.000977
0.644409 0.413635 0.000977
0.699371 0.410828 0.000977
0.747650 0.408020 0.000977
0.783203 0.405121 0.000977
0.818542 0.402252 0.000977
0.854309 0.399353 0.000977
0.890228 0.396393 0.000977
0.926575 0.393463 0.000977
0.963074 0.390503 0.000977
0.983490 0.387482 0.000977
0.997650 0.384491 0.000977
0.999023 0.381439 0.000977
0.999023 0.378387 0.000977
0.999023 0.378052 0.000977
0.999023 0.377899 0.000977
0.000977 0.500000 0.000977
0.000977 0.498322 0.000977
0.001221 0.496674 0.000977
0.008698 0.494568 0.000977
0.020599 0.492462 0.000977
0.047852 0.490173 0.000977
0.084564 0.487854 0.000977
0.125397 0.485413 0.000977
0.174408 0.482971 0.000977
0.223206 0.480408 0.000977
0.270020 0.477844 0.000977
0.317535 0.475189 0.000977
0.365692 0.472504 0.000977
0.415527 0.469788 0.000977
0.467041 0.467041 0.000977
0.520203 0.464233 0.000977
0.575928 0.461426 0.000977
0.634277 0.458588 0.000977
0.691254 0.455688 0.000977
0.739502 0.452728 0.000977
0.777374 0.449799 0.000977
0.812714 0.446838 0.000977
0.848480 0.443817 0.000977
0.884399 0.440796 0.000977
0.920715 0.437775 0.000977
0.957214 0.434692 0.000977
0.980225 0.431610 0.000977
0.996948 0.428558 0.000977
0.999023 0.425537 0.000977
0.999023 0.422485 0.000977
0.999023 0.422150 0.000977
0.999023 0.421997 0.000977
0.000977 0.547729 0.000977
0.000977 0.545959 0.000977
0.001221 0.544220 0.000977
0.004974 0.542084 0.000977
0.014679 0.539856 0.000977
0.041931 0.537445 0.000977
0.076447 0.535034 0.000977
0.116180 0.532501 0.000977
0.164520 0.529938 0.000977
0.214142 0.527283 0.000977
0.260986 0.524597 0.000977
0.308594 0.521851 0.000977
0.356598 0.519073 0.000977
0.406433 0.516205 0.000977
0.457642 0.513306 0.000977
0.510406 0.510406 0.000977
0.566132 0.507568 0.000977
0.623962 0.504761 0.000977
0.683014 0.501862 0.000977
0.731293 0.498901 0.000977
0.771454 0.495972 0.000977
0.806793 0.493011 0.000977
0.842560 0.489990 0.000977
0.878479 0.486969 0.000977
0.914795 0.483948 0.000977
0.951294 0.480835 0.000977
0.976532 0.477753 0.000977
0.996948 0.474640 0.000977
0.999023 0.471527 0.000977
0.999023 0.468384 0.000977
0.999023 0.468018 0.000977
0.999023 0.467865 0.000977
0.000977 0.596619 0.000977
0.000977 0.594818 0.000977
0.000977 0.593018 0.000977
0.003113 0.590820 0.000977
0.009521 0.588623 0.000977
0.035919 0.586243 0.000977
0.068176 0.583801 0.000977
0.107971 0.581268 0.000977
0.154449 0.578705 0.000977
0.204987 0.576050 0.000977
0.251801 0.573364 0.000977
0.299561 0.570618 0.000977
0.347534 0.567810 0.000977
0.397186 0.564972 0.000977
0.448151 0.562103 0.000977
0.500916 0.559174 0.000977
0.556213 0.556213 0.000977
0.613525 0.553253 0.000977
0.673370 0.550201 0.000977
0.722931 0.547180 0.000977
0.765442 0.544128 0.000977
0.800781 0.541016 0.000977
0.836548 0.537872 0.000977
0.872467 0.534729 0.000977
0.908813 0.531525 0.000977
0.945282 0.528351 0.000977
0.973541 0.525116 0.000977
0.996185 0.521881 0.000977
0.999023 0.518585 0.000977
0.999023 0.515289 0.000977
0.999023 0.514954 0.000977
0.999023 0.514771 0.000977
0.000977 0.648376 0.000977
0.000977 0.646576 0.000977
0.000977 0.644745 0.000977
0.000977 0.642456 0.000977
0.005768 0.640137 0.000977
0.030731 0.637634 0.000977
0.059875 0.635101 0.000977
0.099640 0.632446 0.000977
0.144318 0.629730 0.000977
0.195038 0.626953 0.000977
0.242584 0.624146 0.000977
0.290436 0.621216 0.000977
0.338348 0.618286 0.000977
0.387878 0.615295 0.000977
0.438538 0.612274 0.000977
0.491302 0.609222 0.000977
0.546204 0.606140 0.000977
0.602966 0.602966 0.000977
0.662842 0.599792 0.000977
0.714508 0.596619 0.000977
0.759399 0.593414 0.000977
0.794739 0.590302 0.000977
0.830475 0.587128 0.000977
0.866425 0.584015 0.000977
0.902771 0.580841 0.000977
0.939209 0.577606 0.000977
0.969391 0.574402 0.000977
0.996185 0.571136 0.000977
0.999023 0.567841 0.000977
0.999023 0.564606 0.000977
0.999023 0.564209 0.000977
0.999023 0.564056 0.000977
0.000977 0.696564 0.000977
0.000977 0.695129 0.000977
0.000977 0.693665 0.000977
0.000977 0.691833 0.000977
0.003326 0.689972 0.000977
0.025604 0.687958 0.000977
0.051453 0.685944 0.000977
0.091217 0.683807 0.000977
0.134094 0.681641 0.000977
0.184814 0.679291 0.000977
0.233215 0.676453 0.000977
0.281219 0.673584 0.000977
0.329132 0.670624 0.000977
0.378448 0.667664 0.000977
0.428833 0.664642 0.000977
0.481567 0.661560 0.000977
0.536072 0.658478 0.000977
0.592377 0.655334 0.000977
0.652161 0.652161 0.000977
0.705994 0.648987 0.000977
0.753265 0.645721 0.000977
0.788605 0.642487 0.000977
0.824371 0.639191 0.000977
0.860291 0.635895 0.000977
0.896606 0.632568 0.000977
0.933105 0.629181 0.000977
0.966736 0.625763 0.000977
0.995422 0.622375 0.000977
0.999023 0.618927 0.000977
0.999023 0.615509 0.000977
0.999023 0.615112 0.000977
0.999023 0.614960 0.000977
0.000977 0.738770 0.000977
0.000977 0.737305 0.000977
0.000977 0.735870 0.000977
0.000977 0.734009 0.000977
0.003326 0.732178 0.000977
0.022125 0.730164 0.000977
0.045105 0.728180 0.000977
0.082733 0.726013 0.000977
0.123718 0.723846 0.000977
0.174438 0.721619 0.000977
0.223755 0.719360 0.000977
0.271759 0.717041 0.000977
0.319824 0.714691 0.000977
0.368958 0.712311 0.000977
0.419373 0.709900 0.000977
0.471741 0.707458 0.000977
0.525818 0.704987 0.000977
0.582153 0.702484 0.000977
0.641418 0.699951 0.000977
0.697388 0.697388 0.000977
0.746185 0.694824 0.000977
0.782440 0.692200 0.000977
0.818176 0.689545 0.000977
0.854095 0.686920 0.000977
0.890442 0.684265 0.000977
0.926910 0.681549 0.000977
0.962097 0.678589 0.000977
0.995422 0.675171 0.000977
0.999023 0.671753 0.000977
0.999023 0.668304 0.000977
0.999023 0.667908 0.000977
0.999023 0.667725 0.000977
0.000977 0.772461 0.000977
0.000977 0.771423 0.000977
0.000977 0.770355 0.000977
0.000977 0.769043 0.000977
0.002533 0.767731 0.000977
0.018158 0.766266 0.000977
0.038879 0.764801 0.000977
0.074158 0.763275 0.000977
0.114380 0.761719 0.000977
0.164001 0.760132 0.000977
0.214233 0.758514 0.000977
0.262207 0.756836 0.000977
0.310394 0.755157 0.000977
0.359344 0.753418 0.000977
0.409729 0.751678 0.000977
0.461823 0.749939 0.000977
0.515442 0.747681 0.000977
0.571777 0.745178 0.000977
0.630524 0.742645 0.000977
0.688690 0.740082 0.000977
0.737518 0.737518 0.000977
0.776184 0.734894 0.000977
0.811920 0.732269 0.000977
0.847870 0.729645 0.000977
0.884186 0.726929 0.000977
0.920654 0.724274 0.000977
0.957153 0.721558 0.000977
0.992035 0.718842 0.000977
0.999023 0.716064 0.000977
0.999023 0.713318 0.000977
0.999023 0.713013 0.000977
0.999023 0.712891 0.000977
0.000977 0.803375 0.000977
0.000977 0.802338 0.000977
0.000977 0.801270 0.000977
0.000977 0.799957 0.000977
0.002533 0.798645 0.000977
0.015045 0.797180 0.000977
0.032562 0.795746 0.000977
0.065521 0.794189 0.000977
0.105743 0.792664 0.000977
0.153473 0.791046 0.000977
0.204590 0.789398 0.000977
0.252625 0.787750 0.000977
0.300873 0.786072 0.000977
0.349731 0.784363 0.000977
0.400055 0.782623 0.000977
0.451843 0.780853 0.000977
0.505249 0.779083 0.000977
0.561340 0.777283 0.000977
0.619598 0.775452 0.000977
0.679932 0.773621 0.000977
0.728729 0.771729 0.000977
0.769897 0.769897 0.000977
0.805603 0.767975 0.000977
0.841553 0.766083 0.000977
0.877899 0.764160 0.000977
0.914368 0.762238 0.000977
0.951233 0.760254 0.000977
0.987854 0.758331 0.000977
0.995880 0.756317 0.000977
0.999023 0.754333 0.000977
0.999023 0.754120 0.000977
0.999023 0.754028 0.000977
0.000977 0.834656 0.000977
0.000977 0.833618 0.000977
0.000977 0.832550 0.000977
0.000977 0.831238 0.000977
0.001740 0.829926 0.000977
0.010620 0.828461 0.000977
0.026184 0.826996 0.000977
0.056763 0.825470 0.000977
0.097015 0.823914 0.000977
0.142853 0.822296 0.000977
0.194122 0.820679 0.000977
0.242889 0.819031 0.000977
0.291290 0.817352 0.000977
0.340149 0.815613 0.000977
0.390259 0.813904 0.000977
0.441711 0.812134 0.000977
0.495148 0.810333 0.000977
0.550812 0.808533 0.000977
0.608521 0.806702 0.000977
0.668884 0.804871 0.000977
0.719910 0.803009 0.000977
0.763519 0.801147 0.000977
0.799255 0.799255 0.000977
0.835205 0.797333 0.000977
0.871521 0.795410 0.000977
0.907990 0.793488 0.000977
0.944885 0.791534 0.000977
0.981873 0.789581 0.000977
0.994568 0.787598 0.000977
0.998779 0.785614 0.000977
0.999023 0.785400 0.000977
0.999023 0.785309 0.000977
0.000977 0.866089 0.000977
0.000977 0.865051 0.000977
0.000977 0.863983 0.000977
0.000977 0.862671 0.000977
0.001740 0.861359 0.000977
0.007843 0.859894 0.000977
0.019806 0.858429 0.000977
0.048767 0.856903 0.000977
0.088226 0.855347 0.000977
0.132141 0.853729 0.000977
0.183441 0.852112 0.000977
0.233124 0.850464 0.000977
0.281647 0.848785 0.000977
0.330505 0.847046 0.000977
0.380402 0.845306 0.000977
0.431549 0.843567 0.000977
0.484985 0.841766 0.000977
0.540222 0.839966 0.000977
0.597382 0.838135 0.000977
0.657745 0.836304 0.000977
0.710999 0.834442 0.000977
0.757111 0.832581 0.000977
0.792847 0.830688 0.000977
0.828766 0.828766 0.000977
0.865112 0.826843 0.000977
0.901611 0.824921 0.000977
0.938477 0.822968 0.000977
0.975464 0.821014 0.000977
0.989380 0.819031 0.000977
0.998779 0.817047 0.000977
0.999023 0.816833 0.000977
0.999023 0.816711 0.000977
0.000977 0.897858 0.000977
0.000977 0.896820 0.000977
0.000977 0.895782 0.000977
0.000977 0.894470 0.000977
0.000977 0.893127 0.000977
0.003265 0.891663 0.000977
0.013550 0.890228 0.000977
0.042297 0.888672 0.000977
0.079346 0.887146 0.000977
0.121277 0.885529 0.000977
0.172577 0.883911 0.000977
0.223236 0.882233 0.000977
0.271820 0.880554 0.000977
0.320740 0.878845 0.000977
0.370453 0.877106 0.000977
0.421600 0.875336 0.000977
0.474731 0.873535 0.000977
0.529510 0.871765 0.000977
0.586456 0.869934 0.000977
0.646454 0.868073 0.000977
0.701996 0.866241 0.000977
0.750641 0.864349 0.000977
0.786377 0.862457 0.000977
0.822296 0.860565 0.000977
0.858643 0.858643 0.000977
0.895142 0.856689 0.000977
0.932007 0.854767 0.000977
0.968994 0.852783 0.000977
0.987762 0.850830 0.000977
0.998352 0.848846 0.000977
0.999023 0.848602 0.000977
0.999023 0.848511 0.000977
0.000977 0.929749 0.000977
0.000977 0.928741 0.000977
0.000977 0.927673 0.000977
0.000977 0.926361 0.000977
0.000977 0.925049 0.000977
0.000977 0.923584 0.000977
0.007477 0.922119 0.000977
0.036041 0.920593 0.000977
0.070404 0.919037 0.000977
0.112030 0.917450 0.000977
0.161713 0.915802 0.000977
0.213318 0.914154 0.000977
0.261902 0.912445 0.000977
0.310974 0.910736 0.000977
0.360504 0.908997 0.000977
0.411621 0.907257 0.000977
0.464417 0.905457 0.000977
0.518738 0.903656 0.000977
0.575714 0.901855 0.000977
0.635193 0.900024 0.000977
0.692963 0.898132 0.000977
0.742096 0.896271 0.000977
0.779877 0.894379 0.000977
0.815796 0.892487 0.000977
0.852142 0.890564 0.000977
0.888611 0.888611 0.000977
0.925507 0.886658 0.000977
0.962494 0.884705 0.000977
0.982086 0.882751 0.000977
0.998352 0.880737 0.000977
0.999023 0.880524 0.000977
0.999023 0.880432 0.000977
0.000977 0.962036 0.000977
0.000977 0.960999 0.000977
0.000977 0.959961 0.000977
0.000977 0.958618 0.000977
0.000977 0.957306 0.000977
0.000977 0.955872 0.000977
0.005096 0.954407 0.000977
0.029541 0.952881 0.000977
0.061401 0.951324 0.000977
0.103027 0.949707 0.000977
0.150757 0.948090 0.000977
0.203308 0.946411 0.000977
0.251862 0.944733 0.000977
0.301056 0.943024 0.000977
0.350433 0.941284 0.000977
0.401489 0.939514 0.000977
0.453979 0.937744 0.000977
0.507996 0.935944 0.000977
0.564819 0.934113 0.000977
0.623779 0.932281 0.000977
0.683838 0.930420 0.000977
0.732971 0.928558 0.000977
0.773315 0.926636 0.000977
0.809235 0.924744 0.000977
0.845581 0.922821 0.000977
0.882050 0.920898 0.000977
0.918945 0.918945 0.000977
0.955933 0.916992 0.000977
0.980835 0.914978 0.000977
0.997955 0.913025 0.000977
0.999023 0.912811 0.000977
0.999023 0.912720 0.000977
0.000977 0.994415 0.000977
0.000977 0.993347 0.000977
0.000977 0.992310 0.000977
0.000977 0.990997 0.000977
0.000977 0.989655 0.000977
0.000977 0.988220 0.000977
0.005096 0.986755 0.000977
0.027100 0.985229 0.000977
0.052338 0.983673 0.000977
0.093964 0.982056 0.000977
0.139740 0.980438 0.000977
0.192291 0.978760 0.000977
0.241791 0.977112 0.000977
0.291138 0.975372 0.000977
0.340515 0.973633 0.000977
0.391388 0.971863 0.000977
0.443542 0.970093 0.000977
