Postproduction/IWLTBAP - Humble/LUTs by IWLTBAP (CUBE)/UTILITY/Canon C-Log to Rec.709/U-CANON-C-LOG-V4-LTR.cube
# Copyright: (C) Copyright 2010-2018 by IWLTBAP SAS
# Cannot be resold, shared or otherwise redistributed
# Website: https://luts.iwltbap.com
TITLE "Canon C-Log V4 (Utility LOG to Rec.709)"
LUT_3D_SIZE 5
DOMAIN_MIN 0.000000 0.000000 0.000000
DOMAIN_MAX 0.903226 0.903226 0.903226
0.003906 0.003906 0.003906
0.252472 0.003906 0.003906
0.586761 0.003906 0.003906
0.813690 0.003906 0.003906
0.953094 0.003906 0.003906
0.003906 0.252472 0.003906
0.252472 0.252472 0.003906
0.586761 0.252472 0.003906
0.813690 0.252472 0.003906
0.953094 0.252472 0.003906
0.003906 0.586761 0.003906
0.252472 0.586761 0.003906
0.586761 0.586761 0.003906
0.813690 0.586761 0.003906
0.953094 0.586761 0.003906
0.003906 0.813690 0.003906
0.252472 0.813690 0.003906
0.586761 0.813690 0.003906
0.813690 0.813690 0.003906
0.953094 0.813690 0.003906
0.003906 0.953094 0.003906
0.252472 0.953094 0.003906
0.586761 0.953094 0.003906
0.813690 0.953094 0.003906
0.953094 0.953094 0.003906
0.003906 0.003906 0.252472
0.252472 0.003906 0.252472
0.586761 0.003906 0.252472
0.813690 0.003906 0.252472
0.953094 0.003906 0.252472
0.003906 0.252472 0.252472
0.252472 0.252472 0.252472
0.586761 0.252472 0.252472
0.813690 0.252472 0.252472
0.953094 0.252472 0.252472
0.003906 0.586761 0.252472
0.252472 0.586761 0.252472
0.586761 0.586761 0.252472
0.813690 0.586761 0.252472
0.953094 0.586761 0.252472
0.003906 0.813690 0.252472
0.252472 0.813690 0.252472
0.586761 0.813690 0.252472
0.813690 0.813690 0.252472
0.953094 0.813690 0.252472
0.003906 0.953094 0.252472
0.252472 0.953094 0.252472
0.586761 0.953094 0.252472
0.813690 0.953094 0.252472
0.953094 0.953094 0.252472
0.003906 0.003906 0.586761
0.252472 0.003906 0.586761
0.586761 0.003906 0.586761
0.813690 0.003906 0.586761
0.953094 0.003906 0.586761
0.003906 0.252472 0.586761
0.252472 0.252472 0.586761
0.586761 0.252472 0.586761
0.813690 0.252472 0.586761
0.953094 0.252472 0.586761
0.003906 0.586761 0.586761
0.252472 0.586761 0.586761
0.586761 0.586761 0.586761
0.813690 0.586761 0.586761
0.953094 0.586761 0.586761
0.003906 0.813690 0.586761
0.252472 0.813690 0.586761
0.586761 0.813690 0.586761
0.813690 0.813690 0.586761
0.953094 0.813690 0.586761
0.003906 0.953094 0.586761
0.252472 0.953094 0.586761
0.586761 0.953094 0.586761
0.813690 0.953094 0.586761
0.953094 0.953094 0.586761
0.003906 0.003906 0.813690
0.252472 0.003906 0.813690
0.586761 0.003906 0.813690
0.813690 0.003906 0.813690
0.953094 0.003906 0.813690
0.003906 0.252472 0.813690
0.252472 0.252472 0.813690
0.586761 0.252472 0.813690
0.813690 0.252472 0.813690
0.953094 0.252472 0.813690
0.003906 0.586761 0.813690
0.252472 0.586761 0.813690
0.586761 0.586761 0.813690
0.813690 0.586761 0.813690
0.953094 0.586761 0.813690
0.003906 0.813690 0.813690
0.252472 0.813690 0.813690
0.586761 0.813690 0.813690
0.813690 0.813690 0.813690
0.953094 0.813690 0.813690
0.003906 0.953094 0.813690
0.252472 0.953094 0.813690
0.586761 0.953094 0.813690
0.813690 0.953094 0.813690
0.953094 0.953094 0.813690
0.003906 0.003906 0.953094
0.252472 0.003906 0.953094
0.586761 0.003906 0.953094
0.813690 0.003906 0.953094
0.953094 0.003906 0.953094
0.003906 0.252472 0.953094
0.252472 0.252472 0.953094
0.586761 0.252472 0.953094
0.813690 0.252472 0.953094
0.953094 0.252472 0.953094
0.003906 0.586761 0.953094
0.252472 0.586761 0.953094
0.586761 0.586761 0.953094
0.813690 0.586761 0.953094
0.953094 0.586761 0.953094
0.003906 0.813690 0.953094
0.252472 0.813690 0.953094
0.586761 0.813690 0.953094
0.813690 0.813690 0.953094
0.953094 0.813690 0.953094
0.003906 0.953094 0.953094
0.252472 0.953094 0.953094
0.586761 0.953094 0.953094
0.813690 0.953094 0.953094
0.953094 0.953094 0.953094
