Postproduction/IWLTBAP - Humble/LUTs by IWLTBAP (CUBE)/UTILITY/Canon C-Log to Rec.709/U-CANON-C-LOG-V2-LTR.cube
# Copyright: (C) Copyright 2010-2018 by IWLTBAP SAS
# Cannot be resold, shared or otherwise redistributed
# Website: https://luts.iwltbap.com
TITLE "Canon C-Log V2 (Utility LOG to Rec.709)"
LUT_3D_SIZE 8
DOMAIN_MIN 0.000000 0.000000 0.000000
DOMAIN_MAX 0.903226 0.903226 0.903226
0.003906 0.003906 0.003906
0.070770 0.003906 0.003906
0.303680 0.003906 0.003906
0.504456 0.003906 0.003906
0.738403 0.003906 0.003906
0.985016 0.003906 0.003906
0.996094 0.003906 0.003906
0.996094 0.003906 0.003906
0.003906 0.070770 0.003906
0.070770 0.070770 0.003906
0.303680 0.070770 0.003906
0.504456 0.070770 0.003906
0.738403 0.070770 0.003906
0.985016 0.070770 0.003906
0.996094 0.070770 0.003906
0.996094 0.070770 0.003906
0.003906 0.303680 0.003906
0.070770 0.303680 0.003906
0.303680 0.303680 0.003906
0.504456 0.303680 0.003906
0.738403 0.303680 0.003906
0.985016 0.303680 0.003906
0.996094 0.303680 0.003906
0.996094 0.303680 0.003906
0.003906 0.504456 0.003906
0.070770 0.504456 0.003906
0.303680 0.504456 0.003906
0.504456 0.504456 0.003906
0.738403 0.504456 0.003906
0.985016 0.504456 0.003906
0.996094 0.504456 0.003906
0.996094 0.504456 0.003906
0.003906 0.738403 0.003906
0.070770 0.738403 0.003906
0.303680 0.738403 0.003906
0.504456 0.738403 0.003906
0.738403 0.738403 0.003906
0.985016 0.738403 0.003906
0.996094 0.738403 0.003906
0.996094 0.738403 0.003906
0.003906 0.985016 0.003906
0.070770 0.985016 0.003906
0.303680 0.985016 0.003906
0.504456 0.985016 0.003906
0.738403 0.985016 0.003906
0.985016 0.985016 0.003906
0.996094 0.985016 0.003906
0.996094 0.985016 0.003906
0.003906 0.996094 0.003906
0.070770 0.996094 0.003906
0.303680 0.996094 0.003906
0.504456 0.996094 0.003906
0.738403 0.996094 0.003906
0.985016 0.996094 0.003906
0.996094 0.996094 0.003906
0.996094 0.996094 0.003906
0.003906 0.996094 0.003906
0.070770 0.996094 0.003906
0.303680 0.996094 0.003906
0.504456 0.996094 0.003906
0.738403 0.996094 0.003906
0.985016 0.996094 0.003906
0.996094 0.996094 0.003906
0.996094 0.996094 0.003906
0.003906 0.003906 0.070770
0.070770 0.003906 0.070770
0.303680 0.003906 0.070770
0.504456 0.003906 0.070770
0.738403 0.003906 0.070770
0.985016 0.003906 0.070770
0.996094 0.003906 0.070770
0.996094 0.003906 0.070770
0.003906 0.070770 0.070770
0.070770 0.070770 0.070770
0.303680 0.070770 0.070770
0.504456 0.070770 0.070770
0.738403 0.070770 0.070770
0.985016 0.070770 0.070770
0.996094 0.070770 0.070770
0.996094 0.070770 0.070770
0.003906 0.303680 0.070770
0.070770 0.303680 0.070770
0.303680 0.303680 0.070770
0.504456 0.303680 0.070770
0.738403 0.303680 0.070770
0.985016 0.303680 0.070770
0.996094 0.303680 0.070770
0.996094 0.303680 0.070770
0.003906 0.504456 0.070770
0.070770 0.504456 0.070770
0.303680 0.504456 0.070770
0.504456 0.504456 0.070770
0.738403 0.504456 0.070770
0.985016 0.504456 0.070770
0.996094 0.504456 0.070770
0.996094 0.504456 0.070770
0.003906 0.738403 0.070770
0.070770 0.738403 0.070770
0.303680 0.738403 0.070770
0.504456 0.738403 0.070770
0.738403 0.738403 0.070770
0.985016 0.738403 0.070770
0.996094 0.738403 0.070770
0.996094 0.738403 0.070770
0.003906 0.985016 0.070770
0.070770 0.985016 0.070770
0.303680 0.985016 0.070770
0.504456 0.985016 0.070770
0.738403 0.985016 0.070770
0.985016 0.985016 0.070770
0.996094 0.985016 0.070770
0.996094 0.985016 0.070770
0.003906 0.996094 0.070770
0.070770 0.996094 0.070770
0.303680 0.996094 0.070770
0.504456 0.996094 0.070770
0.738403 0.996094 0.070770
0.985016 0.996094 0.070770
0.996094 0.996094 0.070770
0.996094 0.996094 0.070770
0.003906 0.996094 0.070770
0.070770 0.996094 0.070770
0.303680 0.996094 0.070770
0.504456 0.996094 0.070770
0.738403 0.996094 0.070770
0.985016 0.996094 0.070770
0.996094 0.996094 0.070770
0.996094 0.996094 0.070770
0.003906 0.003906 0.303680
0.070770 0.003906 0.303680
0.303680 0.003906 0.303680
0.504456 0.003906 0.303680
0.738403 0.003906 0.303680
0.985016 0.003906 0.303680
0.996094 0.003906 0.303680
0.996094 0.003906 0.303680
0.003906 0.070770 0.303680
0.070770 0.070770 0.303680
0.303680 0.070770 0.303680
0.504456 0.070770 0.303680
0.738403 0.070770 0.303680
0.985016 0.070770 0.303680
0.996094 0.070770 0.303680
0.996094 0.070770 0.303680
0.003906 0.303680 0.303680
0.070770 0.303680 0.303680
0.303680 0.303680 0.303680
0.504456 0.303680 0.303680
0.738403 0.303680 0.303680
0.985016 0.303680 0.303680
0.996094 0.303680 0.303680
0.996094 0.303680 0.303680
0.003906 0.504456 0.303680
0.070770 0.504456 0.303680
0.303680 0.504456 0.303680
0.504456 0.504456 0.303680
0.738403 0.504456 0.303680
0.985016 0.504456 0.303680
0.996094 0.504456 0.303680
0.996094 0.504456 0.303680
0.003906 0.738403 0.303680
0.070770 0.738403 0.303680
0.303680 0.738403 0.303680
0.504456 0.738403 0.303680
0.738403 0.738403 0.303680
0.985016 0.738403 0.303680
0.996094 0.738403 0.303680
0.996094 0.738403 0.303680
0.003906 0.985016 0.303680
0.070770 0.985016 0.303680
0.303680 0.985016 0.303680
0.504456 0.985016 0.303680
0.738403 0.985016 0.303680
0.985016 0.985016 0.303680
0.996094 0.985016 0.303680
0.996094 0.985016 0.303680
0.003906 0.996094 0.303680
0.070770 0.996094 0.303680
0.303680 0.996094 0.303680
0.504456 0.996094 0.303680
0.738403 0.996094 0.303680
0.985016 0.996094 0.303680
0.996094 0.996094 0.303680
0.996094 0.996094 0.303680
0.003906 0.996094 0.303680
0.070770 0.996094 0.303680
0.303680 0.996094 0.303680
0.504456 0.996094 0.303680
0.738403 0.996094 0.303680
0.985016 0.996094 0.303680
0.996094 0.996094 0.303680
0.996094 0.996094 0.303680
0.003906 0.003906 0.504456
0.070770 0.003906 0.504456
0.303680 0.003906 0.504456
0.504456 0.003906 0.504456
0.738403 0.003906 0.504456
0.985016 0.003906 0.504456
0.996094 0.003906 0.504456
0.996094 0.003906 0.504456
0.003906 0.070770 0.504456
0.070770 0.070770 0.504456
0.303680 0.070770 0.504456
0.504456 0.070770 0.504456
0.738403 0.070770 0.504456
0.985016 0.070770 0.504456
0.996094 0.070770 0.504456
0.996094 0.070770 0.504456
0.003906 0.303680 0.504456
0.070770 0.303680 0.504456
0.303680 0.303680 0.504456
0.504456 0.303680 0.504456
0.738403 0.303680 0.504456
0.985016 0.303680 0.504456
0.996094 0.303680 0.504456
0.996094 0.303680 0.504456
0.003906 0.504456 0.504456
0.070770 0.504456 0.504456
0.303680 0.504456 0.504456
0.504456 0.504456 0.504456
0.738403 0.504456 0.504456
0.985016 0.504456 0.504456
0.996094 0.504456 0.504456
0.996094 0.504456 0.504456
0.003906 0.738403 0.504456
0.070770 0.738403 0.504456
0.303680 0.738403 0.504456
0.504456 0.738403 0.504456
0.738403 0.738403 0.504456
0.985016 0.738403 0.504456
0.996094 0.738403 0.504456
0.996094 0.738403 0.504456
0.003906 0.985016 0.504456
0.070770 0.985016 0.504456
0.303680 0.985016 0.504456
0.504456 0.985016 0.504456
0.738403 0.985016 0.504456
0.985016 0.985016 0.504456
0.996094 0.985016 0.504456
0.996094 0.985016 0.504456
0.003906 0.996094 0.504456
0.070770 0.996094 0.504456
0.303680 0.996094 0.504456
0.504456 0.996094 0.504456
0.738403 0.996094 0.504456
0.985016 0.996094 0.504456
0.996094 0.996094 0.504456
0.996094 0.996094 0.504456
0.003906 0.996094 0.504456
0.070770 0.996094 0.504456
0.303680 0.996094 0.504456
0.504456 0.996094 0.504456
0.738403 0.996094 0.504456
0.985016 0.996094 0.504456
0.996094 0.996094 0.504456
0.996094 0.996094 0.504456
0.003906 0.003906 0.738403
0.070770 0.003906 0.738403
0.303680 0.003906 0.738403
0.504456 0.003906 0.738403
0.738403 0.003906 0.738403
0.985016 0.003906 0.738403
0.996094 0.003906 0.738403
0.996094 0.003906 0.738403
0.003906 0.070770 0.738403
0.070770 0.070770 0.738403
0.303680 0.070770 0.738403
0.504456 0.070770 0.738403
0.738403 0.070770 0.738403
0.985016 0.070770 0.738403
0.996094 0.070770 0.738403
0.996094 0.070770 0.738403
0.003906 0.303680 0.738403
0.070770 0.303680 0.738403
0.303680 0.303680 0.738403
0.504456 0.303680 0.738403
0.738403 0.303680 0.738403
0.985016 0.303680 0.738403
0.996094 0.303680 0.738403
0.996094 0.303680 0.738403
0.003906 0.504456 0.738403
0.070770 0.504456 0.738403
0.303680 0.504456 0.738403
0.504456 0.504456 0.738403
0.738403 0.504456 0.738403
0.985016 0.504456 0.738403
0.996094 0.504456 0.738403
0.996094 0.504456 0.738403
0.003906 0.738403 0.738403
0.070770 0.738403 0.738403
0.303680 0.738403 0.738403
0.504456 0.738403 0.738403
0.738403 0.738403 0.738403
0.985016 0.738403 0.738403
0.996094 0.738403 0.738403
0.996094 0.738403 0.738403
0.003906 0.985016 0.738403
0.070770 0.985016 0.738403
0.303680 0.985016 0.738403
0.504456 0.985016 0.738403
0.738403 0.985016 0.738403
0.985016 0.985016 0.738403
0.996094 0.985016 0.738403
0.996094 0.985016 0.738403
0.003906 0.996094 0.738403
0.070770 0.996094 0.738403
0.303680 0.996094 0.738403
0.504456 0.996094 0.738403
0.738403 0.996094 0.738403
0.985016 0.996094 0.738403
0.996094 0.996094 0.738403
0.996094 0.996094 0.738403
0.003906 0.996094 0.738403
0.070770 0.996094 0.738403
0.303680 0.996094 0.738403
0.504456 0.996094 0.738403
0.738403 0.996094 0.738403
0.985016 0.996094 0.738403
0.996094 0.996094 0.738403
0.996094 0.996094 0.738403
0.003906 0.003906 0.985016
0.070770 0.003906 0.985016
0.303680 0.003906 0.985016
0.504456 0.003906 0.985016
0.738403 0.003906 0.985016
0.985016 0.003906 0.985016
0.996094 0.003906 0.985016
0.996094 0.003906 0.985016
0.003906 0.070770 0.985016
0.070770 0.070770 0.985016
0.303680 0.070770 0.985016
0.504456 0.070770 0.985016
0.738403 0.070770 0.985016
0.985016 0.070770 0.985016
0.996094 0.070770 0.985016
0.996094 0.070770 0.985016
0.003906 0.303680 0.985016
0.070770 0.303680 0.985016
0.303680 0.303680 0.985016
0.504456 0.303680 0.985016
0.738403 0.303680 0.985016
0.985016 0.303680 0.985016
0.996094 0.303680 0.985016
0.996094 0.303680 0.985016
0.003906 0.504456 0.985016
0.070770 0.504456 0.985016
0.303680 0.504456 0.985016
0.504456 0.504456 0.985016
0.738403 0.504456 0.985016
0.985016 0.504456 0.985016
0.996094 0.504456 0.985016
0.996094 0.504456 0.985016
0.003906 0.738403 0.985016
0.070770 0.738403 0.985016
0.303680 0.738403 0.985016
0.504456 0.738403 0.985016
0.738403 0.738403 0.985016
0.985016 0.738403 0.985016
0.996094 0.738403 0.985016
0.996094 0.738403 0.985016
0.003906 0.985016 0.985016
0.070770 0.985016 0.985016
0.303680 0.985016 0.985016
0.504456 0.985016 0.985016
0.738403 0.985016 0.985016
0.985016 0.985016 0.985016
0.996094 0.985016 0.985016
0.996094 0.985016 0.985016
0.003906 0.996094 0.985016
0.070770 0.996094 0.985016
0.303680 0.996094 0.985016
0.504456 0.996094 0.985016
0.738403 0.996094 0.985016
0.985016 0.996094 0.985016
0.996094 0.996094 0.985016
0.996094 0.996094 0.985016
0.003906 0.996094 0.985016
0.070770 0.996094 0.985016
0.303680 0.996094 0.985016
0.504456 0.996094 0.985016
0.738403 0.996094 0.985016
0.985016 0.996094 0.985016
0.996094 0.996094 0.985016
0.996094 0.996094 0.985016
0.003906 0.003906 0.996094
0.070770 0.003906 0.996094
0.303680 0.003906 0.996094
0.504456 0.003906 0.996094
0.738403 0.003906 0.996094
0.985016 0.003906 0.996094
0.996094 0.003906 0.996094
0.996094 0.003906 0.996094
0.003906 0.070770 0.996094
0.070770 0.070770 0.996094
0.303680 0.070770 0.996094
0.504456 0.070770 0.996094
0.738403 0.070770 0.996094
0.985016 0.070770 0.996094
0.996094 0.070770 0.996094
0.996094 0.070770 0.996094
0.003906 0.303680 0.996094
0.070770 0.303680 0.996094
0.303680 0.303680 0.996094
0.504456 0.303680 0.996094
0.738403 0.303680 0.996094
0.985016 0.303680 0.996094
0.996094 0.303680 0.996094
0.996094 0.303680 0.996094
0.003906 0.504456 0.996094
0.070770 0.504456 0.996094
0.303680 0.504456 0.996094
0.504456 0.504456 0.996094
0.738403 0.504456 0.996094
0.985016 0.504456 0.996094
0.996094 0.504456 0.996094
0.996094 0.504456 0.996094
0.003906 0.738403 0.996094
0.070770 0.738403 0.996094
0.303680 0.738403 0.996094
0.504456 0.738403 0.996094
0.738403 0.738403 0.996094
0.985016 0.738403 0.996094
0.996094 0.738403 0.996094
0.996094 0.738403 0.996094
0.003906 0.985016 0.996094
0.070770 0.985016 0.996094
0.303680 0.985016 0.996094
0.504456 0.985016 0.996094
0.738403 0.985016 0.996094
0.985016 0.985016 0.996094
0.996094 0.985016 0.996094
0.996094 0.985016 0.996094
0.003906 0.996094 0.996094
0.070770 0.996094 0.996094
0.303680 0.996094 0.996094
0.504456 0.996094 0.996094
0.738403 0.996094 0.996094
0.985016 0.996094 0.996094
0.996094 0.996094 0.996094
0.996094 0.996094 0.996094
0.003906 0.996094 0.996094
0.070770 0.996094 0.996094
0.303680 0.996094 0.996094
0.504456 0.996094 0.996094
0.738403 0.996094 0.996094
0.985016 0.996094 0.996094
0.996094 0.996094 0.996094
0.996094 0.996094 0.996094
0.003906 0.003906 0.996094
0.070770 0.003906 0.996094
0.303680 0.003906 0.996094
0.504456 0.003906 0.996094
0.738403 0.003906 0.996094
0.985016 0.003906 0.996094
0.996094 0.003906 0.996094
0.996094 0.003906 0.996094
0.003906 0.070770 0.996094
0.070770 0.070770 0.996094
0.303680 0.070770 0.996094
0.504456 0.070770 0.996094
0.738403 0.070770 0.996094
0.985016 0.070770 0.996094
0.996094 0.070770 0.996094
0.996094 0.070770 0.996094
0.003906 0.303680 0.996094
0.070770 0.303680 0.996094
0.303680 0.303680 0.996094
0.504456 0.303680 0.996094
0.738403 0.303680 0.996094
0.985016 0.303680 0.996094
0.996094 0.303680 0.996094
0.996094 0.303680 0.996094
0.003906 0.504456 0.996094
0.070770 0.504456 0.996094
0.303680 0.504456 0.996094
0.504456 0.504456 0.996094
0.738403 0.504456 0.996094
0.985016 0.504456 0.996094
0.996094 0.504456 0.996094
0.996094 0.504456 0.996094
0.003906 0.738403 0.996094
0.070770 0.738403 0.996094
0.303680 0.738403 0.996094
0.504456 0.738403 0.996094
0.738403 0.738403 0.996094
0.985016 0.738403 0.996094
0.996094 0.738403 0.996094
0.996094 0.738403 0.996094
0.003906 0.985016 0.996094
0.070770 0.985016 0.996094
0.303680 0.985016 0.996094
0.504456 0.985016 0.996094
0.738403 0.985016 0.996094
0.985016 0.985016 0.996094
0.996094 0.985016 0.996094
0.996094 0.985016 0.996094
0.003906 0.996094 0.996094
0.070770 0.996094 0.996094
0.303680 0.996094 0.996094
0.504456 0.996094 0.996094
0.738403 0.996094 0.996094
0.985016 0.996094 0.996094
0.996094 0.996094 0.996094
0.996094 0.996094 0.996094
0.003906 0.996094 0.996094
0.070770 0.996094 0.996094
0.303680 0.996094 0.996094
0.504456 0.996094 0.996094
0.738403 0.996094 0.996094
0.985016 0.996094 0.996094
0.996094 0.996094 0.996094
0.996094 0.996094 0.996094
