Postproduction/IWLTBAP - Humble/LUTs by IWLTBAP (CUBE)/UTILITY/Canon C-Log to Rec.709/U-CANON-C-LOG-V4-LTR.cube
# Copyright: (C) Copyright 2010-2018 by IWLTBAP SAS
# Cannot be resold, shared or otherwise redistributed
# Website: https://luts.iwltbap.com
TITLE "Canon C-Log V4 (Utility LOG to Rec.709)"
LUT_3D_SIZE 32
0.003906 0.003906 0.003906
0.003906 0.003906 0.003906
0.005859 0.003906 0.003906
0.036011 0.003906 0.003906
0.070709 0.003906 0.003906
0.136322 0.003906 0.003906
0.199493 0.003906 0.003906
0.252472 0.003906 0.003906
0.304443 0.003906 0.003906
0.353516 0.003906 0.003906
0.402649 0.003906 0.003906
0.451843 0.003906 0.003906
0.499481 0.003906 0.003906
0.544647 0.003906 0.003906
0.586761 0.003906 0.003906
0.625122 0.003906 0.003906
0.661407 0.003906 0.003906
0.695709 0.003906 0.003906
0.727997 0.003906 0.003906
0.758759 0.003906 0.003906
0.786957 0.003906 0.003906
0.813690 0.003906 0.003906
0.838287 0.003906 0.003906
0.862000 0.003906 0.003906
0.882904 0.003906 0.003906
0.902954 0.003906 0.003906
0.920593 0.003906 0.003906
0.937744 0.003906 0.003906
0.953094 0.003906 0.003906
0.968231 0.003906 0.003906
0.982178 0.003906 0.003906
0.996094 0.003906 0.003906
0.003906 0.003906 0.003906
0.003906 0.003906 0.003906
0.005859 0.003906 0.003906
0.036011 0.003906 0.003906
0.070709 0.003906 0.003906
0.136322 0.003906 0.003906
0.199493 0.003906 0.003906
0.252472 0.003906 0.003906
0.304443 0.003906 0.003906
0.353516 0.003906 0.003906
0.402649 0.003906 0.003906
0.451843 0.003906 0.003906
0.499481 0.003906 0.003906
0.544647 0.003906 0.003906
0.586761 0.003906 0.003906
0.625122 0.003906 0.003906
0.661407 0.003906 0.003906
0.695709 0.003906 0.003906
0.727997 0.003906 0.003906
0.758759 0.003906 0.003906
0.786957 0.003906 0.003906
0.813690 0.003906 0.003906
0.838287 0.003906 0.003906
0.862000 0.003906 0.003906
0.882904 0.003906 0.003906
0.902954 0.003906 0.003906
0.920593 0.003906 0.003906
0.937744 0.003906 0.003906
0.953094 0.003906 0.003906
0.968231 0.003906 0.003906
0.982178 0.003906 0.003906
0.996094 0.003906 0.003906
0.003906 0.005859 0.003906
0.003906 0.005859 0.003906
0.005859 0.005859 0.003906
0.036011 0.005859 0.003906
0.070709 0.005859 0.003906
0.136322 0.005859 0.003906
0.199493 0.005859 0.003906
0.252472 0.005859 0.003906
0.304443 0.005859 0.003906
0.353516 0.005859 0.003906
0.402649 0.005859 0.003906
0.451843 0.005859 0.003906
0.499481 0.005859 0.003906
0.544647 0.005859 0.003906
0.586761 0.005859 0.003906
0.625122 0.005859 0.003906
0.661407 0.005859 0.003906
0.695709 0.005859 0.003906
0.727997 0.005859 0.003906
0.758759 0.005859 0.003906
0.786957 0.005859 0.003906
0.813690 0.005859 0.003906
0.838287 0.005859 0.003906
0.862000 0.005859 0.003906
0.882904 0.005859 0.003906
0.902954 0.005859 0.003906
0.920593 0.005859 0.003906
0.937744 0.005859 0.003906
0.953094 0.005859 0.003906
0.968231 0.005859 0.003906
0.982178 0.005859 0.003906
0.996094 0.005859 0.003906
0.003906 0.036011 0.003906
0.003906 0.036011 0.003906
0.005859 0.036011 0.003906
0.036011 0.036011 0.003906
0.070709 0.036011 0.003906
0.136322 0.036011 0.003906
0.199493 0.036011 0.003906
0.252472 0.036011 0.003906
0.304443 0.036011 0.003906
0.353516 0.036011 0.003906
0.402649 0.036011 0.003906
0.451843 0.036011 0.003906
0.499481 0.036011 0.003906
0.544647 0.036011 0.003906
0.586761 0.036011 0.003906
0.625122 0.036011 0.003906
0.661407 0.036011 0.003906
0.695709 0.036011 0.003906
0.727997 0.036011 0.003906
0.758759 0.036011 0.003906
0.786957 0.036011 0.003906
0.813690 0.036011 0.003906
0.838287 0.036011 0.003906
0.862000 0.036011 0.003906
0.882904 0.036011 0.003906
0.902954 0.036011 0.003906
0.920593 0.036011 0.003906
0.937744 0.036011 0.003906
0.953094 0.036011 0.003906
0.968231 0.036011 0.003906
0.982178 0.036011 0.003906
0.996094 0.036011 0.003906
0.003906 0.070709 0.003906
0.003906 0.070709 0.003906
0.005859 0.070709 0.003906
0.036011 0.070709 0.003906
0.070709 0.070709 0.003906
0.136322 0.070709 0.003906
0.199493 0.070709 0.003906
0.252472 0.070709 0.003906
0.304443 0.070709 0.003906
0.353516 0.070709 0.003906
0.402649 0.070709 0.003906
0.451843 0.070709 0.003906
0.499481 0.070709 0.003906
0.544647 0.070709 0.003906
0.586761 0.070709 0.003906
0.625122 0.070709 0.003906
0.661407 0.070709 0.003906
0.695709 0.070709 0.003906
0.727997 0.070709 0.003906
0.758759 0.070709 0.003906
0.786957 0.070709 0.003906
0.813690 0.070709 0.003906
0.838287 0.070709 0.003906
0.862000 0.070709 0.003906
0.882904 0.070709 0.003906
0.902954 0.070709 0.003906
0.920593 0.070709 0.003906
0.937744 0.070709 0.003906
0.953094 0.070709 0.003906
0.968231 0.070709 0.003906
0.982178 0.070709 0.003906
0.996094 0.070709 0.003906
0.003906 0.136322 0.003906
0.003906 0.136322 0.003906
0.005859 0.136322 0.003906
0.036011 0.136322 0.003906
0.070709 0.136322 0.003906
0.136322 0.136322 0.003906
0.199493 0.136322 0.003906
0.252472 0.136322 0.003906
0.304443 0.136322 0.003906
0.353516 0.136322 0.003906
0.402649 0.136322 0.003906
0.451843 0.136322 0.003906
0.499481 0.136322 0.003906
0.544647 0.136322 0.003906
0.586761 0.136322 0.003906
0.625122 0.136322 0.003906
0.661407 0.136322 0.003906
0.695709 0.136322 0.003906
0.727997 0.136322 0.003906
0.758759 0.136322 0.003906
0.786957 0.136322 0.003906
0.813690 0.136322 0.003906
0.838287 0.136322 0.003906
0.862000 0.136322 0.003906
0.882904 0.136322 0.003906
0.902954 0.136322 0.003906
0.920593 0.136322 0.003906
0.937744 0.136322 0.003906
0.953094 0.136322 0.003906
0.968231 0.136322 0.003906
0.982178 0.136322 0.003906
0.996094 0.136322 0.003906
0.003906 0.199493 0.003906
0.003906 0.199493 0.003906
0.005859 0.199493 0.003906
0.036011 0.199493 0.003906
0.070709 0.199493 0.003906
0.136322 0.199493 0.003906
0.199493 0.199493 0.003906
0.252472 0.199493 0.003906
0.304443 0.199493 0.003906
0.353516 0.199493 0.003906
0.402649 0.199493 0.003906
0.451843 0.199493 0.003906
0.499481 0.199493 0.003906
0.544647 0.199493 0.003906
0.586761 0.199493 0.003906
0.625122 0.199493 0.003906
0.661407 0.199493 0.003906
0.695709 0.199493 0.003906
0.727997 0.199493 0.003906
0.758759 0.199493 0.003906
0.786957 0.199493 0.003906
0.813690 0.199493 0.003906
0.838287 0.199493 0.003906
0.862000 0.199493 0.003906
0.882904 0.199493 0.003906
0.902954 0.199493 0.003906
0.920593 0.199493 0.003906
0.937744 0.199493 0.003906
0.953094 0.199493 0.003906
0.968231 0.199493 0.003906
0.982178 0.199493 0.003906
0.996094 0.199493 0.003906
0.003906 0.252472 0.003906
0.003906 0.252472 0.003906
0.005859 0.252472 0.003906
0.036011 0.252472 0.003906
0.070709 0.252472 0.003906
0.136322 0.252472 0.003906
0.199493 0.252472 0.003906
0.252472 0.252472 0.003906
0.304443 0.252472 0.003906
0.353516 0.252472 0.003906
0.402649 0.252472 0.003906
0.451843 0.252472 0.003906
0.499481 0.252472 0.003906
0.544647 0.252472 0.003906
0.586761 0.252472 0.003906
0.625122 0.252472 0.003906
0.661407 0.252472 0.003906
0.695709 0.252472 0.003906
0.727997 0.252472 0.003906
0.758759 0.252472 0.003906
0.786957 0.252472 0.003906
0.813690 0.252472 0.003906
0.838287 0.252472 0.003906
0.862000 0.252472 0.003906
0.882904 0.252472 0.003906
0.902954 0.252472 0.003906
0.920593 0.252472 0.003906
0.937744 0.252472 0.003906
0.953094 0.252472 0.003906
0.968231 0.252472 0.003906
0.982178 0.252472 0.003906
0.996094 0.252472 0.003906
0.003906 0.304443 0.003906
0.003906 0.304443 0.003906
0.005859 0.304443 0.003906
0.036011 0.304443 0.003906
0.070709 0.304443 0.003906
0.136322 0.304443 0.003906
0.199493 0.304443 0.003906
0.252472 0.304443 0.003906
0.304443 0.304443 0.003906
0.353516 0.304443 0.003906
0.402649 0.304443 0.003906
0.451843 0.304443 0.003906
0.499481 0.304443 0.003906
0.544647 0.304443 0.003906
0.586761 0.304443 0.003906
0.625122 0.304443 0.003906
0.661407 0.304443 0.003906
0.695709 0.304443 0.003906
0.727997 0.304443 0.003906
0.758759 0.304443 0.003906
0.786957 0.304443 0.003906
0.813690 0.304443 0.003906
0.838287 0.304443 0.003906
0.862000 0.304443 0.003906
0.882904 0.304443 0.003906
0.902954 0.304443 0.003906
0.920593 0.304443 0.003906
0.937744 0.304443 0.003906
0.953094 0.304443 0.003906
0.968231 0.304443 0.003906
0.982178 0.304443 0.003906
0.996094 0.304443 0.003906
0.003906 0.353516 0.003906
0.003906 0.353516 0.003906
0.005859 0.353516 0.003906
0.036011 0.353516 0.003906
0.070709 0.353516 0.003906
0.136322 0.353516 0.003906
0.199493 0.353516 0.003906
0.252472 0.353516 0.003906
0.304443 0.353516 0.003906
0.353516 0.353516 0.003906
0.402649 0.353516 0.003906
0.451843 0.353516 0.003906
0.499481 0.353516 0.003906
0.544647 0.353516 0.003906
0.586761 0.353516 0.003906
0.625122 0.353516 0.003906
0.661407 0.353516 0.003906
0.695709 0.353516 0.003906
0.727997 0.353516 0.003906
0.758759 0.353516 0.003906
0.786957 0.353516 0.003906
0.813690 0.353516 0.003906
0.838287 0.353516 0.003906
0.862000 0.353516 0.003906
0.882904 0.353516 0.003906
0.902954 0.353516 0.003906
0.920593 0.353516 0.003906
0.937744 0.353516 0.003906
0.953094 0.353516 0.003906
0.968231 0.353516 0.003906
0.982178 0.353516 0.003906
0.996094 0.353516 0.003906
0.003906 0.402649 0.003906
0.003906 0.402649 0.003906
0.005859 0.402649 0.003906
0.036011 0.402649 0.003906
0.070709 0.402649 0.003906
0.136322 0.402649 0.003906
0.199493 0.402649 0.003906
0.252472 0.402649 0.003906
0.304443 0.402649 0.003906
0.353516 0.402649 0.003906
0.402649 0.402649 0.003906
0.451843 0.402649 0.003906
0.499481 0.402649 0.003906
0.544647 0.402649 0.003906
0.586761 0.402649 0.003906
0.625122 0.402649 0.003906
0.661407 0.402649 0.003906
0.695709 0.402649 0.003906
0.727997 0.402649 0.003906
0.758759 0.402649 0.003906
0.786957 0.402649 0.003906
0.813690 0.402649 0.003906
0.838287 0.402649 0.003906
0.862000 0.402649 0.003906
0.882904 0.402649 0.003906
0.902954 0.402649 0.003906
0.920593 0.402649 0.003906
0.937744 0.402649 0.003906
0.953094 0.402649 0.003906
0.968231 0.402649 0.003906
0.982178 0.402649 0.003906
0.996094 0.402649 0.003906
0.003906 0.451843 0.003906
0.003906 0.451843 0.003906
0.005859 0.451843 0.003906
0.036011 0.451843 0.003906
0.070709 0.451843 0.003906
0.136322 0.451843 0.003906
0.199493 0.451843 0.003906
0.252472 0.451843 0.003906
0.304443 0.451843 0.003906
0.353516 0.451843 0.003906
0.402649 0.451843 0.003906
0.451843 0.451843 0.003906
0.499481 0.451843 0.003906
0.544647 0.451843 0.003906
0.586761 0.451843 0.003906
0.625122 0.451843 0.003906
0.661407 0.451843 0.003906
0.695709 0.451843 0.003906
0.727997 0.451843 0.003906
0.758759 0.451843 0.003906
0.786957 0.451843 0.003906
0.813690 0.451843 0.003906
0.838287 0.451843 0.003906
0.862000 0.451843 0.003906
0.882904 0.451843 0.003906
0.902954 0.451843 0.003906
0.920593 0.451843 0.003906
0.937744 0.451843 0.003906
0.953094 0.451843 0.003906
0.968231 0.451843 0.003906
0.982178 0.451843 0.003906
0.996094 0.451843 0.003906
0.003906 0.499481 0.003906
0.003906 0.499481 0.003906
0.005859 0.499481 0.003906
0.036011 0.499481 0.003906
0.070709 0.499481 0.003906
0.136322 0.499481 0.003906
0.199493 0.499481 0.003906
0.252472 0.499481 0.003906
0.304443 0.499481 0.003906
0.353516 0.499481 0.003906
0.402649 0.499481 0.003906
0.451843 0.499481 0.003906
0.499481 0.499481 0.003906
0.544647 0.499481 0.003906
0.586761 0.499481 0.003906
0.625122 0.499481 0.003906
0.661407 0.499481 0.003906
0.695709 0.499481 0.003906
0.727997 0.499481 0.003906
0.758759 0.499481 0.003906
0.786957 0.499481 0.003906
0.813690 0.499481 0.003906
0.838287 0.499481 0.003906
0.862000 0.499481 0.003906
0.882904 0.499481 0.003906
0.902954 0.499481 0.003906
0.920593 0.499481 0.003906
0.937744 0.499481 0.003906
0.953094 0.499481 0.003906
0.968231 0.499481 0.003906
0.982178 0.499481 0.003906
0.996094 0.499481 0.003906
0.003906 0.544647 0.003906
0.003906 0.544647 0.003906
0.005859 0.544647 0.003906
0.036011 0.544647 0.003906
0.070709 0.544647 0.003906
0.136322 0.544647 0.003906
0.199493 0.544647 0.003906
0.252472 0.544647 0.003906
0.304443 0.544647 0.003906
0.353516 0.544647 0.003906
0.402649 0.544647 0.003906
0.451843 0.544647 0.003906
0.499481 0.544647 0.003906
0.544647 0.544647 0.003906
0.586761 0.544647 0.003906
0.625122 0.544647 0.003906
0.661407 0.544647 0.003906
0.695709 0.544647 0.003906
0.727997 0.544647 0.003906
0.758759 0.544647 0.003906
0.786957 0.544647 0.003906
0.813690 0.544647 0.003906
0.838287 0.544647 0.003906
0.862000 0.544647 0.003906
0.882904 0.544647 0.003906
0.902954 0.544647 0.003906
0.920593 0.544647 0.003906
0.937744 0.544647 0.003906
0.953094 0.544647 0.003906
0.968231 0.544647 0.003906
0.982178 0.544647 0.003906
0.996094 0.544647 0.003906
0.003906 0.586761 0.003906
0.003906 0.586761 0.003906
0.005859 0.586761 0.003906
0.036011 0.586761 0.003906
0.070709 0.586761 0.003906
0.136322 0.586761 0.003906
0.199493 0.586761 0.003906
0.252472 0.586761 0.003906
0.304443 0.586761 0.003906
0.353516 0.586761 0.003906
0.402649 0.586761 0.003906
0.451843 0.586761 0.003906
0.499481 0.586761 0.003906
0.544647 0.586761 0.003906
0.586761 0.586761 0.003906
0.625122 0.586761 0.003906
0.661407 0.586761 0.003906
0.695709 0.586761 0.003906
0.727997 0.586761 0.003906
0.758759 0.586761 0.003906
0.786957 0.586761 0.003906
0.813690 0.586761 0.003906
0.838287 0.586761 0.003906
0.862000 0.586761 0.003906
0.882904 0.586761 0.003906
0.902954 0.586761 0.003906
0.920593 0.586761 0.003906
0.937744 0.586761 0.003906
0.953094 0.586761 0.003906
0.968231 0.586761 0.003906
0.982178 0.586761 0.003906
0.996094 0.586761 0.003906
0.003906 0.625122 0.003906
0.003906 0.625122 0.003906
0.005859 0.625122 0.003906
0.036011 0.625122 0.003906
0.070709 0.625122 0.003906
0.136322 0.625122 0.003906
0.199493 0.625122 0.003906
0.252472 0.625122 0.003906
0.304443 0.625122 0.003906
0.353516 0.625122 0.003906
0.402649 0.625122 0.003906
0.451843 0.625122 0.003906
0.499481 0.625122 0.003906
0.544647 0.625122 0.003906
0.586761 0.625122 0.003906
0.625122 0.625122 0.003906
0.661407 0.625122 0.003906
0.695709 0.625122 0.003906
0.727997 0.625122 0.003906
0.758759 0.625122 0.003906
0.786957 0.625122 0.003906
0.813690 0.625122 0.003906
0.838287 0.625122 0.003906
0.862000 0.625122 0.003906
0.882904 0.625122 0.003906
0.902954 0.625122 0.003906
0.920593 0.625122 0.003906
0.937744 0.625122 0.003906
0.953094 0.625122 0.003906
0.968231 0.625122 0.003906
0.982178 0.625122 0.003906
0.996094 0.625122 0.003906
0.003906 0.661407 0.003906
0.003906 0.661407 0.003906
0.005859 0.661407 0.003906
0.036011 0.661407 0.003906
0.070709 0.661407 0.003906
0.136322 0.661407 0.003906
0.199493 0.661407 0.003906
0.252472 0.661407 0.003906
0.304443 0.661407 0.003906
0.353516 0.661407 0.003906
0.402649 0.661407 0.003906
0.451843 0.661407 0.003906
0.499481 0.661407 0.003906
0.544647 0.661407 0.003906
0.586761 0.661407 0.003906
0.625122 0.661407 0.003906
0.661407 0.661407 0.003906
0.695709 0.661407 0.003906
0.727997 0.661407 0.003906
0.758759 0.661407 0.003906
0.786957 0.661407 0.003906
0.813690 0.661407 0.003906
0.838287 0.661407 0.003906
0.862000 0.661407 0.003906
0.882904 0.661407 0.003906
0.902954 0.661407 0.003906
0.920593 0.661407 0.003906
0.937744 0.661407 0.003906
0.953094 0.661407 0.003906
0.968231 0.661407 0.003906
0.982178 0.661407 0.003906
0.996094 0.661407 0.003906
0.003906 0.695709 0.003906
0.003906 0.695709 0.003906
0.005859 0.695709 0.003906
0.036011 0.695709 0.003906
0.070709 0.695709 0.003906
0.136322 0.695709 0.003906
0.199493 0.695709 0.003906
0.252472 0.695709 0.003906
0.304443 0.695709 0.003906
0.353516 0.695709 0.003906
0.402649 0.695709 0.003906
0.451843 0.695709 0.003906
0.499481 0.695709 0.003906
0.544647 0.695709 0.003906
0.586761 0.695709 0.003906
0.625122 0.695709 0.003906
0.661407 0.695709 0.003906
0.695709 0.695709 0.003906
0.727997 0.695709 0.003906
0.758759 0.695709 0.003906
0.786957 0.695709 0.003906
0.813690 0.695709 0.003906
0.838287 0.695709 0.003906
0.862000 0.695709 0.003906
0.882904 0.695709 0.003906
0.902954 0.695709 0.003906
0.920593 0.695709 0.003906
0.937744 0.695709 0.003906
0.953094 0.695709 0.003906
0.968231 0.695709 0.003906
0.982178 0.695709 0.003906
0.996094 0.695709 0.003906
0.003906 0.727997 0.003906
0.003906 0.727997 0.003906
0.005859 0.727997 0.003906
0.036011 0.727997 0.003906
0.070709 0.727997 0.003906
0.136322 0.727997 0.003906
0.199493 0.727997 0.003906
0.252472 0.727997 0.003906
0.304443 0.727997 0.003906
0.353516 0.727997 0.003906
0.402649 0.727997 0.003906
0.451843 0.727997 0.003906
0.499481 0.727997 0.003906
0.544647 0.727997 0.003906
0.586761 0.727997 0.003906
0.625122 0.727997 0.003906
0.661407 0.727997 0.003906
0.695709 0.727997 0.003906
0.727997 0.727997 0.003906
0.758759 0.727997 0.003906
0.786957 0.727997 0.003906
0.813690 0.727997 0.003906
0.838287 0.727997 0.003906
0.862000 0.727997 0.003906
0.882904 0.727997 0.003906
0.902954 0.727997 0.003906
0.920593 0.727997 0.003906
0.937744 0.727997 0.003906
0.953094 0.727997 0.003906
0.968231 0.727997 0.003906
0.982178 0.727997 0.003906
0.996094 0.727997 0.003906
0.003906 0.758759 0.003906
0.003906 0.758759 0.003906
0.005859 0.758759 0.003906
0.036011 0.758759 0.003906
0.070709 0.758759 0.003906
0.136322 0.758759 0.003906
0.199493 0.758759 0.003906
0.252472 0.758759 0.003906
0.304443 0.758759 0.003906
0.353516 0.758759 0.003906
0.402649 0.758759 0.003906
0.451843 0.758759 0.003906
0.499481 0.758759 0.003906
0.544647 0.758759 0.003906
0.586761 0.758759 0.003906
0.625122 0.758759 0.003906
0.661407 0.758759 0.003906
0.695709 0.758759 0.003906
0.727997 0.758759 0.003906
0.758759 0.758759 0.003906
0.786957 0.758759 0.003906
0.813690 0.758759 0.003906
0.838287 0.758759 0.003906
0.862000 0.758759 0.003906
0.882904 0.758759 0.003906
0.902954 0.758759 0.003906
0.920593 0.758759 0.003906
0.937744 0.758759 0.003906
0.953094 0.758759 0.003906
0.968231 0.758759 0.003906
0.982178 0.758759 0.003906
0.996094 0.758759 0.003906
0.003906 0.786957 0.003906
0.003906 0.786957 0.003906
0.005859 0.786957 0.003906
0.036011 0.786957 0.003906
0.070709 0.786957 0.003906
0.136322 0.786957 0.003906
0.199493 0.786957 0.003906
0.252472 0.786957 0.003906
0.304443 0.786957 0.003906
0.353516 0.786957 0.003906
0.402649 0.786957 0.003906
0.451843 0.786957 0.003906
0.499481 0.786957 0.003906
0.544647 0.786957 0.003906
0.586761 0.786957 0.003906
0.625122 0.786957 0.003906
0.661407 0.786957 0.003906
0.695709 0.786957 0.003906
0.727997 0.786957 0.003906
0.758759 0.786957 0.003906
0.786957 0.786957 0.003906
0.813690 0.786957 0.003906
0.838287 0.786957 0.003906
0.862000 0.786957 0.003906
0.882904 0.786957 0.003906
0.902954 0.786957 0.003906
0.920593 0.786957 0.003906
0.937744 0.786957 0.003906
0.953094 0.786957 0.003906
0.968231 0.786957 0.003906
0.982178 0.786957 0.003906
0.996094 0.786957 0.003906
0.003906 0.813690 0.003906
0.003906 0.813690 0.003906
0.005859 0.813690 0.003906
0.036011 0.813690 0.003906
0.070709 0.813690 0.003906
0.136322 0.813690 0.003906
0.199493 0.813690 0.003906
0.252472 0.813690 0.003906
0.304443 0.813690 0.003906
0.353516 0.813690 0.003906
0.402649 0.813690 0.003906
0.451843 0.813690 0.003906
0.499481 0.813690 0.003906
0.544647 0.813690 0.003906
0.586761 0.813690 0.003906
0.625122 0.813690 0.003906
0.661407 0.813690 0.003906
0.695709 0.813690 0.003906
0.727997 0.813690 0.003906
0.758759 0.813690 0.003906
0.786957 0.813690 0.003906
0.813690 0.813690 0.003906
0.838287 0.813690 0.003906
0.862000 0.813690 0.003906
0.882904 0.813690 0.003906
0.902954 0.813690 0.003906
0.920593 0.813690 0.003906
0.937744 0.813690 0.003906
0.953094 0.813690 0.003906
0.968231 0.813690 0.003906
0.982178 0.813690 0.003906
0.996094 0.813690 0.003906
0.003906 0.838287 0.003906
0.003906 0.838287 0.003906
0.005859 0.838287 0.003906
0.036011 0.838287 0.003906
0.070709 0.838287 0.003906
0.136322 0.838287 0.003906
0.199493 0.838287 0.003906
0.252472 0.838287 0.003906
0.304443 0.838287 0.003906
0.353516 0.838287 0.003906
0.402649 0.838287 0.003906
0.451843 0.838287 0.003906
0.499481 0.838287 0.003906
0.544647 0.838287 0.003906
0.586761 0.838287 0.003906
0.625122 0.838287 0.003906
0.661407 0.838287 0.003906
0.695709 0.838287 0.003906
0.727997 0.838287 0.003906
0.758759 0.838287 0.003906
0.786957 0.838287 0.003906
0.813690 0.838287 0.003906
0.838287 0.838287 0.003906
0.862000 0.838287 0.003906
0.882904 0.838287 0.003906
0.902954 0.838287 0.003906
0.920593 0.838287 0.003906
0.937744 0.838287 0.003906
0.953094 0.838287 0.003906
0.968231 0.838287 0.003906
0.982178 0.838287 0.003906
0.996094 0.838287 0.003906
0.003906 0.862000 0.003906
0.003906 0.862000 0.003906
0.005859 0.862000 0.003906
0.036011 0.862000 0.003906
0.070709 0.862000 0.003906
0.136322 0.862000 0.003906
0.199493 0.862000 0.003906
0.252472 0.862000 0.003906
0.304443 0.862000 0.003906
0.353516 0.862000 0.003906
0.402649 0.862000 0.003906
0.451843 0.862000 0.003906
0.499481 0.862000 0.003906
0.544647 0.862000 0.003906
0.586761 0.862000 0.003906
0.625122 0.862000 0.003906
0.661407 0.862000 0.003906
0.695709 0.862000 0.003906
0.727997 0.862000 0.003906
0.758759 0.862000 0.003906
0.786957 0.862000 0.003906
0.813690 0.862000 0.003906
0.838287 0.862000 0.003906
0.862000 0.862000 0.003906
0.882904 0.862000 0.003906
0.902954 0.862000 0.003906
0.920593 0.862000 0.003906
0.937744 0.862000 0.003906
0.953094 0.862000 0.003906
0.968231 0.862000 0.003906
0.982178 0.862000 0.003906
0.996094 0.862000 0.003906
0.003906 0.882904 0.003906
0.003906 0.882904 0.003906
0.005859 0.882904 0.003906
0.036011 0.882904 0.003906
0.070709 0.882904 0.003906
0.136322 0.882904 0.003906
0.199493 0.882904 0.003906
0.252472 0.882904 0.003906
0.304443 0.882904 0.003906
0.353516 0.882904 0.003906
0.402649 0.882904 0.003906
0.451843 0.882904 0.003906
0.499481 0.882904 0.003906
0.544647 0.882904 0.003906
0.586761 0.882904 0.003906
0.625122 0.882904 0.003906
0.661407 0.882904 0.003906
0.695709 0.882904 0.003906
0.727997 0.882904 0.003906
0.758759 0.882904 0.003906
0.786957 0.882904 0.003906
0.813690 0.882904 0.003906
0.838287 0.882904 0.003906
0.862000 0.882904 0.003906
0.882904 0.882904 0.003906
0.902954 0.882904 0.003906
0.920593 0.882904 0.003906
0.937744 0.882904 0.003906
0.953094 0.882904 0.003906
0.968231 0.882904 0.003906
0.982178 0.882904 0.003906
0.996094 0.882904 0.003906
0.003906 0.902954 0.003906
0.003906 0.902954 0.003906
0.005859 0.902954 0.003906
0.036011 0.902954 0.003906
0.070709 0.902954 0.003906
0.136322 0.902954 0.003906
0.199493 0.902954 0.003906
0.252472 0.902954 0.003906
0.304443 0.902954 0.003906
0.353516 0.902954 0.003906
0.402649 0.902954 0.003906
0.451843 0.902954 0.003906
0.499481 0.902954 0.003906
0.544647 0.902954 0.003906
0.586761 0.902954 0.003906
0.625122 0.902954 0.003906
0.661407 0.902954 0.003906
0.695709 0.902954 0.003906
0.727997 0.902954 0.003906
0.758759 0.902954 0.003906
0.786957 0.902954 0.003906
0.813690 0.902954 0.003906
0.838287 0.902954 0.003906
0.862000 0.902954 0.003906
0.882904 0.902954 0.003906
0.902954 0.902954 0.003906
0.920593 0.902954 0.003906
0.937744 0.902954 0.003906
0.953094 0.902954 0.003906
0.968231 0.902954 0.003906
0.982178 0.902954 0.003906
0.996094 0.902954 0.003906
0.003906 0.920593 0.003906
0.003906 0.920593 0.003906
0.005859 0.920593 0.003906
0.036011 0.920593 0.003906
0.070709 0.920593 0.003906
0.136322 0.920593 0.003906
0.199493 0.920593 0.003906
0.252472 0.920593 0.003906
0.304443 0.920593 0.003906
0.353516 0.920593 0.003906
0.402649 0.920593 0.003906
0.451843 0.920593 0.003906
0.499481 0.920593 0.003906
0.544647 0.920593 0.003906
0.586761 0.920593 0.003906
0.625122 0.920593 0.003906
0.661407 0.920593 0.003906
0.695709 0.920593 0.003906
0.727997 0.920593 0.003906
0.758759 0.920593 0.003906
0.786957 0.920593 0.003906
0.813690 0.920593 0.003906
0.838287 0.920593 0.003906
0.862000 0.920593 0.003906
0.882904 0.920593 0.003906
0.902954 0.920593 0.003906
0.920593 0.920593 0.003906
0.937744 0.920593 0.003906
0.953094 0.920593 0.003906
0.968231 0.920593 0.003906
0.982178 0.920593 0.003906
0.996094 0.920593 0.003906
0.003906 0.937744 0.003906
0.003906 0.937744 0.003906
0.005859 0.937744 0.003906
0.036011 0.937744 0.003906
0.070709 0.937744 0.003906
0.136322 0.937744 0.003906
0.199493 0.937744 0.003906
0.252472 0.937744 0.003906
0.304443 0.937744 0.003906
0.353516 0.937744 0.003906
0.402649 0.937744 0.003906
0.451843 0.937744 0.003906
0.499481 0.937744 0.003906
0.544647 0.937744 0.003906
0.586761 0.937744 0.003906
0.625122 0.937744 0.003906
0.661407 0.937744 0.003906
