Postproduction/IWLTBAP - Humble/LUTs by IWLTBAP (CUBE)/BONUS/8700/F-8700-VLOG.cube
# Copyright: (C) Copyright 2010-2017 by IWLTBAP SAS
# Cannot be resold, shared or otherwise redistributed
# Website: https://luts.iwltbap.com
TITLE "IWLTBAP 8700 (V-Log)"
LUT_3D_SIZE 33
0.062745 0.078431 0.086275
0.062745 0.078431 0.086275
0.062745 0.078431 0.086275
0.066667 0.078431 0.086275
0.070098 0.081863 0.089706
0.073897 0.082353 0.090196
0.078431 0.086275 0.090196
0.089338 0.090196 0.093260
0.100000 0.094118 0.094118
0.118260 0.098039 0.094118
0.134804 0.101961 0.094118
0.154167 0.105882 0.098039
0.180882 0.112255 0.098039
0.209314 0.116054 0.098039
0.236274 0.117647 0.098039
0.269240 0.121569 0.098039
0.303921 0.121569 0.098039
0.342524 0.127328 0.099877
0.378921 0.135049 0.107598
0.425245 0.142769 0.116912
0.483823 0.155882 0.126961
0.558578 0.171323 0.134681
0.643382 0.193137 0.143627
0.741544 0.224020 0.154044
0.812745 0.254902 0.160784
0.828309 0.274510 0.180392
0.832108 0.275245 0.180392
0.835294 0.278431 0.180392
0.839216 0.278431 0.180392
0.843137 0.282353 0.180392
0.843382 0.282598 0.180392
0.847059 0.286275 0.180392
0.850980 0.286275 0.180392
0.062745 0.078431 0.086275
0.062745 0.078431 0.086275
0.062745 0.081993 0.086275
0.066667 0.082230 0.090073
0.070098 0.082338 0.090181
0.073897 0.085559 0.090196
0.078431 0.089361 0.090196
0.089338 0.093164 0.094091
0.100000 0.096967 0.094118
0.118260 0.100770 0.094118
0.134804 0.104572 0.094118
0.154167 0.108375 0.098039
0.182307 0.112255 0.098039
0.209314 0.117597 0.098039
0.240074 0.119784 0.098039
0.269240 0.121569 0.098039
0.303921 0.125490 0.098039
0.344608 0.127328 0.099877
0.382789 0.138848 0.107598
0.429094 0.146691 0.115318
0.487623 0.158257 0.126961
0.559884 0.171323 0.134681
0.647304 0.193137 0.143627
0.742647 0.225123 0.150157
0.815686 0.258793 0.160784
0.831277 0.275341 0.180392
0.832108 0.278331 0.180392
0.839093 0.282230 0.180392
0.839216 0.282230 0.180392
0.843493 0.282709 0.180392
0.846944 0.286160 0.180392
0.850857 0.286275 0.180392
0.850980 0.290073 0.180392
0.062745 0.082108 0.086275
0.062745 0.082108 0.086275
0.066192 0.082338 0.089721
0.066667 0.082353 0.090196
0.070098 0.085570 0.090196
0.073897 0.086237 0.090196
0.078431 0.090150 0.093183
0.089338 0.094064 0.094118
0.100000 0.097059 0.094118
0.118260 0.100858 0.094118
0.134804 0.104657 0.094118
0.154167 0.109804 0.098039
0.182353 0.113725 0.098039
0.209314 0.117647 0.098039
0.240196 0.121569 0.098039
0.271078 0.123652 0.098039
0.307720 0.129167 0.098039
0.346446 0.131250 0.101831
0.384911 0.138970 0.107598
0.432843 0.146691 0.115318
0.489216 0.158333 0.125490
0.563848 0.172671 0.134681
0.651226 0.196982 0.143627
0.749142 0.227941 0.150123
0.819363 0.261581 0.160784
0.832231 0.278431 0.180392
0.835294 0.279166 0.180392
0.839216 0.282353 0.180392
0.843137 0.286275 0.180392
0.843505 0.286275 0.180392
0.847059 0.286520 0.180392
0.850980 0.290196 0.180392
0.854902 0.290196 0.180392
0.062745 0.082353 0.090196
0.062745 0.082353 0.090196
0.066422 0.082353 0.090196
0.066667 0.086275 0.090196
0.070098 0.086275 0.090196
0.073897 0.089583 0.090196
0.081618 0.090196 0.094118
0.089338 0.094118 0.094118
0.100000 0.098039 0.094118
0.118260 0.101961 0.094118
0.134804 0.105882 0.094118
0.154167 0.109804 0.098039
0.182353 0.116176 0.098039
0.209314 0.119976 0.098039
0.240196 0.123568 0.098039
0.271078 0.127378 0.098039
0.307843 0.129412 0.098039
0.348112 0.134804 0.101961
0.386765 0.140686 0.107598
0.434681 0.150613 0.115318
0.492999 0.159804 0.125490
0.567643 0.175245 0.134681
0.654780 0.197059 0.143627
0.749387 0.228940 0.150123
0.819608 0.262745 0.160784
0.836072 0.283131 0.180392
0.838917 0.285907 0.180392
0.842769 0.286275 0.180392
0.843137 0.289828 0.180392
0.847392 0.289863 0.180392
0.850635 0.290418 0.180392
0.854534 0.294118 0.180392
0.854902 0.294118 0.180392
0.062745 0.086275 0.090196
0.062745 0.086275 0.090196
0.066422 0.086275 0.090196
0.066667 0.086275 0.090196
0.070098 0.089706 0.093199
0.074433 0.093092 0.094041
0.084406 0.096814 0.094118
0.092770 0.097932 0.094118
0.104779 0.101838 0.096691
0.122794 0.105744 0.097549
0.142004 0.109651 0.097886
0.163603 0.113557 0.098039
0.187255 0.117463 0.098039
0.214139 0.121370 0.098039
0.243627 0.125276 0.098039
0.277941 0.129182 0.098039
0.313235 0.131373 0.098039
0.351976 0.135171 0.098529
0.394394 0.142892 0.104167
0.444072 0.150613 0.111887
0.502757 0.161948 0.123039
0.574954 0.176425 0.132430
0.661428 0.199908 0.142555
0.752343 0.231863 0.150123
0.823039 0.266667 0.163358
0.836152 0.283211 0.176578
0.839859 0.286275 0.180392
0.843137 0.289706 0.180392
0.846569 0.290196 0.180392
0.847427 0.293628 0.180392
0.851194 0.293658 0.180392
0.854902 0.297549 0.180392
0.858334 0.297549 0.180392
0.062745 0.093505 0.093505
0.066544 0.093505 0.094099
0.066667 0.093505 0.094118
0.066667 0.093505 0.094118
0.070588 0.094041 0.094118
0.077818 0.097426 0.094118
0.085540 0.100728 0.094118
0.096323 0.104412 0.096703
0.111152 0.105729 0.098039
0.127206 0.109632 0.098039
0.146377 0.113112 0.098039
0.168505 0.117436 0.098039
0.197656 0.120098 0.098039
0.224024 0.123897 0.096075
0.251348 0.125835 0.094731
0.284107 0.129412 0.094405
0.318995 0.133333 0.098039
0.361520 0.138806 0.098039
0.401838 0.146201 0.103676
0.449755 0.152577 0.111397
0.506740 0.163495 0.120971
0.577784 0.179167 0.132108
0.662799 0.200980 0.142402
0.758066 0.235344 0.150123
0.823530 0.269148 0.162745
0.839216 0.286275 0.176471
0.839951 0.287010 0.176471
0.847059 0.290196 0.176471
0.847059 0.290196 0.176471
0.850980 0.294118 0.176471
0.851225 0.294118 0.176716
0.854902 0.298039 0.180392
0.858824 0.298039 0.180392
0.066667 0.097304 0.094118
0.066667 0.100391 0.097204
0.066667 0.101180 0.097304
0.069853 0.101226 0.097304
0.070588 0.101226 0.097947
0.074510 0.105147 0.098039
0.084942 0.108333 0.097442
0.099510 0.109069 0.098039
0.114154 0.112990 0.098039
0.130920 0.113518 0.098039
0.150490 0.117417 0.098039
0.176095 0.121316 0.098039
0.201501 0.124755 0.098039
0.229779 0.127382 0.095711
0.259069 0.129090 0.094118
0.292034 0.131495 0.090931
0.326716 0.135294 0.094118
0.365319 0.140785 0.096347
0.408165 0.146814 0.099755
0.453852 0.154534 0.108211
0.514920 0.163725 0.119118
0.586642 0.180515 0.132108
0.671799 0.204672 0.142402
0.760945 0.236681 0.150123
0.827451 0.270589 0.159804
0.840074 0.287133 0.176471
0.843734 0.290793 0.179657
0.847059 0.293383 0.179657
0.850245 0.294118 0.179657
0.851348 0.297304 0.180392
0.854902 0.297350 0.180392
0.858824 0.301226 0.180392
0.862010 0.301961 0.180392
0.066667 0.108088 0.098039
0.066667 0.108919 0.098039
0.069730 0.108946 0.098039
0.070588 0.108946 0.098039
0.070588 0.112377 0.101103
0.074510 0.112867 0.101827
0.082315 0.116054 0.101103
0.101968 0.119853 0.098039
0.119394 0.120711 0.098039
0.137871 0.120711 0.098039
0.156840 0.123675 0.098039
0.179412 0.127501 0.098039
0.207031 0.131005 0.098039
0.234662 0.132475 0.095711
0.263725 0.133333 0.094118
0.298127 0.133333 0.090196
0.334436 0.136826 0.090196
0.370956 0.142612 0.092490
0.415939 0.146814 0.096691
0.461784 0.154534 0.105656
0.523774 0.167325 0.116667
0.595320 0.183088 0.131055
0.677183 0.207008 0.142402
0.763970 0.236887 0.146201
0.830392 0.273529 0.159038
0.842467 0.290196 0.176471
0.843872 0.290931 0.177329
0.847059 0.294118 0.177329
0.850980 0.294118 0.177329
0.854124 0.298039 0.177329
0.855094 0.298039 0.177329
0.858824 0.301961 0.177329
0.862745 0.301961 0.177329
0.069608 0.116667 0.100981
0.070557 0.119516 0.100981
0.070588 0.119608 0.101961
0.070588 0.119608 0.101961
0.074020 0.120589 0.101961
0.074510 0.124357 0.101961
0.081618 0.126900 0.101961
0.090012 0.128217 0.101195
0.123284 0.132108 0.095588
0.145833 0.129259 0.097212
0.165196 0.132353 0.098039
0.187132 0.134926 0.098039
0.214216 0.136274 0.098039
0.243045 0.140196 0.095711
0.274081 0.140196 0.091912
0.306495 0.140196 0.090196
0.342157 0.140686 0.088235
0.377297 0.144577 0.088634
0.421079 0.150735 0.092892
0.471936 0.159651 0.101807
0.531005 0.169485 0.116667
0.602390 0.184436 0.128829
0.684068 0.208824 0.138480
0.767892 0.239706 0.145374
0.833334 0.274265 0.156617
0.843780 0.290196 0.173530
0.846262 0.293321 0.176471
0.850000 0.297059 0.176471
0.850980 0.297059 0.176471
0.854902 0.298315 0.176471
0.855147 0.300980 0.176471
0.861765 0.301961 0.176471
0.862745 0.304902 0.176471
0.070588 0.132230 0.101961
0.070588 0.132230 0.101961
0.070588 0.132230 0.104779
0.074407 0.132230 0.105779
0.074510 0.132230 0.102451
0.076888 0.135980 0.104339
0.078431 0.138442 0.104779
0.085417 0.139832 0.101961
0.102604 0.145833 0.098192
0.151176 0.140866 0.094118
0.178432 0.140073 0.095221
0.198396 0.142647 0.098039
0.225459 0.143995 0.096278
0.254167 0.147917 0.094118
0.285049 0.147917 0.090679
0.316517 0.147917 0.088699
0.351287 0.147917 0.086275
0.384559 0.150341 0.086275
0.424877 0.152321 0.089093
0.477861 0.161723 0.100080
0.539093 0.171155 0.113434
0.612377 0.187010 0.128186
0.691689 0.208824 0.138480
0.774632 0.242835 0.145098
0.834314 0.274510 0.155882
0.843995 0.291299 0.169730
0.847059 0.294118 0.172549
0.850980 0.298039 0.172549
0.854902 0.298039 0.172549
0.855270 0.298407 0.172549
0.858824 0.301961 0.172549
0.862745 0.301961 0.172549
0.862745 0.305882 0.172549
0.070588 0.143872 0.105882
0.070588 0.143872 0.105882
0.074510 0.143872 0.105882
0.074510 0.143872 0.105882
0.074510 0.146232 0.105882
0.078240 0.147603 0.105882
0.080622 0.149985 0.105882
0.083311 0.151448 0.104925
0.093076 0.155637 0.101961
0.122565 0.158333 0.097158
0.184727 0.153401 0.091422
0.216230 0.151716 0.091422
0.239185 0.151716 0.091422
0.268382 0.154044 0.091422
0.296568 0.155637 0.090196
0.331372 0.155637 0.086275
0.364829 0.159559 0.086275
0.399548 0.160823 0.086275
0.436474 0.163970 0.090196
0.484436 0.167172 0.096209
0.549970 0.177175 0.110049
0.626294 0.191054 0.125069
0.702451 0.212745 0.138480
0.781250 0.243628 0.141521
0.837255 0.277451 0.152880
0.847649 0.294118 0.168627
0.849984 0.294118 0.168627
0.853676 0.298039 0.165931
0.854902 0.298039 0.165931
0.858824 0.298407 0.165931
0.859069 0.301961 0.165931
0.865441 0.301961 0.165931
0.866667 0.301961 0.165931
0.070588 0.155515 0.105882
0.074468 0.155515 0.105882
0.074510 0.155515 0.105882
0.074510 0.155515 0.105882
0.076762 0.157766 0.105882
0.078431 0.159226 0.103711
0.080522 0.159436 0.105882
0.082353 0.165368 0.105882
0.089216 0.168872 0.102941
0.102072 0.173051 0.099142
0.149119 0.173652 0.092226
0.221979 0.165127 0.087623
0.260325 0.162010 0.087623
0.284502 0.162810 0.086823
0.313136 0.163358 0.086275
0.344240 0.165441 0.086275
0.377696 0.168566 0.086275
0.413706 0.172407 0.089480
0.454657 0.177696 0.091322
0.502754 0.181618 0.095711
0.557491 0.183594 0.104442
0.633088 0.193968 0.121691
0.715441 0.216246 0.134559
0.788971 0.244731 0.139327
0.840166 0.277451 0.148039
0.849927 0.290196 0.162132
0.851463 0.290931 0.162132
0.854902 0.294118 0.162132
0.857476 0.294118 0.162132
0.859192 0.298039 0.162006
0.862906 0.298039 0.160784
0.866667 0.301961 0.158211
0.869240 0.301961 0.158211
0.074510 0.169608 0.108333
0.074510 0.169608 0.108333
0.074510 0.169608 0.109712
0.078063 0.169608 0.109804
0.078431 0.169608 0.108517
0.078431 0.171078 0.105882
0.080423 0.173530 0.105882
0.082353 0.176593 0.105882
0.087378 0.182476 0.104779
0.094485 0.188113 0.101961
0.121630 0.191912 0.095343
0.183854 0.190701 0.087623
0.270772 0.178370 0.082905
0.307460 0.173530 0.082353
0.332445 0.173530 0.082353
0.361566 0.177451 0.086275
0.395098 0.180882 0.088235
0.432230 0.185983 0.091345
0.474020 0.190931 0.094118
0.522932 0.198055 0.099035
0.581434 0.203431 0.103431
0.644148 0.205407 0.113128
0.724510 0.221814 0.128952
0.799510 0.250000 0.135493
0.841177 0.276838 0.144608
0.854289 0.294363 0.155560
0.860080 0.303400 0.154412
0.863726 0.306863 0.154412
0.865196 0.309313 0.154412
0.867785 0.309451 0.154412
0.869271 0.310784 0.154412
0.873039 0.313235 0.151961
0.875490 0.314706 0.151961
0.074510 0.181128 0.109804
0.074510 0.181128 0.109804
0.078186 0.184903 0.109804
0.078431 0.185049 0.109804
0.078431 0.185049 0.108410
0.080396 0.185049 0.108096
0.082353 0.185049 0.105882
0.082353 0.190215 0.105882
0.086275 0.193505 0.105882
0.093015 0.201226 0.102616
0.108816 0.207851 0.095343
0.149265 0.211454 0.091544
0.227083 0.207460 0.083824
0.319343 0.191510 0.082353
0.357108 0.188971 0.085578
0.383946 0.189817 0.087512
0.415993 0.193688 0.090196
0.454546 0.198652 0.094118
0.497020 0.206373 0.097143
0.546603 0.214093 0.101961
0.605392 0.222687 0.106755
0.668202 0.231315 0.109804
0.729312 0.232238 0.117042
0.802206 0.249223 0.131005
0.842157 0.278431 0.139032
0.862010 0.307824 0.147936
0.867104 0.316927 0.146691
0.870588 0.322304 0.145098
0.872917 0.322304 0.145098
0.874728 0.324782 0.144880
0.876938 0.326226 0.142769
0.880760 0.328554 0.142769
0.880760 0.330147 0.142769
0.074510 0.200490 0.112010
0.074510 0.200490 0.112010
0.078186 0.200490 0.112010
0.078431 0.200490 0.112010
0.078431 0.200490 0.110080
0.082353 0.200490 0.109804
0.082353 0.200490 0.106296
0.082353 0.200490 0.104542
0.086275 0.205147 0.105331
0.090196 0.212868 0.103064
0.099173 0.222794 0.097549
0.128676 0.229389 0.091544
0.184406 0.233242 0.086275
0.269914 0.226072 0.086275
0.373330 0.209299 0.086275
0.416246 0.206618 0.090196
0.441054 0.208334 0.093260
0.476838 0.213289 0.097128
0.518872 0.218857 0.100996
0.568382 0.228516 0.104863
0.629075 0.240104 0.108732
0.692670 0.253577 0.109804
0.755836 0.263879 0.110340
0.808073 0.261252 0.117295
0.843137 0.276471 0.131556
0.867149 0.325498 0.141176
0.870588 0.331618 0.138970
0.874510 0.333333 0.138970
0.875000 0.335539 0.138970
0.878431 0.335700 0.138970
0.878676 0.337393 0.138970
0.882353 0.339461 0.138970
0.884069 0.341176 0.138970
0.074510 0.218015 0.115809
0.078308 0.218015 0.115809
0.078431 0.218015 0.115809
0.078431 0.218015 0.115809
0.081863 0.218015 0.115809
0.082353 0.218015 0.112174
0.082353 0.216322 0.110195
0.084437 0.217559 0.108368
0.086275 0.219393 0.104504
0.089610 0.222672 0.105296
0.095382 0.234927 0.099265
0.114725 0.245240 0.091544
0.161075 0.251226 0.087056
0.226471 0.255637 0.086275
0.320144 0.247074 0.089162
0.433345 0.227811 0.092280
0.474081 0.228738 0.095160
0.502823 0.230641 0.099877
0.544118 0.236451 0.104848
0.593873 0.245822 0.108712
0.650858 0.258088 0.109804
0.715073 0.274246 0.109804
0.774755 0.291705 0.109804
0.823748 0.298476 0.106399
0.840594 0.279197 0.116820
0.865231 0.334525 0.129412
0.867058 0.335003 0.129412
0.870588 0.340073 0.129412
0.871078 0.340303 0.129412
0.874510 0.342107 0.129240
0.874755 0.344110 0.127574
0.878431 0.347916 0.127574
0.880515 0.347916 0.127574
0.074510 0.241177 0.127451
0.078308 0.241177 0.127451
0.078431 0.241177 0.127451
0.078431 0.241177 0.125491
0.082108 0.239461 0.120098
0.082353 0.237868 0.117953
0.085907 0.237255 0.115686
0.086275 0.237255 0.112622
0.086275 0.237255 0.108823
0.089645 0.237255 0.106434
0.092892 0.243260 0.103186
0.104473 0.257414 0.096752
0.140686 0.267892 0.089706
0.201348 0.274877 0.087071
0.270833 0.282598 0.092402
0.371997 0.272059 0.095037
0.493137 0.250980 0.096078
0.537806 0.252941 0.102880
0.569362 0.254657 0.106740
0.615870 0.263174 0.109804
0.674510 0.278186 0.112500
0.734314 0.294853 0.112377
0.792892 0.316054 0.109804
0.840258 0.334988 0.105882
0.852942 0.326960 0.106862
0.862745 0.369056 0.123958
0.864706 0.376838 0.125491
0.868627 0.380392 0.125491
0.868873 0.380882 0.125491
0.870772 0.384313 0.125674
0.872672 0.384436 0.127451
0.876470 0.388236 0.127451
0.878431 0.388236 0.127451
0.078431 0.268260 0.137009
0.078431 0.268260 0.137009
0.078431 0.268260 0.137009
0.082158 0.266372 0.135122
0.082353 0.266177 0.129657
0.084191 0.262580 0.127328
0.086275 0.262255 0.125636
0.087711 0.262255 0.121779
0.089675 0.258854 0.116544
0.090196 0.260417 0.112745
0.092892 0.258502 0.106457
0.097407 0.268363 0.102593
0.124295 0.281940 0.094807
0.178565 0.292279 0.090943
0.245711 0.304955 0.090196
0.317279 0.314457 0.099261
0.429167 0.302819 0.100796
0.560681 0.278918 0.101961
0.608104 0.280691 0.107598
0.644363 0.285539 0.109804
0.695021 0.298652 0.113725
0.751000 0.318647 0.112377
0.808333 0.341092 0.109804
0.853309 0.366422 0.105882
0.866942 0.371477 0.107322
0.869363 0.427888 0.137167
0.872426 0.436252 0.138603
0.876348 0.439828 0.138603
0.876348 0.441667 0.138603
0.880269 0.443922 0.142524
0.880384 0.445588 0.142524
0.884191 0.447671 0.142524
0.884191 0.449510 0.142524
0.080147 0.298774 0.154167
0.080147 0.298774 0.154167
0.082353 0.298774 0.154167
0.083908 0.298774 0.152612
0.085999 0.295129 0.146875
0.086275 0.294853 0.143015
0.089782 0.293138 0.139216
0.090196 0.290932 0.136282
0.091912 0.287990 0.131189
0.094118 0.285915 0.125621
0.094118 0.285294 0.118382
0.097281 0.283578 0.108946
0.107904 0.295987 0.101225
0.157882 0.310746 0.095833
0.221308 0.323284 0.094118
0.292402 0.341842 0.096201
0.370220 0.353676 0.106985
0.486236 0.342134 0.107475
0.630224 0.313435 0.105882
0.683624 0.317364 0.109804
0.719547 0.324356 0.112010
0.769731 0.344240 0.111251
0.820833 0.371860 0.109804
0.861030 0.397304 0.107598
0.876225 0.406618 0.110539
0.877083 0.478301 0.152934
0.880147 0.489139 0.156372
0.882621 0.491200 0.156372
0.884069 0.494853 0.158578
0.886436 0.495014 0.158578
0.888128 0.496707 0.158578
0.891912 0.500490 0.158578
0.891912 0.502696 0.158578
0.083946 0.333456 0.181250
0.083946 0.333456 0.178921
0.087768 0.333456 0.177329
0.087868 0.333456 0.171664
0.087868 0.333456 0.169486
0.090196 0.331128 0.163235
0.091491 0.329833 0.158318
0.093609 0.329025 0.154148
0.094118 0.325613 0.150460
0.097384 0.322139 0.143137
0.098039 0.318995 0.135417
0.099632 0.316724 0.124575
0.101088 0.315303 0.112009
0.127275 0.329412 0.101873
0.198690 0.347342 0.098736
0.268872 0.366655 0.098039
0.346201 0.386765 0.102328
0.424977 0.401470 0.114717
0.546737 0.394424 0.114874
0.698859 0.363955 0.106828
0.753431 0.365564 0.109804
0.788791 0.380637 0.109804
0.832843 0.408946 0.111397
0.869895 0.435949 0.111397
0.883946 0.454657 0.120435
0.883946 0.531637 0.171814
0.884682 0.539706 0.175735
0.887868 0.542892 0.175735
0.890196 0.545221 0.175735
0.891789 0.546814 0.179657
0.891935 0.547059 0.179657
0.895711 0.550735 0.179657
0.898039 0.550735 0.179657
0.091667 0.378921 0.205882
0.091667 0.378921 0.204458
0.091667 0.378921 0.202114
0.091667 0.378921 0.199740
0.094118 0.377451 0.196569
0.095359 0.375383 0.192050
0.095588 0.373529 0.186734
0.098039 0.371936 0.179611
0.099142 0.371078 0.175490
0.101272 0.367157 0.167770
0.103431 0.366146 0.161734
0.103431 0.362270 0.152328
0.106801 0.355944 0.135784
0.108808 0.355377 0.117999
0.154626 0.370742 0.105147
0.244332 0.394455 0.103431
0.319853 0.419118 0.103431
0.405714 0.444930 0.110018
0.487347 0.463327 0.122457
0.606404 0.467218 0.123575
0.763113 0.428983 0.110110
0.812761 0.432583 0.111274
0.844363 0.454412 0.115655
0.879703 0.485248 0.121278
0.892770 0.517035 0.141054
0.888603 0.590074 0.199019
0.891667 0.597334 0.201746
0.892280 0.598912 0.202941
0.895588 0.600980 0.202941
0.898177 0.602681 0.202941
0.899510 0.604902 0.202941
0.903431 0.604902 0.202941
0.903431 0.608823 0.202941
0.099387 0.434313 0.243382
0.099387 0.434313 0.239542
0.099387 0.434313 0.239461
0.099387 0.431982 0.232100
0.100735 0.431740 0.230438
0.102907 0.430603 0.224789
0.103309 0.431488 0.222426
0.103309 0.430687 0.215173
0.106250 0.427818 0.210999
0.107230 0.426850 0.203197
0.107230 0.422970 0.196201
0.111152 0.419975 0.185907
0.113603 0.415212 0.175230
0.115073 0.409804 0.158766
0.117969 0.404978 0.127382
0.194324 0.427413 0.111784
0.295282 0.458395 0.107904
0.377677 0.486746 0.108437
0.468972 0.517134 0.116567
0.551536 0.540253 0.130204
0.663435 0.553646 0.135371
0.812312 0.516487 0.124345
0.859000 0.526662 0.127259
0.889082 0.543371 0.132832
0.902328 0.570925 0.154320
0.896324 0.646814 0.220466
0.899387 0.651708 0.227451
0.899598 0.654010 0.227451
0.903309 0.657720 0.227451
0.903676 0.657847 0.227451
0.907230 0.659229 0.227451
0.908578 0.661642 0.227451
0.911152 0.661642 0.227451
0.112255 0.502451 0.292157
0.112255 0.502451 0.289545
0.112255 0.502451 0.289460
0.112255 0.502451 0.285899
0.112255 0.502451 0.280392
0.112255 0.502451 0.278118
0.114951 0.499035 0.270864
0.116176 0.498530 0.268628
0.116176 0.497304 0.260784
0.118114 0.496546 0.255637
0.120098 0.494225 0.247166
0.120098 0.491107 0.236328
0.123009 0.487224 0.227420
0.124020 0.482836 0.215311
0.127941 0.475889 0.194225
0.134321 0.471860 0.148453
0.236642 0.497672 0.120711
0.353761 0.535585 0.117609
0.443183 0.568382 0.117356
0.532590 0.600865 0.124257
0.619792 0.628217 0.138970
0.725368 0.646706 0.148514
0.858425 0.611535 0.142616
0.902696 0.613013 0.146324
0.910049 0.638358 0.169056
0.907108 0.704511 0.238335
0.907337 0.707353 0.244592
0.908754 0.710539 0.245588
0.911029 0.710539 0.245588
0.914951 0.710792 0.245588
0.914951 0.713312 0.245588
0.918873 0.714460 0.248284
0.918873 0.714460 0.248284
0.127696 0.579657 0.365073
0.127696 0.579657 0.362343
0.127696 0.579657 0.361152
0.127696 0.578657 0.356334
0.127696 0.575736 0.350490
0.128799 0.575736 0.346568
0.131618 0.575736 0.345672
0.131618 0.574632 0.337864
0.131894 0.572518 0.332567
0.132721 0.571813 0.325728
0.135539 0.571813 0.320343
0.136263 0.571090 0.312867
0.139461 0.567892 0.304213
0.142237 0.564419 0.289131
0.144002 0.558946 0.275490
0.147304 0.552547 0.249728
0.152635 0.551409 0.192953
0.272331 0.574609 0.136811
0.416996 0.618980 0.127696
0.513848 0.655024 0.127248
0.602206 0.683088 0.132629
0.688102 0.713971 0.147794
0.787309 0.737324 0.161129
0.901306 0.692631 0.159069
0.916942 0.719975 0.194056
0.916548 0.762006 0.248407
0.918957 0.765686 0.251471
0.919853 0.765686 0.252574
0.923775 0.765686 0.255392
0.924039 0.765686 0.255392
0.926662 0.765686 0.255461
0.927696 0.765686 0.256495
0.931618 0.768505 0.259314
0.143137 0.647059 0.453921
0.143137 0.647059 0.451073
0.143137 0.646079 0.450000
0.146079 0.646079 0.446170
0.146079 0.646079 0.441667
0.146079 0.642616 0.436213
0.147059 0.642157 0.431127
0.149357 0.642157 0.430392
0.150000 0.642157 0.422549
0.150705 0.641452 0.415932
0.153003 0.641177 0.411703
0.153921 0.638236 0.402022
0.154902 0.637255 0.393750
0.157843 0.633333 0.381618
0.160049 0.630392 0.370650
0.161765 0.625950 0.351133
0.165686 0.618137 0.323530
0.172365 0.614216 0.261673
0.292770 0.640135 0.159559
0.474694 0.680331 0.137837
0.577573 0.716054 0.137623
0.663878 0.746905 0.143535
0.754963 0.778738 0.159314
0.842280 0.795527 0.173254
0.918627 0.782598 0.213235
0.921446 0.825490 0.357138
0.924510 0.825490 0.373284
0.928432 0.824510 0.376471
0.928922 0.824510 0.380759
0.932353 0.824510 0.383333
0.936274 0.824510 0.387255
0.936305 0.824479 0.390227
0.937255 0.820588 0.391176
0.152941 0.683211 0.509804
0.152941 0.683211 0.509804
0.152941 0.683211 0.505882
0.152941 0.682353 0.502329
0.152941 0.679289 0.494715
0.152941 0.679289 0.494118
0.153638 0.679289 0.490196
0.156193 0.678619 0.487133
0.156863 0.675368 0.478431
0.156863 0.675368 0.470106
0.157453 0.674510 0.466667
0.160784 0.671446 0.458824
0.160784 0.668673 0.446614
0.163113 0.665196 0.438480
0.164706 0.661022 0.425238
0.167191 0.656740 0.407598
0.169056 0.649020 0.385846
0.178520 0.638235 0.347250
0.305392 0.706242 0.297679
0.442770 0.727941 0.287642
0.543015 0.743995 0.302819
0.634631 0.772304 0.319975
0.729289 0.809682 0.337477
0.818631 0.838603 0.313725
0.904933 0.812684 0.214889
0.917647 0.850980 0.527206
0.921569 0.850980 0.545259
0.922182 0.850980 0.547292
0.925490 0.850980 0.549985
0.926635 0.849835 0.551023
0.933333 0.847059 0.553799
0.933456 0.847059 0.554752
0.937255 0.847059 0.557721
0.152941 0.686275 0.509804
0.152941 0.686275 0.509804
0.152941 0.686275 0.505882
0.152941 0.683088 0.502329
0.152941 0.683088 0.501961
0.152941 0.682468 0.494731
0.156128 0.682353 0.489599
0.156863 0.679863 0.486972
0.156863 0.679166 0.479411
0.157391 0.679166 0.474510
0.159559 0.675245 0.466667
0.160784 0.674763 0.460172
0.160784 0.671323 0.450980
0.163411 0.668696 0.438480
0.164706 0.663480 0.426961
0.168627 0.657476 0.407943
0.170588 0.649387 0.385049
0.185148 0.644171 0.337500
0.327374 0.713971 0.299341
0.452520 0.731740 0.295152
0.556373 0.751256 0.313511
0.642019 0.776585 0.325123
0.736275 0.813480 0.346079
0.817769 0.839338 0.324717
