Postproduction/IWLTBAP - Humble/LUTs by IWLTBAP (CUBE)/BONUS/8700/F-8700-V2-VLOG.cube
# Copyright: (C) Copyright 2010-2017 by IWLTBAP SAS
# Cannot be resold, shared or otherwise redistributed
# Website: https://luts.iwltbap.com
TITLE "IWLTBAP 8700-V2 (V-Log)"
LUT_3D_SIZE 33
0.000000 0.000000 0.000000
0.000000 0.000000 0.000000
0.000000 0.000000 0.000000
0.000000 0.000000 0.000000
0.000000 0.000000 0.000000
0.000000 0.000000 0.000000
0.000000 0.000000 0.000000
0.003064 0.000000 0.000000
0.013725 0.002942 0.000000
0.035907 0.006740 0.000000
0.059068 0.011765 0.000000
0.086152 0.018260 0.003922
0.122059 0.025980 0.003922
0.156740 0.033701 0.005515
0.195344 0.037500 0.007843
0.232108 0.043137 0.009927
0.274510 0.049019 0.013725
0.320833 0.056740 0.017524
0.370588 0.064461 0.025245
0.432353 0.072181 0.036887
0.502451 0.089216 0.048529
0.593995 0.109926 0.061520
0.700735 0.139461 0.074265
0.814338 0.179167 0.088481
0.899020 0.221569 0.099020
0.914583 0.247059 0.121569
0.918382 0.247794 0.121569
0.921569 0.250980 0.121569
0.925490 0.250980 0.121569
0.929780 0.254902 0.121569
0.933578 0.255147 0.121569
0.937255 0.258824 0.125490
0.941176 0.258824 0.125490
0.000000 0.000000 0.000000
0.000000 0.000000 0.000000
0.000000 0.000000 0.000000
0.000000 0.000000 0.000000
0.000000 0.000000 0.000000
0.000000 0.000000 0.000000
0.000000 0.000000 0.000000
0.003064 0.002968 0.000000
0.013725 0.003891 0.000000
0.035907 0.007809 0.000000
0.059068 0.014376 0.000000
0.088645 0.022059 0.003922
0.122059 0.029780 0.003922
0.156740 0.033701 0.007770
0.195344 0.039162 0.007843
0.233946 0.045221 0.009927
0.276471 0.050980 0.013725
0.324755 0.056740 0.015686
0.376593 0.068260 0.025245
0.436152 0.076103 0.034559
0.506250 0.093015 0.048529
0.597794 0.109926 0.061520
0.701961 0.139461 0.074265
0.818260 0.183089 0.087412
0.901869 0.227359 0.099020
0.914583 0.247890 0.121569
0.918382 0.250880 0.121569
0.925367 0.254779 0.121569
0.929289 0.254779 0.121569
0.929780 0.255258 0.121569
0.933578 0.258709 0.121806
0.941053 0.262622 0.125490
0.941176 0.262622 0.125490
0.000000 0.000000 0.000000
0.000000 0.000000 0.000000
0.000000 0.000000 0.000000
0.000000 0.000000 0.000000
0.000000 0.000000 0.000000
0.000000 0.000000 0.000000
0.000000 0.000000 0.000000
0.003064 0.003868 0.000000
0.016483 0.006679 0.000000
0.038549 0.010486 0.000000
0.061596 0.015609 0.000000
0.090074 0.022181 0.003922
0.122059 0.029902 0.003922
0.159068 0.035294 0.007843
0.195344 0.041422 0.007843
0.236029 0.049012 0.011765
0.280269 0.054779 0.013725
0.328546 0.060662 0.015686
0.380392 0.068382 0.025245
0.439951 0.079779 0.033065
0.510141 0.093137 0.048529
0.601838 0.113848 0.061520
0.705806 0.143382 0.073116
0.821936 0.186765 0.087378
0.901961 0.228370 0.101777
0.918505 0.250980 0.121569
0.921569 0.251715 0.121569
0.925490 0.254902 0.121569
0.929412 0.258824 0.121569
0.933701 0.259192 0.121937
0.937255 0.262745 0.125490
0.941176 0.262745 0.125490
0.945098 0.266667 0.125490
0.000000 0.000000 0.000000
0.000000 0.000000 0.000000
0.000000 0.000000 0.000000
0.000000 0.000000 0.000000
0.000000 0.000000 0.000000
0.000000 0.000000 0.000000
0.000000 0.003922 0.000000
0.003064 0.003922 0.000000
0.016667 0.007843 0.000000
0.038725 0.011765 0.000000
0.062990 0.018382 0.003922
0.090074 0.026103 0.003922
0.124510 0.032123 0.003922
0.160662 0.039067 0.007843
0.199265 0.045136 0.007843
0.239755 0.049142 0.011765
0.282169 0.056679 0.013725
0.332231 0.064216 0.015686
0.382353 0.072097 0.025245
0.444118 0.080024 0.032966
0.515548 0.097059 0.048529
0.609314 0.117402 0.060298
0.712133 0.146936 0.073039
0.823181 0.189564 0.087378
0.905883 0.232353 0.101961
0.921282 0.255680 0.121569
0.922304 0.258525 0.121569
0.929412 0.262377 0.121569
0.932965 0.262377 0.125122
0.936922 0.263078 0.125490
0.937500 0.266322 0.125490
0.945098 0.270220 0.125490
0.948652 0.270220 0.125490
0.000000 0.000000 0.000000
0.000000 0.000000 0.000000
0.000000 0.000000 0.000000
0.000000 0.000000 0.000000
0.000000 0.000000 0.000000
0.000000 0.003845 0.000000
0.000000 0.006710 0.000000
0.005744 0.010417 0.000000
0.024020 0.011642 0.000000
0.045726 0.018015 0.003784
0.070190 0.021967 0.003922
0.100689 0.029535 0.004244
0.130882 0.035110 0.005392
0.168919 0.041253 0.006449
0.206127 0.046845 0.006342
0.246599 0.052573 0.008333
0.291666 0.056863 0.011765
0.339691 0.064583 0.012255
0.389982 0.072304 0.021538
0.455101 0.083946 0.029535
0.525306 0.098346 0.046078
0.616866 0.117769 0.057920
0.718781 0.147304 0.073039
0.826103 0.190932 0.084559
0.909314 0.235785 0.101961
0.922320 0.258441 0.121569
0.925735 0.259467 0.121569
0.929412 0.262745 0.125000
0.933333 0.266177 0.125490
0.937577 0.266544 0.125490
0.940931 0.270098 0.125490
0.945098 0.270588 0.125490
0.949020 0.274020 0.125490
0.000000 0.003309 0.000000
0.000000 0.003309 0.000000
0.000000 0.003309 0.000000
0.000000 0.003309 0.000000
0.000000 0.003309 0.000000
0.000000 0.006713 0.000000
0.000000 0.011152 0.000000
0.012634 0.017659 0.002585
0.031740 0.018995 0.003769
0.055075 0.023357 0.003922
0.078485 0.029535 0.003922
0.108333 0.033946 0.003922
0.145205 0.041054 0.003922
0.179293 0.043137 0.000364
0.214338 0.049265 0.003922
0.256576 0.053064 0.006292
0.301348 0.060784 0.009804
0.351267 0.068179 0.011765
0.401080 0.076225 0.017747
0.462749 0.087255 0.027079
0.532981 0.100980 0.042540
0.623617 0.121691 0.057598
0.720573 0.151226 0.073039
0.831963 0.194240 0.084559
0.909804 0.238603 0.100980
0.925490 0.259682 0.121569
0.926225 0.262745 0.121569
0.933333 0.262745 0.121569
0.937255 0.266667 0.121569
0.937623 0.267035 0.121569
0.941421 0.270588 0.121569
0.949020 0.270588 0.121569
0.949020 0.274510 0.121569
0.000000 0.010294 0.003187
0.000000 0.010294 0.003187
0.000000 0.010984 0.003187
0.000000 0.011030 0.003187
0.000000 0.014461 0.003830
0.000000 0.014951 0.003922
0.000000 0.022059 0.003187
0.013810 0.025858 0.003761
0.032353 0.029106 0.003922
0.055515 0.030638 0.006212
0.085784 0.035064 0.007108
0.116177 0.041054 0.007108
0.150705 0.046324 0.003922
0.187676 0.050245 0.001295
0.227374 0.050658 0.000000
0.266667 0.056595 0.002428
0.312255 0.062377 0.004657
0.357230 0.068505 0.008188
0.411274 0.079412 0.012087
0.468804 0.087868 0.023529
0.541391 0.102910 0.038695
0.631380 0.123039 0.053929
0.730147 0.154412 0.069118
0.836236 0.195749 0.084559
0.913725 0.240196 0.098040
0.926348 0.262745 0.121569
0.930147 0.266070 0.121569
0.936520 0.269853 0.121569
0.937255 0.269853 0.121569
0.941544 0.270887 0.121569
0.945297 0.273821 0.121569
0.952206 0.277696 0.121569
0.952941 0.277696 0.121569
0.000000 0.021813 0.006985
0.000000 0.021813 0.006985
0.000000 0.021813 0.006985
0.000000 0.024877 0.006985
0.000000 0.025735 0.006985
0.000000 0.029523 0.006985
0.000000 0.030354 0.006985
0.018087 0.037500 0.003922
0.040962 0.039124 0.004565
0.065319 0.042038 0.007843
0.092279 0.044976 0.007843
0.122867 0.048774 0.007843
0.157644 0.052573 0.005071
0.193854 0.056373 0.001593
0.231978 0.057966 0.000000
0.275245 0.058422 0.000000
0.320711 0.062316 0.000858
0.364951 0.069941 0.004780
0.418995 0.080147 0.009559
0.478554 0.091789 0.019730
0.554166 0.106051 0.038235
0.641153 0.125613 0.053676
0.737868 0.155147 0.069118
0.840070 0.198775 0.080637
0.917432 0.243138 0.097273
0.930082 0.265809 0.117647
0.933211 0.266667 0.118505
0.937255 0.270588 0.118505
0.940318 0.270588 0.118505
0.944320 0.270956 0.118505
0.945343 0.274510 0.118505
0.952941 0.278431 0.118505
0.956005 0.278431 0.118505
0.000000 0.037255 0.007843
0.000000 0.037255 0.007843
0.000000 0.037255 0.007843
0.000000 0.037255 0.007843
0.000000 0.041176 0.010784
0.000000 0.044945 0.010784
0.000000 0.048835 0.010784
0.002298 0.052083 0.007077
0.045833 0.053676 0.003922
0.073437 0.054749 0.003922
0.103248 0.056863 0.004596
0.134804 0.059773 0.004902
0.165686 0.061765 0.003922
0.205177 0.065288 0.001593
0.244363 0.065687 0.000000
0.285049 0.069148 0.000000
0.328431 0.069608 0.000000
0.374755 0.072426 0.000460
0.428431 0.083517 0.005637
0.491391 0.095129 0.015931
0.563235 0.108210 0.034682
0.651501 0.129534 0.051747
0.745343 0.159069 0.067892
0.847549 0.201991 0.079810
0.919853 0.246078 0.094117
0.932567 0.266667 0.114706
0.934068 0.269608 0.117647
0.940196 0.270588 0.117647
0.941176 0.273529 0.117647
0.945374 0.273897 0.117647
0.948285 0.277451 0.117647
0.952941 0.278431 0.117647
0.956863 0.281373 0.117647
0.000000 0.056618 0.015686
0.000000 0.056618 0.015686
0.000000 0.056618 0.015686
0.000000 0.059172 0.015686
0.000000 0.060401 0.012255
0.000000 0.063848 0.011765
0.000000 0.064461 0.011765
0.000000 0.068141 0.011765
0.020925 0.070496 0.007721
0.081511 0.070278 0.001896
0.118382 0.071423 0.001103
0.146067 0.071335 0.003922
0.180852 0.072993 0.002160
0.217279 0.075080 0.000000
0.257468 0.076846 0.000000
0.297086 0.077328 0.000000
0.341483 0.080699 0.000000
0.382475 0.081250 0.000000
0.433816 0.085655 0.000483
0.499510 0.096856 0.011029
0.575168 0.111642 0.030806
0.661753 0.133456 0.049755
0.756885 0.162646 0.064315
0.854477 0.204722 0.075923
0.923683 0.247059 0.093137
0.934191 0.266908 0.110907
0.937990 0.270588 0.113725
0.941176 0.270588 0.113725
0.945098 0.274510 0.113725
0.949020 0.274878 0.113725
0.949265 0.278431 0.113725
0.956863 0.278431 0.113725
0.956863 0.282353 0.113725
0.000000 0.072059 0.018382
0.000000 0.072059 0.018382
0.000000 0.072059 0.018382
0.000000 0.075612 0.018382
0.000000 0.075980 0.016023
0.000000 0.079481 0.011765
0.000000 0.082093 0.014461
0.000000 0.086887 0.014461
0.009743 0.087745 0.011520
0.048935 0.090441 0.004144
0.125689 0.086734 0.000000
0.164706 0.083824 0.000000
0.198039 0.084590 0.000000
0.235417 0.085049 0.000000
0.272503 0.087745 0.000000
0.313848 0.091667 0.000000
0.357721 0.093628 0.000000
0.401386 0.096163 0.000000
0.449418 0.099510 0.000000
0.507231 0.104427 0.004412
0.587745 0.119363 0.024479
0.677397 0.137500 0.047059
0.769501 0.165686 0.061275
0.861887 0.206618 0.072794
0.927451 0.250000 0.089216
0.937845 0.267525 0.107108
0.940686 0.270588 0.107108
0.945098 0.270588 0.107108
0.947794 0.274510 0.107108
0.951831 0.274878 0.106855
0.953186 0.278431 0.104412
0.959559 0.278431 0.103186
0.960784 0.282353 0.103186
0.000000 0.087500 0.019608
0.000000 0.087500 0.019608
0.000000 0.088848 0.019608
0.000000 0.091422 0.019608
0.000000 0.093673 0.018428
0.000000 0.095132 0.013515
0.000000 0.096691 0.015686
0.000000 0.101275 0.015686
0.003952 0.106127 0.014675
0.026459 0.109926 0.008567
0.081855 0.109980 0.001226
0.174376 0.104071 0.000000
0.223055 0.099265 0.000000
0.254657 0.099265 0.000000
0.294018 0.100023 0.000000
0.333211 0.103902 0.000000
0.376348 0.107108 0.000000
0.420673 0.112867 0.000000
0.470711 0.119240 0.000000
0.528922 0.122491 0.005515
0.596829 0.127344 0.015717
0.686765 0.140414 0.040686
0.782368 0.170412 0.058280
0.870577 0.209571 0.068149
0.930362 0.250000 0.084651
0.940686 0.266667 0.099387
0.944003 0.266667 0.099387
0.947672 0.270588 0.099387
0.951593 0.270588 0.096814
0.953182 0.274510 0.096688
0.955760 0.274510 0.095466
0.960784 0.278431 0.095466
0.963358 0.278431 0.095466
0.000000 0.106863 0.025980
0.000000 0.106863 0.025980
0.000000 0.109314 0.025980
0.000000 0.109314 0.025980
0.000000 0.109314 0.022242
0.000000 0.110784 0.016299
0.000000 0.112776 0.015410
0.000000 0.117770 0.015686
0.001103 0.124387 0.015686
0.017770 0.129289 0.008946
0.051042 0.135539 0.002911
0.126195 0.134329 0.000000
0.238909 0.119547 0.000000
0.283915 0.117157 0.000000
0.315778 0.114706 0.000000
0.354335 0.117938 0.000000
0.397059 0.123284 0.000000
0.444363 0.128309 0.000000
0.494516 0.136029 0.001716
0.553431 0.143750 0.007966
0.622671 0.152451 0.016238
0.697825 0.154305 0.028202
0.793627 0.176440 0.050980
0.882966 0.214047 0.062087
0.931373 0.250000 0.078554
0.944485 0.271369 0.091131
0.951930 0.282598 0.091207
0.957843 0.288235 0.089216
0.959314 0.288235 0.089216
0.962132 0.289936 0.089216
0.965778 0.292249 0.089124
0.969608 0.296079 0.087745
0.971078 0.296079 0.087745
0.000000 0.126226 0.027451
0.000000 0.126226 0.025858
0.000000 0.126226 0.025858
0.000000 0.128336 0.025858
0.000000 0.128554 0.023820
0.000000 0.130147 0.019857
0.000000 0.132039 0.018015
0.000000 0.134069 0.015686
0.000000 0.139185 0.015686
0.007885 0.148652 0.012868
0.033080 0.156372 0.005147
0.082296 0.161454 0.000000
0.180790 0.156342 0.000000
0.300471 0.139882 0.000000
0.347549 0.135087 0.000000
0.381361 0.135306 0.000000
0.423039 0.139154 0.000000
0.468149 0.146078 0.001092
0.522266 0.155392 0.005637
0.582545 0.165441 0.011765
0.652926 0.177956 0.018612
0.727328 0.186585 0.024077
0.798430 0.188503 0.034314
0.886765 0.215031 0.052451
0.935876 0.252543 0.070619
0.956127 0.288725 0.083437
0.961221 0.303132 0.080024
0.967034 0.306618 0.080024
0.967034 0.308946 0.080024
0.971323 0.309314 0.080024
0.974878 0.312867 0.080024
0.978799 0.314461 0.078431
0.978799 0.316789 0.078431
0.000000 0.150000 0.033579
0.000000 0.150000 0.033579
0.000000 0.149648 0.031511
0.000000 0.149510 0.031373
0.000000 0.148008 0.027941
0.000000 0.149510 0.025735
0.000000 0.149510 0.020022
0.000000 0.149992 0.016169
0.000000 0.156372 0.015686
0.004052 0.164093 0.014453
0.021232 0.175199 0.005147
0.058456 0.185662 0.000758
0.127635 0.188388 0.000000
0.238534 0.179910 0.000000
0.367968 0.162454 0.000000
0.419623 0.157843 0.000000
0.451961 0.160417 0.000000
0.495535 0.165318 0.004956
0.550245 0.173790 0.010800
0.609191 0.186274 0.016582
0.682353 0.201716 0.022457
0.755637 0.219363 0.023529
0.829856 0.230254 0.025245
0.891529 0.228646 0.035425
0.933334 0.250551 0.055515
0.963365 0.310294 0.074885
0.965441 0.319853 0.076225
0.968627 0.321569 0.076225
0.972549 0.323989 0.075950
0.972917 0.325697 0.074019
0.976716 0.327696 0.074019
0.980392 0.329412 0.072304
0.984314 0.331618 0.072304
0.000000 0.174877 0.041299
0.000000 0.173097 0.039461
0.000000 0.173039 0.039461
0.000000 0.173039 0.039461
0.000000 0.173039 0.033946
0.000000 0.170956 0.029822
0.000000 0.170956 0.026348
0.000000 0.170956 0.022549
0.000000 0.172794 0.016207
0.000000 0.177627 0.015686
0.011152 0.190525 0.008456
0.037500 0.204186 0.001348
0.098529 0.213312 0.000000
0.181139 0.216176 0.000000
0.300222 0.208226 0.000000
0.444378 0.185781 0.000000
0.492892 0.184804 0.004044
0.527213 0.186528 0.008705
0.579290 0.196201 0.015564
0.640196 0.208590 0.021201
0.708533 0.224877 0.024310
0.781882 0.243750 0.027451
0.854489 0.266912 0.023529
0.912622 0.276513 0.020125
0.930790 0.253186 0.037285
0.960784 0.321779 0.060662
0.961519 0.324977 0.058824
0.966789 0.328308 0.058824
0.968887 0.330392 0.058824
0.970883 0.330760 0.058824
0.972679 0.334314 0.058824
0.976471 0.338235 0.058824
0.980392 0.338235 0.058824
0.000000 0.203922 0.052941
0.000000 0.203922 0.051042
0.000000 0.203922 0.050980
0.000000 0.203922 0.050980
0.000000 0.200245 0.043628
0.000000 0.200000 0.039828
0.000000 0.196446 0.035662
0.000000 0.196078 0.030270
0.000000 0.198039 0.026471
0.000000 0.197488 0.020159
0.004044 0.205392 0.014951
0.026654 0.219485 0.006556
0.073039 0.235049 0.001961
0.149142 0.245466 0.000000
0.237133 0.252083 0.000000
0.366605 0.242647 0.002880
0.517647 0.217647 0.005882
0.572059 0.215686 0.012684
0.610049 0.220221 0.018505
0.666483 0.230637 0.023529
0.736030 0.248775 0.027451
0.804963 0.270711 0.027451
0.875123 0.298407 0.023529
0.932108 0.321814 0.019608
0.947059 0.311275 0.019117
0.957292 0.363603 0.045527
0.959559 0.372549 0.049019
0.964706 0.376470 0.049019
0.966912 0.376961 0.049265
0.968811 0.380392 0.050980
0.970833 0.380637 0.050980
0.974510 0.384314 0.050980
0.978432 0.386274 0.050980
0.000000 0.236642 0.064338
0.000000 0.236642 0.064338
0.000000 0.236642 0.064338
0.000000 0.236642 0.062450
0.000000 0.232981 0.056755
0.000000 0.232720 0.052899
0.000000 0.230882 0.049043
0.000000 0.228799 0.043750
0.000000 0.225398 0.036030
0.000000 0.226961 0.029412
0.000000 0.225046 0.020757
0.014442 0.236274 0.014951
0.052390 0.253018 0.004611
0.122561 0.268995 0.000747
0.206985 0.283265 0.000000
0.297185 0.293628 0.006005
0.435417 0.281127 0.009559
0.598675 0.252313 0.012626
0.655829 0.253362 0.020412
0.698774 0.259926 0.025122
0.761075 0.276961 0.027451
0.825490 0.300387 0.027451
0.893175 0.331740 0.023529
0.946446 0.361003 0.019608
0.963082 0.366912 0.022028
0.966946 0.436922 0.064897
0.969118 0.446078 0.068114
0.974387 0.449264 0.069608
0.976225 0.453186 0.069608
0.978481 0.453554 0.069803
0.980278 0.457223 0.071692
0.984068 0.461029 0.071692
0.986152 0.462868 0.073530
0.000000 0.276961 0.089216
0.000000 0.276961 0.089216
0.000000 0.275353 0.087607
0.000000 0.275245 0.085294
0.000000 0.273315 0.080147
0.000000 0.269731 0.074142
0.000000 0.269531 0.068627
0.000000 0.268743 0.063971
0.001716 0.263909 0.055454
0.003922 0.260179 0.046086
0.003922 0.259558 0.037745
0.005369 0.257843 0.023851
0.031281 0.271324 0.013572
0.093260 0.292157 0.004619
0.175980 0.308563 0.001716
0.267402 0.329588 0.006005
0.364583 0.342524 0.017647
0.508019 0.329879 0.020167
0.681954 0.300429 0.018367
0.745757 0.301187 0.024425
0.788327 0.310386 0.027451
0.847304 0.335539 0.027451
0.908333 0.366958 0.023529
0.959069 0.399502 0.022909
0.974265 0.411397 0.025245
0.975123 0.499625 0.086642
0.978922 0.510462 0.093627
0.982108 0.512523 0.093627
0.986029 0.516176 0.093627
0.986397 0.518099 0.093627
0.989951 0.520205 0.093872
0.993872 0.524019 0.097549
0.993872 0.525735 0.097549
0.000000 0.323284 0.124019
0.000000 0.323284 0.121691
0.000000 0.323284 0.120098
0.000000 0.321174 0.112990
0.000000 0.320956 0.109927
0.000000 0.317034 0.100739
0.000000 0.313412 0.096867
0.003413 0.313113 0.091751
0.003922 0.309773 0.083058
0.007188 0.306373 0.073445
0.007843 0.302574 0.061405
0.009436 0.299755 0.047737
0.014798 0.297289 0.027926
0.057721 0.313725 0.014215
0.144891 0.338480 0.007231
0.238235 0.362489 0.006752
0.333640 0.387194 0.014890
0.433065 0.401972 0.029190
0.580798 0.395604 0.031503
0.763844 0.360244 0.021500
0.827084 0.363235 0.024402
0.870964 0.380702 0.027451
0.922664 0.413357 0.027949
0.967237 0.447633 0.029044
0.984160 0.469026 0.040043
0.982843 0.561030 0.111171
0.985907 0.572671 0.118505
0.986520 0.575858 0.118868
0.989828 0.579779 0.120833
0.992306 0.580147 0.120833
0.993895 0.583701 0.120833
0.997671 0.587623 0.122427
1.000000 0.587623 0.122427
0.000000 0.376470 0.156373
0.001471 0.376470 0.156373
0.001471 0.376470 0.152696
0.001471 0.376470 0.148009
0.005209 0.376470 0.143321
0.005392 0.373162 0.139001
0.005392 0.372549 0.131311
0.006863 0.370634 0.126180
0.009314 0.367157 0.118505
0.012132 0.365119 0.106909
0.013235 0.360785 0.098775
0.017157 0.355760 0.085064
0.019608 0.349571 0.064216
0.026899 0.350475 0.036259
0.090901 0.367647 0.019516
0.202053 0.398009 0.013925
0.301961 0.426471 0.014461
0.406617 0.458165 0.025735
0.508609 0.479412 0.042647
0.653370 0.483395 0.044148
0.839093 0.443689 0.027757
0.897932 0.445680 0.028922
0.939246 0.471109 0.034069
0.978431 0.506740 0.040395
0.992647 0.544363 0.068015
0.990027 0.634145 0.149832
0.993627 0.641943 0.156158
0.993627 0.643520 0.157353
0.993627 0.647059 0.157353
0.996078 0.647427 0.157353
0.996170 0.650980 0.157506
1.000000 0.653431 0.159804
1.000000 0.654902 0.159804
0.010539 0.448775 0.205514
0.010539 0.446282 0.201716
0.010539 0.446201 0.201593
0.010539 0.444853 0.193992
0.014293 0.444853 0.189828
0.014461 0.441544 0.183211
0.017034 0.444600 0.180637
0.018382 0.441226 0.173384
0.020312 0.437347 0.165625
0.022304 0.437009 0.158835
0.024073 0.433088 0.146147
0.026225 0.427941 0.132817
0.027834 0.422671 0.115686
0.030147 0.416422 0.091487
0.043513 0.412722 0.051157
0.140261 0.437971 0.026857
0.271691 0.474142 0.022304
0.375348 0.509540 0.023510
0.485294 0.545933 0.035340
0.586339 0.574322 0.052819
0.724096 0.588557 0.060738
0.899514 0.546714 0.046798
0.957039 0.557230 0.050176
0.988971 0.578542 0.058701
0.997426 0.611519 0.085080
0.997989 0.700490 0.180955
1.000000 0.707958 0.186144
1.000000 0.710260 0.188235
1.000000 0.713970 0.188235
1.000000 0.715560 0.188235
1.000000 0.717892 0.188396
1.000000 0.719240 0.190809
1.000000 0.721813 0.190809
0.027206 0.531127 0.268382
0.027206 0.528515 0.264583
0.029902 0.528431 0.264461
0.031013 0.528431 0.258203
0.031128 0.528431 0.252696
0.031128 0.528431 0.249387
0.033824 0.525015 0.241942
0.035049 0.524510 0.239974
0.035049 0.520588 0.231863
0.037745 0.520588 0.224020
0.040824 0.517509 0.211627
0.041544 0.514897 0.200490
0.044577 0.509283 0.186519
0.046814 0.504895 0.166406
0.050199 0.499173 0.140793
0.064591 0.494975 0.079174
0.194485 0.525000 0.040196
0.344370 0.568589 0.035049
0.455637 0.607843 0.035003
0.565326 0.645948 0.045825
0.668658 0.678738 0.064920
0.795359 0.701364 0.078347
0.955622 0.660034 0.071186
0.998062 0.664461 0.075023
1.000000 0.690503 0.104289
1.000000 0.768750 0.202083
1.000000 0.774740 0.210800
1.000000 0.776157 0.212990
1.000000 0.778431 0.212990
1.000000 0.778799 0.213105
1.000000 0.782353 0.214216
1.000000 0.782353 0.214216
1.000000 0.782353 0.214216
0.050368 0.621078 0.360539
0.050368 0.621078 0.356740
0.051471 0.621078 0.356617
0.054289 0.620079 0.350697
0.054289 0.617509 0.341421
0.054289 0.617157 0.340931
0.057682 0.617157 0.337010
0.058211 0.617157 0.329166
0.058211 0.614216 0.322181
0.059314 0.613235 0.313350
0.062891 0.613235 0.305684
0.065085 0.610662 0.296568
0.066054 0.607552 0.284681
0.069976 0.601918 0.265437
0.072664 0.596446 0.245703
0.077819 0.594144 0.214162
0.092157 0.595343 0.138787
0.240089 0.618088 0.063733
0.423859 0.669478 0.051953
0.543382 0.709804 0.051513
0.647595 0.746936 0.058533
0.752819 0.783088 0.077451
0.870788 0.808479 0.094807
0.994010 0.758065 0.093195
1.000000 0.789828 0.137439
1.000000 0.839583 0.215319
1.000000 0.843505 0.218589
1.000000 0.843505 0.222304
1.000000 0.846324 0.223407
1.000000 0.846324 0.223407
1.000000 0.846324 0.223652
1.000000 0.846324 0.227329
1.000000 0.846324 0.228431
0.072549 0.703922 0.467647
0.072549 0.703922 0.464797
0.073529 0.702941 0.463725
0.076471 0.702941 0.457138
0.076471 0.702941 0.454044
0.077451 0.700460 0.445037
0.080392 0.700000 0.440931
0.080392 0.700000 0.440196
0.083334 0.699020 0.431373
0.084314 0.698315 0.422089
0.086336 0.698039 0.417586
0.087225 0.695098 0.403983
0.088236 0.691667 0.395711
0.091759 0.687867 0.379657
0.094363 0.684620 0.364828
0.099019 0.678891 0.341789
0.101961 0.672549 0.306372
0.116238 0.671017 0.229167
0.268382 0.696017 0.096323
0.493229 0.744669 0.065901
0.619853 0.786642 0.067647
0.723775 0.822396 0.073284
0.830944 0.859068 0.093873
0.933854 0.878738 0.111060
1.000000 0.866177 0.166667
1.000000 0.915686 0.356158
1.000000 0.915686 0.375490
1.000000 0.915686 0.379412
1.000000 0.915686 0.382476
1.000000 0.915410 0.383609
1.000000 0.911764 0.390196
1.000000 0.911764 0.390227
1.000000 0.911764 0.394118
0.082353 0.749020 0.537255
0.086275 0.749020 0.533333
0.086275 0.749020 0.529412
0.086275 0.749020 0.525858
0.086275 0.745956 0.514430
0.087133 0.745098 0.512867
0.090196 0.745098 0.506617
0.090196 0.745098 0.505882
0.091054 0.742034 0.494118
0.094118 0.739832 0.486895
0.094118 0.738113 0.482353
0.094118 0.737255 0.473652
0.098039 0.732276 0.458915
0.100368 0.729760 0.450245
0.101961 0.724142 0.431357
0.105882 0.716421 0.409436
0.107843 0.707843 0.382353
0.119907 0.698897 0.335275
0.281740 0.774625 0.272059
0.452328 0.800122 0.258598
0.577650 0.819976 0.275245
0.688308 0.852646 0.300368
0.802329 0.893260 0.319018
0.904293 0.929902 0.293015
0.996415 0.899939 0.169454
1.000000 0.945098 0.555515
1.000000 0.945098 0.576793
1.000000 0.945098 0.582108
1.000000 0.945098 0.582491
1.000000 0.944811 0.586030
1.000000 0.941176 0.589093
1.000000 0.941176 0.589951
1.000000 0.941176 0.589951
0.083088 0.749755 0.537255
0.086275 0.749755 0.533333
0.086275 0.749755 0.529412
0.086275 0.749755 0.525858
0.089706 0.749755 0.522059
0.090196 0.746446 0.511650
0.090196 0.745833 0.506617
0.090771 0.745833 0.505882
0.094118 0.745282 0.496079
0.094118 0.745098 0.491299
0.094118 0.741911 0.482353
0.094853 0.739338 0.473284
0.098039 0.737255 0.462745
0.100666 0.731740 0.450245
0.102375 0.727620 0.434804
0.106273 0.719830 0.409436
0.108211 0.708578 0.382353
0.132430 0.707307 0.323897
0.307522 0.783088 0.273683
0.465441 0.806250 0.266108
0.592157 0.827696 0.289001
0.698039 0.858456 0.305767
0.807123 0.900751 0.330162
