Postproduction/IWLTBAP - Humble/LUTs by IWLTBAP (CUBE)/BONUS/8700/F-8700-V2-VLOG.cube
# Copyright: (C) Copyright 2010-2017 by IWLTBAP SAS
# Cannot be resold, shared or otherwise redistributed
# Website: https://luts.iwltbap.com
TITLE "IWLTBAP 8700-V2 (V-Log)"
LUT_3D_SIZE 9
0.000000 0.000000 0.000000
0.000000 0.000000 0.000000
0.013725 0.002942 0.000000
0.122059 0.025980 0.003922
0.274510 0.049019 0.013725
0.502451 0.089216 0.048529
0.899020 0.221569 0.099020
0.925490 0.250980 0.121569
0.941176 0.258824 0.125490
0.000000 0.000000 0.000000
0.000000 0.000000 0.000000
0.024020 0.011642 0.000000
0.130882 0.035110 0.005392
0.291666 0.056863 0.011765
0.525306 0.098346 0.046078
0.909314 0.235785 0.101961
0.933333 0.266177 0.125490
0.949020 0.274020 0.125490
0.000000 0.037255 0.007843
0.000000 0.041176 0.010784
0.045833 0.053676 0.003922
0.165686 0.061765 0.003922
0.328431 0.069608 0.000000
0.563235 0.108210 0.034682
0.919853 0.246078 0.094117
0.941176 0.273529 0.117647
0.956863 0.281373 0.117647
0.000000 0.106863 0.025980
0.000000 0.109314 0.022242
0.001103 0.124387 0.015686
0.238909 0.119547 0.000000
0.397059 0.123284 0.000000
0.622671 0.152451 0.016238
0.931373 0.250000 0.078554
0.959314 0.288235 0.089216
0.971078 0.296079 0.087745
0.000000 0.203922 0.052941
0.000000 0.200245 0.043628
0.000000 0.198039 0.026471
0.073039 0.235049 0.001961
0.517647 0.217647 0.005882
0.736030 0.248775 0.027451
0.947059 0.311275 0.019117
0.966912 0.376961 0.049265
0.978432 0.386274 0.050980
0.000000 0.376470 0.156373
0.005209 0.376470 0.143321
0.009314 0.367157 0.118505
0.019608 0.349571 0.064216
0.301961 0.426471 0.014461
0.839093 0.443689 0.027757
0.992647 0.544363 0.068015
0.993627 0.647059 0.157353
1.000000 0.654902 0.159804
0.072549 0.703922 0.467647
0.076471 0.702941 0.454044
0.083334 0.699020 0.431373
0.088236 0.691667 0.395711
0.101961 0.672549 0.306372
0.619853 0.786642 0.067647
1.000000 0.866177 0.166667
1.000000 0.915686 0.382476
1.000000 0.911764 0.394118
0.086275 0.760784 0.537255
0.090196 0.757353 0.522059
0.094118 0.754289 0.496079
0.101961 0.745588 0.462745
0.112010 0.717892 0.384559
0.596569 0.837439 0.294118
0.988236 0.931863 0.191299
1.000000 0.953431 0.587745
1.000000 0.949510 0.579902
0.086275 0.772549 0.537255
0.093628 0.772549 0.522059
0.098039 0.768627 0.496079
0.105882 0.760784 0.466667
0.117647 0.729411 0.390196
0.607843 0.852941 0.300490
0.988236 0.950980 0.200000
1.000000 0.968137 0.591177
1.000000 0.960784 0.556863
0.000000 0.000000 0.003922
0.000000 0.000000 0.003922
0.013358 0.003799 0.011642
0.114216 0.025980 0.019118
0.264706 0.052941 0.028922
0.496078 0.097059 0.065196
0.895098 0.233211 0.118504
0.921569 0.262745 0.144608
0.937255 0.274020 0.144608
0.000000 0.000000 0.006924
0.000000 0.000000 0.010356
0.017693 0.014323 0.015196
0.122381 0.037707 0.022181
0.282322 0.062714 0.027237
0.521117 0.104902 0.061581
0.905883 0.247978 0.121078
0.929412 0.277512 0.144608
0.945098 0.285356 0.148530
0.000000 0.036397 0.025980
0.000000 0.043643 0.025996
0.050705 0.064461 0.020404
0.165426 0.068796 0.022732
0.330147 0.073529 0.009988
0.561811 0.112669 0.046247
0.919608 0.258701 0.114951
0.940196 0.285295 0.140686
0.953309 0.293137 0.140686
0.000000 0.116667 0.046569
0.000000 0.114813 0.042754
0.000000 0.125490 0.028416
0.243612 0.131625 0.004106
0.397947 0.129075 0.007843
0.626769 0.151784 0.021561
0.934390 0.262056 0.095374
0.957843 0.303615 0.117157
0.971078 0.311275 0.116850
0.000000 0.215441 0.083088
0.000000 0.213695 0.070588
0.000000 0.204350 0.041850
0.057751 0.240043 0.015686
0.523039 0.227206 0.009804
0.736765 0.256465 0.029902
0.947059 0.316850 0.023468
0.969117 0.382843 0.059283
0.980392 0.392157 0.060784
0.001471 0.395588 0.198836
0.005392 0.393712 0.188580
0.010279 0.385294 0.158058
0.019608 0.360417 0.089645
0.282537 0.427788 0.021078
0.838595 0.464109 0.039216
0.992647 0.559084 0.078983
0.996078 0.654718 0.176471
1.000000 0.662561 0.178615
0.076471 0.719485 0.510784
0.080392 0.718260 0.496814
0.084314 0.714307 0.473836
0.088236 0.704151 0.436290
0.101470 0.680882 0.341176
0.610677 0.787745 0.082935
1.000000 0.869853 0.177788
1.000000 0.918918 0.428738
1.000000 0.915686 0.439461
0.090196 0.772978 0.579412
0.094118 0.772978 0.567647
0.098039 0.768734 0.542785
0.101961 0.757353 0.505269
0.111765 0.729840 0.417371
0.591360 0.843543 0.316651
0.988236 0.935784 0.200444
1.000000 0.957292 0.619118
1.000000 0.952941 0.611275
0.093628 0.787745 0.579412
0.097120 0.787745 0.567647
0.101961 0.781250 0.538971
0.105882 0.772549 0.501348
0.117647 0.744608 0.422794
0.604780 0.859007 0.322610
0.988236 0.951961 0.216176
1.000000 0.968627 0.619118
1.000000 0.960784 0.592157
0.000000 0.000000 0.033333
0.000000 0.000000 0.030883
0.004657 0.007598 0.036520
0.100367 0.029902 0.046078
0.242157 0.058334 0.059804
0.473897 0.107843 0.093628
0.890197 0.247304 0.145098
0.917647 0.278431 0.171569
0.933333 0.289216 0.172549
0.000000 0.002574 0.034314
0.000000 0.006174 0.044562
0.007721 0.018229 0.044639
0.108287 0.041314 0.050000
0.255147 0.072549 0.065196
0.498407 0.119240 0.091131
0.901838 0.263266 0.148683
0.925122 0.290073 0.171936
0.940808 0.297916 0.171936
0.000000 0.030392 0.052941
0.000000 0.036888 0.055821
0.007598 0.050306 0.063910
0.131281 0.078462 0.066912
0.292034 0.101593 0.069485
0.550582 0.134038 0.082996
0.914951 0.274877 0.145649
0.934314 0.301961 0.171569
0.949020 0.309804 0.171569
0.000000 0.125000 0.094608
0.000000 0.128876 0.094240
0.002942 0.139001 0.090778
0.209589 0.156510 0.057123
0.395098 0.159436 0.056128
0.629764 0.145956 0.035356
0.932935 0.281372 0.126716
0.953922 0.320098 0.154412
0.967157 0.327941 0.151961
0.000000 0.238235 0.148529
0.000000 0.238235 0.138971
0.001103 0.241054 0.123897
0.037806 0.248591 0.055208
0.561275 0.270343 0.029902
0.746568 0.273652 0.037684
0.943505 0.302696 0.030882
0.978677 0.392157 0.093812
0.988236 0.400000 0.093627
0.009314 0.420098 0.264216
0.012623 0.418673 0.254503
0.014614 0.412255 0.224878
0.018459 0.387102 0.145175
0.249571 0.430024 0.028922
0.847013 0.489629 0.049709
0.992647 0.573683 0.091207
0.996078 0.668137 0.215687
1.000000 0.675980 0.214216
0.083578 0.737255 0.563725
0.084957 0.735325 0.551961
0.088236 0.732598 0.530882
0.092157 0.721844 0.488756
0.101470 0.694363 0.386642
0.596415 0.787745 0.099510
1.000000 0.876164 0.190932
1.000000 0.920557 0.475215
1.000000 0.919608 0.488480
0.094118 0.791299 0.629412
0.098039 0.788725 0.617770
0.101961 0.787377 0.598039
0.103416 0.776348 0.557843
0.111765 0.745527 0.461274
0.586259 0.850444 0.345588
0.988236 0.939706 0.215839
1.000000 0.957353 0.652574
1.000000 0.953431 0.645588
0.098039 0.802941 0.629412
0.101838 0.802941 0.617770
0.104902 0.800000 0.598039
0.105882 0.791544 0.553921
0.115686 0.759804 0.462745
0.598285 0.865686 0.349510
0.987500 0.954902 0.235294
1.000000 0.972059 0.652451
1.000000 0.964706 0.629412
0.000000 0.018137 0.095098
0.000000 0.018137 0.090380
0.000000 0.025367 0.080882
0.068628 0.041667 0.088726
0.220343 0.062746 0.089461
0.437255 0.119669 0.122120
0.875980 0.267279 0.185784
0.905882 0.296569 0.206373
0.921569 0.305882 0.210294
0.000000 0.025490 0.104596
0.000000 0.029412 0.105867
0.000965 0.036397 0.093137
0.074334 0.054588 0.097725
0.230545 0.079902 0.098529
0.458510 0.132966 0.129151
0.889645 0.283778 0.188281
0.913419 0.309620 0.210294
0.929412 0.319792 0.210601
0.000000 0.043995 0.102328
0.000000 0.049494 0.110661
0.000000 0.066422 0.135141
0.084957 0.085662 0.120956
0.253431 0.112868 0.119730
0.502359 0.156602 0.135723
0.902359 0.298621 0.189430
0.925490 0.324020 0.208824
0.941176 0.331863 0.208824
0.000000 0.099020 0.132843
0.000000 0.106120 0.139698
0.000000 0.120849 0.153140
0.063136 0.144401 0.162170
0.301716 0.182782 0.156097
0.600797 0.220014 0.142563
0.935064 0.345282 0.193459
0.945160 0.351041 0.209804
0.957843 0.358885 0.209804
0.000000 0.244608 0.220098
0.000000 0.250153 0.222549
0.002942 0.258333 0.222304
0.041697 0.280423 0.207782
0.452329 0.316299 0.122794
0.742739 0.352512 0.118382
0.958272 0.327758 0.073407
0.982353 0.410294 0.170098
0.992157 0.416176 0.170098
0.020159 0.447978 0.353432
0.022549 0.449510 0.347442
0.025689 0.448591 0.333195
0.054350 0.453661 0.279128
0.143168 0.465748 0.124019
0.862830 0.597626 0.106694
0.988955 0.615457 0.132996
0.993627 0.679963 0.270833
1.000000 0.687806 0.269914
0.092157 0.763235 0.638603
0.092157 0.762133 0.627589
0.094976 0.758211 0.609008
0.097610 0.749632 0.571599
0.102145 0.719056 0.462561
0.569424 0.783824 0.120450
1.000000 0.886428 0.217616
1.000000 0.927451 0.543428
1.000000 0.925368 0.553186
0.102267 0.810784 0.701470
0.105882 0.810784 0.687439
0.106725 0.808686 0.672718
0.109804 0.801409 0.638113
0.113725 0.775398 0.539461
0.563488 0.851961 0.368199
0.985294 0.947549 0.290334
1.000000 0.961274 0.702635
1.000000 0.957353 0.698530
0.105882 0.825980 0.701470
0.105882 0.823529 0.687439
0.109804 0.822059 0.668872
0.112255 0.814216 0.637194
0.116912 0.789951 0.536765
0.576409 0.869608 0.372120
0.985294 0.963726 0.319117
1.000000 0.972549 0.700000
1.000000 0.968627 0.680882
0.000000 0.054902 0.174509
0.000000 0.055147 0.170588
0.000000 0.060294 0.158824
0.020588 0.071078 0.152206
0.163725 0.086275 0.147059
0.412990 0.131127 0.152451
0.850000 0.291667 0.234314
0.884314 0.317647 0.254902
0.900000 0.327451 0.258823
0.000000 0.066176 0.189216
0.000000 0.066636 0.186213
0.000000 0.071630 0.170160
0.023192 0.081373 0.162745
0.171201 0.101470 0.157598
0.428830 0.145588 0.162990
0.860846 0.307353 0.244731
0.892157 0.335294 0.262745
0.907843 0.345098 0.268628
0.000000 0.079902 0.184314
0.000000 0.087439 0.194730
0.000000 0.100122 0.217034
0.026471 0.105392 0.191238
0.184804 0.126716 0.176225
0.459865 0.167218 0.175368
0.873652 0.325735 0.252574
0.903922 0.350981 0.270589
0.919608 0.358823 0.272549
0.000000 0.114215 0.200490
0.000000 0.117953 0.205699
0.000000 0.129718 0.224510
0.026011 0.158885 0.266820
0.214216 0.194363 0.231985
0.530392 0.256434 0.232353
0.908027 0.377206 0.274142
0.924020 0.384559 0.286030
0.939706 0.392402 0.286030
0.000000 0.185294 0.243137
0.000000 0.190196 0.248039
0.001471 0.206127 0.263235
0.031740 0.240564 0.297181
0.167647 0.291666 0.315686
0.623529 0.372426 0.289216
0.955637 0.499265 0.342647
0.970588 0.512745 0.360784
0.982353 0.517647 0.360784
0.029657 0.442402 0.434804
0.034069 0.453340 0.443045
0.038051 0.464583 0.445895
0.062286 0.495159 0.454504
0.121691 0.525735 0.407475
0.790717 0.642953 0.271109
0.982904 0.684988 0.319363
0.989706 0.698285 0.379902
0.997549 0.703432 0.380392
0.103431 0.794118 0.749510
0.105392 0.796078 0.744669
0.107353 0.796078 0.735294
0.109620 0.794608 0.712561
0.171324 0.781373 0.584559
0.483640 0.811091 0.326593
1.000000 0.913113 0.293382
1.000000 0.937684 0.639890
1.000000 0.934314 0.646569
0.113725 0.829657 0.796079
0.115931 0.831863 0.790901
0.117831 0.835478 0.786274
0.119853 0.833824 0.766177
0.167647 0.827696 0.647916
0.513971 0.859957 0.430392
0.985294 0.957353 0.405882
1.000000 0.968413 0.762684
1.000000 0.964706 0.758333
0.117647 0.843137 0.800000
0.119363 0.847059 0.796324
0.121569 0.847059 0.788235
0.122304 0.845833 0.767402
0.171569 0.840196 0.643137
0.530392 0.877696 0.430392
0.983824 0.969608 0.432843
1.000000 0.978186 0.758333
1.000000 0.972549 0.745098
0.000000 0.122059 0.306863
0.000000 0.125980 0.299326
0.000000 0.125368 0.287255
0.018137 0.125980 0.264277
0.063726 0.142157 0.255882
0.328983 0.163664 0.225858
0.822059 0.313113 0.288235
0.857353 0.337255 0.307353
0.873039 0.349020 0.315196
0.000000 0.135110 0.324632
0.000000 0.137255 0.319914
0.001471 0.137255 0.305683
0.022059 0.137630 0.280767
0.067494 0.153431 0.270098
0.343980 0.179350 0.237623
0.829764 0.331863 0.303431
0.861275 0.356863 0.324510
0.880882 0.368627 0.330882
0.000000 0.153431 0.355024
0.000000 0.158456 0.369715
0.005392 0.167525 0.357721
0.026394 0.166376 0.325689
0.075552 0.176471 0.299694
0.373269 0.201210 0.252466
0.841422 0.353340 0.322549
0.869118 0.376471 0.340196
0.888726 0.388235 0.348039
0.000000 0.169118 0.331312
0.000000 0.175559 0.342708
0.001471 0.193137 0.375383
0.031373 0.223813 0.433640
0.087990 0.225031 0.367157
0.440472 0.275674 0.310148
0.853600 0.379121 0.342479
0.890258 0.438725 0.396997
0.906863 0.448958 0.404841
0.000000 0.206863 0.357108
0.002543 0.214369 0.366759
0.006863 0.222059 0.381434
0.027911 0.251685 0.427880
0.089706 0.314583 0.521201
0.531679 0.411856 0.427727
0.909742 0.548284 0.502941
0.926470 0.555637 0.510539
0.941422 0.563480 0.517157
0.022549 0.323407 0.448468
0.027275 0.332598 0.457652
0.033717 0.343106 0.469409
0.056373 0.379672 0.509804
0.103738 0.445588 0.573989
0.494485 0.609030 0.619271
0.962592 0.724157 0.626532
0.976471 0.725184 0.631250
0.988235 0.729106 0.633639
0.110784 0.762745 0.808211
0.114706 0.766590 0.811535
0.118627 0.772059 0.813235
0.122549 0.781418 0.817387
0.164399 0.825797 0.840380
0.409574 0.873652 0.726333
0.999724 0.929534 0.447212
1.000000 0.941176 0.691253
1.000000 0.941176 0.697671
0.117647 0.788235 0.837071
0.121998 0.792157 0.839668
0.125490 0.799342 0.843321
0.129412 0.803921 0.845029
0.158088 0.838388 0.862439
0.368336 0.895520 0.764951
0.978309 0.966115 0.544485
1.000000 0.969117 0.788948
1.000000 0.968627 0.785294
0.121569 0.803431 0.848529
0.125490 0.807353 0.852451
0.129412 0.814583 0.854902
0.133333 0.820036 0.856373
0.162010 0.853676 0.871569
0.382843 0.908456 0.757047
0.978309 0.977451 0.562133
1.000000 0.980392 0.785294
1.000000 0.972549 0.774020
0.040196 0.279412 0.611765
0.043750 0.280392 0.609191
0.048775 0.283333 0.602696
0.056495 0.284313 0.589338
0.070588 0.278431 0.547059
0.185539 0.323529 0.528554
0.772059 0.392402 0.438235
0.826470 0.457843 0.507843
0.846078 0.468628 0.515686
0.041177 0.291177 0.630882
0.045098 0.294975 0.630882
0.051869 0.298530 0.625061
0.060279 0.299633 0.611841
0.074448 0.293689 0.567892
0.196507 0.339890 0.545512
0.779167 0.411765 0.463235
0.834314 0.478921 0.532843
0.853922 0.486764 0.540686
0.045098 0.312010 0.665931
0.048897 0.312745 0.662960
0.056801 0.325061 0.666912
0.066085 0.326318 0.652451
0.082108 0.320465 0.609069
0.217004 0.367954 0.574816
0.785294 0.433762 0.490809
0.845833 0.508824 0.566912
0.865441 0.516667 0.574510
0.031741 0.324755 0.678676
0.035891 0.328385 0.686382
0.050613 0.338450 0.701961
0.074020 0.373162 0.723039
0.093505 0.367218 0.678799
0.252252 0.415686 0.630009
0.796538 0.462990 0.525214
0.861397 0.552083 0.618995
0.880392 0.558211 0.624632
0.037255 0.353922 0.662255
0.042463 0.361029 0.671569
0.048407 0.372059 0.688235
0.060294 0.394792 0.727512
0.101470 0.437990 0.787990
0.326042 0.502757 0.727880
0.846568 0.577696 0.664093
0.882843 0.611275 0.687745
0.901961 0.617647 0.691666
0.053431 0.411397 0.702206
0.057889 0.419118 0.710539
0.061888 0.427083 0.719363
0.069118 0.439017 0.735447
0.099265 0.489706 0.792892
0.283931 0.601762 0.869348
0.908088 0.722028 0.805790
0.919730 0.718627 0.797672
0.934191 0.723162 0.800122
0.099019 0.616422 0.829166
0.102941 0.620343 0.833640
0.106862 0.625552 0.837561
0.110784 0.633487 0.844118
0.141054 0.670221 0.874020
0.234927 0.737990 0.912561
0.968260 0.965073 0.913297
0.993199 0.963970 0.908333
1.000000 0.966912 0.908333
0.106250 0.646446 0.845220
0.109804 0.650475 0.849020
0.114001 0.656342 0.853064
0.117877 0.661673 0.857215
0.142157 0.688665 0.878431
0.223039 0.751961 0.917463
0.941176 0.983701 0.911274
0.996078 0.984437 0.905837
1.000000 0.984437 0.902818
0.109804 0.661765 0.852941
0.113725 0.665687 0.856863
0.117647 0.671814 0.860785
0.121569 0.675367 0.864706
0.146079 0.701961 0.886275
0.223039 0.763235 0.924633
0.940686 0.994608 0.911765
0.996446 0.992157 0.901961
1.000000 0.989216 0.898039
0.050980 0.310294 0.667157
0.054902 0.313725 0.666667
0.058824 0.317647 0.666667
0.069118 0.329412 0.668444
0.084559 0.343137 0.664951
0.188725 0.393137 0.659620
0.760417 0.448039 0.543505
0.816176 0.517708 0.624448
0.835294 0.525490 0.631863
0.051409 0.321998 0.682353
0.057905 0.325436 0.684980
0.062745 0.332092 0.683594
0.072733 0.341153 0.689683
0.088450 0.355116 0.684069
0.200107 0.407514 0.677451
0.764706 0.462132 0.561152
0.823529 0.529902 0.640135
0.843137 0.537255 0.647059
0.051470 0.332475 0.697549
0.056082 0.334559 0.698407
0.066667 0.354933 0.715165
0.076961 0.364032 0.718122
0.096078 0.378125 0.711274
0.218091 0.431372 0.700888
0.775490 0.483333 0.589461
0.834436 0.549066 0.662040
0.853922 0.555883 0.667035
0.042157 0.335294 0.707843
0.048261 0.341176 0.714154
0.059927 0.355882 0.724816
0.080997 0.394914 0.761144
0.103186 0.408487 0.753830
0.254772 0.469179 0.737561
0.782889 0.503431 0.613986
0.847549 0.575184 0.692647
0.866667 0.582843 0.696752
0.050980 0.398284 0.741421
0.054902 0.402206 0.747059
0.058824 0.407905 0.754534
0.067157 0.415533 0.764706
0.106863 0.450490 0.809069
0.343965 0.541176 0.795098
0.839522 0.588726 0.716605
0.873039 0.617892 0.737959
0.890196 0.625490 0.743382
0.064216 0.451471 0.771875
0.068137 0.457008 0.775957
0.072059 0.463236 0.782047
0.075980 0.471079 0.789890
0.103922 0.507690 0.828278
0.276287 0.601723 0.880829
0.904902 0.718627 0.833333
0.917157 0.723039 0.833333
0.932353 0.729902 0.833333
0.101961 0.618627 0.852328
0.105882 0.622549 0.856311
0.109804 0.629412 0.860264
0.113725 0.633946 0.864170
0.128431 0.653922 0.880147
0.205392 0.721078 0.924387
0.967157 0.963970 0.937347
0.989583 0.964706 0.933456
1.000000 0.964706 0.930392
0.105882 0.639216 0.859743
0.109804 0.643627 0.863664
0.113725 0.647549 0.867586
0.117647 0.653615 0.871507
0.135294 0.674755 0.888940
0.216667 0.741935 0.930921
0.922120 0.975980 0.949173
0.992157 0.988235 0.933823
1.000000 0.988296 0.933333
0.109804 0.650980 0.866667
0.113725 0.654902 0.870588
0.117647 0.662622 0.874510
0.121569 0.666667 0.878431
0.139215 0.687990 0.896079
0.219118 0.751655 0.934804
0.919608 0.986275 0.951961
0.992647 0.996078 0.933333
1.000000 0.996078 0.929902
0.050980 0.321569 0.682353
0.054902 0.321569 0.682353
0.061765 0.328431 0.685294
0.070588 0.339706 0.690196
0.088235 0.350981 0.686275
0.183333 0.399510 0.677451
0.752942 0.462746 0.573529
0.812255 0.522059 0.643137
0.831373 0.529412 0.647059
0.054902 0.332843 0.697549
0.058824 0.336336 0.701042
0.065319 0.340686 0.701471
0.074510 0.352451 0.706985
0.092157 0.368137 0.703676
0.191177 0.414706 0.695282
0.760784 0.475490 0.590196
0.820098 0.533823 0.654902
0.839216 0.541176 0.658824
0.054902 0.341176 0.712745
0.058824 0.344975 0.713725
0.068873 0.362990 0.732353
0.078431 0.375491 0.736274
0.097549 0.386274 0.732353
0.208456 0.436274 0.718505
0.771568 0.493382 0.612745
0.830883 0.552083 0.674878
0.850980 0.556863 0.678431
0.044608 0.345098 0.723039
0.048529 0.349020 0.729412
0.062132 0.363725 0.740196
0.084804 0.404902 0.775000
0.105147 0.417402 0.770343
0.243198 0.473101 0.752941
0.779044 0.508456 0.634927
0.847549 0.576471 0.705882
0.865196 0.582843 0.708333
0.052941 0.405883 0.754902
0.056618 0.413480 0.762745
0.060784 0.415686 0.768628
0.068382 0.423284 0.778186
0.107843 0.457843 0.820588
0.332353 0.545098 0.809314
0.837255 0.589216 0.733333
0.872794 0.617892 0.752941
0.888235 0.623530 0.752941
0.068137 0.459314 0.783333
0.071875 0.464522 0.789399
0.075613 0.471079 0.797181
0.079902 0.478922 0.805392
0.104657 0.514215 0.840686
0.272610 0.604534 0.889768
0.902451 0.722549 0.849020
0.917157 0.726470 0.845098
0.928431 0.726470 0.841176
0.102941 0.621569 0.862745
0.106740 0.626348 0.867157
0.110539 0.632353 0.871323
0.114338 0.637255 0.875123
0.130392 0.654412 0.889706
0.204779 0.720710 0.931863
0.964706 0.966176 0.945098
0.988358 0.964706 0.941176
1.000000 0.964706 0.938235
0.105882 0.639216 0.866667
0.109804 0.643137 0.870588
0.113725 0.647549 0.877451
0.117647 0.653615 0.880882
0.135294 0.674755 0.896324
0.215380 0.740380 0.938725
0.921568 0.973039 0.957843
0.992157 0.988725 0.945098
1.000000 0.988725 0.941176
0.109804 0.647059 0.870588
0.113725 0.654902 0.874510
0.117647 0.658824 0.878431
0.121569 0.662745 0.882353
0.139215 0.684314 0.900000
0.219118 0.749510 0.938725
0.921568 0.983333 0.960784
0.992157 0.996078 0.945098
1.000000 0.996078 0.941176
