Postproduction/IWLTBAP - Humble/LUTs by IWLTBAP (CUBE)/BONUS/8700/F-8700-VLOG.cube
# Copyright: (C) Copyright 2010-2017 by IWLTBAP SAS
# Cannot be resold, shared or otherwise redistributed
# Website: https://luts.iwltbap.com
TITLE "IWLTBAP 8700 (V-Log)"
LUT_3D_SIZE 5
0.062745 0.078431 0.086275
0.100000 0.094118 0.094118
0.303921 0.121569 0.098039
0.812745 0.254902 0.160784
0.850980 0.286275 0.180392
0.069608 0.116667 0.100981
0.123284 0.132108 0.095588
0.342157 0.140686 0.088235
0.833334 0.274265 0.156617
0.862745 0.304902 0.176471
0.074510 0.241177 0.127451
0.086275 0.237255 0.108823
0.493137 0.250980 0.096078
0.852942 0.326960 0.106862
0.878431 0.388236 0.127451
0.143137 0.647059 0.453921
0.150000 0.642157 0.422549
0.165686 0.618137 0.323530
0.918627 0.782598 0.213235
0.937255 0.820588 0.391176
0.152941 0.705882 0.509804
0.160784 0.701961 0.475490
0.178431 0.668627 0.392157
0.891177 0.856863 0.233333
0.937255 0.862745 0.529412
0.062745 0.089216 0.116667
0.092157 0.100981 0.116667
0.271078 0.134804 0.136274
0.806863 0.277451 0.199019
0.840196 0.309804 0.219608
0.066667 0.112745 0.127696
0.093873 0.127451 0.139032
0.312745 0.164828 0.143015
0.828431 0.297794 0.198836
0.854902 0.328431 0.215686
0.078431 0.271569 0.202451
0.092770 0.271569 0.179902
0.530882 0.289951 0.113480
0.850980 0.319975 0.112132
0.889706 0.400000 0.155882
0.150981 0.674510 0.531128
0.154105 0.669792 0.505576
0.164215 0.638603 0.386765
0.918382 0.792341 0.232108
0.937255 0.828431 0.470833
0.160784 0.732353 0.586274
0.164706 0.728431 0.558823
0.176471 0.695588 0.446078
0.891177 0.861765 0.261030
0.933333 0.866667 0.586274
0.066667 0.131373 0.219608
0.083824 0.135294 0.207844
0.212745 0.152942 0.200000
0.770588 0.310784 0.267157
0.813725 0.341176 0.286274
0.066667 0.150490 0.227941
0.083824 0.165318 0.253922
0.228922 0.184069 0.221814
0.790196 0.340931 0.283579
0.829412 0.366667 0.298040
0.082353 0.227451 0.270588
0.092892 0.242402 0.287500
0.210294 0.310784 0.332843
0.860539 0.478677 0.351225
0.883333 0.494118 0.366667
0.166177 0.726471 0.691176
0.170098 0.728431 0.677451
0.216422 0.710049 0.545588
0.919608 0.823039 0.311642
0.932353 0.841176 0.602941
0.176471 0.768627 0.733333
0.180392 0.772549 0.723529
0.218627 0.762745 0.593137
0.886274 0.873530 0.431863
0.929412 0.874510 0.684314
0.119608 0.301960 0.571569
0.126470 0.303676 0.565441
0.140686 0.300000 0.516667
0.704657 0.391177 0.426716
0.768627 0.452941 0.494117
0.125735 0.327451 0.614951
0.132966 0.337929 0.616115
0.148407 0.334314 0.568627
0.717647 0.428615 0.471446
0.783333 0.492892 0.541177
0.118627 0.361765 0.613236
0.126470 0.375367 0.635294
0.163480 0.428186 0.718873
0.768505 0.545466 0.615686
0.812745 0.577451 0.637745
0.163235 0.574019 0.750735
0.169607 0.581863 0.759130
0.193382 0.619240 0.790441
0.870221 0.867034 0.823652
0.901961 0.868873 0.821814
0.172549 0.613725 0.774510
0.178677 0.620833 0.780637
0.198039 0.647059 0.800000
0.848284 0.894118 0.821569
0.912745 0.890196 0.811765
0.129412 0.337255 0.631373
0.137255 0.341176 0.631373
0.154902 0.358823 0.631373
0.689216 0.450981 0.542157
0.756863 0.505882 0.603922
0.133333 0.351961 0.657844
0.141176 0.368627 0.672794
0.162255 0.387745 0.670098
0.704902 0.476716 0.575490
0.771568 0.528431 0.627451
0.129412 0.401961 0.690196
0.135294 0.411764 0.703921
0.169608 0.446078 0.746079
0.761274 0.552941 0.670098
0.803922 0.582353 0.690196
0.165686 0.578432 0.781373
0.172549 0.588480 0.789216
0.187255 0.606863 0.803432
0.868872 0.868873 0.850980
0.898039 0.866667 0.844118
0.172549 0.600000 0.788235
0.176471 0.611765 0.796078
0.194117 0.633333 0.813725
0.832353 0.884314 0.866667
0.901961 0.898039 0.850980
