Postproduction/IWLTBAP - Humble/LUTs by IWLTBAP (CUBE)/BONUS/8700/F-8700-VLOG.cube
# Copyright: (C) Copyright 2010-2017 by IWLTBAP SAS
# Cannot be resold, shared or otherwise redistributed
# Website: https://luts.iwltbap.com
TITLE "IWLTBAP 8700 (V-Log)"
LUT_3D_SIZE 9
0.062745 0.078431 0.086275
0.070098 0.081863 0.089706
0.100000 0.094118 0.094118
0.180882 0.112255 0.098039
0.303921 0.121569 0.098039
0.483823 0.155882 0.126961
0.812745 0.254902 0.160784
0.839216 0.278431 0.180392
0.850980 0.286275 0.180392
0.062745 0.086275 0.090196
0.070098 0.089706 0.093199
0.104779 0.101838 0.096691
0.187255 0.117463 0.098039
0.313235 0.131373 0.098039
0.502757 0.161948 0.123039
0.823039 0.266667 0.163358
0.846569 0.290196 0.180392
0.858334 0.297549 0.180392
0.069608 0.116667 0.100981
0.074020 0.120589 0.101961
0.123284 0.132108 0.095588
0.214216 0.136274 0.098039
0.342157 0.140686 0.088235
0.531005 0.169485 0.116667
0.833334 0.274265 0.156617
0.850980 0.297059 0.176471
0.862745 0.304902 0.176471
0.074510 0.169608 0.108333
0.078431 0.169608 0.108517
0.087378 0.182476 0.104779
0.270772 0.178370 0.082905
0.395098 0.180882 0.088235
0.581434 0.203431 0.103431
0.841177 0.276838 0.144608
0.865196 0.309313 0.154412
0.875490 0.314706 0.151961
0.074510 0.241177 0.127451
0.082108 0.239461 0.120098
0.086275 0.237255 0.108823
0.140686 0.267892 0.089706
0.493137 0.250980 0.096078
0.674510 0.278186 0.112500
0.852942 0.326960 0.106862
0.868873 0.380882 0.125491
0.878431 0.388236 0.127451
0.091667 0.378921 0.205882
0.094118 0.377451 0.196569
0.099142 0.371078 0.175490
0.106801 0.355944 0.135784
0.319853 0.419118 0.103431
0.763113 0.428983 0.110110
0.892770 0.517035 0.141054
0.895588 0.600980 0.202941
0.903431 0.608823 0.202941
0.143137 0.647059 0.453921
0.146079 0.646079 0.441667
0.150000 0.642157 0.422549
0.154902 0.637255 0.393750
0.165686 0.618137 0.323530
0.577573 0.716054 0.137623
0.918627 0.782598 0.213235
0.928922 0.824510 0.380759
0.937255 0.820588 0.391176
0.152941 0.694608 0.509804
0.153370 0.691115 0.501532
0.157353 0.687623 0.479044
0.164706 0.678921 0.450980
0.172794 0.657108 0.388235
0.560294 0.759313 0.315012
0.892034 0.841667 0.228431
0.922059 0.859314 0.552941
0.937255 0.854902 0.545098
0.152941 0.705882 0.509804
0.156863 0.705882 0.498529
0.160784 0.701961 0.475490
0.168627 0.694118 0.447059
0.178431 0.668627 0.392157
0.568137 0.773039 0.318627
0.891177 0.856863 0.233333
0.921569 0.870588 0.559804
0.937255 0.862745 0.529412
0.062745 0.078431 0.093628
0.066667 0.082353 0.094118
0.096936 0.097059 0.101838
0.174510 0.112255 0.105882
0.294118 0.127451 0.111519
0.477757 0.162255 0.138725
0.811765 0.263603 0.176348
0.835294 0.290196 0.196078
0.847059 0.297549 0.199510
0.062745 0.086275 0.097120
0.069723 0.089652 0.097871
0.100429 0.101838 0.104534
0.180331 0.119792 0.107008
0.305851 0.135294 0.110018
0.498836 0.167463 0.135233
0.822182 0.277512 0.178600
0.842708 0.301042 0.199510
0.854473 0.308885 0.199510
0.066667 0.119608 0.109681
0.073269 0.123162 0.111948
0.127298 0.138357 0.106219
0.212990 0.140732 0.109314
0.340686 0.144118 0.098039
0.529580 0.171568 0.124862
0.832598 0.285846 0.173162
0.850000 0.308456 0.195588
0.859192 0.313602 0.194730
0.070588 0.173530 0.121385
0.078247 0.173530 0.119041
0.086505 0.182476 0.113602
0.276218 0.185838 0.091184
0.396385 0.186029 0.094118
0.583824 0.203431 0.107353
0.844118 0.286627 0.157353
0.863726 0.320772 0.177451
0.875490 0.326287 0.173530
0.074510 0.252696 0.150245
0.080147 0.250950 0.141176
0.086275 0.242034 0.120282
0.126716 0.272947 0.101225
0.498652 0.257475 0.100000
0.676471 0.282108 0.113725
0.854902 0.330882 0.107353
0.870833 0.385018 0.131373
0.880392 0.392402 0.135049
0.095098 0.394118 0.238909
0.095588 0.392869 0.230246
0.099510 0.386275 0.205392
0.106801 0.365319 0.155936
0.305576 0.419700 0.107353
0.763787 0.444937 0.117034
0.891789 0.527834 0.149142
0.895588 0.608823 0.218137
0.903431 0.616177 0.218137
0.147059 0.658823 0.488725
0.149311 0.657475 0.478845
0.150981 0.653922 0.457445
0.154902 0.646967 0.426562
0.165686 0.628186 0.351961
0.569348 0.716054 0.142156
0.918627 0.786275 0.221661
0.928554 0.828385 0.421109
0.937255 0.825368 0.432108
0.156863 0.706311 0.544608
0.156863 0.705507 0.536336
0.160784 0.699387 0.514583
0.164706 0.693850 0.481740
0.172794 0.668627 0.415196
0.555354 0.764928 0.334498
0.892157 0.845588 0.236168
0.922059 0.862316 0.579902
0.933823 0.855392 0.572059
0.156863 0.717647 0.544608
0.160784 0.717647 0.536336
0.164706 0.713725 0.511520
0.168627 0.705882 0.478125
0.176716 0.681863 0.417157
0.565074 0.776961 0.338419
0.891177 0.860784 0.244976
0.918137 0.874020 0.583334
0.937255 0.866667 0.556863
0.062745 0.089216 0.116667
0.066667 0.090196 0.113235
0.092157 0.100981 0.116667
0.164216 0.112255 0.125122
0.271078 0.134804 0.136274
0.456373 0.170098 0.160171
0.806863 0.277451 0.199019
0.827451 0.301961 0.218628
0.840196 0.309804 0.219608
0.062745 0.092770 0.116667
0.066667 0.096370 0.123162
0.093689 0.105545 0.124020
0.171569 0.121385 0.129289
0.283088 0.143137 0.140196
0.477267 0.177635 0.160171
0.818137 0.289461 0.201685
0.835294 0.312745 0.218628
0.847917 0.317524 0.218995
0.066667 0.112745 0.127696
0.073162 0.117310 0.131311
0.093873 0.127451 0.139032
0.188205 0.147948 0.139951
0.312745 0.164828 0.143015
0.522733 0.189093 0.152328
0.828431 0.297794 0.198836
0.843137 0.321569 0.218628
0.854902 0.328431 0.215686
0.070588 0.185294 0.163358
0.076976 0.188235 0.162378
0.090196 0.195251 0.157812
0.251685 0.205270 0.131280
0.394608 0.210417 0.132721
0.587086 0.197534 0.117540
0.842187 0.303922 0.184712
0.859804 0.336152 0.206863
0.869730 0.341789 0.205392
0.078431 0.271569 0.202451
0.082108 0.271569 0.196078
0.092770 0.271569 0.179902
0.113358 0.278370 0.131618
0.530882 0.289951 0.113480
0.683762 0.295650 0.117647
0.850980 0.319975 0.112132
0.880637 0.392402 0.154412
0.889706 0.400000 0.155882
0.099510 0.414216 0.290196
0.102451 0.413236 0.284053
0.103431 0.408027 0.259160
0.105652 0.387255 0.194256
0.279044 0.420711 0.111274
0.770098 0.466529 0.125291
0.890686 0.539246 0.157782
0.895588 0.619608 0.249510
0.903431 0.625980 0.248039
0.150981 0.674510 0.531128
0.152911 0.673530 0.522641
0.154105 0.669792 0.505576
0.157843 0.661305 0.471109
0.164215 0.638603 0.386765
0.558793 0.715686 0.158824
0.918382 0.792341 0.232108
0.928432 0.829411 0.461796
0.937255 0.828431 0.470833
0.160784 0.720711 0.586274
0.160784 0.718137 0.578431
0.164706 0.716789 0.559804
0.164706 0.707475 0.526333
0.172549 0.682108 0.446078
0.550383 0.770282 0.355882
0.892157 0.849387 0.246477
0.921676 0.863220 0.606863
0.933333 0.858824 0.602451
0.160784 0.732353 0.586274
0.164706 0.732353 0.575858
0.164706 0.728431 0.558823
0.168627 0.720956 0.522549
0.176471 0.695588 0.446078
0.561887 0.783333 0.357966
0.891177 0.861765 0.261030
0.918137 0.874510 0.610172
0.933333 0.866667 0.586274
0.062745 0.104412 0.161765
0.066667 0.105882 0.158027
0.084191 0.109804 0.151471
0.140686 0.124020 0.155392
0.255637 0.135294 0.156128
0.426471 0.179412 0.183395
0.792647 0.293750 0.231863
0.817157 0.317647 0.245588
0.831373 0.325490 0.249510
0.062745 0.111764 0.165380
0.066828 0.113380 0.168689
0.085294 0.117065 0.158731
0.145588 0.131487 0.161941
0.263388 0.149847 0.163725
0.440993 0.189514 0.187975
0.803600 0.307046 0.232843
0.826961 0.329228 0.249510
0.838910 0.335478 0.249510
0.066667 0.123039 0.165073
0.070542 0.126961 0.172641
0.083456 0.138266 0.191421
0.153784 0.154182 0.178860
0.279596 0.172917 0.179902
0.479810 0.206480 0.191375
0.815380 0.318505 0.234222
0.835294 0.337255 0.249510
0.847059 0.343627 0.248039
0.070588 0.162684 0.186765
0.074510 0.166605 0.192149
0.086045 0.179289 0.203048
0.133701 0.197082 0.211849
0.319945 0.227390 0.207813
0.564262 0.254734 0.195795
0.842417 0.354596 0.237179
0.851961 0.360355 0.248039
0.863726 0.365748 0.247488
0.082353 0.277206 0.259314
0.085386 0.282200 0.259804
0.093444 0.287745 0.262439
0.120864 0.305453 0.247457
0.444240 0.328799 0.179167
0.682629 0.360355 0.173989
0.863971 0.338848 0.139583
0.884314 0.405638 0.215931
0.892892 0.410294 0.215931
0.107353 0.440196 0.364644
0.109804 0.440196 0.358464
0.111274 0.439277 0.345879
0.131288 0.441728 0.300268
0.192647 0.452482 0.181127
0.782108 0.558065 0.169608
0.887745 0.575858 0.187760
0.895588 0.628431 0.295282
0.903431 0.634436 0.294363
0.157843 0.697059 0.594117
0.158456 0.695588 0.584896
0.158824 0.691759 0.569301
0.161765 0.685064 0.538496
0.165135 0.659191 0.447978
0.536152 0.712178 0.181066
0.920589 0.802022 0.253677
0.925000 0.836229 0.517709
0.936274 0.832353 0.524755
0.167157 0.739889 0.646568
0.168627 0.737561 0.636436
0.168627 0.736045 0.623100
0.168933 0.730522 0.594975
0.172549 0.706709 0.510049
0.531441 0.773345 0.373039
0.891177 0.856986 0.310294
0.918137 0.866935 0.649287
0.933333 0.862745 0.645098
0.168627 0.751471 0.646568
0.168627 0.749020 0.634130
0.172549 0.747549 0.621201
0.172549 0.742095 0.592524
0.176471 0.720833 0.506128
0.541544 0.787255 0.375490
0.890196 0.869608 0.338725
0.917647 0.878247 0.649019
0.933333 0.870588 0.629902
0.066667 0.131373 0.219608
0.070343 0.131373 0.215932
0.083824 0.135294 0.207844
0.105637 0.143137 0.203922
0.212745 0.152942 0.200000
0.406128 0.186029 0.203432
0.770588 0.310784 0.267157
0.798039 0.333333 0.284314
0.813725 0.341176 0.286274
0.066667 0.139215 0.230882
0.070588 0.139644 0.229166
0.085294 0.142831 0.215932
0.106372 0.150797 0.211764
0.219363 0.163603 0.207598
0.420496 0.197702 0.211275
0.778432 0.325980 0.276287
0.805883 0.347059 0.290196
0.821568 0.354902 0.294118
0.066667 0.150490 0.227941
0.070588 0.154779 0.236765
0.083824 0.165318 0.253922
0.109804 0.168137 0.233395
0.228922 0.184069 0.221814
0.444608 0.212806 0.220588
0.790196 0.340931 0.283579
0.815686 0.358823 0.296079
0.829412 0.366667 0.298040
0.073775 0.173039 0.239215
0.075582 0.176961 0.244271
0.082353 0.186826 0.259804
0.111060 0.209099 0.293811
0.250858 0.235907 0.263726
0.502420 0.284345 0.266146
0.819608 0.379902 0.298100
0.833824 0.388481 0.307598
0.846814 0.393872 0.308333
0.082353 0.227451 0.270588
0.085294 0.231250 0.274510
0.092892 0.242402 0.287500
0.114828 0.268383 0.314216
0.210294 0.310784 0.332843
0.582966 0.374632 0.308456
0.860539 0.478677 0.351225
0.873530 0.490196 0.366667
0.883333 0.494118 0.366667
0.112745 0.435539 0.430637
0.116483 0.443872 0.436520
0.119118 0.453615 0.440135
0.136029 0.479228 0.447610
0.177574 0.499633 0.402451
0.723254 0.594608 0.293290
0.883824 0.632292 0.333150
0.889706 0.643137 0.383578
0.898284 0.648285 0.383578
0.166177 0.726471 0.691176
0.169424 0.727941 0.686336
0.170098 0.728431 0.677451
0.171569 0.726042 0.659927
0.216422 0.710049 0.545588
0.466789 0.736765 0.340809
0.919608 0.823039 0.311642
0.922794 0.843137 0.597549
0.932353 0.841176 0.602941
0.174755 0.757108 0.729411
0.176471 0.757353 0.726195
0.178431 0.761029 0.719914
0.178677 0.759314 0.702788
0.214829 0.751471 0.597917
0.494455 0.780147 0.423621
0.887254 0.863052 0.408456
0.914215 0.871017 0.696079
0.929412 0.866667 0.695588
0.176471 0.768627 0.733333
0.178431 0.772549 0.729657
0.180392 0.772549 0.723529
0.180392 0.770588 0.704657
0.218627 0.762745 0.593137
0.506127 0.794608 0.422549
0.886274 0.873530 0.431863
0.914215 0.882108 0.695588
0.929412 0.874510 0.684314
0.083824 0.183333 0.321078
0.087562 0.183333 0.317157
0.091667 0.182720 0.306372
0.104963 0.183333 0.289706
0.135784 0.194363 0.284314
0.341728 0.212255 0.258762
0.747549 0.328431 0.309314
0.775000 0.349020 0.323039
0.790686 0.358333 0.330882
0.083824 0.190686 0.337561
0.087745 0.190908 0.332353
0.095083 0.191835 0.321921
0.108333 0.191176 0.302642
0.137010 0.203278 0.294945
0.353355 0.221568 0.265265
0.754044 0.343765 0.320772
0.782843 0.364706 0.336274
0.798529 0.372549 0.342647
0.083824 0.204044 0.360294
0.086643 0.208334 0.374004
0.097426 0.213818 0.364553
0.111872 0.213726 0.337745
0.142218 0.220404 0.317218
0.379458 0.238266 0.277160
0.762990 0.362745 0.334314
0.786765 0.377941 0.348039
0.802451 0.388235 0.354412
0.085356 0.215625 0.342157
0.087745 0.221630 0.351340
0.094838 0.234804 0.378569
0.114070 0.258211 0.424671
0.152206 0.257598 0.370343
0.434528 0.298078 0.324571
0.773652 0.381985 0.351471
0.806373 0.428431 0.394608
0.818137 0.440196 0.403370
0.090931 0.245343 0.363480
0.094761 0.249264 0.371170
0.098591 0.256618 0.383333
0.112806 0.279442 0.419026
0.157108 0.330515 0.497426
0.508946 0.408425 0.418137
0.821140 0.519363 0.481679
0.837010 0.526225 0.489461
0.847549 0.530882 0.492892
0.107353 0.335233 0.434681
0.111274 0.341490 0.441491
0.115196 0.349632 0.450781
0.132759 0.378776 0.485149
0.167708 0.433578 0.537715
0.477045 0.570014 0.581035
0.867417 0.665242 0.585708
0.878431 0.664890 0.588480
0.886826 0.668811 0.590012
0.173530 0.699387 0.736642
0.176103 0.703002 0.738679
0.177451 0.708333 0.740564
0.181372 0.713312 0.742647
0.213235 0.750981 0.766054
0.400873 0.790518 0.667509
0.913940 0.838266 0.434681
0.920589 0.847059 0.639951
0.931372 0.846078 0.643750
0.178248 0.721078 0.760968
0.180392 0.725161 0.762561
0.184314 0.728799 0.765855
0.187431 0.734620 0.766598
0.207108 0.760784 0.781465
0.361091 0.810049 0.702030
0.881296 0.870665 0.518122
0.914031 0.874081 0.719118
0.925490 0.870588 0.715196
0.180392 0.732843 0.770098
0.184314 0.736764 0.773836
0.188235 0.742157 0.774020
0.188235 0.746078 0.777390
0.210294 0.772794 0.791667
0.375368 0.819179 0.695221
0.880392 0.879412 0.533456
0.910294 0.882353 0.718627
0.925490 0.874510 0.707353
0.119608 0.301960 0.571569
0.122549 0.301960 0.571569
0.126470 0.303676 0.565441
0.131005 0.306495 0.553921
0.140686 0.300000 0.516667
0.221446 0.336274 0.503554
0.704657 0.391177 0.426716
0.751961 0.448039 0.486274
0.768627 0.452941 0.494117
0.122549 0.312378 0.587132
0.126425 0.313725 0.587132
0.129657 0.317157 0.583242
0.134314 0.318137 0.571431
0.144118 0.312193 0.535478
0.229136 0.348177 0.516590
0.711520 0.409069 0.448775
0.756740 0.465319 0.507353
0.775123 0.470098 0.511764
0.125735 0.327451 0.614951
0.126470 0.328401 0.612132
0.132966 0.337929 0.616115
0.138235 0.339920 0.604596
0.148407 0.334314 0.568627
0.243964 0.370527 0.541973
0.717647 0.428615 0.471446
0.767647 0.487500 0.535049
0.783333 0.492892 0.541177
0.114093 0.339828 0.627696
0.118015 0.340946 0.631940
0.127390 0.349020 0.647672
0.145297 0.376471 0.664706
0.158578 0.371017 0.627635
0.271676 0.408655 0.587806
0.725214 0.448713 0.500000
0.781250 0.523652 0.579534
0.796936 0.527941 0.583824
0.118627 0.361765 0.613236
0.122549 0.367402 0.619547
0.126470 0.375367 0.635294
0.134804 0.393995 0.667708
0.163480 0.428186 0.718873
0.332353 0.479351 0.668321
0.768505 0.545466 0.615686
0.800000 0.570588 0.633823
0.812745 0.577451 0.637745
0.130392 0.408333 0.647181
0.134007 0.412791 0.653324
0.135784 0.420098 0.661397
0.141237 0.428952 0.674862
0.163419 0.468873 0.723162
0.299832 0.560340 0.787776
0.820833 0.664553 0.733946
0.829534 0.661397 0.726593
0.841177 0.666177 0.730392
0.163235 0.574019 0.750735
0.166330 0.577941 0.755300
0.169607 0.581863 0.759130
0.173530 0.587990 0.765165
0.193382 0.619240 0.790441
0.266544 0.676777 0.823652
0.870221 0.867034 0.823652
0.894210 0.868873 0.821814
0.901961 0.868873 0.821814
0.168627 0.599510 0.766667
0.172549 0.603432 0.770588
0.176471 0.607353 0.774510
0.178523 0.611275 0.777145
0.194301 0.635601 0.794363
0.256863 0.688603 0.828876
0.848192 0.885632 0.821814
0.898407 0.883701 0.817938
0.908824 0.883701 0.815686
0.172549 0.613725 0.774510
0.176348 0.617647 0.777451
0.178677 0.620833 0.780637
0.180392 0.624387 0.782353
0.198039 0.647059 0.800000
0.256863 0.699019 0.832721
0.848284 0.894118 0.821569
0.901103 0.891177 0.814338
0.912745 0.890196 0.811765
0.129412 0.329412 0.616176
0.129412 0.329412 0.616176
0.133333 0.333333 0.615809
0.141176 0.341176 0.619608
0.152941 0.351226 0.615931
0.223346 0.388051 0.608824
0.693137 0.440564 0.517034
0.741666 0.498039 0.585233
0.760294 0.501961 0.592157
0.129412 0.336826 0.627941
0.133333 0.340311 0.631319
0.137255 0.344669 0.631373
0.143788 0.352451 0.634965
0.155116 0.362959 0.631373
0.230882 0.401693 0.624165
0.698040 0.454902 0.535662
0.748591 0.505943 0.596568
0.764706 0.513725 0.603922
0.129412 0.344240 0.642647
0.133333 0.345573 0.643505
0.140288 0.361060 0.658242
0.147549 0.371247 0.661443
0.158824 0.379534 0.654902
0.243627 0.420221 0.645374
0.707843 0.470588 0.556863
0.757338 0.521569 0.614981
0.772549 0.528431 0.619976
0.123039 0.346875 0.652941
0.126961 0.352512 0.657269
0.134482 0.363725 0.666177
0.151471 0.394914 0.696990
0.166023 0.404565 0.690196
0.271323 0.450490 0.676287
0.714706 0.483992 0.574280
0.769117 0.541482 0.637929
0.784314 0.547549 0.641850
0.127696 0.398039 0.678921
0.129626 0.401961 0.686061
0.133333 0.404596 0.691728
0.139798 0.410447 0.699847
0.168750 0.439338 0.736642
0.346323 0.511765 0.725245
0.762745 0.552941 0.655331
0.790686 0.578431 0.676961
0.803922 0.582353 0.680882
0.138725 0.440012 0.705208
0.141176 0.443896 0.708969
0.145098 0.447993 0.713051
0.146569 0.455392 0.720948
0.166666 0.484161 0.752451
0.294417 0.561826 0.797411
0.817157 0.658333 0.754887
0.829106 0.662745 0.755209
0.838235 0.669792 0.757353
0.164706 0.578432 0.773529
0.168627 0.582031 0.777344
0.171906 0.586275 0.781158
0.173530 0.590196 0.784437
0.185784 0.606372 0.797549
0.243137 0.661887 0.834191
0.869608 0.868137 0.844271
0.890319 0.869608 0.840196
0.898897 0.869608 0.840196
0.168627 0.592647 0.780392
0.172549 0.596568 0.784314
0.175613 0.603064 0.787484
0.176471 0.606556 0.789154
0.190196 0.625490 0.805883
0.252941 0.679228 0.840686
0.829411 0.880392 0.855714
0.894118 0.886765 0.843137
0.901961 0.890196 0.842708
0.172549 0.603922 0.784314
0.172549 0.607843 0.788235
0.176471 0.611765 0.792157
0.180392 0.615686 0.796078
0.194117 0.633333 0.809804
0.252941 0.688910 0.844608
0.827819 0.888236 0.858333
0.894608 0.894118 0.839706
0.905882 0.894118 0.839216
0.129412 0.337255 0.631373
0.133333 0.337255 0.631373
0.137255 0.341176 0.631373
0.143627 0.349020 0.637745
0.154902 0.358823 0.631373
0.218137 0.394118 0.626470
0.689216 0.450981 0.542157
0.741176 0.501961 0.600000
0.756863 0.505882 0.603922
0.132843 0.344608 0.643137
0.133333 0.348101 0.646569
0.137255 0.352451 0.646691
0.145098 0.360600 0.650490
0.158578 0.372304 0.648774
0.225796 0.408027 0.640380
0.694118 0.462746 0.557843
0.745588 0.509804 0.607843
0.760784 0.513725 0.611765
0.133333 0.351961 0.657844
0.133333 0.352941 0.658701
0.141176 0.368627 0.672794
0.149020 0.379412 0.675000
0.162255 0.387745 0.670098
0.237867 0.425980 0.660785
0.704902 0.476716 0.575490
0.756005 0.521937 0.626470
0.771568 0.528431 0.627451
0.123039 0.354412 0.665686
0.126961 0.356863 0.670588
0.136642 0.371569 0.680269
0.152941 0.402451 0.708333
0.166666 0.412255 0.703676
0.262316 0.454412 0.687745
0.713235 0.487868 0.592647
0.768933 0.541482 0.649510
0.782843 0.547549 0.650980
0.129412 0.401961 0.690196
0.133333 0.409559 0.698039
0.135294 0.411764 0.703921
0.141666 0.416176 0.711519
0.169608 0.446078 0.746079
0.334804 0.513726 0.736029
0.761274 0.552941 0.670098
0.790441 0.576716 0.686520
0.803922 0.582353 0.690196
0.138725 0.446078 0.715196
0.142647 0.451287 0.719118
0.146201 0.455024 0.726593
0.149020 0.461765 0.731802
0.167402 0.489951 0.762255
0.290625 0.563358 0.804473
0.814706 0.662255 0.768505
0.826961 0.662561 0.765196
0.838235 0.666177 0.762745
0.165686 0.578432 0.781373
0.169485 0.582353 0.785294
0.172549 0.588480 0.789216
0.176471 0.593137 0.792770
0.187255 0.606863 0.803432
0.242157 0.661887 0.841299
0.868872 0.868873 0.850980
0.887623 0.869608 0.848039
0.898039 0.866667 0.844118
0.168627 0.592647 0.788235
0.172549 0.596568 0.788725
0.176471 0.603064 0.792525
0.176777 0.606556 0.796078
0.190196 0.625490 0.809804
0.252941 0.677941 0.844608
0.832353 0.877451 0.863726
0.890686 0.887194 0.850980
0.901961 0.890196 0.850980
0.172549 0.600000 0.788235
0.172549 0.607843 0.792157
0.176471 0.611765 0.796078
0.180392 0.615686 0.800000
0.194117 0.633333 0.813725
0.252941 0.685294 0.848529
0.832353 0.884314 0.866667
0.894118 0.894118 0.850980
0.901961 0.898039 0.850980
