Postproduction/IWLTBAP - Humble/LUTs by IWLTBAP (CUBE)/BONUS/8700/F-8700-V2-VLOG.cube
# Copyright: (C) Copyright 2010-2017 by IWLTBAP SAS
# Cannot be resold, shared or otherwise redistributed
# Website: https://luts.iwltbap.com
TITLE "IWLTBAP 8700-V2 (V-Log)"
LUT_3D_SIZE 5
0.000000 0.000000 0.000000
0.013725 0.002942 0.000000
0.274510 0.049019 0.013725
0.899020 0.221569 0.099020
0.941176 0.258824 0.125490
0.000000 0.037255 0.007843
0.045833 0.053676 0.003922
0.328431 0.069608 0.000000
0.919853 0.246078 0.094117
0.956863 0.281373 0.117647
0.000000 0.203922 0.052941
0.000000 0.198039 0.026471
0.517647 0.217647 0.005882
0.947059 0.311275 0.019117
0.978432 0.386274 0.050980
0.072549 0.703922 0.467647
0.083334 0.699020 0.431373
0.101961 0.672549 0.306372
1.000000 0.866177 0.166667
1.000000 0.911764 0.394118
0.086275 0.772549 0.537255
0.098039 0.768627 0.496079
0.117647 0.729411 0.390196
0.988236 0.950980 0.200000
1.000000 0.960784 0.556863
0.000000 0.000000 0.033333
0.004657 0.007598 0.036520
0.242157 0.058334 0.059804
0.890197 0.247304 0.145098
0.933333 0.289216 0.172549
0.000000 0.030392 0.052941
0.007598 0.050306 0.063910
0.292034 0.101593 0.069485
0.914951 0.274877 0.145649
0.949020 0.309804 0.171569
0.000000 0.238235 0.148529
0.001103 0.241054 0.123897
0.561275 0.270343 0.029902
0.943505 0.302696 0.030882
0.988236 0.400000 0.093627
0.083578 0.737255 0.563725
0.088236 0.732598 0.530882
0.101470 0.694363 0.386642
1.000000 0.876164 0.190932
1.000000 0.919608 0.488480
0.098039 0.802941 0.629412
0.104902 0.800000 0.598039
0.115686 0.759804 0.462745
0.987500 0.954902 0.235294
1.000000 0.964706 0.629412
0.000000 0.054902 0.174509
0.000000 0.060294 0.158824
0.163725 0.086275 0.147059
0.850000 0.291667 0.234314
0.900000 0.327451 0.258823
0.000000 0.079902 0.184314
0.000000 0.100122 0.217034
0.184804 0.126716 0.176225
0.873652 0.325735 0.252574
0.919608 0.358823 0.272549
0.000000 0.185294 0.243137
0.001471 0.206127 0.263235
0.167647 0.291666 0.315686
0.955637 0.499265 0.342647
0.982353 0.517647 0.360784
0.103431 0.794118 0.749510
0.107353 0.796078 0.735294
0.171324 0.781373 0.584559
1.000000 0.913113 0.293382
1.000000 0.934314 0.646569
0.117647 0.843137 0.800000
0.121569 0.847059 0.788235
0.171569 0.840196 0.643137
0.983824 0.969608 0.432843
1.000000 0.972549 0.745098
0.040196 0.279412 0.611765
0.048775 0.283333 0.602696
0.070588 0.278431 0.547059
0.772059 0.392402 0.438235
0.846078 0.468628 0.515686
0.045098 0.312010 0.665931
0.056801 0.325061 0.666912
0.082108 0.320465 0.609069
0.785294 0.433762 0.490809
0.865441 0.516667 0.574510
0.037255 0.353922 0.662255
0.048407 0.372059 0.688235
0.101470 0.437990 0.787990
0.846568 0.577696 0.664093
0.901961 0.617647 0.691666
0.099019 0.616422 0.829166
0.106862 0.625552 0.837561
0.141054 0.670221 0.874020
0.968260 0.965073 0.913297
1.000000 0.966912 0.908333
0.109804 0.661765 0.852941
0.117647 0.671814 0.860785
0.146079 0.701961 0.886275
0.940686 0.994608 0.911765
1.000000 0.989216 0.898039
0.050980 0.321569 0.682353
0.061765 0.328431 0.685294
0.088235 0.350981 0.686275
0.752942 0.462746 0.573529
0.831373 0.529412 0.647059
0.054902 0.341176 0.712745
0.068873 0.362990 0.732353
0.097549 0.386274 0.732353
0.771568 0.493382 0.612745
0.850980 0.556863 0.678431
0.052941 0.405883 0.754902
0.060784 0.415686 0.768628
0.107843 0.457843 0.820588
0.837255 0.589216 0.733333
0.888235 0.623530 0.752941
0.102941 0.621569 0.862745
0.110539 0.632353 0.871323
0.130392 0.654412 0.889706
0.964706 0.966176 0.945098
1.000000 0.964706 0.938235
0.109804 0.647059 0.870588
0.117647 0.658824 0.878431
0.139215 0.684314 0.900000
0.921568 0.983333 0.960784
1.000000 0.996078 0.941176
