Postproduction/IWLTBAP - Humble/LUTs by IWLTBAP (3DL)/UTILITY/BMDFilm URSA to Rec.709/U-BMDFILM-URSA-V1-LTR.3dl
# Copyright: (C) Copyright 2010-2018 by IWLTBAP SAS
# Cannot be resold, shared or otherwise redistributed
# Website: https://luts.iwltbap.com
0 128 256 384 512 640 768 896 1023
0 0 0
0 0 525
0 0 1357
0 0 2017
0 0 2583
0 0 3075
0 0 3487
0 0 3839
0 0 4095
0 519 0
0 388 158
0 191 1198
0 0 1938
0 0 2542
0 0 3054
0 0 3476
0 0 3833
0 0 4095
0 1351 0
0 1294 0
0 1210 928
0 1053 1818
0 727 2482
0 83 3023
0 0 3461
0 0 3826
0 0 4095
0 2011 0
0 1982 0
0 1941 284
0 1869 1581
0 1737 2373
0 1472 2969
0 780 3436
0 0 3813
0 0 4092
0 2577 0
0 2562 0
0 2541 0
0 2504 990
0 2441 2160
0 2325 2873
0 2095 3392
0 1516 3792
0 0 4083
0 3070 0
0 3062 0
0 3051 0
0 3032 0
0 3000 1638
0 2944 2682
0 2843 3312
0 2641 3754
0 2142 4067
0 3483 0
0 3479 0
0 3473 0
0 3464 0
0 3448 100
0 3422 2215
0 3377 3147
0 3293 3684
0 3121 4039
0 3835 0
0 3833 0
0 3830 0
0 3826 0
0 3818 0
0 3805 290
0 3783 2735
0 3744 3541
0 3672 3987
0 4095 0
0 4095 0
0 4095 0
0 4095 0
0 4093 0
0 4087 0
0 4078 363
0 4062 3199
0 4033 3880
496 0 0
439 0 577
357 0 1381
215 0 2029
19 0 2590
0 0 3078
0 0 3489
0 0 3839
0 0 4095
279 362 0
218 219 219
135 34 1226
15 0 1951
0 0 2549
0 0 3057
0 0 3478
0 0 3834
0 0 4095
14 1283 0
0 1222 0
0 1131 964
0 961 1833
0 599 2489
0 5 3027
0 0 3463
0 0 3827
0 0 4095
0 1977 0
0 1947 0
0 1904 334
0 1829 1600
0 1691 2382
0 1412 2973
0 664 3438
0 0 3814
0 0 4092
0 2559 0
0 2544 0
0 2522 0
0 2485 1024
0 2420 2171
0 2301 2877
0 2064 3394
0 1456 3793
0 0 4083
0 3060 0
0 3052 0
0 3041 0
0 3022 0
0 2989 1657
0 2933 2688
0 2830 3314
0 2625 3755
0 2111 4067
0 3478 0
0 3474 0
0 3468 0
0 3459 0
0 3443 117
0 3417 2225
0 3371 3151
0 3287 3685
0 3112 4040
0 3833 0
0 3830 0
0 3828 0
0 3823 0
0 3815 0
0 3802 300
0 3780 2740
0 3741 3543
0 3668 3988
0 4095 0
0 4095 0
0 4095 0
0 4095 0
0 4091 0
0 4086 0
0 4076 368
0 4060 3202
0 4032 3881
1326 0 0
1301 0 646
1265 0 1413
1204 0 2046
1095 0 2598
885 0 3083
422 0 3491
0 0 3841
0 0 4095
1233 132 0
1205 14 304
1166 0 1263
1099 0 1970
977 0 2558
738 0 3062
240 0 3480
0 0 3835
0 0 4095
1089 1181 0
1057 1114 0
1012 1012 1011
933 818 1853
788 404 2499
496 0 3032
40 0 3465
0 0 3828
0 0 4095
795 1927 0
753 1895 0
691 1850 400
581 1771 1626
386 1624 2393
98 1321 2979
0 513 3440
0 0 3815
0 0 4093
149 2534 0
102 2518 0
69 2495 0
17 2457 1070
0 2389 2185
0 2266 2883
0 2018 3396
0 1367 3794
0 0 4084
0 3047 0
0 3039 0
0 3027 0
0 3008 0
0 2975 1681
0 2917 2696
0 2812 3317
0 2601 3757
0 2067 4068
0 3471 0
0 3467 0
0 3461 0
0 3452 0
0 3436 140
0 3410 2239
0 3363 3155
0 3278 3687
0 3100 4040
0 3829 0
0 3827 0
0 3824 0
0 3820 0
0 3812 0
0 3799 312
0 3776 2748
0 3737 3545
0 3663 3989
0 4095 0
0 4095 0
0 4095 0
0 4093 0
0 4090 0
0 4084 0
0 4075 385
0 4059 3206
0 4030 3882
1985 0 0
1973 0 750
1955 0 1463
1925 0 2072
1873 0 2613
1782 0 3091
1611 0 3495
1244 0 3843
243 0 4095
1939 0 0
1925 0 443
1906 0 1321
1875 0 1998
1820 0 2573
1724 0 3070
1541 0 3484
1141 0 3837
136 0 4095
1870 987 0
1856 904 14
1835 778 1085
1801 529 1886
1743 109 2516
1638 0 3040
1437 0 3469
979 0 3830
6 0 4095
1746 1840 0
1730 1805 0
1707 1755 514
1668 1667 1667
1600 1503 2411
1477 1153 2988
1236 273 3444
651 0 3817
0 0 4093
1499 2490 0
1478 2473 0
1448 2449 0
1397 2409 1141
1307 2338 2208
1137 2206 2893
780 1939 3401
148 1204 3796
0 0 4084
876 3025 0
837 3016 0
782 3004 0
684 2984 0
533 2950 1721
289 2890 2709
37 2781 3322
0 2560 3759
0 1991 4069
0 3460 0
0 3456 0
0 3450 0
0 3441 0
0 3425 176
0 3397 2261
0 3350 3162
0 3262 3690
0 3079 4041
0 3824 0
0 3822 0
0 3819 0
0 3814 0
0 3806 0
0 3793 331
0 3770 2760
0 3730 3549
0 3655 3990
0 4095 0
0 4094 0
0 4093 0
0 4091 0
0 4087 0
0 4082 0
0 4072 500
0 4056 3212
0 4027 3884
2553 0 0
2546 0 899
2537 0 1540
2521 0 2115
2495 0 2636
2450 0 3103
2370 0 3501
2222 0 3846
1910 0 4095
2529 0 0
2522 0 639
2512 0 1409
2496 0 2044
2469 0 2597
2422 0 3083
2340 0 3491
2186 0 3840
1859 0 4095
2493 557 0
2486 436 156
2476 278 1195
2459 58 1937
2431 0 2541
2382 0 3053
2296 0 3476
2133 0 3833
1783 0 4095
2432 1677 0
2425 1636 0
2414 1576 697
2396 1469 1731
2365 1263 2441
2312 793 3002
2219 22 3451
2040 0 3821
1645 0 4095
2322 2413 0
2313 2395 0
2301 2369 0
2280 2324 1249
2245 2245 2245
2185 2099 2910
2076 1792 3408
1864 874 3800
1364 0 4086
2104 2986 0
2093 2977 0
2077 2964 0
2050 2943 45
2005 2907 1782
1925 2844 2729
1778 2728 3331
1473 2489 3763
639 1849 4070
1569 3442 0
1549 3437 0
1521 3431 0
1472 3422 0
1386 3405 233
1226 3377 2296
907 3328 3173
361 3235 3694
0 3043 4043
48 3815 0
27 3812 0
0 3810 0
0 3805 0
0 3797 0
0 3783 363
0 3760 2779
0 3719 3555
0 3642 3992
0 4091 0
0 4090 0
0 4089 0
0 4087 0
0 4083 0
0 4078 0
0 4068 653
0 4051 3222
0 4022 3886
3048 0 362
3044 0 1105
3039 0 1655
3031 0 2180
3017 0 2672
2994 0 3123
2955 0 3512
2885 0 3851
2756 0 4095
3035 0 13
3031 0 897
3026 0 1540
3017 0 2114
3004 0 2636
2980 0 3103
2940 0 3501
2869 0 3846
2737 0 4095
3016 0 0
3013 0 515
3007 0 1354
2999 0 2015
2984 0 2582
2960 0 3074
2919 0 3487
2846 0 3838
2709 0 4095
2985 1329 0
2981 1270 0
2976 1182 945
2967 1018 1827
2952 682 2486
2927 163 3025
2884 0 3462
2807 0 3826
2663 0 4095
2931 2270 0
2927 2248 0
2921 2217 36
2912 2164 1402
2896 2069 2302
2869 1887 2935
2822 1483 3420
2738 341 3805
2580 0 4088
2834 2919 0
2829 2909 0
2823 2895 0
2812 2872 173
2793 2832 1875
2762 2762 2761
2708 2632 3344
2611 2359 3769
2423 1556 4073
2641 3410 0
2635 3406 0
2626 3400 0
2612 3389 0
2589 3372 316
2548 3342 2350
2477 3289 3191
2346 3189 3702
2077 2981 4046
2171 3799 0
2160 3797 0
2145 3794 0
2120 3789 0
2078 3780 0
2003 3766 547
1864 3742 2810
1573 3699 3565
899 3619 3995
260 4085 0
249 4084 0
237 4082 0
218 4080 0
184 4077 0
114 4071 0
0 4061 849
0 4044 3239
0 4014 3891
3464 0 851
3462 0 1372
3459 0 1819
3455 0 2277
3449 0 2728
3437 0 3155
3419 0 3528
3386 0 3859
3330 0 4095
3457 0 576
3455 0 1216
3453 0 1722
3449 0 2219
3442 0 2694
3431 0 3136
3412 0 3518
3379 0 3854
3322 0 4095
3448 0 81
3446 0 951
3444 0 1569
3440 0 2131
3433 0 2645
3421 0 3108
3402 0 3504
3369 0 3847
3310 0 4095
3433 350 0
3431 272 288
3429 185 1253
3424 58 1966
3417 0 2556
3406 0 3061
3386 0 3480
3352 0 3835
3291 0 4095
3408 1969 0
3406 1938 0
3403 1894 372
3398 1818 1610
3391 1677 2388
3379 1383 2976
3358 659 3439
3322 0 3815
3258 0 4092
3363 2793 0
3361 2781 0
3358 2764 0
3354 2737 494
3346 2689 2010
3332 2605 2812
3310 2443 3365
3270 2086 3779
3199 831 4077
3283 3355 0
3280 3350 0
3277 3343 0
3271 3332 0
3262 3312 647
3246 3279 2433
3219 3219 3219
3173 3105 3714
3088 2865 4051
3116 3773 0
3113 3770 0
3109 3767 0
3101 3762 0
3089 3753 0
3068 3738 845
3032 3712 2858
2970 3665 3580
2854 3579 4001
2705 4073 0
2700 4072 0
2692 4071 0
2679 4069 0
2657 4065 0
2620 4059 0
2555 4048 1089
2434 4031 3265
2184 3999 3898
3819 0 1348
3818 0 1698
3817 0 2038
3815 0 2417
3811 0 2813
3806 0 3203
3796 0 3555
3781 0 3872
3753 0 4095
3816 0 1187
3815 0 1588
3814 0 1962
3811 0 2367
3808 0 2782
3802 0 3185
3793 0 3545
3777 0 3867
3749 0 4095
3811 0 913
3810 0 1411
3809 0 1845
3807 0 2293
3804 0 2738
3798 0 3160
3788 0 3531
3772 0 3860
3744 0 4095
3804 0 219
3803 0 1030
3801 0 1615
3799 0 2157
3796 0 2660
3790 0 3116
3780 0 3508
3764 0 3849
3735 0 4095
3791 1056 0
3790 977 72
3789 871 1057
3786 705 1877
3783 402 2512
3777 133 3038
3767 0 3469
3750 0 3829
3720 0 4095
3769 2528 0
3768 2512 0
3767 2489 0
3765 2450 1088
3761 2382 2194
3754 2257 2889
3744 2000 3399
3726 1298 3795
3695 80 4084
3731 3250 0
3730 3244 0
3729 3235 0
3726 3221 0
3722 3198 1135
3715 3156 2553
3703 3082 3262
3683 2940 3732
3649 2625 4058
3661 3725 0
3659 3723 0
3657 3719 0
3654 3713 0
3650 3703 0
3641 3686 1218
3628 3656 2931
3604 3604 3604
3564 3507 4010
3518 4054 0
3516 4053 0
3514 4051 0
3510 4049 0
3504 4045 0
3493 4038 0
3476 4027 1363
3447 4008 3305
3395 3974 3910
4089 0 1847
4088 0 2072
4087 0 2314
4087 0 2606
4085 0 2934
4083 0 3274
4079 0 3596
4072 0 3893
4060 0 4095
4087 0 1753
4087 0 1999
4086 0 2258
4085 0 2567
4084 0 2908
4081 0 3259
4077 0 3587
4070 0 3888
4059 0 4095
4085 0 1605
4085 0 1886
4084 0 2174
4083 0 2509
4082 0 2870
4079 0 3237
4075 0 3574
4068 0 3882
4056 0 4095
4082 0 1302
4081 0 1667
4081 0 2017
4080 0 2404
4078 0 2804
4076 0 3198
4072 0 3552
4065 0 3871
4053 0 4095
4076 0 443
4076 0 1147
4075 0 1684
4074 0 2198
4073 0 2683
4070 0 3129
4066 0 3515
4059 0 3852
4047 0 4095
4067 1752 0
4066 1711 0
4066 1653 627
4065 1548 1708
4063 1343 2433
4061 958 2999
4056 365 3450
4049 0 3820
4036 0 4094
4051 3022 0
4051 3013 0
4050 3001 0
4049 2981 36
4047 2946 1738
4044 2886 2717
4040 2776 3327
4032 2551 3761
4019 1940 4070
4023 3634 0
4023 3631 0
4022 3626 0
4021 3619 0
4019 3606 0
4016 3586 1780
4011 3550 3037
4002 3488 3642
3987 3371 4023
3971 4019 0
3970 4018 0
3970 4016 0
3968 4014 0
3966 4009 0
3962 4002 0
3956 3989 1869
3946 3967 3365
3929 3929 3929
