Postproduction/IWLTBAP - Humble/LUTs by IWLTBAP (3DL)/UTILITY/BMDFilm URSA to Rec.709/U-BMDFILM-URSA-V3-LTR.3dl
# Copyright: (C) Copyright 2010-2018 by IWLTBAP SAS
# Cannot be resold, shared or otherwise redistributed
# Website: https://luts.iwltbap.com
0 64 128 192 256 320 384 448 512 576 640 704 768 832 896 960 1023
0 0 0
0 0 284
0 0 944
0 0 1666
0 0 2580
0 0 3241
0 0 3359
0 0 3443
0 0 3529
0 0 3614
0 0 3695
0 0 3773
0 0 3847
0 0 3918
0 0 3981
0 0 4038
0 0 4095
0 150 0
0 88 92
0 57 753
0 57 1467
0 57 2338
0 57 3189
0 57 3358
0 57 3442
0 57 3528
0 57 3613
0 57 3695
0 57 3773
0 57 3847
0 57 3918
0 57 3981
0 57 4038
0 57 4095
0 596 0
0 552 57
0 429 411
0 201 1185
0 132 2043
0 119 3037
0 114 3356
0 114 3441
0 114 3527
0 114 3612
0 114 3694
0 114 3772
0 114 3847
0 114 3918
0 114 3981
0 114 4038
0 114 4095
0 949 0
0 920 57
0 858 147
0 743 749
0 515 1430
0 245 2180
0 206 3023
0 186 3439
0 171 3526
0 171 3611
0 171 3694
0 171 3772
0 171 3847
0 171 3918
0 171 3981
0 171 4038
0 171 4095
0 1222 0
0 1198 57
0 1161 128
0 1101 417
0 1013 1022
0 853 1568
0 563 2158
0 295 2847
0 272 3438
0 243 3610
0 229 3693
0 229 3772
0 229 3846
0 229 3917
0 229 3981
0 229 4038
0 229 4095
0 1506 0
0 1486 57
0 1464 117
0 1426 230
0 1372 790
0 1296 1307
0 1173 1797
0 951 2320
0 577 2914
0 356 3457
0 325 3692
0 290 3771
0 286 3846
0 286 3917
0 286 3981
0 286 4038
0 286 4095
0 1814 0
0 1801 57
0 1786 114
0 1761 202
0 1723 580
0 1672 1143
0 1600 1615
0 1492 2084
0 1319 2584
0 981 3120
0 566 3557
0 409 3770
0 362 3845
0 343 3917
0 343 3981
0 343 4038
0 343 4095
0 2163 0
0 2154 57
0 2143 114
0 2128 185
0 2102 375
0 2065 998
0 2015 1501
0 1944 1962
0 1841 2429
0 1687 2915
0 1443 3378
0 1006 3698
0 569 3845
0 439 3916
0 400 3981
0 400 4038
0 400 4095
0 2556 0
0 2551 57
0 2545 114
0 2537 171
0 2521 269
0 2496 803
0 2461 1399
0 2410 1889
0 2338 2359
0 2235 2835
0 2092 3289
0 1884 3626
0 1548 3842
0 956 3916
0 519 3981
0 460 4038
0 457 4095
0 2983 0
0 2982 57
0 2981 114
0 2977 171
0 2971 245
0 2958 524
0 2936 1259
0 2902 1819
0 2854 2324
0 2784 2822
0 2687 3286
0 2550 3622
0 2356 3837
0 2069 3915
0 1566 3981
0 851 4038
0 525 4095
0 3415 0
0 3419 57
0 3423 114
0 3425 171
0 3425 229
0 3426 327
0 3420 890
0 3407 1673
0 3383 2270
0 3343 2833
0 3282 3336
0 3192 3673
0 3060 3841
0 2870 3914
0 2596 3981
0 2187 4038
0 1218 4095
0 3732 0
0 3735 57
0 3737 114
0 3739 171
0 3741 229
0 3742 294
0 3742 417
0 3739 1288
0 3733 2123
0 3721 2790
0 3702 3362
0 3673 3709
0 3621 3839
0 3535 3913
0 3393 3981
0 3165 4038
0 2763 4095
0 3855 0
0 3855 57
0 3854 114
0 3854 171
0 3854 229
0 3854 286
0 3853 368
0 3852 640
0 3852 1752
0 3850 2638
0 3849 3337
0 3847 3720
0 3844 3836
0 3840 3912
0 3832 3981
0 3770 4038
0 3659 4095
0 3923 0
0 3923 57
0 3923 114
0 3923 171
0 3923 229
0 3922 286
0 3922 343
0 3922 449
0 3921 966
0 3921 2334
0 3920 3240
0 3919 3709
0 3918 3832
0 3916 3909
0 3912 3980
0 3908 4038
0 3901 4095
0 3981 0
0 3981 57
0 3981 114
0 3981 171
0 3981 229
0 3981 286
0 3981 343
0 3981 402
0 3981 530
0 3981 2048
0 3981 3148
0 3981 3693
0 3981 3827
0 3981 3906
0 3981 3978
0 3981 4038
0 3977 4095
0 4038 0
0 4038 57
0 4038 114
0 4038 171
0 4038 229
0 4038 286
0 4038 343
0 4038 400
0 4038 467
0 4038 1485
0 4038 3033
0 4038 3673
0 4038 3818
0 4038 3902
0 4038 3976
0 4038 4038
0 4038 4095
0 4095 0
0 4095 57
0 4095 114
0 4095 171
0 4095 229
0 4095 286
0 4095 343
0 4095 400
0 4095 457
0 4095 841
0 4095 2822
0 4095 3642
0 4095 3804
0 4095 3894
0 4095 3973
0 4095 4038
0 4095 4095
344 0 0
261 0 181
126 0 851
64 0 1564
60 0 2459
57 0 3218
57 0 3359
57 0 3443
57 0 3529
57 0 3613
57 0 3695
57 0 3773
57 0 3847
57 0 3918
57 0 3981
57 0 4038
57 0 4095
87 84 0
63 59 62
58 57 684
57 57 1388
57 57 2231
57 57 3142
57 57 3358
57 57 3442
57 57 3528
57 57 3613
57 57 3694
57 57 3773
57 57 3847
57 57 3918
57 57 3981
57 57 4038
57 57 4095
57 533 0
57 491 57
57 371 367
57 176 1129
57 127 1963
57 116 2960
57 114 3356
57 114 3441
57 114 3527
57 114 3612
57 114 3694
57 114 3772
57 114 3847
57 114 3918
57 114 3981
57 114 4038
57 114 4095
57 891 0
57 865 57
57 807 142
57 697 700
57 494 1334
57 241 2040
57 201 2878
57 182 3423
57 171 3526
57 171 3611
57 171 3693
57 171 3772
57 171 3847
57 171 3918
57 171 3981
57 171 4038
57 171 4095
57 1182 0
57 1158 57
57 1124 126
57 1068 404
57 984 988
57 837 1510
57 569 2069
57 298 2730
57 268 3371
57 239 3610
57 229 3693
57 229 3772
57 229 3846
57 229 3917
57 229 3981
57 229 4038
57 229 4095
57 1475 0
57 1457 57
57 1437 116
57 1400 228
57 1349 776
57 1276 1282
57 1160 1759
57 952 2263
57 595 2834
57 354 3400
57 322 3692
57 288 3771
57 286 3846
57 286 3917
57 286 3981
57 286 4038
57 286 4095
57 1797 0
57 1784 57
57 1770 114
57 1747 201
57 1711 584
57 1662 1136
57 1592 1600
57 1488 2060
57 1323 2546
57 1009 3069
57 604 3522
57 406 3769
57 360 3845
57 343 3917
57 343 3981
57 343 4038
57 343 4095
57 2156 0
57 2148 57
57 2138 114
57 2124 184
57 2098 388
57 2064 1004
57 2015 1501
57 1945 1956
57 1845 2415
57 1696 2892
57 1463 3353
57 1056 3680
57 598 3845
57 437 3916
57 400 3981
57 400 4038
57 400 4095
57 2559 0
57 2555 57
57 2550 114
57 2542 171
57 2527 268
57 2503 818
57 2468 1409
57 2419 1895
57 2349 2362
57 2248 2833
57 2106 3282
57 1904 3618
57 1580 3840
57 992 3916
57 517 3981
57 458 4038
57 457 4095
57 2996 0
57 2997 57
57 2996 114
57 2993 171
57 2988 244
57 2976 530
57 2955 1268
57 2924 1830
57 2877 2336
57 2808 2836
57 2711 3299
57 2574 3629
57 2381 3838
57 2097 3915
57 1613 3981
57 880 4038
57 524 4095
57 3435 0
57 3440 57
57 3443 114
57 3446 171
57 3447 229
57 3448 326
57 3443 879
57 3431 1678
57 3408 2283
57 3371 2852
57 3311 3354
57 3221 3685
57 3091 3841
57 2901 3914
57 2625 3981
57 2215 4038
57 1252 4095
57 3743 0
57 3746 57
57 3749 114
57 3750 171
57 3752 229
57 3753 294
57 3754 415
57 3751 1274
57 3744 2130
57 3733 2808
57 3715 3379
57 3688 3717
57 3642 3839
57 3559 3913
57 3421 3981
57 3197 4038
57 2796 4095
57 3855 0
57 3854 57
57 3854 114
57 3854 171
57 3854 229
57 3853 286
57 3853 367
57 3852 609
57 3851 1735
57 3850 2651
57 3849 3355
57 3847 3729
57 3844 3836
57 3840 3911
57 3833 3981
57 3785 4038
57 3677 4095
57 3923 0
57 3923 57
57 3923 114
57 3923 171
57 3922 229
57 3922 286
57 3922 343
57 3922 448
57 3921 1019
57 3921 2379
57 3920 3278
57 3919 3718
57 3918 3832
57 3915 3909
57 3912 3980
57 3908 4038
57 3901 4095
57 3981 0
57 3981 57
57 3981 114
57 3981 171
57 3981 229
57 3981 286
57 3981 343
57 3981 401
57 3981 641
57 3981 2164
57 3981 3208
57 3981 3708
57 3981 3827
57 3981 3906
57 3981 3978
57 3981 4038
57 3977 4095
57 4038 0
57 4038 57
57 4038 114
57 4038 171
57 4038 229
57 4038 286
57 4038 343
57 4038 400
57 4038 467
57 4038 1717
57 4038 3118
57 4038 3694
57 4038 3818
57 4038 3901
57 4038 3976
57 4038 4038
57 4038 4095
57 4095 0
57 4095 57
57 4095 114
57 4095 171
57 4095 229
57 4095 286
57 4095 343
57 4095 400
57 4095 457
57 4095 983
57 4095 2942
57 4095 3670
57 4095 3804
57 4095 3894
57 4095 3973
57 4095 4038
57 4095 4095
1017 0 0
962 0 66
856 0 693
683 0 1406
342 0 2261
157 0 3160
152 0 3359
145 0 3443
135 0 3529
123 0 3613
114 0 3695
114 0 3773
114 0 3847
114 0 3918
114 0 3981
114 0 4038
114 0 4095
787 57 0
736 57 57
629 57 545
451 57 1253
195 57 2068
144 57 3024
138 57 3357
130 57 3442
121 57 3528
114 57 3613
114 57 3694
114 57 3773
114 57 3847
114 57 3918
114 57 3981
114 57 4038
114 57 4095
385 392 0
358 361 57
272 256 269
175 141 1022
135 122 1815
129 114 2823
123 114 3355
116 114 3440
114 114 3527
114 114 3612
114 114 3694
114 114 3772
114 114 3847
114 114 3918
114 114 3981
114 114 4038
114 114 4095
135 814 0
131 792 57
124 739 135
120 637 640
116 455 1251
115 235 1916
114 197 2737
114 177 3379
114 171 3526
114 171 3611
114 171 3693
114 171 3772
114 171 3847
114 171 3918
114 171 3981
114 171 4038
114 171 4095
114 1140 0
114 1116 57
114 1085 125
114 1031 382
114 951 952
114 810 1457
114 563 1989
114 306 2620
114 263 3289
114 236 3610
114 229 3693
114 229 3771
114 229 3846
114 229 3917
114 229 3981
114 229 4038
114 229 4095
114 1448 0
114 1431 57
114 1412 116
114 1378 226
114 1329 763
114 1258 1259
114 1146 1723
114 951 2210
114 615 2760
114 351 3339
114 318 3673
114 286 3771
114 286 3846
114 286 3917
114 286 3981
114 286 4038
114 286 4095
114 1781 0
114 1770 57
114 1756 114
114 1734 199
114 1700 586
114 1652 1130
114 1585 1587
114 1484 2037
114 1326 2512
114 1033 3022
114 635 3483
114 403 3756
114 358 3845
114 343 3917
114 343 3981
114 343 4038
114 343 4095
114 2150 0
114 2142 57
114 2133 114
114 2119 183
114 2096 394
114 2062 1009
114 2014 1501
114 1947 1951
114 1849 2404
114 1705 2873
114 1481 3330
114 1088 3662
114 607 3845
114 434 3916
114 400 3981
114 400 4038
114 400 4095
114 2564 0
114 2560 57
114 2555 114
114 2547 171
114 2533 268
114 2510 830
114 2476 1417
114 2428 1900
114 2359 2365
114 2259 2832
114 2121 3277
114 1923 3612
114 1613 3836
114 1020 3916
114 514 3981
114 457 4038
114 457 4095
114 3011 0
114 3012 57
114 3012 114
114 3010 171
114 3006 243
114 2996 532
114 2977 1273
114 2946 1839
114 2900 2348
114 2831 2850
114 2734 3312
114 2597 3637
114 2404 3839
114 2123 3915
114 1659 3981
114 898 4038
114 523 4095
114 3456 0
114 3461 57
114 3465 114
114 3468 171
114 3469 229
114 3469 325
114 3465 865
114 3453 1681
114 3432 2295
114 3396 2870
114 3339 3371
114 3250 3695
114 3120 3841
114 2931 3914
114 2652 3981
114 2240 4038
114 1334 4095
114 3754 0
114 3757 57
114 3760 114
114 3762 171
114 3763 229
114 3764 293
114 3765 412
114 3762 1260
114 3756 2136
114 3745 2824
114 3728 3397
114 3702 3726
114 3661 3839
114 3582 3913
114 3450 3981
114 3229 4038
114 2826 4095
114 3854 0
114 3854 57
114 3854 114
114 3854 171
114 3854 229
114 3853 286
114 3853 366
114 3852 571
114 3851 1729
114 3850 2663
114 3849 3372
114 3847 3737
114 3844 3836
114 3840 3911
114 3834 3981
114 3799 4038
114 3694 4095
114 3923 0
114 3923 57
114 3923 114
114 3923 171
114 3922 229
114 3922 286
114 3922 343
114 3922 447
114 3921 1107
114 3921 2450
114 3920 3320
114 3919 3729
114 3917 3832
114 3915 3909
114 3912 3980
114 3908 4038
114 3900 4095
114 3981 0
114 3981 57
114 3981 114
114 3981 171
114 3981 229
114 3981 286
114 3981 343
114 3981 401
114 3981 773
114 3981 2279
114 3981 3266
114 3981 3723
114 3981 3826
114 3981 3906
114 3981 3978
114 3980 4038
114 3977 4095
114 4038 0
114 4038 57
114 4038 114
114 4038 171
114 4038 229
114 4038 286
114 4038 343
114 4038 400
114 4038 467
114 4038 1919
114 4038 3202
114 4038 3715
114 4038 3818
114 4038 3901
114 4038 3976
114 4038 4038
114 4038 4095
114 4095 0
114 4095 57
114 4095 114
114 4095 171
114 4095 229
114 4095 286
114 4095 343
114 4095 400
114 4095 457
114 4095 1132
114 4095 3062
114 4095 3695
114 4095 3804
114 4095 3894
114 4095 3973
114 4095 4038
114 4095 4095
1741 0 0
1685 0 57
1587 0 460
1467 0 1231
1275 0 2073
823 0 3036
275 0 3358
240 0 3442
235 0 3528
226 0 3613
214 0 3695
196 0 3773
175 0 3847
171 0 3918
171 0 3981
171 0 4038
171 0 4095
1500 57 0
1449 57 57
1362 57 336
1246 57 1091
1052 57 1889
617 57 2865
237 57 3357
232 57 3441
225 57 3528
216 57 3612
202 57 3694
184 57 3773
171 57 3847
171 57 3918
171 57 3981
171 57 4038
