Postproduction/IWLTBAP - Humble/LUTs by IWLTBAP (3DL)/UTILITY/BMDFilm URSA to Rec.709/U-BMDFILM-URSA-V2-LTR.3dl
# Copyright: (C) Copyright 2010-2018 by IWLTBAP SAS
# Cannot be resold, shared or otherwise redistributed
# Website: https://luts.iwltbap.com
0 64 128 192 256 320 384 448 512 576 640 704 768 832 896 960 1023
0 0 0
0 0 50
0 0 518
0 0 892
0 0 1227
0 0 1558
0 0 1898
0 0 2257
0 0 2641
0 0 3006
0 0 3331
0 0 3610
0 0 3840
0 0 4021
0 0 4095
0 0 4095
0 0 4095
0 122 0
0 28 1
0 0 455
0 0 851
0 0 1197
0 0 1534
0 0 1879
0 0 2241
0 0 2628
0 0 2997
0 0 3325
0 0 3606
0 0 3837
0 0 4019
0 0 4095
0 0 4095
0 0 4095
0 622 0
0 553 0
0 477 385
0 376 808
0 235 1166
0 63 1510
0 0 1859
0 0 2224
0 0 2614
0 0 2988
0 0 3319
0 0 3602
0 0 3834
0 0 4018
0 0 4095
0 0 4095
0 0 4095
0 1002 0
0 957 0
0 909 291
0 849 753
0 765 1127
0 644 1480
0 459 1835
0 197 2205
0 0 2598
0 0 2977
0 0 3311
0 0 3597
0 0 3831
0 0 4016
0 0 4095
0 0 4095
0 0 4095
0 1350 0
0 1316 0
0 1281 178
0 1238 677
0 1181 1076
0 1102 1441
0 993 1804
0 834 2179
0 576 2577
0 193 2962
0 0 3301
0 0 3590
0 0 3827
0 0 4013
0 0 4095
0 0 4095
0 0 4095
0 1695 0
0 1669 0
0 1641 35
0 1608 568
0 1564 1006
0 1506 1389
0 1427 1763
0 1320 2146
0 1168 2550
0 936 2943
0 532 3288
0 62 3582
0 0 3822
0 0 4010
0 0 4095
0 0 4095
0 0 4095
0 2053 0
0 2031 0
0 2009 0
0 1982 405
0 1946 909
0 1900 1320
0 1840 1709
0 1759 2102
0 1648 2514
0 1494 2918
0 1268 3270
0 888 3571
0 260 3815
0 0 4006
0 0 4095
0 0 4095
0 0 4095
0 2431 0
0 2413 0
0 2394 0
0 2372 182
0 2343 768
0 2305 1225
0 2256 1638
0 2192 2045
0 2105 2466
0 1989 2886
0 1828 3248
0 1596 3557
0 1227 3806
0 527 4000
0 0 4095
0 0 4095
0 0 4095
0 2823 0
0 2810 0
0 2796 0
0 2779 0
0 2756 547
0 2727 1092
0 2688 1541
0 2637 1970
0 2569 2405
0 2476 2843
0 2351 3218
0 2180 3538
0 1936 3794
0 1561 3993
0 834 4095
0 39 4095
0 0 4095
0 3170 0
0 3161 0
0 3151 0
0 3140 0
0 3125 217
0 3105 892
0 3080 1406
0 3046 1868
0 3001 2323
0 2940 2783
0 2855 3178
0 2733 3512
0 2556 3779
0 2296 3984
0 1903 4095
0 1178 4095
0 144 4095
0 3478 0
0 3472 0
0 3465 0
0 3458 0
0 3448 0
0 3435 552
0 3418 1211
0 3395 1728
0 3365 2214
0 3325 2700
0 3270 3126
0 3193 3479
0 3086 3758
0 2925 3972
0 2672 4095
0 2264 4095
0 1530 4095
0 3734 0
0 3730 0
0 3726 0
0 3721 0
0 3714 0
0 3706 118
0 3695 897
0 3681 1528
0 3663 2065
0 3638 2587
0 3604 3053
0 3558 3433
0 3494 3731
0 3400 3956
0 3258 4095
0 3031 4095
0 2636 4095
0 3939 0
0 3936 0
0 3934 0
0 3931 0
0 3927 0
0 3922 0
0 3915 338
0 3907 1221
0 3896 1856
0 3881 2427
0 3861 2950
0 3834 3369
0 3797 3693
0 3744 3934
0 3667 4095
0 3549 4095
0 3353 4095
0 4087 0
0 4086 0
0 4085 0
0 4083 0
0 4081 0
0 4079 0
0 4075 0
0 4071 650
0 4066 1541
0 4058 2203
0 4048 2802
0 4035 3277
0 4016 3639
0 3987 3904
0 3946 4085
0 3885 4095
0 3789 4095
0 4095 0
0 4095 0
0 4095 0
0 4095 0
0 4095 0
0 4095 0
0 4095 0
0 4095 24
0 4095 975
0 4095 1871
0 4095 2572
0 4095 3144
0 4095 3563
0 4095 3862
0 4095 4064
0 4093 4095
0 4050 4095
0 4095 0
0 4095 0
0 4095 0
0 4095 0
0 4095 0
0 4095 0
0 4095 0
0 4095 0
0 4095 136
0 4095 1305
0 4095 2221
0 4095 2935
0 4095 3448
0 4095 3800
0 4095 4034
0 4095 4095
0 4095 4095
0 4095 0
0 4095 0
0 4095 0
0 4095 0
0 4095 0
0 4095 0
0 4095 0
0 4095 0
0 4095 0
0 4095 252
0 4095 1641
0 4095 2587
0 4095 3265
0 4095 3706
0 4095 3989
0 4095 4095
0 4095 4095
204 0 0
171 0 32
138 0 504
97 0 882
43 0 1220
0 0 1552
0 0 1894
0 0 2253
0 0 2638
0 0 3004
0 0 3330
0 0 3609
0 0 3839
0 0 4020
0 0 4095
0 0 4095
0 0 4095
6 52 0
4 0 0
2 0 439
0 0 841
0 0 1190
0 0 1529
0 0 1874
0 0 2237
0 0 2625
0 0 2995
0 0 3324
0 0 3605
0 0 3836
0 0 4019
0 0 4095
0 0 4095
0 0 4095
0 571 0
0 498 0
0 417 368
0 306 798
0 172 1159
0 21 1504
0 0 1854
0 0 2221
0 0 2611
0 0 2986
0 0 3317
0 0 3601
0 0 3834
0 0 4017
0 0 4095
0 0 4095
0 0 4095
0 969 0
0 922 0
0 873 274
0 810 742
0 722 1120
0 594 1474
0 398 1830
0 139 2201
0 0 2595
0 0 2975
0 0 3309
0 0 3596
0 0 3830
0 0 4015
0 0 4095
0 0 4095
0 0 4095
0 1325 0
0 1291 0
0 1255 162
0 1211 665
0 1152 1068
0 1072 1435
0 960 1799
0 793 2175
0 522 2574
0 141 2960
0 0 3299
0 0 3590
0 0 3826
0 0 4013
0 0 4095
0 0 4095
0 0 4095
0 1676 0
0 1649 0
0 1621 24
0 1587 554
0 1543 998
0 1483 1383
0 1404 1758
0 1295 2142
0 1139 2547
0 899 2941
0 487 3286
0 28 3581
0 0 3821
0 0 4010
0 0 4095
0 0 4095
0 0 4095
0 2036 0
0 2015 0
0 1992 0
0 1965 389
0 1929 900
0 1883 1314
0 1822 1704
0 1740 2098
0 1628 2510
0 1472 2916
0 1241 3269
0 848 3570
0 227 3814
0 0 4005
0 0 4095
0 0 4095
0 0 4095
0 2417 0
0 2399 0
0 2381 0
0 2358 168
0 2329 758
0 2291 1218
0 2242 1633
0 2177 2041
0 2090 2463
0 1972 2884
0 1810 3246
0 1575 3556
0 1198 3805
0 490 4000
0 0 4095
0 0 4095
0 0 4095
0 2813 0
0 2799 0
0 2785 0
0 2768 0
0 2745 534
0 2715 1084
0 2676 1535
0 2625 1965
0 2557 2401
0 2463 2840
0 2337 3216
0 2165 3537
0 1919 3794
0 1539 3993
0 797 4095
0 17 4095
0 0 4095
0 3163 0
0 3154 0
0 3144 0
0 3133 0
0 3118 205
0 3098 883
0 3072 1400
0 3038 1863
0 2993 2320
0 2931 2780
0 2845 3177
0 2721 3511
0 2544 3778
0 2282 3984
0 1885 4095
0 1144 4095
0 133 4095
0 3473 0
0 3467 0
0 3461 0
0 3453 0
0 3443 0
0 3430 538
0 3412 1204
0 3390 1723
0 3360 2211
0 3319 2697
0 3264 3124
0 3187 3478
0 3078 3757
0 2916 3972
0 2661 4095
0 2249 4095
0 1505 4095
0 3731 0
0 3727 0
0 3723 0
0 3718 0
0 3711 0
0 3703 110
0 3692 887
0 3678 1523
0 3659 2061
0 3634 2584
0 3601 3051
0 3554 3432
0 3489 3730
0 3395 3955
0 3252 4095
0 3023 4095
0 2624 4095
0 3937 0
0 3934 0
0 3932 0
0 3929 0
0 3925 0
0 3920 0
0 3913 326
0 3905 1213
0 3894 1851
0 3879 2424
0 3859 2948
0 3832 3368
0 3794 3692
0 3741 3933
0 3664 4095
0 3544 4095
0 3348 4095
0 4086 0
0 4085 0
0 4084 0
0 4082 0
0 4080 0
0 4078 0
0 4074 0
0 4070 640
0 4065 1535
0 4057 2199
0 4047 2800
0 4034 3276
0 4015 3639
0 3986 3903
0 3944 4085
0 3883 4095
0 3787 4095
0 4095 0
0 4095 0
0 4095 0
0 4095 0
0 4095 0
0 4095 0
0 4095 0
0 4095 18
0 4095 966
0 4095 1867
0 4095 2569
0 4095 3142
0 4095 3562
0 4095 3861
0 4095 4064
0 4092 4095
0 4049 4095
0 4095 0
0 4095 0
0 4095 0
0 4095 0
0 4095 0
0 4095 0
0 4095 0
0 4095 0
0 4095 133
0 4095 1298
0 4095 2217
0 4095 2933
0 4095 3447
0 4095 3799
0 4095 4034
0 4095 4095
0 4095 4095
0 4095 0
0 4095 0
0 4095 0
0 4095 0
0 4095 0
0 4095 0
0 4095 0
0 4095 0
0 4095 0
0 4095 247
0 4095 1636
0 4095 2584
0 4095 3264
0 4095 3705
0 4095 3988
0 4095 4095
0 4095 4095
730 0 0
708 0 14
686 0 490
659 0 873
622 0 1213
572 0 1547
504 0 1889
408 0 2249
275 0 2635
112 0 3002
0 0 3329
0 0 3608
0 0 3838
0 0 4020
0 0 4095
0 0 4095
0 0 4095
587 2 0
562 0 0
535 0 424
502 0 832
458 0 1183
398 0 1523
315 0 1870
215 0 2233
86 0 2622
2 0 2993
0 0 3322
0 0 3604
0 0 3836
0 0 4018
0 0 4095
0 0 4095
0 0 4095
413 516 0
383 438 0
349 350 350
309 240 788
262 107 1151
201 1 1499
122 0 1850
29 0 2217
1 0 2608
0 0 2984
0 0 3316
0 0 3600
0 0 3833
0 0 4017
0 0 4095
0 0 4095
0 0 4095
177 934 0
146 886 0
114 834 256
76 769 731
30 676 1112
14 541 1469
1 336 1826
0 78 2197
0 0 2592
0 0 2972
0 0 3308
0 0 3595
0 0 3830
0 0 4015
0 0 4095
0 0 4095
0 0 4095
0 1299 0
0 1264 0
0 1228 146
0 1183 653
0 1122 1060
0 1040 1429
0 924 1794
0 751 2171
0 465 2571
0 106 2958
0 0 3298
0 0 3589
0 0 3826
0 0 4012
0 0 4095
0 0 4095
0 0 4095
0 1655 0
0 1628 0
0 1600 19
0 1566 541
0 1520 990
0 1460 1377
0 1380 1753
0 1268 2138
0 1109 2543
0 860 2939
0 438 3285
0 2 3580
0 0 3821
0 0 4009
0 0 4095
0 0 4095
0 0 4095
0 2020 0
0 1998 0
0 1975 0
0 1948 373
0 1912 891
0 1865 1307
0 1803 1700
0 1720 2094
0 1607 2507
0 1448 2914
0 1213 3267
0 806 3569
0 201 3814
0 0 4005
0 0 4095
0 0 4095
0 0 4095
0 2404 0
0 2385 0
0 2367 0
0 2344 153
0 2315 747
0 2277 1211
0 2227 1627
0 2161 2037
0 2074 2460
0 1955 2881
0 1791 3245
0 1553 3555
0 1168 3805
0 453 4000
0 0 4095
0 0 4095
0 0 4095
0 2803 0
0 2789 0
0 2774 0
0 2757 0
0 2734 520
0 2704 1077
0 2665 1530
0 2613 1961
0 2544 2398
0 2450 2838
0 2323 3215
0 2149 3536
0 1901 3793
0 1516 3993
0 759 4095
0 1 4095
0 0 4095
0 3156 0
0 3147 0
0 3137 0
0 3125 0
0 3110 192
0 3090 873
0 3064 1394
0 3030 1859
0 2984 2316
0 2922 2778
0 2836 3175
0 2710 3510
0 2531 3777
0 2267 3983
0 1866 4095
0 1110 4095
0 121 4095
0 3469 0
0 3462 0
0 3456 0
0 3448 0
0 3438 0
0 3425 525
0 3407 1197
0 3384 1718
0 3354 2207
0 3313 2694
0 3258 3122
0 3180 3476
0 3070 3757
0 2907 3971
0 2649 4095
0 2233 4095
0 1480 4095
0 3728 0
0 3724 0
0 3720 0
0 3715 0
0 3708 0
0 3700 102
0 3689 878
0 3675 1517
0 3656 2057
0 3631 2581
0 3597 3049
0 3550 3430
0 3485 3729
0 3389 3955
0 3245 4095
0 3014 4095
0 2611 4095
0 3935 0
0 3933 0
0 3930 0
0 3927 0
0 3923 0
0 3918 0
0 3911 313
0 3903 1206
0 3892 1847
0 3876 2421
0 3856 2946
0 3829 3366
0 3792 3691
0 3738 3933
0 3660 4095
0 3540 4095
0 3342 4095
0 4085 0
0 4084 0
0 4083 0
0 4081 0
0 4079 0
0 4077 0
0 4073 0
0 4069 630
0 4064 1529
0 4056 2195
0 4046 2797
0 4033 3274
0 4013 3638
0 3984 3903
0 3942 4085
0 3880 4095
0 3784 4095
0 4095 0
0 4095 0
0 4095 0
0 4095 0
0 4095 0
0 4095 0
0 4095 0
0 4095 12
0 4095 956
0 4095 1862
0 4095 2566
0 4095 3140
0 4095 3561
0 4095 3860
0 4095 4064
0 4091 4095
0 4048 4095
0 4095 0
0 4095 0
0 4095 0
0 4095 0
0 4095 0
0 4095 0
0 4095 0
0 4095 0
0 4095 130
0 4095 1291
0 4095 2214
0 4095 2930
0 4095 3446
0 4095 3798
0 4095 4034
0 4095 4095
0 4095 4095
0 4095 0
0 4095 0
0 4095 0
0 4095 0
0 4095 0
0 4095 0
0 4095 0
0 4095 0
0 4095 0
0 4095 241
0 4095 1630
0 4095 2581
0 4095 3262
0 4095 3704
0 4095 3988
0 4095 4095
0 4095 4095
1119 0 0
1104 0 0
1090 0 472
1072 0 862
1048 0 1205
1017 0 1540
975 0 1884
920 0 2245
844 0 2631
736 0 3000
576 0 3327
331 0 3607
52 0 3838
0 0 4020
0 0 4095
0 0 4095
0 0 4095
1026 0 0
1010 0 0
994 0 404
974 0 820
948 0 1175
914 0 1517
868 0 1864
806 0 2229
719 0 2618
593 0 2990
407 0 3320
163 0 3603
0 0 3835
0 0 4018
0 0 4095
0 0 4095
