Postproduction/IWLTBAP - Humble/LUTs by IWLTBAP (3DL)/UTILITY/BMDFilm URSA to Rec.709/U-BMDFILM-URSA-V2-LTR.3dl
# Copyright: (C) Copyright 2010-2018 by IWLTBAP SAS
# Cannot be resold, shared or otherwise redistributed
# Website: https://luts.iwltbap.com
0 256 512 768 1023
0 0 0
0 0 1227
0 0 2641
0 0 3840
0 0 4095
0 1350 0
0 1181 1076
0 576 2577
0 0 3827
0 0 4095
0 2823 0
0 2756 547
0 2569 2405
0 1936 3794
0 0 4095
0 3939 0
0 3927 0
0 3896 1856
0 3797 3693
0 3353 4095
0 4095 0
0 4095 0
0 4095 0
0 4095 3265
0 4095 4095
1481 0 0
1428 0 1195
1283 0 2627
772 0 3837
0 0 4095
1107 1226 0
1035 1037 1039
826 320 2562
72 0 3824
0 0 4095
0 2774 0
0 2703 481
0 2508 2388
0 1852 3791
0 0 4095
0 3930 0
0 3918 0
0 3886 1834
0 3784 3689
0 3326 4095
0 4095 0
0 4095 0
0 4095 0
0 4095 3258
0 4095 4095
2999 0 0
2979 0 1108
2929 0 2591
2778 0 3830
2245 0 4095
2871 838 0
2849 543 939
2790 0 2524
2613 0 3817
2020 0 4095
2456 2638 0
2425 2560 311
2344 2346 2347
2112 1618 3783
1264 0 4095
284 3907 0
247 3894 0
177 3860 1779
0 3752 3679
0 3255 4095
0 4095 0
0 4095 0
0 4095 0
0 4095 3239
0 4095 4095
4029 0 0
4026 0 835
4017 0 2488
3994 0 3810
3922 0 4095
4008 0 0
4005 0 600
3996 0 2418
3971 0 3797
3893 0 4095
3949 2205 0
3945 2107 0
3935 1835 2232
3905 657 3761
3811 0 4095
3725 3838 0
3718 3823 0
3700 3782 1619
3648 3651 3652
3479 3021 4095
1213 4095 0
1169 4095 0
1048 4095 0
574 4095 3188
215 4095 4095
4095 0 0
4095 0 0
4095 0 2186
4095 0 3753
4095 0 4095
4095 0 0
4095 0 0
4095 0 2106
4095 0 3737
4095 0 4095
4095 109 0
4095 6 0
4095 0 1887
4095 0 3697
4095 0 4095
4095 3572 0
4095 3546 0
4095 3475 1059
4095 3239 3572
4095 1953 4095
4095 4095 0
4095 4095 0
4095 4095 0
4095 4095 3021
4095 4095 4095
