Postproduction/IWLTBAP - Humble/LUTs by IWLTBAP (3DL)/UTILITY/BMDFilm URSA to Rec.709/U-BMDFILM-URSA-V2-LTR.3dl
# Copyright: (C) Copyright 2010-2018 by IWLTBAP SAS
# Cannot be resold, shared or otherwise redistributed
# Website: https://luts.iwltbap.com
0 128 256 384 512 640 768 896 1023
0 0 0
0 0 518
0 0 1227
0 0 1898
0 0 2641
0 0 3331
0 0 3840
0 0 4095
0 0 4095
0 622 0
0 477 385
0 235 1166
0 0 1859
0 0 2614
0 0 3319
0 0 3834
0 0 4095
0 0 4095
0 1350 0
0 1281 178
0 1181 1076
0 993 1804
0 576 2577
0 0 3301
0 0 3827
0 0 4095
0 0 4095
0 2053 0
0 2009 0
0 1946 909
0 1840 1709
0 1648 2514
0 1268 3270
0 260 3815
0 0 4095
0 0 4095
0 2823 0
0 2796 0
0 2756 547
0 2688 1541
0 2569 2405
0 2351 3218
0 1936 3794
0 834 4095
0 0 4095
0 3478 0
0 3465 0
0 3448 0
0 3418 1211
0 3365 2214
0 3270 3126
0 3086 3758
0 2672 4095
0 1530 4095
0 3939 0
0 3934 0
0 3927 0
0 3915 338
0 3896 1856
0 3861 2950
0 3797 3693
0 3667 4095
0 3353 4095
0 4095 0
0 4095 0
0 4095 0
0 4095 0
0 4095 975
0 4095 2572
0 4095 3563
0 4095 4064
0 4050 4095
0 4095 0
0 4095 0
0 4095 0
0 4095 0
0 4095 0
0 4095 1641
0 4095 3265
0 4095 3989
0 4095 4095
730 0 0
686 0 490
622 0 1213
504 0 1889
275 0 2635
0 0 3329
0 0 3838
0 0 4095
0 0 4095
413 516 0
349 350 350
262 107 1151
122 0 1850
1 0 2608
0 0 3316
0 0 3833
0 0 4095
0 0 4095
0 1299 0
0 1228 146
0 1122 1060
0 924 1794
0 465 2571
0 0 3298
0 0 3826
0 0 4095
0 0 4095
0 2020 0
0 1975 0
0 1912 891
0 1803 1700
0 1607 2507
0 1213 3267
0 201 3814
0 0 4095
0 0 4095
0 2803 0
0 2774 0
0 2734 520
0 2665 1530
0 2544 2398
0 2323 3215
0 1901 3793
0 759 4095
0 0 4095
0 3469 0
0 3456 0
0 3438 0
0 3407 1197
0 3354 2207
0 3258 3122
0 3070 3757
0 2649 4095
0 1480 4095
0 3935 0
0 3930 0
0 3923 0
0 3911 313
0 3892 1847
0 3856 2946
0 3792 3691
0 3660 4095
0 3342 4095
0 4095 0
0 4095 0
0 4095 0
0 4095 0
0 4095 956
0 4095 2566
0 4095 3561
0 4095 4064
0 4048 4095
0 4095 0
0 4095 0
0 4095 0
0 4095 0
0 4095 0
0 4095 1630
0 4095 3262
0 4095 3988
0 4095 4095
1481 0 0
1459 0 449
1428 0 1195
1375 0 1877
1283 0 2627
1117 0 3325
772 0 3837
5 0 4095
0 0 4095
1337 343 0
1312 168 302
1277 2 1131
1218 0 1838
1114 0 2600
918 0 3312
477 0 3831
0 0 4095
0 0 4095
1107 1226 0
1078 1150 102
1035 1037 1039
961 819 1782
826 320 2562
550 0 3294
72 0 3824
0 0 4095
0 0 4095
563 1974 0
510 1928 0
447 1863 865
337 1751 1686
152 1548 2498
5 1132 3263
0 124 3812
0 0 4095
0 0 4095
0 2774 0
0 2745 0
0 2703 481
0 2632 1515
0 2508 2388
0 2284 3210
0 1852 3791
0 661 4095
0 0 4095
0 3456 0
0 3442 0
0 3424 0
0 3393 1178
0 3339 2197
0 3240 3117
0 3049 3755
0 2616 4095
0 1407 4095
0 3930 0
0 3925 0
0 3918 0
0 3906 289
0 3886 1834
0 3850 2940
0 3784 3689
0 3651 4095
0 3326 4095
0 4095 0
0 4095 0
0 4095 0
0 4095 0
0 4095 931
0 4095 2557
0 4095 3558
0 4095 4063
0 4045 4095
0 4095 0
0 4095 0
0 4095 0
0 4095 0
0 4095 0
0 4095 1615
0 4095 3258
0 4095 3987
0 4095 4095
2220 0 0
2206 0 377
2185 0 1162
2152 0 1857
2096 0 2613
2000 0 3318
1831 0 3834
1510 0 4095
696 0 4095
2128 47 0
2113 0 224
2092 0 1098
2057 0 1817
1997 0 2586
1896 0 3305
1716 0 3829
1367 0 4095
432 0 4095
1994 1095 0
1977 1010 26
1955 880 1002
1917 614 1760
1853 93 2548
1742 0 3287
1543 0 3821
1138 0 4095
135 0 4095
1749 1896 0
1731 1848 0
1704 1780 821
1661 1662 1663
1586 1446 2483
1454 984 3256
1204 11 3809
611 0 4095
0 0 4095
1236 2724 0
1208 2693 0
1169 2650 413
1102 2577 1489
979 2448 2373
746 2217 3203
356 1767 3788
0 516 4095
0 0 4095
47 3433 0
24 3420 0
0 3401 0
0 3369 1145
0 3313 2180
0 3210 3109
0 3012 3752
0 2562 4095
0 1270 4095
0 3921 0
0 3916 0
0 3909 0
0 3897 251
0 3876 1813
0 3840 2930
0 3772 3685
0 3635 4094
0 3300 4095
0 4095 0
0 4095 0
0 4095 0
0 4095 0
0 4095 888
0 4095 2544
0 4095 3553
0 4095 4062
0 4039 4095
0 4095 0
0 4095 0
0 4095 0
0 4095 0
0 4095 0
0 4095 1590
0 4095 3251
0 4095 3985
0 4095 4095
2999 0 0
2991 0 247
2979 0 1108
2960 0 1823
2929 0 2591
2874 0 3307
2778 0 3830
2595 0 4095
2245 0 4095
2947 0 0
2938 0 106
2926 0 1040
2906 0 1783
2873 0 2563
2815 0 3294
2711 0 3824
2520 0 4095
2153 0 4095
2871 838 0
2862 725 0
2849 543 939
2827 217 1725
2790 0 2524
2726 0 3275
2613 0 3817
2409 0 4095
2020 0 4095
2730 1761 0
2719 1709 0
2704 1634 744
2679 1504 1626
2637 1259 2459
2565 680 3244
2439 0 3804
2213 0 4095
1777 0 4095
2456 2638 0
2443 2606 0
2425 2560 311
2395 2482 1447
2344 2346 2347
2259 2104 3190
2112 1618 3783
1843 294 4095
1264 0 4095
1890 3396 0
1873 3381 0
1848 3361 0
1808 3327 1088
1738 3267 2151
1616 3159 3095
1385 2949 3746
899 2469 4095
168 1018 4095
284 3907 0
269 3902 0
247 3894 0
222 3882 192
177 3860 1779
83 3822 2914
0 3752 3679
0 3607 4094
0 3255 4095
0 4095 0
0 4095 0
0 4095 0
0 4095 0
0 4095 816
0 4095 2521
0 4095 3546
0 4095 4060
0 4030 4095
0 4095 0
0 4095 0
0 4095 0
0 4095 0
0 4095 0
0 4095 1549
0 4095 3239
0 4095 3982
0 4095 4095
3616 0 0
3613 0 50
3608 0 1013
3600 0 1767
3586 0 2552
3562 0 3289
3522 0 3822
3449 0 4095
3309 0 4095
3594 0 0
3590 0 0
3585 0 938
3576 0 1725
3562 0 2524
3537 0 3276
3495 0 3817
3418 0 4095
3272 0 4095
3561 228 0
3557 107 0
3551 3 825
3542 0 1665
3527 0 2484
3501 0 3257
3456 0 3809
3375 0 4095
3218 0 4095
3502 1510 0
3498 1448 0
3492 1359 600
3482 1198 1562
3465 862 2418
3436 189 3224
3387 0 3797
3296 0 4095
3125 0 4095
3394 2486 0
3388 2450 0
3381 2399 148
3369 2315 1374
3349 2168 2305
3316 1900 3169
3256 1328 3775
3150 69 4095
2941 0 4095
3170 3329 0
3163 3314 0
3154 3291 0
3138 3254 988
3112 3188 2104
3067 3070 3072
2989 2836 3738
2843 2303 4095
2551 709 4095
2612 3882 0
2600 3877 0
2584 3869 0
2557 3855 104
2512 3832 1720
2436 3791 2886
2302 3716 3669
2054 3560 4093
1543 3176 4095
710 4095 0
680 4095 0
635 4095 0
552 4095 0
409 4095 697
332 4095 2482
258 4095 3533
96 4093 4056
0 4015 4095
0 4095 0
0 4095 0
0 4095 0
0 4095 0
0 4095 0
0 4095 1477
0 4095 3220
0 4095 3977
0 4095 4095
4029 0 0
4027 0 0
4026 0 835
4022 0 1670
4017 0 2488
4009 0 3258
3994 0 3810
3968 0 4095
3922 0 4095
4020 0 0
4019 0 0
4017 0 744
4014 0 1626
4008 0 2459
3999 0 3244
3984 0 3805
3958 0 4095
3910 0 4095
4008 0 0
4007 0 0
4005 0 600
4001 0 1562
3996 0 2418
3987 0 3224
3971 0 3797
3943 0 4095
3893 0 4095
3987 951 0
3985 848 0
3983 688 317
3980 415 1451
3974 82 2349
3964 0 3191
3947 0 3784
3918 0 4095
3864 0 4095
3949 2205 0
3948 2164 0
3945 2107 0
3941 2008 1246
3935 1835 2232
3924 1499 3134
3905 657 3761
3872 0 4095
3811 0 4095
3878 3204 0
3876 3186 0
3873 3161 0
3868 3117 796
3860 3041 2024
3847 2902 3033
3824 2615 3723
3784 1988 4095
3708 256 4095
3725 3838 0
3722 3832 0
3718 3823 0
3712 3808 0
3700 3782 1619
3681 3736 2839
3648 3651 3652
3590 3473 4089
3479 3021 4095
3300 4095 0
3294 4095 0
3286 4095 0
3272 4095 0
3250 4095 514
3211 4095 2416
3144 4095 3512
3018 4076 4051
2782 3987 4095
1213 4095 0
1195 4095 0
1169 4095 0
1125 4095 0
1048 4095 0
904 4095 1347
574 4095 3188
326 4095 3969
215 4095 4095
4095 0 0
4095 0 0
4095 0 439
4095 0 1498
4095 0 2378
4095 0 3205
4095 0 3789
4095 0 4095
4095 0 4095
4095 0 0
4095 0 0
4095 0 304
4095 0 1447
4095 0 2348
4095 0 3190
4095 0 3783
4095 0 4095
4095 0 4095
4095 0 0
4095 0 0
4095 0 151
4095 0 1375
4095 0 2305
4095 0 3169
4095 0 3775
4095 0 4095
4095 0 4095
4095 0 0
4095 0 0
4095 0 0
4095 0 1247
4095 0 2233
4095 0 3134
4095 0 3761
4095 0 4095
4095 0 4095
4095 1632 0
4095 1574 0
4095 1490 0
4095 1339 1000
4095 1041 2109
4095 452 3074
4095 0 3738
4095 0 4095
4095 0 4095
4095 2953 0
4095 2929 0
4095 2896 0
4095 2839 418
4095 2735 1885
4095 2543 2965
4095 2170 3697
4095 1261 4095
4095 0 4095
4095 3753 0
4095 3745 0
4095 3735 0
4095 3716 0
4095 3685 1436
4095 3629 2754
4095 3524 3623
4095 3299 4081
4095 2714 4095
4081 4095 0
4080 4095 0
4079 4095 0
4076 4095 0
4073 4095 257
4066 4095 2302
4056 4087 3475
4037 4039 4041
4003 3931 4095
3819 4095 0
3817 4095 0
3814 4095 0
3808 4095 0
3799 4095 0
3783 4095 1078
3757 4095 3130
3710 4095 3955
3620 4095 4095
4095 0 0
4095 0 0
4095 0 0
4095 0 1159
4095 0 2186
4095 0 3112
4095 0 3753
4095 0 4095
4095 0 4095
4095 0 0
4095 0 0
4095 0 0
4095 0 1093
4095 0 2153
4095 0 3095
4095 0 3746
4095 0 4095
4095 0 4095
4095 0 0
4095 0 0
4095 0 0
4095 0 995
4095 0 2106
4095 0 3072
4095 0 3737
4095 0 4095
4095 0 4095
4095 0 0
4095 0 0
4095 0 0
4095 0 806
4095 0 2026
4095 0 3033
4095 0 3723
4095 0 4095
4095 0 4095
4095 109 0
4095 73 0
4095 6 0
4095 0 414
4095 0 1887
4095 0 2964
4095 0 3697
4095 0 4095
4095 0 4095
4095 2349 0
4095 2311 0
4095 2256 0
4095 2164 0
4095 2003 1630
4095 1701 2844
4095 969 3653
4095 114 4089
4095 0 4095
4095 3572 0
4095 3561 0
4095 3546 0
4095 3520 0
4095 3475 1059
4095 3394 2600
4095 3239 3572
4095 2897 4067
4095 1953 4095
4095 4095 0
4095 4095 0
4095 4092 0
4095 4086 0
4095 4076 5
4095 4059 2100
4095 4027 3409
4095 3964 4025
4095 3815 4095
4095 4095 0
4095 4095 0
4095 4095 0
4095 4095 0
4095 4095 0
4095 4095 697
4095 4095 3021
4095 4095 3931
4095 4095 4095
