Postproduction/IWLTBAP - Humble/LUTs by IWLTBAP (3DL)/UTILITY/BMDFilm URSA to Rec.709/U-BMDFILM-URSA-V1-LTR.3dl
# Copyright: (C) Copyright 2010-2018 by IWLTBAP SAS
# Cannot be resold, shared or otherwise redistributed
# Website: https://luts.iwltbap.com
0 64 128 192 256 320 384 448 512 576 640 704 768 832 896 960 1023
0 0 0
0 0 0
0 0 525
0 0 974
0 0 1357
0 0 1701
0 0 2017
0 0 2310
0 0 2583
0 0 2838
0 0 3075
0 0 3293
0 0 3487
0 0 3673
0 0 3839
0 0 3981
0 0 4095
0 0 0
0 0 0
0 0 349
0 0 861
0 0 1281
0 0 1648
0 0 1979
0 0 2282
0 0 2563
0 0 2823
0 0 3064
0 0 3286
0 0 3482
0 0 3669
0 0 3836
0 0 3979
0 0 4095
0 519 0
0 456 0
0 388 158
0 301 733
0 191 1198
0 60 1591
0 0 1938
0 0 2253
0 0 2542
0 0 2808
0 0 3054
0 0 3278
0 0 3476
0 0 3665
0 0 3833
0 0 3978
0 0 4095
0 968 0
0 927 0
0 884 8
0 829 554
0 755 1088
0 650 1517
0 499 1887
0 288 2217
0 54 2516
0 0 2789
0 0 3040
0 0 3269
0 0 3470
0 0 3660
0 0 3830
0 0 3976
0 0 4095
0 1351 0
0 1323 0
0 1294 0
0 1258 290
0 1210 928
0 1144 1415
0 1053 1818
0 923 2169
0 727 2482
0 422 2765
0 83 3023
0 0 3256
0 0 3461
0 0 3654
0 0 3826
0 0 3973
0 0 4095
0 1695 0
0 1676 0
0 1655 0
0 1630 28
0 1597 673
0 1553 1266
0 1493 1721
0 1410 2103
0 1294 2436
0 1121 2733
0 843 3000
0 394 3241
0 0 3450
0 0 3646
0 0 3820
0 0 3969
0 0 4094
0 2011 0
0 1997 0
0 1982 0
0 1964 0
0 1941 284
0 1910 1034
0 1869 1581
0 1813 2011
0 1737 2373
0 1630 2689
0 1472 2969
0 1224 3220
0 780 3436
0 173 3635
0 0 3813
0 0 3964
0 0 4092
0 2304 0
0 2294 0
0 2283 0
0 2270 0
0 2253 0
0 2231 630
0 2202 1365
0 2164 1878
0 2112 2286
0 2041 2630
0 1941 2928
0 1795 3191
0 1568 3417
0 1164 3621
0 387 3804
0 0 3958
0 0 4088
0 2577 0
0 2570 0
0 2562 0
0 2553 0
0 2541 0
0 2525 117
0 2504 990
0 2477 1674
0 2441 2160
0 2392 2548
0 2325 2873
0 2232 3153
0 2095 3392
0 1884 3603
0 1516 3792
0 733 3950
0 0 4083
0 2832 0
0 2827 0
0 2821 0
0 2814 0
0 2806 0
0 2794 0
0 2779 340
0 2760 1325
0 2735 1967
0 2701 2428
0 2655 2795
0 2593 3101
0 2505 3358
0 2377 3578
0 2180 3776
0 1840 3940
0 1061 4076
0 3070 0
0 3066 0
0 3062 0
0 3057 0
0 3051 0
0 3042 0
0 3032 0
0 3018 639
0 3000 1638
0 2976 2245
0 2944 2682
0 2902 3028
0 2843 3312
0 2761 3546
0 2641 3754
0 2457 3926
0 2142 4067
0 3288 0
0 3285 0
0 3283 0
0 3279 0
0 3275 0
0 3269 0
0 3262 0
0 3252 0
0 3239 935
0 3223 1934
0 3201 2509
0 3172 2922
0 3132 3245
0 3078 3501
0 3001 3725
0 2889 3907
0 2717 4055
0 3483 0
0 3481 0
0 3479 0
0 3476 0
0 3473 0
0 3469 0
0 3464 0
0 3457 0
0 3448 100
0 3437 1269
0 3422 2215
0 3403 2759
0 3377 3147
0 3342 3441
0 3293 3684
0 3224 3882
0 3121 4039
0 3669 0
0 3667 0
0 3666 0
0 3664 0
0 3662 0
0 3659 0
0 3655 0
0 3650 0
0 3643 0
0 3635 209
0 3624 1584
0 3610 2482
0 3591 2995
0 3566 3353
0 3532 3626
0 3487 3847
0 3424 4017
0 3835 0
0 3834 0
0 3833 0
0 3832 0
0 3830 0
0 3828 0
0 3826 0
0 3822 0
0 3818 0
0 3812 0
0 3805 290
0 3795 1887
0 3783 2735
0 3766 3215
0 3744 3541
0 3714 3796
0 3672 3987
0 3978 0
0 3978 0
0 3977 0
0 3976 0
0 3975 0
0 3974 0
0 3972 0
0 3970 0
0 3967 0
0 3963 0
0 3958 0
0 3952 343
0 3944 2181
0 3933 2974
0 3919 3415
0 3900 3722
0 3874 3944
0 4095 0
0 4095 0
0 4095 0
0 4095 0
0 4095 0
0 4095 0
0 4095 0
0 4094 0
0 4093 0
0 4090 0
0 4087 0
0 4083 0
0 4078 363
0 4071 2466
0 4062 3199
0 4050 3602
0 4033 3880
0 0 0
0 0 21
0 0 551
0 0 991
0 0 1369
0 0 1710
0 0 2023
0 0 2314
0 0 2586
0 0 2840
0 0 3077
0 0 3294
0 0 3488
0 0 3674
0 0 3839
0 0 3981
0 0 4095
0 0 0
0 0 0
0 0 379
0 0 881
0 0 1294
0 0 1657
0 0 1985
0 0 2287
0 0 2566
0 0 2825
0 0 3066
0 0 3287
0 0 3482
0 0 3670
0 0 3836
0 0 3980
0 0 4095
0 444 0
0 377 0
0 304 188
0 217 755
0 112 1212
0 10 1600
0 0 1945
0 0 2258
0 0 2546
0 0 2810
0 0 3055
0 0 3279
0 0 3477
0 0 3666
0 0 3834
0 0 3978
0 0 4095
0 919 0
0 876 0
0 831 13
0 774 580
0 695 1104
0 583 1527
0 424 1894
0 214 2222
0 20 2520
0 0 2792
0 0 3042
0 0 3270
0 0 3470
0 0 3661
0 0 3830
0 0 3976
0 0 4095
0 1318 0
0 1289 0
0 1259 0
0 1221 317
0 1171 946
0 1103 1426
0 1008 1825
0 872 2174
0 665 2486
0 355 2768
0 45 3025
0 0 3258
0 0 3462
0 0 3655
0 0 3826
0 0 3973
0 0 4095
0 1672 0
0 1652 0
0 1631 0
0 1605 36
0 1571 697
0 1525 1279
0 1464 1729
0 1379 2108
0 1258 2440
0 1079 2735
0 788 3002
0 329 3242
0 0 3451
0 0 3646
0 0 3821
0 0 3970
0 0 4095
0 1994 0
0 1980 0
0 1965 0
0 1946 0
0 1922 309
0 1891 1050
0 1849 1591
0 1792 2017
0 1715 2378
0 1605 2692
0 1443 2971
0 1186 3221
0 723 3437
0 141 3636
0 0 3814
0 0 3965
0 0 4092
0 2292 0
0 2281 0
0 2271 0
0 2257 0
0 2240 0
0 2218 654
0 2189 1377
0 2150 1885
0 2097 2291
0 2024 2633
0 1922 2931
0 1774 3193
0 1540 3418
0 1123 3622
0 352 3804
0 0 3959
0 0 4088
0 2569 0
0 2561 0
0 2553 0
0 2544 0
0 2531 0
0 2515 127
0 2495 1007
0 2467 1683
0 2431 2165
0 2381 2551
0 2313 2875
0 2218 3155
0 2080 3393
0 1865 3603
0 1487 3792
0 687 3951
0 0 4083
0 2826 0
0 2820 0
0 2815 0
0 2808 0
0 2799 0
0 2787 0
0 2772 363
0 2753 1337
0 2727 1973
0 2693 2432
0 2647 2797
0 2584 3103
0 2495 3359
0 2366 3579
0 2166 3776
0 1819 3940
0 1019 4076
0 3065 0
0 3061 0
0 3057 0
0 3052 0
0 3046 0
0 3038 0
0 3027 0
0 3013 655
0 2995 1647
0 2971 2250
0 2939 2685
0 2896 3030
0 2837 3313
0 2754 3546
0 2633 3755
0 2447 3926
0 2127 4067
0 3285 0
0 3282 0
0 3279 0
0 3276 0
0 3271 0
0 3266 0
0 3258 0
0 3248 0
0 3236 953
0 3219 1941
0 3197 2512
0 3168 2924
0 3128 3247
0 3073 3502
0 2996 3725
0 2883 3908
0 2710 4055
0 3480 0
0 3478 0
0 3476 0
0 3474 0
0 3471 0
0 3466 0
0 3461 0
0 3455 0
0 3446 109
0 3434 1282
0 3420 2220
0 3400 2761
0 3374 3149
0 3339 3442
0 3290 3685
0 3220 3882
0 3117 4039
0 3667 0
0 3666 0
0 3664 0
0 3662 0
0 3660 0
0 3657 0
0 3653 0
0 3648 0
0 3641 0
0 3633 215
0 3622 1594
0 3608 2486
0 3589 2997
0 3564 3354
0 3530 3627
0 3484 3847
0 3421 4018
0 3834 0
0 3833 0
0 3832 0
0 3830 0
0 3829 0
0 3827 0
0 3824 0
0 3821 0
0 3817 0
0 3811 0
0 3804 295
0 3794 1894
0 3782 2738
0 3765 3217
0 3743 3542
0 3712 3797
0 3670 3988
0 3977 0
0 3977 0
0 3976 0
0 3975 0
0 3974 0
0 3973 0
0 3971 0
0 3969 0
0 3966 0
0 3962 0
0 3957 0
0 3951 346
0 3943 2186
0 3932 2976
0 3918 3416
0 3899 3722
0 3872 3945
0 4095 0
0 4095 0
0 4095 0
0 4095 0
0 4095 0
0 4095 0
0 4095 0
0 4094 0
0 4092 0
0 4090 0
0 4086 0
0 4082 0
0 4077 366
0 4070 2470
0 4061 3200
0 4049 3603
0 4033 3880
496 0 0
468 0 52
439 0 577
404 0 1008
357 0 1381
294 0 1718
215 0 2029
120 0 2319
19 0 2590
0 0 2842
0 0 3078
0 0 3295
0 0 3489
0 0 3674
0 0 3839
0 0 3982
0 0 4095
393 0 0
363 0 0
332 0 410
293 0 900
245 0 1307
184 0 1666
110 0 1991
23 0 2291
0 0 2570
0 0 2828
0 0 3068
0 0 3288
0 0 3483
0 0 3670
0 0 3837
0 0 3980
0 0 4095
279 362 0
250 290 0
218 219 219
181 135 777
135 34 1226
79 0 1610
15 0 1951
0 0 2263
0 0 2549
0 0 2813
0 0 3057
0 0 3280
0 0 3478
0 0 3666
0 0 3834
0 0 3978
0 0 4095
148 868 0
119 822 0
90 774 19
56 714 606
16 629 1119
2 511 1538
0 344 1901
0 143 2227
0 0 2523
0 0 2794
0 0 3044
0 0 3271
0 0 3471
0 0 3661
0 0 3831
0 0 3976
0 0 4095
14 1283 0
7 1253 0
0 1222 0
0 1183 343
0 1131 964
0 1060 1437
0 961 1833
0 818 2179
0 599 2489
0 284 2770
0 5 3027
0 0 3259
0 0 3463
0 0 3655
0 0 3827
0 0 3973
0 0 4095
0 1647 0
0 1627 0
0 1605 0
0 1579 44
0 1544 719
0 1497 1292
0 1434 1738
0 1346 2114
0 1221 2444
0 1034 2738
0 729 3004
0 272 3243
0 0 3452
0 0 3647
0 0 3821
0 0 3970
0 0 4095
0 1977 0
0 1962 0
0 1947 0
0 1928 0
0 1904 334
0 1871 1067
0 1829 1600
0 1771 2023
0 1691 2382
0 1578 2695
0 1412 2973
0 1145 3222
0 664 3438
0 107 3636
0 0 3814
0 0 3965
0 0 4092
0 2279 0
0 2269 0
0 2258 0
0 2244 0
0 2227 5
0 2204 677
0 2174 1389
0 2135 1892
0 2081 2295
0 2007 2636
0 1904 2933
0 1751 3194
0 1512 3419
0 1080 3623
0 315 3805
0 0 3959
0 0 4088
0 2559 0
0 2552 0
0 2544 0
0 2534 0
0 2522 0
0 2506 136
0 2485 1024
0 2457 1692
0 2420 2171
0 2370 2554
0 2301 2877
0 2205 3156
0 2064 3394
0 1844 3604
0 1456 3793
0 639 3951
0 0 4083
0 2819 0
0 2813 0
0 2808 0
0 2801 0
0 2792 0
0 2780 0
0 2765 385
0 2746 1350
0 2720 1980
0 2685 2436
0 2639 2800
0 2575 3104
0 2485 3360
0 2354 3580
0 2151 3777
0 1798 3941
0 979 4076
0 3060 0
0 3056 0
0 3052 0
0 3047 0
0 3041 0
0 3033 0
0 3022 0
0 3008 672
0 2989 1657
0 2965 2254
0 2933 2688
0 2890 3032
0 2830 3314
0 2746 3547
0 2625 3755
0 2436 3927
0 2111 4067
0 3282 0
0 3279 0
0 3276 0
0 3272 0
0 3268 0
0 3262 0
0 3255 0
0 3245 0
0 3232 970
0 3215 1948
0 3193 2516
0 3164 2926
0 3124 3248
0 3068 3503
0 2990 3726
0 2877 3908
0 2702 4055
0 3478 0
0 3476 0
0 3474 0
0 3471 0
0 3468 0
0 3464 0
0 3459 0
0 3452 0
0 3443 117
0 3432 1295
0 3417 2225
0 3397 2764
0 3371 3151
0 3336 3442
0 3287 3685
0 3216 3883
0 3112 4040
0 3665 0
0 3664 0
0 3662 0
0 3660 0
0 3658 0
0 3655 0
0 3651 0
0 3646 0
0 3640 0
0 3631 221
0 3620 1604
0 3606 2489
0 3587 2998
0 3562 3355
0 3528 3627
0 3482 3848
0 3418 4018
0 3833 0
0 3832 0
0 3830 0
0 3829 0
0 3828 0
0 3826 0
0 3823 0
0 3820 0
0 3815 0
0 3810 0
0 3802 300
0 3793 1902
0 3780 2740
0 3764 3218
0 3741 3543
0 3711 3797
0 3668 3988
0 3977 0
0 3976 0
0 3975 0
0 3974 0
0 3973 0
0 3972 0
0 3970 0
0 3968 0
0 3965 0
0 3961 0
0 3957 0
0 3950 349
0 3942 2192
0 3931 2978
0 3917 3417
0 3898 3723
0 3871 3945
0 4095 0
0 4095 0
0 4095 0
0 4095 0
0 4095 0
0 4095 0
0 4095 0
0 4093 0
0 4091 0
0 4089 0
0 4086 0
0 4082 0
0 4076 368
0 4070 2474
0 4060 3202
0 4048 3604
0 4032 3881
943 0 0
925 0 89
906 0 608
884 0 1028
854 0 1395
814 0 1728
761 0 2036
688 0 2324
587 0 2593
443 0 2845
248 0 3081
47 0 3297
0 0 3490
0 0 3675
0 0 3840
0 0 3982
0 0 4095
877 0 0
858 0 0
838 0 445
814 0 922
781 0 1322
739 0 1676
681 0 1999
602 0 2297
493 0 2574
340 0 2831
155 0 3070
1 0 3289
0 0 3485
0 0 3671
0 0 3837
0 0 3980
