Postproduction/IWLTBAP - Humble/LUTs by IWLTBAP (3DL)/UTILITY/BMDFilm URSA to Rec.709/U-BMDFILM-URSA-V1-LTR.3dl
# Copyright: (C) Copyright 2010-2018 by IWLTBAP SAS
# Cannot be resold, shared or otherwise redistributed
# Website: https://luts.iwltbap.com
0 256 512 768 1023
0 0 0
0 0 1357
0 0 2583
0 0 3487
0 0 4095
0 1351 0
0 1210 928
0 727 2482
0 0 3461
0 0 4095
0 2577 0
0 2541 0
0 2441 2160
0 2095 3392
0 0 4083
0 3483 0
0 3473 0
0 3448 100
0 3377 3147
0 3121 4039
0 4095 0
0 4095 0
0 4093 0
0 4078 363
0 4033 3880
1326 0 0
1265 0 1413
1095 0 2598
422 0 3491
0 0 4095
1089 1181 0
1012 1012 1011
788 404 2499
40 0 3465
0 0 4095
149 2534 0
69 2495 0
0 2389 2185
0 2018 3396
0 0 4084
0 3471 0
0 3461 0
0 3436 140
0 3363 3155
0 3100 4040
0 4095 0
0 4095 0
0 4090 0
0 4075 385
0 4030 3882
2553 0 0
2537 0 1540
2495 0 2636
2370 0 3501
1910 0 4095
2493 557 0
2476 278 1195
2431 0 2541
2296 0 3476
1783 0 4095
2322 2413 0
2301 2369 0
2245 2245 2245
2076 1792 3408
1364 0 4086
1569 3442 0
1521 3431 0
1386 3405 233
907 3328 3173
0 3043 4043
0 4091 0
0 4089 0
0 4083 0
0 4068 653
0 4022 3886
3464 0 851
3459 0 1819
3449 0 2728
3419 0 3528
3330 0 4095
3448 0 81
3444 0 1569
3433 0 2645
3402 0 3504
3310 0 4095
3408 1969 0
3403 1894 372
3391 1677 2388
3358 659 3439
3258 0 4092
3283 3355 0
3277 3343 0
3262 3312 647
3219 3219 3219
3088 2865 4051
2705 4073 0
2692 4071 0
2657 4065 0
2555 4048 1089
2184 3999 3898
4089 0 1847
4087 0 2314
4085 0 2934
4079 0 3596
4060 0 4095
4085 0 1605
4084 0 2174
4082 0 2870
4075 0 3574
4056 0 4095
4076 0 443
4075 0 1684
4073 0 2683
4066 0 3515
4047 0 4095
4051 3022 0
4050 3001 0
4047 2946 1738
4040 2776 3327
4019 1940 4070
3971 4019 0
3970 4016 0
3966 4009 0
3956 3989 1869
3929 3929 3929
