Postproduction/IWLTBAP - Humble/LUTs by IWLTBAP (3DL)/UTILITY/BMDFilm URSA to Rec.709/U-BMDFILM-URSA-V3-LTR.3dl
# Copyright: (C) Copyright 2010-2018 by IWLTBAP SAS
# Cannot be resold, shared or otherwise redistributed
# Website: https://luts.iwltbap.com
0 256 512 768 1023
0 0 0
0 0 2580
0 0 3529
0 0 3847
0 0 4095
0 1222 0
0 1013 1022
0 272 3438
0 229 3846
0 229 4095
0 2556 0
0 2521 269
0 2338 2359
0 1548 3842
0 457 4095
0 3855 0
0 3854 229
0 3852 1752
0 3844 3836
0 3659 4095
0 4095 0
0 4095 229
0 4095 457
0 4095 3804
0 4095 4095
2663 0 0
2222 0 1851
325 0 3528
286 0 3847
229 0 4095
1006 1006 0
839 838 842
291 252 3012
234 229 3846
229 229 4095
230 2571 0
229 2545 269
229 2377 2373
229 1656 3828
229 457 4095
229 3854 0
229 3853 229
229 3851 1736
229 3843 3836
229 3724 4095
229 4095 0
229 4095 229
229 4095 580
229 4095 3804
229 4095 4095
3556 0 0
3554 0 311
3551 0 3525
1566 0 3847
625 0 4095
2944 336 0
2830 284 380
2643 229 2452
2028 229 3846
608 229 4095
2604 2583 0
2555 2567 252
2389 2392 2390
1949 1613 3831
672 457 4095
959 3852 0
889 3851 229
649 3849 1939
457 3841 3835
457 3777 4095
1808 4095 0
1950 4095 229
2072 4095 1781
2377 4095 3802
2788 4095 4095
3862 0 0
3861 0 291
3861 0 1192
3859 0 3845
3853 0 4095
3860 229 0
3860 229 273
3859 229 1954
3844 229 3762
3679 229 4095
3856 2246 0
3855 2215 229
3854 1963 2198
3836 650 3807
3711 457 4095
3839 3847 0
3838 3846 229
3837 3843 2400
3833 3833 3833
3820 3786 4095
3651 4095 0
3648 4095 1286
3639 4095 3283
3603 4095 3799
3576 4095 4095
4095 0 0
4095 0 229
4095 0 621
4095 0 3770
4095 0 4095
4095 229 0
4095 229 229
4095 229 1098
4095 229 3561
4095 229 4095
4095 465 0
4095 458 229
4095 457 1575
4095 457 3736
4095 457 4095
4095 3827 0
4095 3825 229
4095 3820 2200
4095 3802 3827
4095 3451 4095
4095 4095 2875
4095 4095 3103
4095 4095 3332
4095 4095 3786
4095 4095 4095
