Postproduction/IWLTBAP - Humble/LUTs by IWLTBAP (3DL)/UTILITY/BMDFilm URSA to Rec.709/U-BMDFILM-URSA-V3-LTR.3dl
# Copyright: (C) Copyright 2010-2018 by IWLTBAP SAS
# Cannot be resold, shared or otherwise redistributed
# Website: https://luts.iwltbap.com
0 128 256 384 512 640 768 896 1023
0 0 0
0 0 944
0 0 2580
0 0 3359
0 0 3529
0 0 3695
0 0 3847
0 0 3981
0 0 4095
0 596 0
0 429 411
0 132 2043
0 114 3356
0 114 3527
0 114 3694
0 114 3847
0 114 3981
0 114 4095
0 1222 0
0 1161 128
0 1013 1022
0 563 2158
0 272 3438
0 229 3693
0 229 3846
0 229 3981
0 229 4095
0 1814 0
0 1786 114
0 1723 580
0 1600 1615
0 1319 2584
0 566 3557
0 362 3845
0 343 3981
0 343 4095
0 2556 0
0 2545 114
0 2521 269
0 2461 1399
0 2338 2359
0 2092 3289
0 1548 3842
0 519 3981
0 457 4095
0 3415 0
0 3423 114
0 3425 229
0 3420 890
0 3383 2270
0 3282 3336
0 3060 3841
0 2596 3981
0 1218 4095
0 3855 0
0 3854 114
0 3854 229
0 3853 368
0 3852 1752
0 3849 3337
0 3844 3836
0 3832 3981
0 3659 4095
0 3981 0
0 3981 114
0 3981 229
0 3981 343
0 3981 530
0 3981 3148
0 3981 3827
0 3981 3978
0 3977 4095
0 4095 0
0 4095 114
0 4095 229
0 4095 343
0 4095 457
0 4095 2822
0 4095 3804
0 4095 3973
0 4095 4095
1017 0 0
856 0 693
342 0 2261
152 0 3359
135 0 3529
114 0 3695
114 0 3847
114 0 3981
114 0 4095
385 392 0
272 256 269
135 122 1815
123 114 3355
114 114 3527
114 114 3694
114 114 3847
114 114 3981
114 114 4095
114 1140 0
114 1085 125
114 951 952
114 563 1989
114 263 3289
114 229 3693
114 229 3846
114 229 3981
114 229 4095
114 1781 0
114 1756 114
114 1700 586
114 1585 1587
114 1326 2512
114 635 3483
114 358 3845
114 343 3981
114 343 4095
114 2564 0
114 2555 114
114 2533 268
114 2476 1417
114 2359 2365
114 2121 3277
114 1613 3836
114 514 3981
114 457 4095
114 3456 0
114 3465 114
114 3469 229
114 3465 865
114 3432 2295
114 3339 3371
114 3120 3841
114 2652 3981
114 1334 4095
114 3854 0
114 3854 114
114 3854 229
114 3853 366
114 3851 1729
114 3849 3372
114 3844 3836
114 3834 3981
114 3694 4095
114 3981 0
114 3981 114
114 3981 229
114 3981 343
114 3981 773
114 3981 3266
114 3981 3826
114 3981 3978
114 3977 4095
114 4095 0
114 4095 114
114 4095 229
114 4095 343
114 4095 457
114 4095 3062
114 4095 3804
114 4095 3973
114 4095 4095
2663 0 0
2491 0 167
2222 0 1851
1416 0 3358
325 0 3528
312 0 3695
286 0 3847
229 0 3981
229 0 4095
1782 140 0
1719 127 137
1523 114 1375
962 114 2866
312 114 3526
297 114 3694
264 114 3847
229 114 3981
229 114 4095
1006 1006 0
952 958 122
839 838 842
610 510 1792
291 252 3012
270 229 3692
234 229 3846
229 229 3981
229 229 4095
582 1743 0
525 1722 114
409 1672 576
276 1565 1560
240 1321 2452
229 665 3413
229 352 3845
229 343 3981
229 343 4095
230 2571 0
229 2564 114
229 2545 269
229 2492 1430
229 2377 2373
229 2144 3275
229 1656 3828
229 554 3981
229 457 4095
229 3495 0
229 3503 114
229 3507 229
229 3504 822
229 3474 2314
229 3387 3403
229 3172 3841
229 2699 3981
229 1394 4095
229 3854 0
229 3854 114
229 3853 229
229 3852 364
229 3851 1736
229 3848 3408
229 3843 3836
229 3833 3981
229 3724 4095
229 3981 0
229 3981 114
229 3981 229
229 3981 343
229 3981 947
229 3981 3373
229 3981 3826
229 3981 3978
229 3977 4095
229 4095 0
229 4095 114
229 4095 229
229 4095 343
229 4095 580
229 4095 3271
229 4095 3804
229 4095 3973
229 4095 4095
3383 0 0
3382 0 142
3381 0 590
3378 0 3245
2835 0 3527
492 0 3694
480 0 3847
456 0 3981
395 0 4095
3180 118 0
3040 114 131
2729 114 801
2403 114 2145
1925 114 3406
760 114 3693
471 114 3847
445 114 3981
375 114 4095
1943 784 0
1898 734 116
1817 609 685
1726 344 1643
1556 236 2722
1012 229 3641
458 229 3846
428 229 3981
353 229 4095
1691 1681 0
1661 1662 114
1604 1618 504
1515 1514 1516
1356 1279 2375
1014 642 3290
435 344 3845
389 343 3981
343 343 4095
1487 2591 0
1450 2587 114
1387 2572 259
1251 2522 1424
996 2404 2390
607 2165 3291
369 1672 3825
343 547 3981
343 457 4095
457 3528 0
384 3535 114
348 3538 229
343 3536 755
343 3508 2324
343 3422 3430
343 3212 3841
343 2725 3981
343 1323 4095
343 3853 0
343 3853 114
343 3853 229
343 3852 362
343 3850 1802
343 3847 3446
343 3842 3836
343 3832 3981
343 3754 4095
343 3981 0
343 3981 114
343 3981 229
343 3981 343
343 3981 1113
343 3981 3467
343 3981 3826
343 3981 3978
343 3977 4095
343 4095 0
343 4095 114
343 4095 229
343 4095 343
343 4095 1065
343 4095 3435
343 4095 3803
384 4095 3973
443 4095 4095
3556 0 0
3555 0 133
3554 0 311
3553 0 1565
3551 0 3525
3529 0 3693
1566 0 3847
651 0 3981
625 0 4095
3552 114 0
3551 114 122
3529 114 311
3425 114 1581
3218 114 2887
2829 114 3692
2102 114 3846
834 114 3981
618 114 4095
2944 336 0
2903 321 114
2830 284 380
2772 245 1462
2643 229 2452
2402 229 3444
2028 229 3846
1227 229 3981
608 229 4095
2625 1557 0
2598 1541 114
2552 1497 350
2487 1386 1441
2390 1111 2310
2234 485 3202
1963 343 3828
1462 343 3981
678 343 4095
2604 2583 0
2585 2581 114
2555 2567 252
2491 2515 1344
2389 2392 2390
2219 2141 3322
1949 1613 3831
1447 479 3981
672 457 4095
2438 3584 0
2405 3592 114
2360 3595 229
2256 3593 568
2078 3564 2304
1749 3480 3475
1187 3266 3840
650 2737 3981
470 1114 4095
959 3852 0
921 3852 114
889 3851 229
835 3850 357
649 3849 1939
463 3846 3489
457 3841 3835
457 3830 3981
457 3777 4095
898 3981 0
920 3981 114
919 3981 229
895 3981 343
770 3981 1422
658 3981 3542
576 3981 3825
482 3981 3978
479 3976 4095
1808 4095 0
1882 4095 114
1950 4095 229
2012 4095 367
2072 4095 1781
2197 4095 3530
2377 4095 3802
2578 4095 3972
2788 4095 4095
3716 0 0
3716 0 118
3716 0 304
3715 0 475
3714 0 2809
3712 0 3692
3709 0 3846
3555 0 3981
1458 0 4095
3715 114 0
3714 114 114
3714 114 299
3713 114 855
3712 114 2367
3686 114 3529
3546 114 3846
3188 114 3981
2465 114 4095
3691 246 0
3687 237 114
3669 229 290
3607 229 1151
3524 229 2209
3405 229 3217
3221 229 3839
2946 229 3981
2551 229 4095
3474 1286 0
3456 1266 114
3427 1211 273
3383 1047 1294
3323 686 2213
3233 357 3101
3085 343 3772
2879 343 3981
2588 343 4095
3540 2489 0
3534 2486 114
3525 2468 240
3502 2410 1130
3461 2272 2333
3378 1979 3317
3209 1273 3830
2901 462 3981
2623 457 4095
3621 3595 0
3617 3603 114
3611 3606 229
3595 3601 417
3556 3569 2209
3481 3479 3486
3335 3245 3840
3054 2644 3981
2566 971 4095
3558 3851 0
3555 3850 114
3550 3850 229
3540 3849 351
3512 3847 2240
3447 3844 3589
3309 3838 3835
3003 3826 3981
2235 3798 4095
2949 3981 0
2948 3981 114
2934 3981 229
2890 3981 343
2785 3981 1720
2708 3981 3601
2603 3981 3824
2379 3981 3978
2035 3975 4095
3147 4095 0
3190 4095 114
3231 4095 229
3271 4095 806
3310 4095 2448
3385 4095 3556
3446 4095 3801
3446 4095 3972
3446 4095 4095
3862 0 0
3861 0 114
3861 0 291
3861 0 468
3861 0 1192
3860 0 3588
3859 0 3845
3857 0 3981
3853 0 4095
3861 114 0
3861 114 114
3861 114 284
3860 114 464
3860 114 1855
3859 114 3191
3858 114 3845
3856 114 3981
3816 114 4095
3860 229 0
3860 229 114
3860 229 273
3859 229 646
3859 229 1954
3858 229 2996
3844 229 3762
3783 229 3981
3679 229 4095
3858 619 0
3858 588 114
3858 528 252
3858 398 938
3856 349 2033
3832 343 2981
3793 343 3718
3731 343 3981
3646 343 4095
3856 2246 0
3855 2239 114
3855 2215 229
3855 2141 735
3854 1963 2198
3854 1544 3251
3836 650 3807
3775 457 3981
3711 457 4095
3850 3544 0
3850 3551 114
3850 3553 229
3849 3546 402
3849 3508 2096
3848 3399 3463
3846 3098 3839
3843 2302 3981
3796 591 4095
3839 3847 0
3839 3847 114
3838 3846 229
3838 3845 343
3837 3843 2400
3836 3840 3632
3833 3833 3833
3829 3820 3980
3820 3786 4095
3807 3981 0
3807 3981 114
3806 3981 235
3805 3981 815
3803 3981 2733
3800 3981 3627
3795 3981 3823
3786 3979 3977
3768 3973 4095
3651 4095 0
3650 4095 422
3648 4095 1286
3644 4095 2669
3639 4095 3283
3628 4095 3547
3603 4095 3799
3585 4095 3971
3576 4095 4095
3981 0 0
3981 0 114
3981 0 261
3981 0 455
3981 0 635
3981 0 2915
3981 0 3844
3981 0 3981
3981 0 4095
3981 114 0
3981 114 114
3981 114 251
3981 114 451
3981 114 1146
3981 114 2818
3981 114 3779
3981 114 3981
3981 114 4095
3981 229 0
3981 229 114
3981 229 240
3981 229 449
3981 229 1648
3981 229 2794
3981 229 3669
3981 229 3981
3981 229 4095
3981 343 0
3981 343 114
3981 343 229
3981 343 453
3981 343 1827
3981 343 2862
3981 343 3669
3981 343 3981
3981 343 4095
3981 1713 0
3981 1692 114
3981 1641 229
3981 1495 436
3981 1094 1964
3981 585 3056
3981 457 3760
3981 457 3981
3981 457 4095
3981 3380 0
3981 3390 114
3981 3395 229
3981 3389 374
3981 3329 1865
3981 3142 3390
3981 2679 3837
3981 1243 3981
3981 571 4095
3981 3841 0
3981 3840 114
3981 3839 229
3981 3838 347
3981 3836 2430
3981 3832 3640
3981 3824 3831
3981 3807 3980
3981 3762 4095
3980 3981 0
3980 3981 193
3979 3981 627
3979 3981 2290
3979 3981 3240
3979 3981 3618
3978 3980 3820
3976 3977 3977
3974 3968 4095
3960 4095 2875
3960 4095 2989
3960 4095 3103
3959 4095 3217
3959 4095 3332
3957 4095 3527
3955 4095 3794
3952 4095 3970
3945 4095 4095
4095 0 0
4095 0 114
4095 0 229
4095 0 430
4095 0 621
4095 0 1700
4095 0 3770
4095 0 3981
4095 0 4095
4095 114 0
4095 114 114
4095 114 229
4095 114 425
4095 114 629
4095 114 2385
4095 114 3611
4095 114 3981
4095 114 4095
4095 229 0
4095 229 114
4095 229 229
4095 229 417
4095 229 1098
4095 229 2558
4095 229 3561
4095 229 3981
4095 229 4095
4095 343 0
4095 343 114
4095 343 229
4095 343 403
4095 343 1494
4095 343 2707
4095 343 3615
4095 343 3981
4095 343 4095
4095 465 0
4095 462 114
4095 458 229
4095 457 374
4095 457 1575
4095 457 2865
4095 457 3736
4095 457 3981
4095 457 4095
4095 2855 0
4095 2857 114
4095 2845 229
4095 2810 343
4095 2667 1196
4095 2276 3171
4095 1217 3833
4095 580 3980
4095 571 4095
4095 3827 0
4095 3827 114
4095 3825 229
4095 3823 343
4095 3820 2200
4095 3814 3618
4095 3802 3827
4095 3777 3979
4095 3451 4095
4095 3981 179
4095 3981 451
4095 3981 2298
4095 3980 3114
4095 3979 3332
4095 3978 3603
4095 3976 3815
4095 3971 3975
4095 3960 4095
4095 4095 2875
4095 4095 2989
4095 4095 3103
4095 4095 3217
4095 4095 3332
4095 4095 3498
4095 4095 3786
4095 4095 3969
4095 4095 4095
