Postproduction/IWLTBAP - Humble/LUTs by IWLTBAP (3DL)/BONUS/Aspen/IWLTBAP Aspen - V-Log.3dl
# Copyright: (C) Copyright 2010-2017 by IWLTBAP SAS for SmallHD
# Cannot be resold, shared or otherwise redistributed
# Website: https://luts.iwltbap.com
# IWLTBAP Aspen (V-Log)
0 128 256 384 512 640 768 896 1023
32  64 112
18  64 112
16  64 156
16  64 224
64  80 297
220 150 564
754 277 1188
981 305 1300
1043 321 1316
32  96 142
32  96 158
16  94 204
16  94 270
72  96 351
204 160 620
722 293 1220
935 321 1316
995 337 1348
32 188 236
32 188 252
32 188 325
16 188 451
16 188 549
160 204 786
670 309 1264
839 337 1332
875 337 1365
42 405 543
42 405 574
32 399 636
16 389 821
0 373 1142
11 383 1363
335 369 1407
533 315 1358
566 321 1391
160 931 1043
160 915 1073
144 895 1136
96 867 1302
72 851 1485
48 847 1808
172 1067 2232
321 1156 2256
337 1180 2264
114 1927 1915
120 1917 1941
130 1917 1985
130 1911 2057
112 1900 2181
132 1862 2451
166 1866 2814
184 1894 2928
184 1894 2948
939 3003 2135
923 3003 2171
923 3003 2216
907 2999 2290
903 2986 2432
903 2986 2683
839 2950 3292
827 2934 3372
823 2930 3392
979 3099 2149
979 3099 2183
963 3085 2228
947 3083 2290
931 3069 2432
937 3083 2689
883 3047 3292
867 3021 3374
867 3005 3404
1011 3131 2119
995 3131 2165
995 3131 2212
979 3115 2274
947 3115 2408
947 3115 2667
911 3095 3304
883 3067 3388
883 3051 3420
32  64  80
32  64  96
32  64 130
30  64 204
88  80 297
252 158 564
853 293 1204
1108 337 1302
1168 337 1332
32  96 126
32  94 128
32  94 186
30  94 250
88 110 343
236 174 620
806 313 1234
1061 367 1332
1122 369 1365
32 188 236
32 188 248
32 188 309
18 188 421
32 188 537
190 188 750
756 325 1278
949 367 1350
997 371 1381
48 415 529
48 415 560
48 405 620
30 399 804
4 375 1134
26 389 1363
377 345 1375
614 323 1358
654 335 1391
174 945 1029
160 931 1073
144 907 1132
108 881 1304
72 859 1501
56 857 1824
192 1079 2226
337 1172 2248
353 1188 2264
130 1933 1909
130 1933 1941
136 1927 1985
140 1927 2057
128 1917 2198
148 1868 2451
182 1876 2816
200 1905 2932
200 1905 2958
955 3019 2155
943 3019 2187
939 3015 2236
935 3007 2306
923 3003 2436
923 3003 2699
859 2954 3292
843 2938 3374
839 2934 3404
1009 3115 2167
997 3115 2200
993 3101 2248
979 3099 2310
961 3097 2446
963 3089 2699
909 3059 3304
897 3035 3388
883 3019 3418
1027 3147 2149
1027 3147 2183
1013 3147 2232
999 3145 2294
979 3131 2424
979 3131 2673
927 3107 3308
915 3067 3388
915 3067 3420
108  64  52
108  64  64
92  64  96
108  80 170
188 112 277
329 182 570
1031 329 1220
1310 381 1332
1356 385 1361
136  92  80
122  92  82
108  94 126
118 108 202
172 140 321
313 204 612
983 357 1250
1276 413 1363
1324 415 1395
136 216 204
162 230 218
108 188 220
80 172 343
136 188 481
252 252 764
875 405 1332
1142 473 1441
1200 477 1473
74 433 501
64 445 533
64 431 602
48 415 756
16 389 1108
90 389 1304
618 353 1342
819 403 1415
855 405 1447
176 971 999
176 975 1045
160 963 1152
126 911 1310
88 899 1525
64 873 1856
240 1083 2204
361 1154 2224
377 1176 2240
146 1965 1898
146 1955 1931
152 1955 1973
152 1943 2057
154 1939 2198
174 1900 2473
198 1882 2830
210 1905 2942
216 1905 2958
971 3019 2155
967 3019 2202
955 3019 2248
955 3019 2310
939 3003 2449
939 3003 2699
875 2954 3292
859 2950 3374
855 2934 3404
1027 3131 2183
1027 3131 2226
1011 3117 2264
999 3115 2328
979 3111 2455
991 3101 2699
929 3065 3306
915 3037 3388
901 3031 3420
1055 3163 2167
1043 3163 2200
1043 3163 2260
1027 3163 2322
999 3147 2432
1007 3147 2683
959 3119 3308
931 3083 3388
931 3083 3420
489 138  32
489 138  46
505 140  96
399 154 212
415 170 339
588 244 606
1393 419 1256
1645 475 1391
1668 485 1423
519 168  48
519 168  64
529 170 112
413 170 232
415 198 369
578 273 638
1356 451 1298
1615 507 1437
1648 517 1459
612 262 110
624 262 128
515 246 174
457 246 295
423 262 445
531 327 748
1270 515 1391
1537 582 1519
1559 584 1547
616 570 405
674 598 435
602 598 511
367 457 521
277 447 798
331 479 1134
1029 658 1577
1272 720 1668
1320 720 1690
200 1061 937
200 1069 967
184 1106 1081
152 1045 1302
122 981 1533
88 917 1896
353 1085 2133
405 1083 2127
419 1099 2149
172 2001 1840
172 2001 1872
168 1997 1933
234 2033 2057
238 2015 2218
270 1969 2509
204 1894 2848
216 1905 2942
216 1905 2958
991 3035 2149
987 3035 2192
987 3035 2240
987 3035 2310
971 3021 2440
955 3019 2687
891 2966 3292
875 2950 3374
871 2934 3404
1053 3133 2181
1045 3141 2216
1043 3133 2264
1029 3133 2338
1011 3125 2457
1011 3115 2699
945 3079 3308
931 3051 3388
917 3035 3420
1075 3179 2151
1075 3179 2200
1075 3189 2260
1059 3179 2322
1029 3163 2440
1027 3163 2683
975 3127 3308
963 3099 3390
947 3083 3420
1260 321  64
1306 321  88
1413 337 136
1451 345 218
1284 353 401
1330 417 708
1943 602 1352
2119 666 1549
2135 666 1573
1314 345  72
1352 351  94
1439 365 152
1467 369 234
1322 383 417
1330 441 746
1931 644 1401
2119 722 1595
2135 722 1621
1481 421  92
1519 421  96
1461 429 188
1515 445 277
1401 445 477
1346 515 847
1915 726 1497
2095 798 1666
2107 798 1690
1740 696 236
1786 698 252
1868 724 315
1525 638 423
1503 646 672
1377 700 1097
1880 911 1694
2031 967 1818
2047 975 1840
2103 1541 843
2141 1577 905
2340 1782 1108
1987 1621 1300
1172 1228 1365
965 1244 1758
1537 1369 2083
1686 1397 2127
1718 1413 2143
337 2129 1609
329 2121 1635
335 2135 1684
377 2167 1862
367 2107 2127
371 2035 2477
311 1943 2900
303 1927 2956
303 1919 2972
1039 3071 2091
1025 3071 2121
1019 3067 2159
1013 3057 2242
1236 3211 2561
1188 3175 2792
1095 3087 3372
969 3003 3402
959 2986 3432
1083 3163 2127
1075 3155 2159
1075 3163 2208
1067 3155 2294
1278 3308 2593
1188 3267 2812
1120 3189 3376
1051 3115 3428
1045 3099 3460
1116 3203 2111
1108 3195 2143
1099 3195 2192
1099 3211 2282
1340 3364 2585
1228 3324 2820
1156 3247 3380
1083 3179 3444
1083 3163 3476
2603 644 204
2635 654 220
2677 654 236
2681 644 289
2681 644 407
2575 628 833
2603 808 1513
2727 901 1736
2733 901 1762
2617 674 204
2635 674 220
2683 676 248
2695 674 295
2691 662 423
2591 660 865
2603 865 1567
2744 963 1784
2750 963 1808
2683 720 214
2705 720 226
2715 720 258
2729 714 305
2731 704 439
2633 708 913
2613 965 1652
2766 1057 1864
2766 1073 1892
2782 835 244
2802 835 250
2840 817 262
2756 889 395
2766 883 582
2659 877 1097
2661 1186 1842
2802 1280 2023
2808 1290 2045
3083 1469 507
3099 1471 523
3137 1491 553
3151 1569 776
2854 1429 1023
2776 1451 1605
2776 1704 2220
2884 1716 2332
2884 1716 2350
3302 2563 1272
3308 2569 1320
3346 2617 1369
3456 2748 1654
3199 2667 2115
2613 2479 2479
2455 2438 2938
2473 2408 2954
2467 2402 2970
2202 3338 1680
2202 3350 1752
2181 3354 1836
2111 3356 1935
2033 3400 2366
2408 3498 2976
1565 3348 3539
1383 3259 3569
1367 3227 3601
2463 3518 2187
2461 3530 2262
2465 3545 2354
2404 3543 2424
2292 3532 2573
2495 3595 3027
1756 3462 3555
1515 3406 3625
1499 3384 3643
2547 3561 2141
2549 3575 2228
2555 3587 2322
2493 3599 2408
2396 3591 2573
2585 3667 3043
1941 3537 3573
1611 3470 3641
1563 3454 3673
3557 766 373
3557 762 389
3557 750 405
3553 740 437
3504 678 501
3494 616 760
3259 545 1505
3231 553 1694
3215 553 1738
3569 798 373
3569 782 389
3569 782 409
3553 762 447
3520 706 505
3500 638 776
3259 586 1531
3231 586 1722
3231 586 1758
3585 827 389
3585 814 389
3581 798 409
3569 782 447
3532 738 521
3514 666 792
3275 618 1561
3247 622 1744
3235 626 1786
3613 851 385
3613 843 389
3597 831 405
3607 879 459
3575 841 564
3526 686 808
3292 658 1607
3267 670 1782
3255 686 1814
3693 1124 393
3689 1097 393
3673 1023 377
3653 985 419
3705 1252 770
3617 1104 1134
3400 1047 1923
3400 1108 2091
3400 1124 2139
3944 2336 871
3944 2336 889
3946 2326 915
3956 2332 989
3956 2364 1306
3858 2252 1921
3673 2189 2776
3655 2218 2934
3641 2234 2993
3994 3524 1834
3994 3528 1917
4002 3553 2027
4002 3593 2216
4014 3653 2649
4014 3697 2920
3914 3777 3826
3926 3777 3894
3918 3777 3926
3966 3647 2087
3966 3663 2151
3966 3677 2238
3966 3709 2453
3970 3751 2691
3952 3775 2944
3858 3878 3842
3731 3868 3926
3731 3868 3954
3966 3709 2119
3970 3713 2183
3970 3733 2272
3982 3769 2481
3982 3801 2713
3958 3834 2972
3878 3942 3862
3761 3930 3942
3749 3930 3974
3583 738 401
3581 722 417
3581 720 433
3565 690 465
3532 634 521
3504 588 804
3308 606 1545
3292 674 1800
3275 690 1846
3597 768 401
3597 754 417
3597 740 433
3581 722 475
3541 664 529
3518 618 821
3324 652 1575
3304 720 1830
3292 734 1876
3613 798 401
3613 786 417
3597 770 435
3583 754 475
3549 690 537
3526 636 827
3340 730 1625
3324 798 1878
3324 802 1923
3639 871 411
3631 855 417
3623 839 433
3613 823 475
3575 766 564
3543 726 869
3382 883 1748
3372 947 1985
3372 957 2025
3709 1116 441
3703 1091 449
3701 1091 477
3691 1073 529
3717 1204 786
3627 1039 1116
3476 1164 1987
3468 1276 2242
3468 1292 2290
3972 2344 1015
3974 2340 1045
3978 2346 1104
3972 2338 1176
3966 2302 1338
3876 2196 1890
3673 2057 2669
3673 2212 2944
3673 2228 2993
4046 3653 2762
4046 3669 2822
4046 3685 2886
4046 3697 3001
4044 3729 3171
4030 3741 3259
3970 3761 3813
3970 3765 3894
3970 3765 3914
4046 3821 3179
4046 3821 3227
4046 3821 3275
4046 3838 3350
4046 3854 3468
4032 3856 3516
4012 3890 3868
4000 3918 3950
4014 3920 3982
4048 3870 3211
4048 3870 3259
4048 3870 3304
4048 3886 3372
4046 3902 3484
4046 3908 3539
4030 3966 3898
4030 3982 3982
4030 3982 3998
3597 722 401
3597 706 417
3581 694 433
3571 674 459
3532 618 521
3510 572 821
3320 586 1545
3275 658 1830
3275 674 1878
3611 754 401
3597 738 417
3597 724 445
3581 706 475
3549 648 537
3510 602 837
3324 622 1577
3292 704 1846
3292 720 1894
3613 786 405
3613 770 417
3613 754 445
3597 738 481
3565 678 537
3526 620 843
3340 698 1629
3324 772 1894
3324 786 1943
3639 855 411
3639 855 427
3629 829 445
3613 806 491
3581 750 564
3559 716 885
3382 855 1748
3372 915 1993
3372 931 2049
3725 1116 449
3711 1091 449
3717 1079 477
3701 1067 529
3733 1196 786
3631 1023 1116
3476 1148 1987
3476 1254 2256
3468 1276 2304
3988 2330 999
3988 2330 1029
3994 2330 1077
3988 2324 1144
3986 2286 1306
3892 2179 1860
3689 2029 2669
3689 2185 2940
3689 2212 3003
4078 3653 2733
4072 3657 2806
4074 3669 2870
4074 3691 2978
4062 3725 3155
4062 3741 3247
3998 3761 3826
3986 3765 3894
3986 3777 3914
4062 3821 3165
4062 3821 3225
4062 3824 3261
4062 3838 3342
4062 3854 3460
4062 3856 3516
4030 3890 3868
4030 3918 3950
4030 3920 3982
4078 3870 3211
4078 3870 3259
4078 3870 3308
4078 3886 3372
4070 3902 3484
4062 3918 3539
4046 3966 3898
4046 3982 3982
4046 3998 4014
