Postproduction/IWLTBAP - Humble/LUTs by IWLTBAP (3DL)/BONUS/Aspen/IWLTBAP Aspen - V-Log.3dl
# Copyright: (C) Copyright 2010-2017 by IWLTBAP SAS for SmallHD
# Cannot be resold, shared or otherwise redistributed
# Website: https://luts.iwltbap.com
# IWLTBAP Aspen (V-Log)
0 256 512 768 1023
32  64 112
16  64 156
64  80 297
754 277 1188
1043 321 1316
32 188 236
32 188 325
16 188 549
670 309 1264
875 337 1365
160 931 1043
144 895 1136
72 851 1485
172 1067 2232
337 1180 2264
939 3003 2135
923 3003 2216
903 2986 2432
839 2950 3292
823 2930 3392
1011 3131 2119
995 3131 2212
947 3115 2408
911 3095 3304
883 3051 3420
108  64  52
92  64  96
188 112 277
1031 329 1220
1356 385 1361
136 216 204
108 188 220
136 188 481
875 405 1332
1200 477 1473
176 971 999
160 963 1152
88 899 1525
240 1083 2204
377 1176 2240
971 3019 2155
955 3019 2248
939 3003 2449
875 2954 3292
855 2934 3404
1055 3163 2167
1043 3163 2260
999 3147 2432
959 3119 3308
931 3083 3420
1260 321  64
1413 337 136
1284 353 401
1943 602 1352
2135 666 1573
1481 421  92
1461 429 188
1401 445 477
1915 726 1497
2107 798 1690
2103 1541 843
2340 1782 1108
1172 1228 1365
1537 1369 2083
1718 1413 2143
1039 3071 2091
1019 3067 2159
1236 3211 2561
1095 3087 3372
959 2986 3432
1116 3203 2111
1099 3195 2192
1340 3364 2585
1156 3247 3380
1083 3163 3476
3557 766 373
3557 750 405
3504 678 501
3259 545 1505
3215 553 1738
3585 827 389
3581 798 409
3532 738 521
3275 618 1561
3235 626 1786
3693 1124 393
3673 1023 377
3705 1252 770
3400 1047 1923
3400 1124 2139
3994 3524 1834
4002 3553 2027
4014 3653 2649
3914 3777 3826
3918 3777 3926
3966 3709 2119
3970 3733 2272
3982 3801 2713
3878 3942 3862
3749 3930 3974
3597 722 401
3581 694 433
3532 618 521
3320 586 1545
3275 674 1878
3613 786 405
3613 754 445
3565 678 537
3340 698 1629
3324 786 1943
3725 1116 449
3717 1079 477
3733 1196 786
3476 1148 1987
3468 1276 2304
4078 3653 2733
4074 3669 2870
4062 3725 3155
3998 3761 3826
3986 3777 3914
4078 3870 3211
4078 3870 3308
4070 3902 3484
4046 3966 3898
4046 3998 4014
