Postproduction/IWLTBAP - Humble/LUTs by IWLTBAP (3DL)/BONUS/Aspen/IWLTBAP Aspen - V-Log.3dl
# Copyright: (C) Copyright 2010-2017 by IWLTBAP SAS for SmallHD
# Cannot be resold, shared or otherwise redistributed
# Website: https://luts.iwltbap.com
# IWLTBAP Aspen (V-Log)
0 64 128 192 256 320 384 448 512 576 640 704 768 832 896 960 1023
32  64 112
32  64 112
18  64 112
16  64 128
16  64 156
16  64 187
16  64 224
16  64 249
64  80 297
135 103 383
220 150 564
373 197 817
754 277 1188
950 305 1284
981 305 1300
1011 306 1316
1043 321 1316
32  80 127
32  80 128
18  80 128
16  80 157
16  79 172
16  80 203
16  79 239
16  79 272
72  88 313
135 119 415
204 150 580
368 202 828
738 281 1204
935 320 1287
965 321 1302
995 321 1316
1027 321 1332
32  96 142
32  96 144
32  96 158
16  96 174
16  94 204
16  94 222
16  94 270
16  80 303
72  96 351
119 126 461
204 160 620
352 213 858
722 293 1220
915 321 1300
935 321 1316
966 337 1332
995 337 1348
32 128 176
32 128 189
32 128 192
32 128 221
29 140 252
16 141 286
16 128 328
16 125 359
56 125 406
106 141 524
188 166 673
347 229 897
702 293 1236
870 321 1303
902 337 1329
919 337 1333
950 337 1348
32 188 236
32 188 248
32 188 252
32 188 281
32 188 325
21 188 388
16 188 451
16 188 485
16 188 549
66 195 671
160 204 786
324 234 952
670 309 1264
806 321 1316
839 337 1332
855 337 1348
875 337 1365
32 279 370
32 279 375
32 279 389
32 279 415
32 279 450
16 279 536
16 267 664
10 267 773
0 267 826
11 267 893
97 295 1035
222 290 1094
608 302 1288
719 321 1319
743 321 1334
764 326 1348
780 337 1365
42 405 543
42 405 560
42 405 574
42 405 592
32 399 636
32 389 699
16 389 821
16 383 989
0 373 1142
0 373 1262
11 383 1363
144 442 1479
335 369 1407
504 308 1342
533 315 1358
549 321 1375
566 321 1391
89 621 726
89 621 742
89 614 758
76 605 794
73 598 851
62 589 905
48 589 993
16 573 1171
8 549 1391
16 556 1527
0 573 1648
40 615 1765
281 739 1859
321 705 1822
330 712 1822
337 721 1838
353 728 1838
160 931 1043
160 923 1051
160 915 1073
152 907 1091
144 895 1136
125 883 1210
96 867 1302
79 851 1374
72 851 1485
47 809 1652
48 847 1808
56 912 1985
172 1067 2232
313 1156 2256
321 1156 2256
330 1172 2264
337 1180 2264
66 1380 1501
66 1380 1517
73 1380 1540
73 1380 1558
73 1380 1590
73 1380 1626
73 1373 1674
82 1380 1753
89 1373 1816
89 1349 1942
105 1346 2124
98 1382 2284
94 1414 2456
75 1437 2522
75 1446 2531
76 1439 2531
82 1439 2531
114 1927 1915
114 1917 1925
120 1917 1941
130 1917 1957
130 1917 1985
130 1917 2010
130 1911 2057
120 1911 2110
112 1900 2181
126 1900 2308
132 1862 2451
121 1814 2609
166 1866 2814
184 1894 2916
184 1894 2928
184 1894 2942
184 1894 2948
640 2529 2205
640 2529 2221
635 2524 2237
635 2524 2261
635 2524 2285
635 2524 2317
635 2513 2359
624 2513 2418
624 2513 2491
624 2513 2593
613 2491 2752
571 2459 2967
531 2399 3175
532 2415 3231
532 2404 3247
532 2399 3247
532 2399 3258
939 3003 2135
923 3003 2155
923 3003 2171
923 3003 2187
923 3003 2216
919 2999 2243
907 2999 2290
903 2986 2353
903 2986 2432
903 2986 2547
903 2986 2683
890 2970 2948
839 2950 3292
827 2950 3356
827 2934 3372
827 2934 3388
823 2930 3392
979 3070 2151
966 3070 2167
963 3070 2183
963 3067 2213
947 3067 2232
947 3067 2259
931 3067 2303
931 3054 2353
931 3054 2432
931 3051 2539
931 3057 2699
915 3049 2947
879 3018 3292
867 3006 3359
867 3003 3374
854 2989 3388
851 2986 3404
979 3099 2149
979 3099 2166
979 3099 2183
968 3085 2200
963 3085 2228
963 3083 2257
947 3083 2290
933 3083 2353
931 3069 2432
947 3069 2533
937 3083 2689
931 3078 2947
883 3047 3292
867 3021 3359
867 3021 3374
867 3019 3389
867 3005 3404
995 3115 2135
995 3115 2151
995 3115 2167
980 3115 2197
979 3115 2216
969 3100 2243
963 3099 2280
947 3099 2337
939 3099 2416
947 3084 2518
947 3099 2683
947 3095 2947
895 3063 3304
883 3051 3359
883 3050 3374
883 3036 3389
883 3035 3404
1011 3131 2119
1011 3131 2135
995 3131 2165
995 3131 2183
995 3131 2212
979 3131 2232
979 3115 2274
963 3115 2321
947 3115 2408
947 3115 2503
947 3115 2667
947 3126 2931
911 3095 3304
883 3067 3372
883 3067 3388
883 3067 3404
883 3051 3420
32  64  96
32  64  96
32  64 112
32  64 128
16  64 144
16  64 176
16  64 218
32  64 240
72  80 297
144 103 391
235 150 564
389 197 817
789 277 1188
1010 320 1284
1041 321 1300
1059 321 1316
1090 321 1332
32  80 112
32  80 112
32  80 126
32  79 141
16  79 160
16  79 192
16  79 234
32  80 265
72  88 313
135 119 415
220 159 580
384 212 833
774 292 1204
994 321 1299
1026 336 1315
1043 336 1331
1074 337 1347
32  96 128
32  95 142
32  95 143
32  94 159
16  94 190
16  94 222
16  94 264
32  80 296
72  96 351
128 128 461
211 166 620
373 218 858
758 297 1220
962 336 1303
994 337 1318
1013 338 1333
1044 352 1348
32 128 173
32 128 176
32 128 189
32 128 205
32 128 237
31 128 281
16 128 316
16 125 359
59 125 406
119 144 524
204 173 667
354 229 905
737 306 1245
915 337 1316
946 337 1332
966 352 1348
997 353 1364
32 188 236
32 188 236
32 188 250
32 188 266
32 188 313
32 188 376
16 188 435
16 188 479
16 188 541
75 200 660
160 204 786
329 244 952
702 309 1272
854 337 1319
876 337 1334
902 352 1349
922 353 1365
32 279 359
32 279 370
32 279 386
32 279 402
32 279 446
32 279 525
16 267 658
16 267 755
16 267 813
16 267 889
107 295 1030
233 290 1094
628 309 1292
747 325 1319
766 337 1334
795 337 1349
812 337 1365
48 415 533
48 415 548
48 405 560
42 405 590
42 405 624
32 389 684
16 389 810
16 383 988
0 373 1135
0 373 1262
11 389 1363
160 447 1474
345 373 1407
533 320 1342
549 321 1358
567 321 1375
597 331 1391
89 630 726
89 621 742
89 615 758
89 605 794
73 601 851
64 598 905
48 589 987
16 573 1162
14 556 1391
16 556 1527
2 582 1648
49 615 1765
281 739 1859
321 711 1822
337 721 1822
353 721 1838
360 728 1838
168 931 1043
160 931 1051
160 923 1073
160 910 1091
144 899 1136
128 883 1210
96 867 1302
80 858 1375
72 858 1493
48 819 1660
56 857 1822
61 912 1985
176 1067 2232
313 1156 2256
329 1166 2256
337 1172 2264
353 1188 2264
66 1388 1501
73 1380 1517
73 1380 1540
73 1380 1565
73 1380 1590
73 1380 1626
73 1380 1681
82 1389 1753
89 1381 1824
89 1349 1942
105 1356 2124
98 1382 2284
94 1418 2456
75 1446 2522
82 1446 2538
82 1446 2547
82 1439 2546
114 1933 1915
129 1933 1925
130 1927 1941
130 1927 1957
130 1927 1985
130 1927 2010
136 1927 2057
127 1917 2110
120 1916 2196
142 1915 2308
142 1868 2451
126 1830 2614
172 1876 2814
193 1894 2916
193 1894 2932
193 1894 2942
193 1894 2948
651 2529 2200
651 2529 2220
651 2529 2237
650 2529 2261
640 2529 2285
640 2524 2317
640 2513 2359
635 2513 2418
635 2513 2486
633 2511 2593
613 2491 2752
576 2459 2962
532 2399 3175
548 2415 3231
542 2404 3247
532 2399 3247
532 2399 3258
939 3003 2139
939 3003 2166
939 3003 2181
938 3003 2204
923 3003 2228
923 3003 2259
923 3003 2306
918 2999 2358
918 2986 2432
907 2986 2551
907 2986 2698
891 2981 2948
843 2950 3292
843 2950 3356
839 2934 3372
827 2934 3388
827 2934 3404
979 3083 2167
979 3083 2183
979 3083 2200
966 3083 2216
963 3082 2244
963 3070 2275
947 3067 2306
940 3067 2369
946 3067 2448
947 3066 2551
947 3067 2699
931 3051 2952
883 3030 3292
870 3006 3359
867 3003 3374
867 3003 3389
867 2989 3404
995 3099 2151
995 3099 2167
995 3099 2198
979 3099 2215
979 3099 2232
969 3099 2264
963 3085 2306
947 3083 2353
947 3083 2432
949 3083 2535
947 3083 2699
947 3080 2947
895 3047 3304
883 3035 3372
883 3035 3388
883 3020 3390
882 3019 3404
1011 3116 2151
1010 3116 2166
996 3116 2183
995 3116 2212
995 3115 2231
979 3115 2259
979 3115 2295
963 3100 2351
947 3099 2424
963 3099 2519
962 3100 2683
948 3099 2947
911 3076 3304
898 3051 3372
898 3051 3388
884 3051 3404
883 3036 3419
1011 3131 2135
1011 3131 2151
1011 3146 2167
1011 3146 2199
1011 3131 2216
995 3131 2248
995 3131 2290
979 3131 2337
963 3115 2416
963 3115 2512
963 3115 2673
963 3126 2936
926 3095 3304
899 3067 3372
899 3067 3388
899 3067 3404
899 3067 3420
32  64  80
32  64  96
32  64  96
32  64 112
32  64 130
32  64 160
30  64 204
41  64 235
88  80 297
151 119 383
252 158 564
419 211 828
853 293 1204
1087 335 1287
1108 337 1302
1138 337 1317
1168 337 1332
32  80  97
32  79  97
32  79 112
32  79 128
32  79 145
32  79 176
30  79 220
41  80 251
88  95 313
151 126 415
250 166 580
419 218 843
837 297 1208
1073 337 1300
1105 351 1316
1123 352 1332
1154 353 1348
32  96 126
32  94 128
32  94 128
32  94 157
32  94 186
30  94 206
30  94 250
41  94 282
88 110 343
144 142 452
236 174 620
403 229 865
806 313 1234
1030 353 1319
1061 367 1332
1089 367 1348
1122 369 1365
32 128 173
32 128 173
32 128 176
32 128 191
32 128 233
32 127 269
32 125 312
26 116 349
86 125 406
135 151 524
220 182 673
384 243 905
784 323 1252
983 367 1335
1014 369 1350
1044 383 1366
1074 383 1381
32 188 236
32 188 236
32 188 248
32 188 264
32 188 309
32 188 372
18 188 421
16 188 466
32 188 537
98 195 653
190 188 750
359 245 961
756 325 1278
917 355 1335
949 367 1350
968 369 1368
997 371 1381
32 279 359
32 279 370
32 279 375
32 279 402
32 279 434
32 279 509
16 267 647
16 267 743
16 267 801
19 267 877
118 284 1016
257 274 1056
690 316 1292
813 340 1332
843 353 1348
863 353 1365
891 356 1381
48 415 529
48 415 543
48 415 560
48 405 576
48 405 620
32 402 683
30 399 804
16 389 988
4 375 1134
0 373 1246
26 389 1363
165 442 1465
377 345 1375
596 321 1335
614 323 1358
629 335 1375
654 335 1391
105 630 717
105 630 732
89 630 758
89 615 790
80 605 842
73 601 898
57 598 978
16 589 1162
16 556 1391
16 556 1534
8 582 1648
61 615 1769
295 739 1854
337 696 1801
346 698 1806
358 712 1817
369 721 1822
174 945 1029
168 939 1043
160 931 1073
160 923 1091
144 907 1132
128 899 1210
108 881 1304
80 859 1380
72 859 1501
56 819 1668
56 857 1824
64 912 1985
192 1079 2226
321 1156 2242
337 1172 2248
351 1172 2256
353 1188 2264
66 1396 1501
73 1396 1517
73 1396 1533
73 1396 1558
73 1396 1588
73 1389 1626
82 1389 1681
82 1389 1753
89 1389 1832
89 1366 1958
105 1356 2140
98 1382 2298
94 1418 2472
82 1446 2536
82 1446 2547
89 1446 2547
91 1439 2547
130 1933 1909
130 1933 1925
130 1933 1941
130 1933 1957
136 1927 1985
136 1927 2010
140 1927 2057
136 1927 2115
128 1917 2198
142 1917 2308
148 1868 2451
127 1830 2622
182 1876 2816
200 1905 2924
200 1905 2932
200 1905 2942
200 1905 2958
656 2529 2188
656 2529 2206
651 2529 2232
651 2529 2253
651 2529 2280
651 2529 2317
640 2518 2359
640 2518 2406
640 2518 2478
640 2511 2593
624 2491 2747
576 2459 2962
543 2399 3175
548 2415 3231
548 2415 3247
547 2399 3258
541 2399 3263
955 3019 2155
943 3019 2171
943 3019 2187
939 3019 2213
939 3015 2236
939 3015 2259
935 3007 2306
923 3003 2365
923 3003 2436
923 2986 2551
923 3003 2699
907 2985 2948
859 2954 3292
843 2950 3359
843 2938 3374
843 2934 3388
839 2934 3404
995 3086 2178
995 3086 2199
982 3086 2214
979 3086 2232
979 3083 2257
969 3083 2280
963 3083 2319
947 3075 2369
955 3070 2449
963 3067 2551
961 3070 2709
947 3065 2952
895 3031 3304
883 3019 3372
883 3006 3386
881 3003 3389
870 2989 3404
1009 3115 2167
997 3113 2183
997 3115 2200
995 3113 2229
993 3101 2248
979 3101 2275
979 3099 2310
963 3099 2365
961 3097 2446
963 3085 2540
963 3089 2699
952 3083 2947
909 3059 3304
899 3035 3372
897 3035 3388
885 3021 3404
883 3019 3418
1012 3131 2151
1011 3131 2180
1011 3131 2198
1011 3131 2216
1009 3131 2244
995 3129 2264
995 3116 2306
979 3115 2353
963 3115 2432
977 3107 2534
969 3113 2688
963 3111 2947
915 3079 3304
899 3052 3372
899 3051 3388
899 3051 3404
899 3051 3420
1027 3147 2149
1027 3147 2166
1027 3147 2183
1027 3147 2213
1013 3147 2232
1011 3147 2259
999 3145 2294
995 3131 2353
979 3131 2424
979 3131 2519
979 3131 2673
979 3131 2947
927 3107 3308
915 3083 3372
915 3067 3388
915 3067 3404
915 3067 3420
48  64  64
48  64  67
48  64  80
48  64  96
48  64 112
48  64 144
58  64 176
77  80 217
133  96 281
183 125 390
282 166 564
466 218 841
924 313 1208
1182 350 1300
1203 353 1316
1230 353 1332
1249 366 1348
61  64  80
61  64  80
61  64  96
48  79 112
48  79 128
48  79 160
58  80 192
77  93 233
125 109 297
180 135 414
282 173 580
458 229 849
908 313 1220
1166 366 1316
1187 368 1332
1215 369 1347
