Postproduction/IWLTBAP - Humble/LUTs by IWLTBAP (3DL)/BONUS/Aspen/IWLTBAP Aspen - Standard.3dl
# Copyright: (C) Copyright 2016 by IWLTBAP
# Cannot be resold, shared or otherwise redistributed
# Website: http://luts.iwltbap.com
0 256 512 768 1023
34 73 112
24 70 262
146 122 464
282 180 826
511 246 1323
95 603 673
19 558 1152
9 521 1566
155 564 1660
352 725 1839
35 1597 1578
36 1602 1887
49 1552 2163
61 1529 2449
61 1499 2594
686 2550 1936
647 2535 2297
637 2526 2678
575 2461 2982
481 2312 3240
1087 3152 1578
1018 3119 1995
939 3102 2439
950 3112 2940
890 3053 3407
685 192 33
600 206 315
605 242 584
846 298 947
1320 369 1336
681 714 522
576 714 805
415 708 1285
520 790 1630
889 919 1878
248 1786 1361
138 1769 1788
120 1695 2228
108 1653 2573
343 1684 2652
852 2592 1837
797 2550 2172
776 2529 2580
711 2465 2945
627 2328 3237
1712 3346 1623
1672 3411 2264
1475 3403 2707
1322 3371 3110
1211 3252 3530
2131 552 117
2332 545 317
2153 544 763
2136 565 1183
2246 581 1529
2405 1011 354
2387 1033 670
2141 1076 1338
2059 1193 1779
2183 1297 2050
2462 2068 1285
2342 2089 1764
2248 2146 2174
2109 2176 2503
2084 2210 2797
2516 2895 1816
2363 2909 2290
2032 2879 2641
1331 2749 2984
1021 2513 3307
2692 3466 1405
2835 3618 2247
2776 3690 2886
2612 3665 3314
1970 3537 3720
3090 799 235
3163 763 374
3135 731 718
2950 729 1351
2881 745 1734
3292 1275 431
3301 1248 616
3237 1248 1168
3060 1397 1851
3045 1490 2219
3520 2191 846
3472 2192 1377
3386 2251 1990
3263 2314 2510
3131 2370 2981
3452 2919 1237
3465 2990 1994
3416 3071 2565
3348 3153 3133
3162 3034 3588
3528 3538 1338
3672 3668 2044
3617 3774 2765
3564 3867 3422
3310 3815 3894
3634 835 302
3581 697 420
3520 592 712
3368 530 1209
3214 500 1824
3762 1301 443
3719 1147 575
3659 1030 950
3499 971 1510
3423 1101 2198
3954 2171 746
3959 2105 947
3885 2033 1573
3777 2023 2215
3686 2234 3031
3986 2898 1063
4030 2958 1431
4035 3040 2214
3961 3132 2995
3857 3194 3680
3996 3547 1348
4046 3695 2087
4062 3810 2813
4065 3883 3404
4040 3984 4000
