Postproduction/IWLTBAP - Humble/LUTs by IWLTBAP (3DL)/BONUS/Aspen/IWLTBAP Aspen - LOG.3dl
# Copyright: (C) Copyright 2016 by IWLTBAP
# Cannot be resold, shared or otherwise redistributed
# Website: http://luts.iwltbap.com
0 256 512 768 1023
35 81 120
26 79 255
154 145 547
324 224 1027
497 262 1340
77 539 656
27 517 1024
13 476 1517
229 603 1710
354 705 1814
277 2131 1946
262 2097 2179
272 2056 2563
246 1998 2904
245 1988 3037
882 2875 1976
842 2847 2301
809 2818 2841
759 2802 3214
717 2728 3359
1047 3134 1777
1001 3120 2115
949 3112 2735
931 3105 3189
890 3053 3407
584 170 29
513 178 236
508 210 572
810 288 1043
1138 330 1305
453 535 417
399 524 612
301 549 1190
486 656 1590
745 743 1746
302 2094 1783
304 2081 2094
343 2049 2563
305 1990 2903
292 1940 3000
981 2915 2008
950 2888 2313
918 2864 2811
851 2805 3207
796 2730 3356
1220 3256 1880
1154 3239 2237
1104 3209 2779
1084 3194 3248
1027 3117 3445
2527 655 155
2683 656 245
2606 616 682
2470 646 1316
2475 656 1532
2538 802 231
2660 816 329
2548 846 925
2389 912 1581
2420 951 1772
2636 2180 1324
2552 2198 1720
2393 2286 2296
2232 2328 2728
2192 2327 2920
2571 3231 1820
2445 3286 2336
2112 3257 2861
1366 3099 3359
1283 2978 3527
2743 3504 1558
2788 3614 2277
2683 3676 3024
2318 3599 3511
1862 3515 3707
3454 849 281
3470 821 336
3410 707 595
3214 630 1269
3139 626 1572
3517 1037 342
3514 977 389
3474 903 724
3262 869 1444
3200 904 1771
3777 2048 730
3799 2051 854
3710 2028 1642
3579 2124 2412
3496 2231 2846
3686 3139 1221
3767 3226 1783
3718 3359 2699
3631 3468 3476
3553 3446 3782
3735 3541 1344
3850 3665 1937
3819 3799 2864
3740 3897 3643
3609 3903 3951
3634 835 302
3603 757 352
3522 609 567
3376 531 1154
3277 508 1557
3684 1003 336
3664 928 395
3588 775 677
3405 681 1321
3326 693 1722
3930 1999 687
3916 1931 776
3849 1819 1404
3715 1847 2223
3662 1998 2738
3981 3086 1139
4034 3160 1423
4049 3309 2456
3958 3423 3416
3917 3456 3784
3996 3525 1343
4037 3640 1906
4064 3807 2883
4054 3926 3643
4040 3984 4000
