Postproduction/IWLTBAP - Humble/LUTs by IWLTBAP (3DL)/BONUS/Aspen/IWLTBAP Aspen - LOG.3dl
# Copyright: (C) Copyright 2016 by IWLTBAP
# Cannot be resold, shared or otherwise redistributed
# Website: http://luts.iwltbap.com
0 64 128 192 256 320 384 448 512 576 640 704 768 832 896 960 1023
35 81 120
32 79 148
29 79 178
26 80 214
26 79 255
33 81 292
77 95 347
120 120 432
154 145 547
203 162 663
250 182 781
293 206 906
324 224 1027
344 225 1139
376 233 1220
432 249 1288
497 262 1340
37 148 197
34 147 230
34 148 274
31 144 311
25 137 347
27 131 380
70 139 440
101 164 555
134 184 681
175 205 790
225 233 885
261 252 988
287 261 1090
310 262 1192
330 269 1281
387 286 1338
449 302 1385
40 217 282
40 219 319
38 223 380
27 223 479
20 213 544
17 203 572
32 207 628
76 219 727
119 238 844
147 261 967
188 289 1061
229 308 1137
261 320 1223
290 331 1296
315 336 1351
355 346 1398
411 365 1447
39 335 465
39 334 509
35 331 568
26 327 672
17 320 839
13 309 948
10 301 992
20 298 1040
78 319 1126
126 339 1225
160 366 1335
203 400 1400
244 440 1457
282 471 1503
307 485 1532
336 494 1558
379 505 1588
77 539 656
70 531 722
59 521 794
46 516 877
27 517 1024
11 492 1267
13 482 1417
9 481 1486
13 476 1517
59 484 1570
138 524 1608
189 564 1656
229 603 1710
262 639 1750
289 662 1772
320 683 1792
354 705 1814
156 826 925
147 812 976
134 798 1050
101 784 1178
72 771 1285
58 771 1406
39 736 1571
39 737 1692
31 746 1800
31 751 1856
53 759 1896
136 823 1994
234 877 2014
285 913 2029
316 945 2050
344 976 2073
366 1004 2098
116 1221 1299
108 1212 1368
105 1215 1440
104 1221 1526
94 1217 1617
100 1219 1694
99 1209 1785
101 1199 1935
112 1212 2059
114 1218 2145
115 1222 2216
112 1212 2258
134 1230 2318
150 1232 2324
179 1253 2360
211 1284 2401
237 1297 2404
59 1681 1683
57 1681 1732
59 1685 1789
62 1688 1860
59 1683 1942
58 1666 2025
64 1654 2123
61 1643 2218
62 1643 2342
59 1629 2446
62 1623 2519
73 1630 2585
75 1629 2625
75 1627 2650
75 1624 2673
74 1622 2694
74 1619 2710
277 2131 1946
268 2120 1999
270 2106 2053
271 2101 2108
262 2097 2179
251 2097 2278
265 2092 2379
275 2075 2477
272 2056 2563
265 2024 2663
242 1996 2767
246 1998 2854
246 1998 2904
244 1995 2942
245 1993 2977
246 1990 3008
245 1988 3037
643 2509 2053
636 2507 2112
626 2500 2175
618 2494 2251
614 2491 2342
612 2491 2448
611 2487 2563
603 2479 2683
593 2464 2801
571 2446 2905
544 2422 3009
520 2393 3088
509 2372 3122
499 2354 3153
489 2336 3180
480 2319 3205
471 2304 3230
770 2688 2029
771 2688 2086
763 2683 2156
746 2668 2241
741 2669 2340
731 2674 2455
732 2666 2588
729 2684 2738
730 2676 2882
712 2663 3003
671 2656 3119
640 2642 3194
637 2626 3224
640 2602 3242
637 2579 3262
630 2560 3285
616 2540 3309
831 2792 2012
817 2781 2069
819 2781 2135
810 2771 2222
796 2759 2329
789 2759 2450
777 2751 2576
774 2751 2722
766 2748 2873
757 2740 3001
732 2742 3119
708 2734 3189
687 2727 3238
680 2711 3271
679 2684 3291
679 2654 3309
664 2632 3335
882 2875 1976
864 2861 2041
854 2855 2109
853 2857 2193
842 2847 2301
834 2840 2428
827 2835 2554
821 2826 2690
809 2818 2841
796 2815 2980
779 2814 3100
770 2811 3164
759 2802 3214
743 2794 3265
728 2779 3305
722 2753 3331
717 2728 3359
928 2945 1919
916 2943 1981
903 2933 2052
890 2927 2133
882 2927 2241
874 2919 2373
868 2912 2518
862 2909 2654
858 2900 2808
838 2890 2966
823 2887 3073
811 2883 3146
805 2878 3202
798 2870 3255
787 2855 3298
774 2840 3340
760 2819 3378
973 3011 1870
960 3004 1937
949 3004 2006
939 3002 2088
919 2995 2181
901 2989 2317
902 2982 2469
900 2984 2625
894 2980 2780
882 2967 2947
868 2961 3065
856 2960 3133
846 2951 3191
837 2944 3253
833 2937 3304
823 2918 3344
809 2901 3390
1016 3088 1831
1002 3076 1894
988 3063 1963
977 3061 2051
965 3063 2150
935 3054 2265
923 3045 2417
926 3045 2587
926 3055 2760
919 3043 2927
910 3031 3058
900 3034 3131
890 3032 3188
878 3020 3252
868 3008 3310
865 3000 3356
856 2980 3401
1047 3134 1777
1042 3141 1853
1032 3136 1931
1015 3116 2008
1001 3120 2115
976 3114 2236
946 3105 2385
945 3099 2541
949 3112 2735
949 3116 2913
950 3096 3046
941 3100 3127
931 3105 3189
919 3100 3257
905 3084 3320
892 3060 3358
890 3053 3407
64 68 77
60 73 111
50 73 144
48 75 179
51 79 216
73 87 260
116 102 332
153 124 419
184 148 535
238 164 649
286 183 769
338 209 899
371 229 1023
404 231 1130
459 241 1206
515 253 1276
580 257 1318
55 137 157
57 132 172
49 132 218
46 131 260
47 130 306
68 130 354
107 146 424
126 170 540
157 187 664
208 208 768
258 235 870
296 254 982
325 266 1086
355 267 1186
409 277 1269
472 294 1324
538 309 1374
52 209 251
52 208 277
52 210 324
44 212 406
37 204 457
39 201 511
63 207 596
110 224 701
144 243 820
176 269 942
219 296 1033
256 309 1113
287 322 1201
316 329 1278
364 338 1338
423 355 1391
482 373 1441
50 328 415
51 330 456
48 328 510
42 326 603
28 322 775
25 312 873
23 306 920
43 305 988
107 325 1081
144 342 1190
180 368 1298
223 403 1372
267 441 1435
305 464 1479
338 477 1512
382 487 1541
434 498 1572
88 534 629
81 530 688
72 521 757
59 514 843
41 515 984
19 492 1230
19 478 1386
16 473 1456
25 470 1493
84 481 1545
157 525 1580
203 565 1636
243 607 1694
280 643 1736
312 664 1758
345 684 1779
383 707 1803
163 826 904
155 814 961
142 797 1032
111 784 1157
82 770 1276
65 770 1403
46 736 1576
45 736 1695
37 742 1798
38 745 1852
70 760 1899
162 823 1979
256 874 1991
305 916 2015
335 949 2038
359 977 2063
380 1001 2086
126 1229 1273
117 1218 1346
111 1215 1420
111 1223 1513
101 1216 1610
106 1216 1694
104 1206 1789
107 1198 1941
117 1211 2067
119 1216 2152
120 1215 2219
118 1207 2261
147 1228 2319
166 1230 2321
196 1255 2362
231 1288 2397
259 1303 2400
69 1682 1668
67 1683 1718
68 1685 1778
69 1689 1853
68 1687 1941
69 1671 2028
74 1658 2128
71 1646 2221
70 1645 2346
68 1631 2455
72 1624 2527
84 1629 2589
85 1627 2628
84 1624 2651
83 1619 2670
81 1616 2690
83 1611 2703
279 2124 1924
273 2115 1980
271 2102 2037
278 2097 2098
275 2097 2177
265 2096 2278
281 2093 2382
290 2076 2480
290 2058 2570
278 2025 2669
256 1999 2772
260 1999 2856
258 1998 2904
256 1994 2941
257 1989 2974
257 1985 3005
255 1980 3031
650 2500 2046
644 2498 2101
634 2491 2165
627 2484 2242
621 2478 2332
617 2478 2433
616 2473 2546
610 2466 2671
598 2449 2789
577 2432 2894
553 2409 2998
530 2383 3082
517 2361 3119
507 2346 3152
498 2327 3178
488 2309 3202
480 2295 3228
789 2690 2031
788 2689 2087
781 2685 2152
764 2670 2237
758 2669 2332
752 2674 2447
751 2669 2574
746 2681 2727
745 2676 2874
728 2658 2995
689 2644 3106
658 2625 3178
649 2613 3215
649 2594 3239
647 2573 3260
640 2554 3284
632 2534 3307
850 2798 2017
838 2787 2076
840 2785 2139
831 2774 2225
818 2763 2325
812 2764 2444
801 2759 2562
797 2759 2713
785 2752 2866
775 2739 2994
751 2740 3112
726 2729 3184
705 2722 3232
694 2707 3267
693 2682 3288
693 2652 3306
685 2629 3332
904 2883 1989
886 2870 2055
879 2865 2124
877 2864 2206
866 2855 2309
859 2848 2426
853 2842 2550
845 2836 2686
834 2826 2836
817 2820 2975
803 2818 3097
791 2812 3163
780 2802 3213
764 2792 3263
751 2779 3301
744 2754 3329
739 2726 3356
957 2960 1949
942 2954 2002
927 2945 2073
917 2941 2159
914 2942 2259
903 2933 2382
896 2923 2518
889 2918 2655
886 2910 2806
868 2898 2961
850 2895 3079
836 2889 3149
828 2884 3200
820 2876 3253
810 2857 3297
798 2843 3339
786 2822 3376
1006 3034 1906
994 3028 1974
978 3021 2032
967 3018 2114
950 3014 2211
937 3010 2335
934 2999 2478
930 2997 2629
924 2991 2783
914 2980 2943
899 2972 3073
886 2971 3143
874 2965 3193
865 2957 3255
856 2944 3305
846 2923 3346
833 2907 3391
1051 3113 1868
1039 3101 1930
1025 3090 1999
1009 3086 2085
1000 3089 2184
975 3080 2293
961 3072 2439
966 3068 2600
962 3071 2764
954 3064 2930
948 3053 3069
936 3055 3146
924 3052 3199
910 3040 3259
901 3027 3316
894 3013 3362
884 2991 3406
1089 3164 1813
1079 3168 1892
1069 3162 1970
1050 3143 2045
1035 3146 2153
1017 3143 2273
987 3132 2411
989 3126 2561
987 3131 2740
984 3137 2917
989 3120 3056
978 3121 3143
969 3127 3204
952 3118 3263
938 3101 3324
927 3079 3367
923 3069 3414
147 73 61
136 77 86
121 80 116
113 83 154
122 90 195
149 99 243
170 114 320
194 136 412
239 158 525
289 172 642
341 190 768
398 217 899
448 238 1019
502 239 1123
562 250 1201
621 259 1256
689 264 1299
158 128 108
156 131 130
132 133 167
115 136 213
121 139 264
136 150 328
150 166 411
163 181 528
202 195 640
256 213 743
307 239 856
347 261 978
388 275 1081
450 279 1175
514 287 1253
574 299 1309
636 308 1357
97 207 213
113 205 225
123 203 248
95 197 312
91 193 380
97 196 453
125 213 553
150 235 665
179 255 791
219 280 908
260 302 1000
297 315 1092
328 323 1185
388 336 1266
462 352 1327
523 366 1378
587 383 1436
64 325 359
66 324 390
68 325 436
64 324 512
51 321 646
42 316 758
55 311 826
97 315 917
150 335 1026
178 356 1142
210 375 1253
253 408 1339
299 438 1401
345 457 1451
404 471 1490
459 483 1522
515 500 1557
100 527 584
97 527 636
88 521 695
77 512 778
62 511 910
35 496 1151
28 478 1316
29 467 1389
52 466 1445
126 489 1491
190 533 1544
230 578 1615
271 621 1676
318 652 1718
355 673 1742
395 694 1765
435 716 1791
176 825 859
169 821 929
156 802 1003
130 789 1116
97 772 1246
76 768 1389
55 737 1574
55 735 1694
46 738 1790
48 738 1843
94 762 1892
201 824 1946
288 880 1967
334 925 1999
359 954 2025
380 978 2049
400 1003 2076
139 1233 1236
130 1223 1313
119 1212 1393
119 1220 1491
112 1214 1599
112 1211 1688
111 1200 1787
114 1193 1941
123 1207 2071
125 1210 2157
124 1205 2217
125 1201 2265
160 1220 2312
191 1236 2335
221 1260 2360
263 1295 2384
293 1317 2393
80 1679 1646
76 1684 1698
77 1683 1760
77 1687 1838
76 1688 1934
78 1673 2026
84 1658 2127
81 1647 2221
78 1643 2347
77 1629 2460
80 1622 2533
90 1624 2591
91 1620 2628
90 1615 2648
89 1609 2664
87 1604 2683
88 1601 2698
276 2112 1897
274 2108 1954
270 2096 2016
280 2089 2081
283 2094 2166
278 2094 2275
294 2094 2383
303 2076 2481
306 2059 2575
292 2028 2676
270 2001 2778
273 2000 2859
270 1996 2903
267 1991 2937
267 1985 2969
268 1979 3002
264 1970 3024
653 2488 2032
649 2486 2089
641 2479 2150
633 2470 2229
627 2465 2321
621 2461 2422
618 2457 2528
615 2451 2656
602 2433 2775
581 2415 2882
559 2394 2986
537 2370 3076
523 2350 3115
513 2334 3150
506 2317 3176
495 2298 3199
488 2283 3224
807 2692 2026
805 2690 2084
799 2687 2144
782 2672 2224
774 2668 2319
771 2672 2439
767 2669 2557
762 2672 2711
758 2672 2861
742 2652 2983
707 2632 3091
674 2607 3162
663 2596 3202
657 2581 3232
655 2564 3259
650 2548 3286
642 2527 3309
873 2807 2021
861 2795 2081
862 2792 2145
854 2780 2226
840 2768 2325
836 2769 2438
825 2767 2550
821 2765 2701
806 2757 2857
793 2742 2987
773 2737 3105
746 2721 3174
724 2712 3221
711 2699 3258
705 2678 3285
706 2650 3303
698 2627 3329
925 2889 1995
908 2878 2060
901 2871 2131
900 2868 2212
890 2858 2314
882 2853 2422
879 2849 2544
869 2844 2674
859 2833 2828
836 2822 2968
825 2817 3090
811 2810 3160
799 2798 3209
781 2789 3259
768 2774 3297
762 2751 3325
756 2723 3352
984 2976 1975
968 2965 2021
953 2956 2090
943 2952 2178
942 2954 2276
930 2944 2395
922 2932 2518
915 2926 2652
912 2920 2805
895 2906 2953
876 2901 3078
862 2895 3152
851 2888 3200
843 2877 3252
832 2858 3296
822 2843 3336
810 2824 3374
1038 3053 1938
1026 3049 2007
1007 3038 2058
994 3030 2134
981 3029 2238
973 3028 2356
965 3014 2488
959 3007 2629
953 3001 2785
944 2992 2936
931 2979 3071
914 2979 3151
901 2973 3199
889 2964 3252
880 2949 3303
868 2925 3347
856 2910 3391
1087 3134 1898
1074 3123 1964
1060 3114 2032
1040 3108 2114
1032 3109 2214
1013 3102 2324
998 3094 2460
1000 3085 2607
994 3084 2767
986 3079 2929
984 3068 3070
968 3068 3157
955 3064 3209
939 3055 3261
929 3040 3317
919 3019 3364
909 2998 3408
1131 3194 1847
1117 3196 1927
1106 3189 2009
1084 3171 2079
1070 3172 2187
1057 3172 2311
1028 3159 2439
1032 3154 2582
1027 3153 2749
1019 3154 2920
1027 3144 3062
1017 3143 3157
1005 3147 3219
985 3135 3271
972 3122 3330
963 3101 3375
956 3084 3420
362 114 32
359 115 65
334 118 109
284 119 162
263 121 210
262 127 268
269 140 344
297 155 428
331 172 533
379 190 652
441 209 784
509 232 916
584 250 1026
656 260 1121
720 270 1192
785 276 1245
861 286 1294
357 157 82
347 158 111
329 158 146
282 159 197
250 163 255
238 173 323
244 185 403
262 199 506
297 213 614
341 228 727
398 252 852
458 277 973
535 296 1075
600 301 1175
659 310 1252
724 319 1299
