Postproduction/IWLTBAP - Humble/LUTs by IWLTBAP (3DL)/BONUS/Aspen/IWLTBAP Aspen - LOG.3dl
# Copyright: (C) Copyright 2016 by IWLTBAP
# Cannot be resold, shared or otherwise redistributed
# Website: http://luts.iwltbap.com
0 128 256 384 512 640 768 896 1023
35 81 120
29 79 178
26 79 255
77 95 347
154 145 547
250 182 781
324 224 1027
376 233 1220
497 262 1340
40 217 282
38 223 380
20 213 544
32 207 628
119 238 844
188 289 1061
261 320 1223
315 336 1351
411 365 1447
77 539 656
59 521 794
27 517 1024
13 482 1417
13 476 1517
138 524 1608
229 603 1710
289 662 1772
354 705 1814
116 1221 1299
105 1215 1440
94 1217 1617
99 1209 1785
112 1212 2059
115 1222 2216
134 1230 2318
179 1253 2360
237 1297 2404
277 2131 1946
270 2106 2053
262 2097 2179
265 2092 2379
272 2056 2563
242 1996 2767
246 1998 2904
245 1993 2977
245 1988 3037
770 2688 2029
763 2683 2156
741 2669 2340
732 2666 2588
730 2676 2882
671 2656 3119
637 2626 3224
637 2579 3262
616 2540 3309
882 2875 1976
854 2855 2109
842 2847 2301
827 2835 2554
809 2818 2841
779 2814 3100
759 2802 3214
728 2779 3305
717 2728 3359
973 3011 1870
949 3004 2006
919 2995 2181
902 2982 2469
894 2980 2780
868 2961 3065
846 2951 3191
833 2937 3304
809 2901 3390
1047 3134 1777
1032 3136 1931
1001 3120 2115
946 3105 2385
949 3112 2735
950 3096 3046
931 3105 3189
905 3084 3320
890 3053 3407
147 73 61
121 80 116
122 90 195
170 114 320
239 158 525
341 190 768
448 238 1019
562 250 1201
689 264 1299
97 207 213
123 203 248
91 193 380
125 213 553
179 255 791
260 302 1000
328 323 1185
462 352 1327
587 383 1436
100 527 584
88 521 695
62 511 910
28 478 1316
52 466 1445
190 533 1544
271 621 1676
355 673 1742
435 716 1791
139 1233 1236
119 1212 1393
112 1214 1599
111 1200 1787
123 1207 2071
124 1205 2217
160 1220 2312
221 1260 2360
293 1317 2393
276 2112 1897
270 2096 2016
283 2094 2166
294 2094 2383
306 2059 2575
270 2001 2778
270 1996 2903
267 1985 2969
264 1970 3024
807 2692 2026
799 2687 2144
774 2668 2319
767 2669 2557
758 2672 2861
707 2632 3091
663 2596 3202
655 2564 3259
642 2527 3309
925 2889 1995
901 2871 2131
890 2858 2314
879 2849 2544
859 2833 2828
825 2817 3090
799 2798 3209
768 2774 3297
756 2723 3352
1038 3053 1938
1007 3038 2058
981 3029 2238
965 3014 2488
953 3001 2785
931 2979 3071
901 2973 3199
880 2949 3303
856 2910 3391
1131 3194 1847
1106 3189 2009
1070 3172 2187
1028 3159 2439
1027 3153 2749
1027 3144 3062
1005 3147 3219
972 3122 3330
956 3084 3420
584 170 29
641 172 96
513 178 236
466 188 393
508 210 572
636 249 833
810 288 1043
976 308 1203
1138 330 1305
620 256 107
611 256 175
492 259 313
423 271 492
431 302 709
532 334 955
702 373 1173
835 401 1331
983 432 1434
453 535 417
426 528 498
399 524 612
297 524 898
301 549 1190
350 606 1450
486 656 1590
620 703 1671
745 743 1746
192 1248 1040
171 1233 1190
145 1212 1460
140 1189 1725
146 1182 2032
182 1188 2184
303 1262 2255
373 1321 2289
421 1368 2332
302 2094 1783
292 2086 1906
304 2081 2094
337 2098 2367
343 2049 2563
313 2008 2787
305 1990 2903
296 1966 2953
292 1940 3000
843 2686 1999
837 2684 2116
812 2660 2280
805 2656 2523
789 2647 2817
742 2609 3056
689 2562 3185
673 2533 3248
660 2499 3306
981 2915 2008
958 2903 2136
950 2888 2313
938 2875 2540
918 2864 2811
874 2831 3073
851 2805 3207
821 2771 3287
796 2730 3356
1111 3102 1979
1082 3093 2108
1050 3074 2278
1038 3066 2514
1020 3046 2790
1003 3015 3068
967 3003 3217
942 2981 3313
920 2933 3406
1220 3256 1880
1193 3257 2055
1154 3239 2237
1124 3230 2492
1104 3209 2779
1100 3200 3078
1084 3194 3248
1047 3165 3351
1027 3117 3445
1502 389 69
1632 403 115
1727 406 214
1575 409 424
1462 426 702
1558 449 936
1688 464 1138
1771 479 1279
1842 495 1370
1537 452 103
1618 463 151
1683 467 259
1532 473 482
1406 483 784
1494 513 1036
1622 535 1248
1719 555 1380
1800 576 1472
1612 645 227
1645 642 282
1621 654 415
1464 673 715
1265 687 1068
1298 724 1348
1435 783 1558
1549 823 1672
1637 846 1748
1528 1297 838
1466 1308 970
1321 1328 1178
1210 1346 1467
1021 1373 1770
1005 1433 2009
1123 1496 2156
1243 1544 2251
1346 1575 2311
840 2101 1635
733 2084 1714
559 2052 1850
393 2027 2118
380 1996 2398
343 1936 2639
390 1929 2777
468 1940 2835
548 1948 2883
964 2695 1923
949 2686 2035
920 2670 2184
901 2651 2424
889 2641 2718
843 2611 2983
789 2542 3161
767 2504 3245
754 2463 3291
1251 3041 2039
1216 3040 2170
1184 3021 2339
1126 2987 2530
1080 2956 2813
1055 2942 3093
1010 2891 3242
986 2848 3331
965 2801 3400
1568 3261 2033
1542 3258 2192
1474 3254 2370
1381 3245 2600
1247 3204 2853
1202 3168 3134
1146 3127 3297
1141 3102 3396
1121 3053 3483
1921 3424 1901
1946 3461 2133
1875 3468 2358
1759 3458 2624
1587 3435 2912
1413 3399 3186
1311 3355 3344
1286 3329 3456
1262 3291 3557
2527 655 155
2591 656 196
2683 656 245
2687 648 385
2606 616 682
2498 642 1066
2470 646 1316
2471 657 1452
2475 656 1532
2526 715 183
2587 716 218
2678 716 268
2674 709 422
2592 707 765
2465 721 1162
2446 735 1405
2447 749 1528
2463 757 1612
2538 802 231
2601 810 264
2660 816 329
2643 811 520
2548 846 925
2394 871 1351
2389 912 1581
2400 937 1691
2420 951 1772
2713 1322 481
2713 1324 538
2693 1339 714
2642 1384 1057
2497 1469 1562
2320 1558 1944
2313 1621 2115
2338 1654 2209
2364 1669 2278
2636 2180 1324
2605 2184 1488
2552 2198 1720
2459 2235 2022
2393 2286 2296
2314 2312 2539
2232 2328 2728
2217 2337 2844
2192 2327 2920
2557 2857 1868
2500 2860 2037
2425 2873 2237
2296 2881 2463
1912 2836 2711
1504 2763 2956
1337 2698 3163
1178 2613 3258
1152 2550 3323
2571 3231 1820
2532 3259 2068
2445 3286 2336
2344 3288 2605
2112 3257 2861
1660 3164 3143
1366 3099 3359
1305 3032 3452
1283 2978 3527
2613 3381 1716
2609 3423 2010
2587 3463 2344
2535 3494 2675
2403 3474 2957
2149 3429 3227
1768 3367 3434
1558 3336 3548
1484 3263 3626
2743 3504 1558
2789 3554 1907
2788 3614 2277
2754 3676 2700
2683 3676 3024
2535 3646 3310
2318 3599 3511
2106 3563 3616
1862 3515 3707
3221 834 261
3253 808 284
3255 782 307
3248 765 407
3234 730 630
3132 688 959
3028 715 1349
2981 715 1511
2948 722 1622
3229 899 280
3264 883 305
3262 856 326
3248 842 435
3252 821 699
3134 792 1046
3042 842 1444
2998 843 1606
2982 856 1714
3227 977 300
3267 968 331
3268 952 363
3251 939 492
3243 925 793
3121 932 1210
3031 975 1567
3005 995 1727
3000 1017 1828
3329 1354 459
3331 1348 486
3329 1342 552
3325 1335 778
3269 1363 1217
3159 1427 1666
3079 1555 2021
3066 1595 2172
3065 1608 2254
3457 2142 830
3451 2149 940
3419 2149 1198
3384 2176 1596
3306 2226 2008
3226 2280 2363
3088 2340 2674
3058 2368 2834
3042 2362 2926
3346 2761 1331
3350 2781 1570
3332 2814 1873
3280 2859 2217
3238 2919 2596
3179 2979 2955
3105 2995 3218
3019 2965 3371
2944 2881 3459
3376 3221 1400
3400 3258 1664
3403 3306 2015
3394 3355 2372
3317 3409 2816
3212 3459 3229
2991 3423 3484
2909 3390 3632
2826 3338 3726
3413 3433 1395
3452 3473 1630
3464 3500 2013
3443 3560 2422
3388 3632 2907
3310 3666 3312
3136 3638 3570
2964 3603 3706
2861 3555 3798
3412 3545 1390
3496 3603 1620
3506 3645 2012
3473 3722 2475
3417 3789 2982
3371 3829 3372
3278 3807 3624
3149 3777 3763
3014 3760 3858
3454 849 281
3477 839 308
3470 821 336
3451 772 399
3410 707 595
3352 644 861
3214 630 1269
3147 628 1446
3139 626 1572
3479 929 304
3495 914 330
3490 895 362
3470 846 435
3447 798 652
3368 741 933
3230 732 1340
3175 763 1532
3171 767 1656
3517 1037 342
3519 1006 359
3514 977 389
3495 933 481
3474 903 724
3380 836 1033
3262 869 1444
3220 901 1652
3200 904 1771
3601 1294 447
3597 1282 475
3591 1260 513
3570 1200 623
3539 1180 964
3451 1151 1338
3370 1228 1752
3329 1284 1979
3334 1320 2102
3777 2048 730
3792 2043 768
3799 2051 854
3776 2031 1161
3710 2028 1642
3637 2058 2064
3579 2124 2412
3520 2201 2696
3496 2231 2846
3821 2704 1037
3841 2710 1135
3852 2730 1395
3820 2772 1856
3781 2823 2304
3723 2894 2763
3643 2925 3110
3581 2961 3323
3533 2950 3471
3686 3139 1221
3749 3174 1395
3767 3226 1783
3758 3287 2231
3718 3359 2699
3682 3424 3125
3631 3468 3476
3582 3468 3689
3553 3446 3782
3695 3390 1290
3776 3440 1452
3810 3499 1867
3812 3571 2321
3807 3644 2774
3750 3698 3230
3700 3732 3584
3584 3720 3787
3562 3725 3892
3735 3541 1344
3830 3595 1514
3850 3665 1937
3841 3730 2374
3819 3799 2864
3781 3857 3297
3740 3897 3643
3671 3894 3850
3609 3903 3951
3591 851 300
3578 821 320
3561 793 345
3550 753 416
3486 645 550
3456 591 832
3341 570 1160
3254 548 1394
3232 549 1522
3616 926 322
3610 902 343
3597 873 365
3571 823 428
3522 732 605
3480 680 883
3359 658 1228
3268 664 1472
3267 675 1612
3639 1025 351
3628 987 368
3618 957 391
3593 903 460
3564 840 685
3486 782 973
3376 760 1318
3300 795 1575
3299 814 1722
3699 1264 436
3691 1236 462
3677 1203 494
3662 1132 590
3624 1084 863
3532 1028 1231
3447 1037 1572
3403 1095 1859
3384 1130 2000
3868 1995 705
3870 1979 739
3869 1961 795
3874 1945 1014
3804 1890 1473
3726 1897 1887
3668 1943 2270
3617 2008 2547
3600 2077 2755
3932 2651 975
3946 2662 1055
3960 2678 1205
3954 2699 1642
3924 2753 2134
3882 2815 2622
3815 2849 3026
3770 2896 3277
3736 2923 3439
3902 3108 1171
3946 3137 1285
3970 3172 1552
3973 3254 2065
3971 3326 2555
3948 3412 3049
3900 3446 3438
3847 3458 3675
3831 3463 3789
3880 3348 1255
3928 3401 1395
3961 3477 1784
3969 3552 2292
3978 3638 2785
3959 3698 3222
3928 3730 3556
3903 3767 3827
3897 3775 3917
3916 3516 1330
3959 3581 1507
3976 3650 1918
3990 3736 2406
3998 3813 2881
3994 3871 3296
3975 3919 3626
3968 3957 3890
3940 3962 3986
3634 835 302
3623 793 324
3603 757 352
3581 700 417
3522 609 567
3483 559 866
3376 531 1154
3313 517 1394
3277 508 1557
3662 919 324
3656 880 347
3636 839 373
3612 791 448
3558 691 606
3504 631 912
3391 604 1234
3329 569 1441
3301 582 1616
3684 1003 336
3681 968 372
3664 928 395
3637 874 471
3588 775 677
3517 719 987
3405 681 1321
3345 683 1556
3326 693 1722
3753 1257 428
3749 1223 459
3732 1178 491
3703 1097 589
3671 1028 853
3554 944 1207
3486 955 1544
3438 999 1821
3424 1046 2002
3930 1999 687
3921 1958 720
3916 1931 776
3922 1906 961
3849 1819 1404
3769 1801 1824
3715 1847 2223
3674 1906 2512
3662 1998 2738
3985 2629 923
3999 2641 1004
4014 2661 1150
4025 2669 1483
3992 2703 2031
3932 2761 2548
3876 2799 2984
3831 2854 3267
3809 2897 3444
3981 3086 1139
4012 3124 1243
4034 3160 1423
4051 3225 1914
4049 3309 2456
4018 3389 2988
3958 3423 3416
3920 3440 3669
3917 3456 3784
3984 3349 1253
4018 3397 1366
4037 3464 1687
4053 3533 2207
4065 3619 2717
4048 3697 3199
4012 3725 3561
3986 3765 3835
3982 3780 3914
3996 3525 1343
4019 3578 1512
4037 3640 1906
4057 3733 2406
4064 3807 2883
4064 3868 3310
4054 3926 3643
4036 3960 3898
4040 3984 4000
