Postproduction/IWLTBAP - Humble/LUTs by IWLTBAP (3DL)/BONUS/Aspen/IWLTBAP Aspen - Standard.3dl
# Copyright: (C) Copyright 2016 by IWLTBAP
# Cannot be resold, shared or otherwise redistributed
# Website: http://luts.iwltbap.com
0 64 128 192 256 320 384 448 512 576 640 704 768 832 896 960 1023
34 73 112
29 70 149
27 71 187
24 70 232
24 70 262
42 76 292
87 87 339
123 103 392
146 122 464
172 139 551
210 150 634
249 164 722
282 180 826
324 201 947
348 210 1082
395 221 1202
511 246 1323
36 161 205
34 160 254
32 161 324
25 152 362
22 144 387
37 138 414
73 149 473
95 167 558
117 179 644
142 192 727
173 207 799
212 228 866
245 245 945
274 258 1035
301 261 1146
331 268 1283
449 301 1383
38 262 338
40 266 401
31 264 493
18 256 646
15 252 715
16 245 717
19 244 746
49 243 792
92 249 862
115 263 941
135 279 1029
165 297 1103
200 316 1161
234 331 1227
272 345 1304
314 358 1381
404 383 1467
51 406 521
46 401 596
37 392 684
23 390 822
16 377 1001
8 360 1121
4 349 1174
5 343 1192
20 344 1230
68 358 1283
117 375 1317
145 392 1383
175 419 1448
209 452 1490
248 493 1538
297 532 1589
360 560 1642
95 603 673
84 589 760
66 573 871
50 571 974
19 558 1152
14 535 1360
19 526 1471
13 525 1534
9 521 1566
9 512 1572
28 511 1604
97 528 1650
155 564 1660
202 596 1700
242 635 1752
290 682 1800
352 725 1839
159 813 868
150 800 947
132 779 1047
90 759 1200
67 753 1304
52 745 1417
32 707 1557
35 704 1641
28 706 1726
21 707 1792
19 703 1820
27 702 1841
77 736 1909
169 785 1948
253 833 1958
315 896 2003
363 949 2051
169 1066 1070
160 1060 1175
139 1042 1277
110 1023 1398
83 998 1478
87 999 1548
87 991 1638
82 976 1756
81 977 1845
81 985 1924
79 990 1986
79 992 2031
77 988 2060
86 992 2107
179 1072 2237
280 1115 2228
358 1179 2261
94 1343 1329
81 1324 1433
83 1327 1526
92 1339 1619
95 1341 1708
105 1339 1773
102 1322 1824
100 1304 1911
108 1300 2019
118 1304 2103
118 1303 2167
121 1301 2221
123 1298 2274
121 1288 2312
122 1273 2329
149 1293 2399
194 1331 2451
35 1597 1578
31 1607 1644
36 1613 1721
37 1610 1803
36 1602 1887
45 1588 1959
49 1565 2026
46 1549 2093
49 1552 2163
51 1557 2262
47 1550 2350
54 1537 2404
61 1529 2449
64 1529 2497
63 1523 2541
61 1514 2577
61 1499 2594
121 1863 1729
110 1863 1797
99 1854 1870
108 1858 1950
108 1861 2038
87 1839 2109
94 1837 2195
99 1831 2271
94 1805 2330
94 1790 2396
95 1773 2468
81 1753 2540
77 1745 2600
95 1753 2662
103 1753 2722
102 1747 2777
101 1750 2834
245 2136 1861
237 2120 1929
228 2101 2006
238 2086 2075
230 2079 2142
222 2078 2232
225 2082 2320
238 2069 2393
243 2055 2462
239 2039 2518
236 2013 2571
229 1981 2646
205 1960 2726
207 1958 2798
215 1961 2881
217 1956 2949
219 1953 3011
536 2387 1955
536 2379 2031
524 2368 2114
508 2346 2200
490 2330 2266
474 2319 2340
462 2314 2420
464 2296 2488
461 2279 2564
452 2269 2636
446 2258 2706
434 2244 2776
405 2198 2843
387 2184 2933
361 2156 3006
346 2140 3086
338 2124 3140
686 2550 1936
678 2549 2022
668 2549 2109
651 2538 2199
647 2535 2297
645 2537 2400
647 2536 2497
647 2532 2591
637 2526 2678
625 2511 2760
614 2496 2840
593 2479 2911
575 2461 2982
551 2436 3066
524 2390 3136
501 2347 3189
481 2312 3240
816 2740 1897
786 2711 1981
777 2698 2063
768 2692 2161
750 2678 2264
744 2679 2367
736 2681 2468
736 2673 2571
732 2682 2678
733 2691 2789
731 2678 2886
721 2664 2971
694 2663 3056
659 2650 3148
637 2622 3221
635 2578 3262
615 2538 3308
908 2886 1807
892 2882 1898
878 2870 1995
856 2856 2091
852 2855 2193
840 2845 2303
833 2839 2414
830 2835 2516
819 2829 2611
821 2825 2712
810 2819 2818
801 2815 2920
792 2812 3015
776 2813 3114
758 2801 3214
727 2778 3304
716 2726 3359
1004 3032 1688
990 3019 1784
971 3010 1878
952 3003 1978
940 3002 2076
920 2995 2172
902 2990 2289
903 2984 2407
899 2979 2529
900 2984 2635
895 2982 2743
890 2974 2857
878 2964 2978
865 2961 3081
845 2951 3190
832 2936 3303
808 2900 3390
1087 3152 1578
1074 3134 1685
1047 3136 1784
1037 3141 1899
1018 3119 1995
1002 3119 2102
982 3116 2211
960 3108 2322
939 3102 2439
946 3099 2550
948 3105 2687
949 3123 2823
950 3112 2940
949 3094 3064
931 3105 3188
906 3084 3319
890 3053 3407
74 64 67
66 69 110
56 71 156
64 77 192
77 83 228
109 90 276
142 101 334
166 118 394
186 134 471
226 151 554
264 160 636
297 171 727
345 191 833
390 212 954
431 223 1082
518 234 1204
639 248 1299
60 157 172
75 152 192
57 149 254
62 147 307
66 145 355
97 150 403
120 165 468
132 181 554
151 192 642
182 205 717
221 220 786
259 240 859
294 256 949
324 269 1045
362 274 1154
451 287 1277
574 314 1375
56 264 302
58 265 346
57 268 424
44 261 531
37 253 596
41 254 644
61 256 704
104 259 774
137 268 847
156 281 928
176 301 1014
206 319 1084
239 330 1144
273 343 1215
311 356 1294
389 374 1376
505 405 1469
68 412 477
65 411 549
60 407 631
46 400 755
32 397 936
26 382 1048
23 368 1098
26 357 1132
57 361 1188
114 379 1228
148 389 1287
177 411 1366
209 443 1430
245 479 1489
291 518 1539
354 546 1585
444 569 1635
123 623 641
109 617 737
93 600 843
75 590 945
44 573 1111
26 551 1332
31 540 1452
27 532 1515
24 525 1540
27 519 1561
71 521 1603
138 550 1614
193 587 1642
237 625 1692
279 667 1749
337 704 1799
408 756 1846
179 836 843
173 834 937
153 804 1039
115 787 1186
87 774 1310
72 771 1425
50 733 1577
53 728 1662
47 731 1745
39 729 1805
36 721 1831
55 726 1863
114 758 1908
224 810 1923
301 871 1956
354 928 2004
396 976 2057
178 1104 1052
169 1100 1164
151 1080 1272
132 1070 1408
104 1043 1497
106 1034 1578
104 1023 1672
100 1009 1790
99 1009 1878
99 1022 1965
99 1026 2029
99 1020 2064
95 1009 2085
117 1029 2156
224 1097 2223
325 1150 2224
389 1215 2263
101 1393 1312
94 1379 1414
88 1366 1516
98 1376 1621
102 1372 1727
112 1372 1802
112 1355 1859
112 1338 1948
122 1338 2061
128 1340 2146
129 1334 2207
131 1327 2260
132 1319 2311
130 1307 2343
134 1297 2366
163 1313 2420
228 1366 2470
57 1628 1560
49 1640 1635
50 1644 1720
51 1643 1809
46 1642 1906
54 1626 1988
59 1602 2059
55 1586 2127
58 1588 2197
56 1588 2294
54 1576 2384
59 1564 2444
63 1558 2491
65 1553 2533
67 1543 2570
69 1532 2602
69 1517 2621
161 1892 1717
150 1897 1789
138 1889 1867
138 1890 1959
146 1897 2053
132 1881 2135
142 1881 2230
143 1870 2301
139 1841 2355
139 1823 2421
141 1808 2503
127 1787 2579
124 1777 2636
142 1785 2692
143 1778 2744
136 1765 2790
135 1762 2843
289 2157 1838
272 2137 1904
270 2124 1991
278 2106 2069
282 2107 2148
280 2106 2249
284 2113 2342
296 2101 2418
300 2084 2486
301 2072 2549
290 2050 2608
278 2015 2681
256 1995 2760
254 1988 2826
258 1989 2904
255 1973 2965
253 1959 3018
561 2389 1923
557 2377 2004
554 2370 2089
541 2349 2181
530 2338 2266
513 2324 2342
501 2321 2418
502 2305 2487
502 2299 2575
494 2288 2652
484 2269 2723
471 2255 2794
446 2217 2865
428 2205 2957
402 2178 3018
388 2159 3097
375 2132 3145
719 2560 1919
710 2553 2007
701 2552 2094
686 2541 2182
681 2538 2286
678 2534 2387
675 2533 2477
675 2528 2569
669 2521 2666
657 2506 2748
643 2492 2835
623 2476 2908
605 2463 2981
581 2439 3066
556 2398 3141
537 2355 3195
518 2319 3246
852 2744 1905
831 2728 1986
819 2712 2069
811 2706 2156
793 2689 2255
787 2687 2355
782 2690 2457
777 2687 2547
775 2682 2658
771 2693 2771
767 2685 2874
755 2668 2961
736 2657 3044
700 2633 3122
670 2606 3202
659 2575 3261
647 2536 3311
953 2907 1844
940 2895 1931
919 2885 2022
902 2870 2120
899 2866 2220
888 2856 2323
882 2852 2419
880 2849 2517
871 2843 2600
869 2843 2708
861 2834 2815
842 2822 2916
832 2818 3011
821 2815 3110
797 2797 3208
766 2773 3297
755 2722 3351
1072 3069 1750
1052 3055 1850
1036 3053 1956
1013 3041 2043
994 3029 2131
981 3028 2237
975 3029 2339
967 3018 2448
961 3008 2545
958 3006 2648
955 3001 2759
948 2996 2864
942 2987 2976
926 2979 3095
901 2972 3199
880 2949 3302
856 2909 3391
1157 3189 1616
1148 3186 1734
1128 3195 1863
1110 3193 1985
1086 3172 2075
1071 3172 2184
1062 3175 2295
1038 3161 2394
1022 3158 2496
1034 3153 2599
1029 3153 2717
1022 3154 2840
1019 3154 2959
1028 3141 3087
1006 3147 3219
973 3122 3329
956 3085 3421
248 91 51
224 93 97
199 96 144
194 99 187
206 106 231
206 118 291
213 132 354
240 144 414
270 157 488
303 171 569
339 180 656
383 193 752
439 212 859
495 232 974
574 243 1094
671 258 1205
811 271 1299
243 169 127
237 172 164
207 175 212
184 176 276
174 183 337
178 191 397
185 199 470
195 207 558
222 217 635
258 230 704
292 241 778
334 258 865
369 274 964
416 291 1058
507 300 1160
602 314 1280
722 332 1371
163 283 258
189 280 281
196 277 326
151 268 418
136 266 501
148 272 579
165 282 659
181 293 737
199 305 822
218 319 912
237 335 1003
266 348 1068
298 355 1134
331 363 1210
415 382 1297
535 410 1384
655 438 1481
106 432 423
92 423 483
89 422 551
82 418 648
67 408 794
61 404 903
76 399 970
102 400 1045
153 409 1107
183 414 1177
204 424 1254
225 447 1339
257 481 1421
301 517 1484
363 543 1529
463 563 1577
557 588 1632
150 633 588
141 640 677
123 629 783
108 617 888
83 604 1025
47 575 1251
42 560 1385
46 548 1448
54 539 1487
83 537 1522
150 559 1539
209 596 1573
249 635 1629
290 670 1689
342 704 1746
411 748 1801
483 803 1852
208 858 789
195 862 892
181 848 1008
148 821 1134
114 804 1273
95 800 1404
71 769 1563
73 760 1666
69 759 1736
63 754 1791
65 746 1829
119 770 1867
214 812 1877
299 863 1905
362 919 1957
406 969 2016
440 1020 2073
193 1146 1010
181 1139 1116
169 1126 1239
146 1112 1383
129 1097 1496
123 1077 1579
122 1061 1686
118 1049 1807
117 1044 1898
117 1055 1986
120 1057 2051
119 1047 2084
129 1048 2124
185 1079 2173
293 1139 2197
377 1206 2222
419 1255 2262
103 1437 1276
105 1433 1370
97 1416 1485
103 1416 1594
105 1406 1721
115 1407 1816
120 1393 1880
124 1375 1968
133 1375 2084
137 1376 2180
138 1367 2243
140 1354 2295
140 1344 2341
140 1334 2372
150 1328 2404
200 1358 2442
282 1414 2458
85 1678 1509
78 1667 1600
70 1683 1686
73 1680 1796
65 1681 1900
72 1669 2003
78 1644 2080
71 1624 2149
71 1624 2224
67 1622 2322
65 1605 2411
69 1595 2478
73 1589 2530
76 1582 2569
75 1570 2601
78 1552 2624
87 1557 2673
191 1923 1674
183 1924 1758
177 1927 1846
168 1923 1938
177 1934 2051
175 1923 2143
188 1925 2252
188 1913 2328
186 1883 2380
185 1857 2443
186 1842 2531
173 1823 2616
174 1816 2670
186 1815 2719
182 1804 2768
171 1784 2808
166 1774 2853
348 2181 1796
336 2169 1872
325 2156 1953
332 2135 2052
343 2135 2138
345 2137 2247
352 2145 2356
366 2142 2440
362 2117 2505
363 2105 2570
355 2093 2644
338 2061 2717
312 2037 2798
306 2029 2863
303 2018 2924
299 1998 2987
292 1969 3027
592 2383 1868
584 2380 1955
584 2369 2041
574 2359 2139
570 2343 2236
562 2338 2338
550 2336 2422
552 2330 2496
549 2325 2587
544 2316 2675
533 2296 2748
518 2282 2820
498 2253 2901
477 2238 2990
452 2212 3048
430 2180 3104
418 2146 3156
743 2556 1889
738 2555 1973
732 2553 2063
720 2542 2153
713 2536 2260
710 2530 2367
707 2526 2460
699 2522 2544
696 2513 2642
692 2507 2740
680 2495 2830
655 2473 2910
635 2463 2985
616 2447 3074
593 2412 3156
579 2374 3211
558 2330 3251
888 2747 1905
873 2740 1983
864 2730 2064
857 2724 2150
839 2706 2238
830 2699 2332
828 2700 2442
824 2698 2533
819 2692 2631
813 2691 2750
805 2687 2855
791 2677 2948
776 2661 3031
744 2634 3110
707 2601 3188
689 2569 3254
676 2537 3316
1004 2932 1869
989 2918 1958
966 2909 2047
954 2898 2143
950 2890 2240
942 2882 2340
934 2876 2431
935 2872 2527
927 2867 2607
922 2866 2704
914 2860 2817
891 2838 2915
873 2832 3009
869 2826 3106
848 2803 3206
816 2768 3285
792 2727 3354
1136 3112 1799
1118 3100 1905
1103 3100 2014
1079 3090 2103
1056 3074 2188
1048 3073 2293
1049 3079 2386
1037 3067 2490
1028 3054 2582
1021 3050 2677
1018 3044 2783
1012 3034 2886
1005 3023 2984
995 3010 3102
965 3002 3216
940 2979 3313
918 2931 3405
1235 3250 1668
1229 3251 1789
1209 3258 1924
1191 3255 2048
1162 3243 2159
1152 3238 2250
1146 3239 2360
1126 3228 2462
1111 3227 2567
1113 3212 2660
1102 3206 2769
1101 3209 2877
1099 3207 2989
1101 3196 3114
1083 3193 3246
1046 3164 3350
1026 3117 3444
463 141 26
485 144 82
432 146 158
370 150 223
358 152 282
356 154 338
366 163 398
380 173 458
401 180 524
435 192 601
476 211 698
526 226 805
594 243 914
676 261 1010
771 276 1118
881 291 1222
1045 311 1318
484 215 100
473 215 148
428 215 208
366 215 286
343 215 351
337 223 414
336 233 484
342 244 562
360 255 634
382 264 709
413 275 796
463 290 889
530 311 984
614 329 1082
694 339 1196
796 354 1298
