Postproduction/IWLTBAP - Humble/LUTs by IWLTBAP (3DL)/BONUS/Aspen/IWLTBAP Aspen - Standard.3dl
# Copyright: (C) Copyright 2016 by IWLTBAP
# Cannot be resold, shared or otherwise redistributed
# Website: http://luts.iwltbap.com
0 128 256 384 512 640 768 896 1023
34 73 112
27 71 187
24 70 262
87 87 339
146 122 464
210 150 634
282 180 826
348 210 1082
511 246 1323
38 262 338
31 264 493
15 252 715
19 244 746
92 249 862
135 279 1029
200 316 1161
272 345 1304
404 383 1467
95 603 673
66 573 871
19 558 1152
19 526 1471
9 521 1566
28 511 1604
155 564 1660
242 635 1752
352 725 1839
169 1066 1070
139 1042 1277
83 998 1478
87 991 1638
81 977 1845
79 990 1986
77 988 2060
179 1072 2237
358 1179 2261
35 1597 1578
36 1613 1721
36 1602 1887
49 1565 2026
49 1552 2163
47 1550 2350
61 1529 2449
63 1523 2541
61 1499 2594
245 2136 1861
228 2101 2006
230 2079 2142
225 2082 2320
243 2055 2462
236 2013 2571
205 1960 2726
215 1961 2881
219 1953 3011
686 2550 1936
668 2549 2109
647 2535 2297
647 2536 2497
637 2526 2678
614 2496 2840
575 2461 2982
524 2390 3136
481 2312 3240
908 2886 1807
878 2870 1995
852 2855 2193
833 2839 2414
819 2829 2611
810 2819 2818
792 2812 3015
758 2801 3214
716 2726 3359
1087 3152 1578
1047 3136 1784
1018 3119 1995
982 3116 2211
939 3102 2439
948 3105 2687
950 3112 2940
931 3105 3188
890 3053 3407
248 91 51
199 96 144
206 106 231
213 132 354
270 157 488
339 180 656
439 212 859
574 243 1094
811 271 1299
163 283 258
196 277 326
136 266 501
165 282 659
199 305 822
237 335 1003
298 355 1134
415 382 1297
655 438 1481
150 633 588
123 629 783
83 604 1025
42 560 1385
54 539 1487
150 559 1539
249 635 1629
342 704 1746
483 803 1852
193 1146 1010
169 1126 1239
129 1097 1496
122 1061 1686
117 1044 1898
120 1057 2051
129 1048 2124
293 1139 2197
419 1255 2262
85 1678 1509
70 1683 1686
65 1681 1900
78 1644 2080
71 1624 2224
65 1605 2411
73 1589 2530
75 1570 2601
87 1557 2673
348 2181 1796
325 2156 1953
343 2135 2138
352 2145 2356
362 2117 2505
355 2093 2644
312 2037 2798
303 2018 2924
292 1969 3027
743 2556 1889
732 2553 2063
713 2536 2260
707 2526 2460
696 2513 2642
680 2495 2830
635 2463 2985
593 2412 3156
558 2330 3251
1004 2932 1869
966 2909 2047
950 2890 2240
934 2876 2431
927 2867 2607
914 2860 2817
873 2832 3009
848 2803 3206
792 2727 3354
1235 3250 1668
1209 3258 1924
1162 3243 2159
1146 3239 2360
1111 3227 2567
1102 3206 2769
1099 3207 2989
1083 3193 3246
1026 3117 3444
685 192 33
774 202 151
600 206 315
581 223 449
605 242 584
695 258 759
846 298 947
1048 323 1150
1320 369 1336
775 375 174
738 370 287
594 375 468
535 389 631
502 396 806
555 408 982
696 441 1162
860 490 1365
1120 550 1553
681 714 522
618 717 662
576 714 805
458 707 1051
415 708 1285
447 747 1474
520 790 1630
645 850 1755
889 919 1878
418 1289 957
316 1260 1085
197 1202 1408
195 1179 1632
191 1150 1885
266 1158 2000
381 1230 2079
475 1323 2178
615 1415 2292
248 1786 1361
170 1760 1536
138 1769 1788
125 1743 2068
120 1695 2228
106 1667 2442
108 1653 2573
136 1635 2617
343 1684 2652
431 2201 1656
436 2202 1826
432 2177 2035
453 2180 2276
478 2186 2500
457 2130 2627
422 2099 2805
395 2060 2932
371 1996 3026
852 2592 1837
823 2572 1992
797 2550 2172
790 2543 2398
776 2529 2580
758 2510 2781
711 2465 2945
659 2407 3136
627 2328 3237
1157 3008 1910
1120 3006 2103
1080 2981 2289
1057 2960 2455
1045 2936 2632
1031 2928 2847
1010 2913 3043
955 2856 3225
916 2776 3385
1712 3346 1623
1751 3411 2018
1672 3411 2264
1575 3418 2501
1475 3403 2707
1376 3388 2900
1322 3371 3110
1248 3310 3317
1211 3252 3530
1364 349 60
1576 371 172
1559 390 309
1382 388 510
1332 398 697
1416 418 864
1558 442 1042
1690 456 1229
1836 488 1412
1518 533 163
1587 536 266
1564 555 417
1357 552 696
1288 560 900
1328 588 1100
1439 614 1287
1595 651 1464
1732 673 1612
1697 875 382
1676 873 525
1608 892 748
1444 904 1021
1238 896 1312
1214 928 1502
1276 984 1677
1437 1047 1818
1620 1114 1947
1691 1427 907
1610 1450 1119
1469 1462 1368
1436 1486 1587
1324 1509 1784
1207 1519 1967
1239 1554 2108
1335 1597 2232
1497 1652 2357
1543 1971 1518
1384 1961 1684
1058 1922 1811
645 1863 1972
599 1849 2142
547 1806 2300
667 1829 2435
951 1917 2579
1172 1979 2717
1340 2353 1786
1173 2326 1887
925 2284 2017
686 2222 2168
574 2184 2377
557 2155 2543
502 2116 2722
477 2069 2881
565 2051 2991
1106 2683 1833
1054 2659 1979
957 2623 2128
902 2588 2313
890 2578 2518
885 2576 2738
841 2538 2922
784 2472 3109
743 2378 3243
1656 3115 1912
1599 3115 2137
1537 3110 2312
1438 3090 2493
1312 3063 2666
1222 3031 2868
1178 3003 3081
1124 2963 3285
1082 2861 3445
2191 3396 1461
2321 3493 1960
2353 3563 2341
2292 3569 2585
2255 3571 2812
2146 3546 3013
1985 3524 3214
1668 3475 3416
1415 3399 3624
2131 552 117
2299 550 199
2332 545 317
2269 543 497
2153 544 763
2128 559 970
2136 565 1183
2175 578 1364
2246 581 1529
2171 695 189
2332 703 260
2335 705 404
2292 726 637
2148 733 948
2102 753 1197
2089 778 1416
2144 809 1583
2225 833 1730
2405 1011 354
2407 1018 457
2387 1033 670
2345 1064 931
2141 1076 1338
2051 1133 1596
2059 1193 1779
2124 1254 1930
2183 1297 2050
2508 1555 679
2492 1571 892
2438 1586 1169
2342 1618 1492
2237 1673 1765
2077 1712 2008
2045 1736 2146
2072 1766 2270
2133 1796 2406
2462 2068 1285
2417 2071 1510
2342 2089 1764
2272 2116 1994
2248 2146 2174
2205 2168 2331
2109 2176 2503
2095 2201 2652
2084 2210 2797
2455 2477 1702
2382 2490 1923
2302 2509 2142
2198 2527 2308
1983 2505 2463
1835 2490 2620
1791 2484 2794
1681 2454 2967
1748 2434 3127
2516 2895 1816
2436 2897 2070
2363 2909 2290
2244 2908 2467
2032 2879 2641
1576 2807 2812
1331 2749 2984
1177 2671 3167
1021 2513 3307
2644 3230 1626
2596 3263 2030
2519 3305 2355
2445 3312 2581
2314 3293 2757
2034 3237 2933
1678 3169 3152
1374 3106 3365
1289 2980 3528
2692 3466 1405
2830 3550 1831
2835 3618 2247
2815 3675 2625
2776 3690 2886
2714 3675 3098
2612 3665 3314
2401 3617 3523
1970 3537 3720
2659 696 177
2778 689 250
2798 684 348
2786 677 511
2717 645 748
2630 674 1040
2583 671 1294
2575 687 1495
2578 683 1631
2725 836 250
2814 851 308
2808 842 403
2801 842 632
2754 854 903
2608 860 1260
2568 892 1501
2562 925 1674
2598 965 1832
2886 1148 384
2894 1149 462
2889 1142 643
2851 1161 892
2792 1195 1233
2649 1282 1636
2613 1357 1844
2623 1415 2022
2635 1435 2140
3023 1656 596
3021 1683 782
2994 1693 1051
2924 1719 1379
2849 1773 1707
2730 1824 2005
2625 1874 2223
2629 1904 2377
2659 1922 2522
3090 2143 990
3047 2136 1263
3007 2149 1557
2958 2182 1858
2901 2224 2107
2841 2258 2323
2699 2287 2553
2643 2310 2728
2623 2305 2883
3043 2537 1421
3012 2543 1690
2973 2574 1960
2926 2601 2205
2880 2630 2431
2847 2676 2660
2799 2683 2854
2707 2693 3055
2597 2622 3216
3104 2919 1570
3095 2944 1879
3059 2965 2147
2976 2997 2412
2900 3036 2670
2810 3052 2895
2693 3033 3097
2639 3011 3302
2439 2887 3481
3201 3272 1408
3229 3321 1819
3209 3356 2152
3165 3400 2455
3123 3431 2778
3050 3447 3038
2885 3423 3268
2571 3364 3491
2286 3256 3683
3169 3504 1348
3331 3584 1681
3341 3654 2122
3321 3718 2499
3278 3757 2853
3229 3794 3182
3179 3786 3394
3049 3759 3606
2734 3702 3824
3090 799 235
3163 768 291
3163 763 374
3171 744 529
3135 731 718
3025 719 1028
2950 729 1351
2900 734 1564
2881 745 1734
3153 969 292
3208 948 349
3196 937 437
3203 930 646
3175 925 864
3066 941 1220
2984 971 1537
2964 1008 1754
2965 1036 1925
3292 1275 431
3296 1255 487
3301 1248 616
3290 1248 866
3237 1248 1168
3155 1271 1492
3060 1397 1851
3038 1465 2072
3045 1490 2219
3417 1740 604
3417 1750 708
3404 1750 938
3373 1740 1265
3315 1787 1608
3259 1813 1875
3151 1899 2207
3099 1931 2413
3087 1955 2588
3520 2191 846
3508 2192 1057
3472 2192 1377
3440 2211 1709
3386 2251 1990
3340 2273 2244
3263 2314 2510
3157 2377 2797
3131 2370 2981
3534 2570 1084
3526 2585 1402
3503 2613 1751
3462 2645 2048
3445 2674 2318
3401 2714 2595
3350 2747 2845
3224 2766 3097
3121 2715 3322
3452 2919 1237
3481 2955 1636
3465 2990 1994
3451 3029 2283
3416 3071 2565
3382 3106 2850
3348 3153 3133
3274 3156 3382
3162 3034 3588
3488 3245 1281
3556 3298 1607
3573 3358 2021
3579 3406 2334
3554 3436 2642
3494 3482 2977
3427 3518 3312
3285 3488 3536
3207 3440 3773
3528 3538 1338
3655 3598 1603
3672 3668 2044
3635 3717 2414
3617 3774 2765
3586 3817 3111
3564 3867 3422
3499 3865 3671
3310 3815 3894
3454 849 281
3468 821 337
3450 772 398
3421 741 534
3401 671 679
3333 634 920
3198 630 1306
3143 628 1537
3107 624 1734
3516 1038 342
3514 979 388
3498 939 464
3482 915 614
3461 882 815
3370 836 1057
3263 869 1435
3209 910 1709
3188 907 1923
3604 1303 450
3592 1273 510
3586 1217 576
3556 1184 765
3527 1166 1033
3456 1143 1307
3375 1187 1654
3323 1258 1977
3303 1307 2196
3710 1737 598
3724 1728 673
3713 1690 798
3681 1645 1060
3628 1641 1385
3571 1645 1662
3507 1685 1988
3451 1800 2340
3427 1864 2604
3819 2174 783
3830 2175 877
3831 2188 1085
3775 2150 1436
3729 2155 1761
3687 2184 2087
3622 2193 2355
3549 2290 2735
3491 2344 3024
3856 2575 965
3885 2576 1103
3876 2581 1432
3837 2604 1796
3805 2635 2118
3775 2675 2437
3702 2688 2754
3635 2756 3093
3553 2795 3387
3808 2932 1131
3859 2956 1348
3870 2994 1731
3854 3037 2096
3835 3082 2409
3805 3119 2744
3762 3164 3094
3689 3183 3391
3611 3156 3650
3714 3227 1215
3822 3300 1484
3837 3359 1937
3837 3415 2305
3815 3463 2639
3788 3494 2957
3769 3537 3267
3730 3577 3603
3687 3569 3839
3813 3534 1324
3897 3614 1589
3907 3686 2066
3924 3745 2418
3916 3798 2764
3897 3843 3088
3872 3877 3384
3838 3916 3719
3752 3932 3969
3634 835 302
3603 757 352
3581 697 420
3528 617 498
3520 592 712
3464 548 930
3368 530 1209
3282 512 1534
3214 500 1824
3685 1004 337
3665 929 395
3640 879 461
3600 817 590
3577 751 778
3501 710 1028
3402 682 1331
3341 700 1659
3290 741 1945
3762 1301 443
3743 1223 502
3719 1147 575
3705 1094 724
3659 1030 950
3561 957 1210
3499 971 1510
3440 1028 1887
3423 1101 2198
3874 1715 589
3850 1634 645
3843 1592 736
3818 1505 932
3770 1443 1237
3694 1414 1516
3631 1408 1837
3585 1501 2217
3575 1676 2607
3954 2171 746
3948 2118 825
3959 2105 947
3942 2080 1229
3885 2033 1573
3836 2026 1888
3777 2023 2215
3715 2090 2617
3686 2234 3031
3984 2545 888
4003 2548 1024
4010 2549 1182
4010 2552 1531
3976 2552 1912
3936 2561 2259
3875 2584 2634
3808 2635 3034
3784 2754 3395
3986 2898 1063
4017 2918 1201
4030 2958 1431
4046 2988 1816
4035 3040 2214
3998 3088 2577
3961 3132 2995
3893 3154 3361
3857 3194 3680
3982 3234 1201
4025 3283 1355
4040 3333 1683
4053 3396 2133
4064 3446 2490
4040 3496 2860
4018 3547 3230
3969 3574 3607
3947 3605 3852
3996 3547 1348
4027 3621 1629
4046 3695 2087
4059 3764 2479
4062 3810 2813
4066 3851 3121
4065 3883 3404
4044 3941 3732
4040 3984 4000
