Postproduction/IWLTBAP - Humble/LUTs by IWLTBAP (3DL)/IWLTBAP Humble - V-Log.3dl
# Copyright: (C) Copyright 2010-2017 by IWLTBAP SAS for SmallHD
# Cannot be resold, shared or otherwise redistributed
# Website: https://luts.iwltbap.com
# IWLTBAP Humble (V-Log)
0 128 256 384 512 640 768 896 1023
0  0  0
48  0  0
96  16  76
170  80 357
297 208 746
541 413 1395
806 626 2348
835 642 2491
851 658 2553
62  46  0
62  62  32
80  78 122
154 152 397
311 277 812
555 475 1441
810 688 2378
851 704 2519
851 720 2569
116 216  44
132 216  88
56 260 248
4 329 449
132 449 806
596 646 1551
831 766 2436
851 770 2537
867 782 2585
0 560 383
0 560 405
0 562 463
0 592 608
0 696 879
98 969 1529
849 1065 2541
867 907 2579
877 913 2627
0 1108 698
0 1091 738
0 1091 798
0 1108 901
0 1156 1188
0 1318 1603
260 1714 2553
449 1774 2810
465 1790 2866
0 2033 1244
0 2033 1282
0 2017 1336
0 2017 1409
0 2033 1549
0 2011 2001
228 2103 2615
311 2159 2826
327 2159 2864
0 2922 1846
4 2918 1882
7 2918 1931
48 2906 2005
224 2906 2147
501 2906 2422
469 2770 2950
469 2754 3003
469 2738 3019
16 3019 1943
32 3019 1991
64 3005 2039
156 3005 2113
331 3003 2248
557 2999 2507
497 2854 2990
481 2810 3019
481 2796 3035
16 3051 1975
32 3051 2007
76 3051 2055
186 3051 2135
345 3051 2272
557 3035 2523
513 2898 3023
497 2858 3035
497 2842 3051
62  0  0
140  0  13
172  16  80
206  74 327
297 184 724
541 383 1379
806 610 2336
835 626 2491
851 642 2537
108  62  0
124  62  0
142  78 138
202 136 383
313 246 768
555 459 1411
821 678 2368
851 704 2519
865 720 2569
178 230  40
178 230  74
146 248 260
36 327 451
212 449 817
606 608 1573
839 750 2432
865 766 2537
867 782 2585
0 576 357
0 576 399
0 576 449
0 608 618
0 696 885
196 963 1533
857 1005 2537
867 881 2567
867 897 2627
0 1124 682
0 1116 728
0 1108 790
0 1108 895
0 1156 1188
0 1328 1617
297 1714 2569
457 1774 2818
465 1790 2866
0 2049 1220
0 2049 1260
0 2033 1320
0 2033 1401
0 2035 1533
5 2011 2001
254 2103 2621
327 2159 2828
343 2169 2874
0 2934 1834
4 2934 1876
16 2922 1929
94 2922 2001
273 2922 2143
531 2916 2422
485 2774 2950
485 2754 3007
481 2738 3023
16 3021 1943
64 3021 1989
124 3019 2039
218 3019 2113
369 3019 2248
588 3003 2507
513 2866 2995
497 2826 3021
497 2810 3035
48 3067 1975
94 3067 2007
154 3067 2055
234 3067 2129
377 3067 2272
590 3051 2523
529 2914 3023
513 2858 3037
497 2842 3051
232  32  0
279  28  0
329  16  92
317  58 277
357 136 646
541 337 1320
810 594 2312
851 616 2489
863 626 2537
260  94  16
279  78  16
331  62 134
327 110 307
365 198 676
557 411 1354
823 662 2336
867 688 2507
867 704 2569
345 297  44
371 325 102
285 264 196
283 281 465
389 369 847
602 570 1471
851 798 2408
883 814 2553
895 831 2601
26 624 293
1 626 337
9 624 449
9 624 624
0 710 929
373 957 1595
857 895 2515
883 889 2571
885 895 2627
0 1168 614
0 1164 668
0 1156 778
0 1136 883
0 1172 1188
0 1340 1645
377 1702 2605
477 1754 2824
477 1770 2870
30 2081 1180
0 2071 1228
0 2065 1292
0 2049 1383
0 2049 1525
30 2027 2001
275 2103 2631
345 2159 2832
365 2169 2880
80 2950 1830
72 2948 1866
88 2938 1915
144 2938 1993
313 2930 2135
555 2922 2422
501 2786 2954
497 2756 3007
497 2754 3023
108 3037 1943
128 3035 1975
174 3035 2025
266 3035 2103
401 3021 2242
606 3019 2507
529 2868 3003
513 2826 3035
513 2810 3037
140 3083 1959
158 3083 2005
204 3083 2051
283 3067 2129
409 3067 2264
622 3067 2523
545 2914 3023
529 2858 3051
513 2842 3051
543 132  0
560 108  0
620  62  0
602  48 309
578 112 600
620 258 1230
827 566 2254
877 610 2473
883 626 2527
574 168  0
590 154  0
636 110  0
622  96 329
592 168 618
630 333 1256
849 644 2284
893 676 2495
899 688 2553
638 339  64
654 329  76
622 291 134
650 248 385
608 309 708
654 475 1346
881 770 2346
917 798 2541
927 814 2601
788 714 212
817 742 273
768 726 401
560 576 553
493 624 955
686 802 1581
929 1003 2487
957 1015 2611
957 1031 2665
584 1270 628
483 1270 660
323 1294 726
82 1236 895
30 1204 1190
50 1344 1708
485 1680 2689
535 1678 2808
551 1690 2856
479 2149 1101
317 2133 1150
58 2113 1220
349 2123 1367
238 2081 1495
262 2043 2007
311 2115 2663
375 2159 2848
391 2175 2890
196 2976 1808
170 2966 1846
166 2960 1894
218 2950 1969
349 2940 2115
582 2938 2406
517 2786 2966
507 2770 3007
501 2754 3023
218 3053 1917
218 3051 1959
242 3051 2007
299 3037 2081
425 3037 2224
632 3035 2491
545 2882 3007
529 2826 3035
513 2810 3051
250 3099 1943
250 3099 1975
268 3097 2025
315 3083 2103
435 3083 2240
638 3077 2507
574 2930 3023
545 2874 3051
529 2842 3051
1148 264  0
1164 248  0
1200 188  0
1236 104  50
1260  48 553
1154 212 1152
955 501 2139
979 594 2440
971 602 2497
1194 295  0
1196 281  0
1232 234  0
1258 180  96
1274  96 578
1144 291 1176
971 580 2167
995 664 2465
987 674 2521
1296 393  0
1322 377  0
1260 389  72
1294 335 194
1316 232 638
1132 417 1244
999 702 2224
1019 774 2505
1019 782 2553
1365 802 281
1395 794 289
1457 804 359
1268 664 449
1332 543 774
1120 652 1375
1031 903 2348
1059 945 2573
1059 959 2627
1726 1533 626
1756 1563 672
1935 1738 851
1670 1549 979
1075 1148 1108
810 1200 1750
1023 1348 2637
1067 1340 2707
1075 1348 2762
1804 2350 1238
1744 2338 1246
1658 2338 1256
1318 2316 1340
933 2202 1549
592 2091 2017
570 2139 2758
580 2175 2896
596 2181 2944
533 3047 1742
449 3031 1774
357 3003 1818
291 2986 1890
883 3083 2115
911 3049 2406
698 2854 3007
570 2790 3031
566 2774 3047
433 3101 1854
381 3091 1886
337 3075 1931
331 3059 2009
786 3141 2200
857 3115 2483
696 2934 3039
610 2866 3059
594 2844 3069
465 3155 1870
409 3139 1902
369 3123 1951
353 3107 2031
802 3187 2224
863 3171 2507
718 2982 3071
626 2906 3075
610 2882 3083
2157 375  0
2173 345  0
2183 311  0
2183 268 128
2206 142 375
2242  0 939
2045 449 2021
1896 551 2467
1808 568 2537
2189 429  0
2204 407  0
2206 383  22
2210 343 148
2230 234 399
2248  56 971
2025 519 2053
1866 616 2485
1786 630 2553
2266 515  0
2282 485  0
2266 505  44
2276 453 182
2298 315 425
2296 118 1019
1997 636 2113
1848 724 2521
1770 724 2585
2400 766  0
2412 744  0
2430 668  0
2360 806 345
2400 702 582
2354 461 1194
1965 827 2226
1818 883 2591
1748 893 2655
2631 1702 632
2637 1686 648
2673 1664 668
2697 1615 800
2442 1320 909
2459 1077 1455
1915 1192 2473
1812 1210 2727
1746 1210 2784
2918 2527 1256
2928 2543 1288
2972 2585 1358
3099 2733 1599
2862 2575 1798
1975 2141 2003
1274 1943 2880
1280 1915 2936
1260 1925 2982
3280 3615 2189
3257 3615 2181
3227 3601 2175
3157 3587 2125
2587 3474 2099
1788 3286 2511
1069 2964 3085
895 2876 3109
863 2856 3125
3199 3681 2324
3137 3679 2318
3041 3653 2324
2848 3611 2286
2278 3494 2250
1676 3354 2563
1079 3065 3125
933 2976 3153
891 2944 3153
3251 3743 2372
3193 3743 2370
3103 3717 2376
2896 3675 2330
2324 3551 2298
1708 3416 2593
1087 3139 3157
953 3025 3169
901 2993 3169
3388 578  0
3388 551  4
3388 529  64
3388 491 194
3376 409 437
3340 126 808
3288  0 1449
3328  0 1678
3332  0 1726
3404 640  0
3408 624  20
3418 598  84
3408 562 220
3404 477 457
3372 236 827
3300  0 1485
3342  0 1720
3344  0 1768
3444 710  4
3446 694  22
3448 674  88
3448 638 226
3436 557 473
3410 331 857
3316  0 1517
3348  5 1758
3356  32 1806
3476 796  0
3482 780  4
3492 764  60
3534 883 297
3524 764 521
3460 425 889
3348  5 1579
3368  66 1802
3364 126 1846
3516 1268  0
3524 1242  0
3504 1124  0
3557 1091  40
3649 1457 774
3661 1222 1164
3500 650 1902
3472 724 2085
3472 710 2119
3747 2760 1373
3747 2731 1389
3737 2713 1395
3731 2665 1435
3731 2569 1529
3739 2228 1581
3675 1850 2481
3605 1788 2603
3591 1762 2649
3902 3709 2529
3902 3709 2561
3914 3721 2613
3914 3737 2711
3938 3781 2966
3938 3787 3115
3464 3565 3496
3342 3480 3605
3251 3436 3665
3914 3797 2733
3914 3809 2766
3914 3811 2812
3926 3828 2934
3930 3844 3075
3928 3856 3213
3151 3637 3456
2451 3412 3496
2282 3340 3492
3942 3854 2806
3942 3858 2838
3942 3858 2886
3942 3874 3001
3958 3894 3139
3956 3914 3286
3159 3713 3472
2459 3486 3504
2236 3416 3488
3502 594  0
3502 566  32
3502 545 108
3502 503 242
3500 425 471
3464 152 837
3406  28 1479
3420  0 1750
3406  13 1798
3518 656  0
3530 640  48
3532 610 124
3532 576 266
3530 497 489
3484 254 853
3422 106 1511
3436  32 1796
3422  58 1830
3545 722  16
3549 706  48
3551 686 140
3551 644 277
3551 570 505
3516 347 885
3454 248 1565
3438 246 1856
3436 228 1894
3577 885  9
3585 869  66
3591 843 148
3601 812 303
3601 724 533
3597 614 965
3516 499 1684
3484 481 1937
3468 505 1983
3629 1316  7
3639 1294  22
3661 1292 132
3679 1274 355
3735 1429 778
3733 1196 1164
3617 899 1886
3573 867 2119
3557 875 2151
3795 2673 1453
3795 2657 1463
3791 2629 1479
3791 2589 1475
3791 2483 1455
3821 2212 1553
3749 1754 2330
3701 1760 2541
3685 1740 2587
3956 3785 3023
3968 3787 3065
3970 3801 3099
3970 3801 3155
3970 3813 3239
3968 3813 3275
3842 3683 3506
3757 3641 3613
3707 3623 3659
3982 3886 3308
3982 3886 3338
3982 3886 3358
3982 3886 3406
3982 3886 3468
3968 3886 3500
3826 3836 3653
3697 3807 3695
3617 3775 3727
3998 3918 3356
3998 3918 3388
3998 3918 3416
3998 3934 3462
3982 3934 3524
3982 3934 3555
3821 3900 3683
3681 3870 3709
3587 3840 3711
3565 610  0
3565 594  30
3565 562  92
3565 519 228
3565 441 457
3526 168 837
3452  44 1457
3436  0 1702
3436  0 1734
3581 672  0
3581 656  32
3593 626 108
3595 594 250
3581 513 481
3549 285 853
3468 122 1481
3452  13 1734
3452  0 1780
3597 738  16
3609 722  46
3613 702 124
3613 660 260
3613 586 497
3581 379 881
3508 260 1537
3484 144 1794
3480 108 1830
3639 901  0
3639 885  52
3651 859 132
3665 827 287
3657 740 523
3655 634 959
3571 515 1648
3532 379 1880
3510 405 1927
3685 1332  7
3693 1310  7
3709 1308 108
3733 1290 339
3797 1445 770
3797 1210 1150
3673 899 1846
3635 794 2055
3605 819 2103
3844 2689 1443
3844 2665 1443
3844 2641 1455
3844 2593 1449
3854 2485 1429
3876 2216 1547
3813 1754 2258
3795 1718 2473
3775 1698 2525
3986 3801 3035
3986 3801 3065
3986 3801 3099
3998 3813 3155
4002 3826 3235
4002 3813 3275
3966 3737 3545
3922 3721 3665
3906 3721 3709
3998 3886 3294
3998 3886 3326
4014 3888 3356
4014 3896 3404
4014 3902 3468
4014 3902 3500
3978 3902 3673
3932 3888 3741
3902 3886 3773
3998 3918 3340
4014 3918 3372
4014 3918 3404
4014 3934 3452
4014 3950 3524
4014 3950 3555
3974 3962 3733
3916 3950 3775
3870 3934 3789
