Postproduction/IWLTBAP - Humble/LUTs by IWLTBAP (3DL)/IWLTBAP Humble - Standard.3dl
# Copyright: (C) Copyright 2017 by IWLTBAP
# Cannot be resold, shared or otherwise redistributed
# Website: https://luts.iwltbap.com
0 64 128 192 256 320 384 448 512 576 640 704 768 832 896 960 1023
4 7 0
97 17 60
133 50 187
168 90 367
215 137 532
271 199 699
338 264 876
407 325 1056
473 386 1233
535 446 1407
595 504 1551
650 560 1732
698 609 1913
740 654 2090
778 696 2260
815 734 2424
850 771 2584
163 144 0
116 174 172
58 225 293
32 274 453
132 313 595
247 362 755
350 420 931
431 482 1112
500 545 1291
564 606 1456
621 663 1607
675 719 1787
724 771 1966
765 818 2140
804 860 2308
841 899 2471
876 935 2631
0 375 131
3 375 249
0 401 394
0 433 507
0 482 655
0 543 850
210 591 1024
302 660 1193
401 722 1364
489 783 1501
570 840 1673
647 892 1849
720 940 2022
781 984 2191
828 1025 2355
866 1064 2516
901 1102 2674
0 554 371
0 556 434
0 569 502
0 592 609
0 633 731
0 689 883
0 758 1061
0 832 1258
162 889 1449
334 954 1580
416 1017 1749
489 1078 1923
562 1131 2094
631 1179 2258
700 1219 2417
771 1254 2569
832 1290 2725
0 760 469
0 756 547
0 763 625
0 780 735
0 806 842
0 850 976
0 908 1132
0 976 1306
0 1048 1470
0 1121 1647
25 1187 1832
375 1241 2000
400 1306 2163
471 1357 2321
538 1405 2478
605 1452 2633
669 1505 2785
0 991 570
0 980 667
0 983 748
0 997 847
0 1015 970
0 1043 1091
0 1084 1225
0 1138 1373
0 1204 1505
0 1272 1682
0 1340 1866
0 1403 2038
131 1470 2210
373 1536 2387
410 1592 2541
444 1635 2689
510 1671 2837
0 1255 666
0 1235 790
0 1232 882
0 1245 969
0 1261 1094
0 1275 1222
0 1297 1337
0 1330 1453
0 1375 1568
0 1432 1728
0 1510 1900
0 1579 2070
30 1628 2235
137 1672 2395
250 1713 2553
385 1750 2712
484 1791 2881
0 1567 756
0 1528 907
0 1516 1010
0 1524 1101
0 1544 1197
0 1561 1347
0 1562 1452
0 1576 1533
0 1596 1654
0 1626 1791
0 1666 1945
0 1709 2105
24 1751 2262
104 1790 2417
193 1827 2568
275 1862 2719
358 1896 2869
0 1819 839
0 1783 1008
0 1766 1126
0 1767 1218
0 1774 1314
0 1784 1419
0 1784 1554
0 1780 1652
0 1782 1756
0 1791 1871
0 1810 2000
0 1839 2143
43 1871 2291
120 1904 2440
195 1937 2587
260 1968 2733
321 1999 2880
8 2039 939
0 1998 1098
0 1974 1226
0 1968 1321
0 1976 1409
0 1982 1483
0 1987 1606
0 1975 1757
0 1963 1859
0 1957 1958
0 1959 2067
24 1971 2189
98 1992 2324
163 2017 2465
220 2044 2607
273 2071 2749
323 2100 2892
226 2238 1037
0 2192 1179
0 2161 1305
0 2153 1397
0 2153 1473
0 2158 1563
0 2164 1670
0 2158 1827
0 2142 1954
0 2124 2052
1 2112 2144
59 2108 2248
127 2115 2365
196 2131 2493
250 2153 2629
301 2177 2768
349 2201 2908
400 2429 1132
0 2377 1245
0 2334 1383
0 2320 1462
0 2321 1534
0 2322 1640
0 2327 1747
18 2324 1866
0 2315 2068
0 2294 2145
82 2271 2237
133 2255 2324
188 2248 2422
245 2253 2535
303 2266 2658
341 2285 2790
380 2305 2924
536 2611 1218
0 2546 1325
0 2501 1436
0 2480 1511
0 2474 1609
0 2479 1704
0 2480 1819
50 2478 1937
232 2472 2067
0 2460 2248
134 2433 2330
208 2410 2412
243 2391 2494
281 2381 2587
325 2383 2695
374 2395 2815
411 2410 2941
658 2792 1304
118 2713 1403
0 2659 1479
0 2632 1580
0 2627 1671
0 2628 1771
0 2626 1887
111 2624 2005
280 2621 2124
376 2612 2273
0 2599 2417
289 2568 2508
318 2543 2580
341 2521 2657
369 2510 2746
408 2510 2850
451 2517 2963
765 2970 1389
264 2876 1460
0 2814 1539
0 2781 1644
0 2771 1738
0 2771 1837
0 2769 1954
158 2767 2071
315 2765 2189
431 2760 2307
492 2749 2483
196 2730 2586
378 2698 2674
396 2671 2741
414 2647 2813
436 2630 2894
460 2620 2985
868 3143 1454
393 3036 1526
0 2964 1612
0 2928 1707
0 2918 1796
0 2913 1903
2 2910 2019
196 2908 2137
340 2905 2254
450 2901 2369
539 2894 2486
281 2883 2694
330 2857 2751
450 2825 2833
462 2793 2894
470 2759 2951
475 2724 3010
973 3317 1534
514 3196 1607
0 3114 1686
0 3074 1770
0 3059 1862
0 3053 1967
79 3049 2082
253 3046 2201
384 3043 2318
488 3040 2431
576 3034 2542
644 3025 2668
143 3016 2854
448 2983 2913
519 2944 2983
514 2893 3019
497 2832 3042
169 37 0
267 14 90
261 44 187
265 74 355
277 110 522
309 160 689
356 219 864
416 281 1041
477 342 1217
537 402 1391
595 462 1534
649 517 1716
697 569 1897
739 613 2074
776 654 2246
812 693 2410
847 730 2571
241 190 1
246 193 113
215 217 276
252 233 417
283 271 570
325 321 736
384 381 914
447 443 1096
510 506 1275
571 567 1445
627 627 1593
678 682 1773
725 734 1953
765 780 2128
804 822 2297
840 861 2460
874 897 2620
227 379 117
215 377 236
182 388 394
80 425 514
74 461 667
176 504 829
301 558 991
385 622 1170
474 682 1342
552 741 1486
627 797 1654
697 849 1831
750 900 2008
792 948 2180
830 990 2346
866 1029 2507
901 1066 2666
45 596 273
0 596 387
0 591 480
0 605 610
0 632 735
0 680 886
0 744 1073
28 806 1272
337 859 1427
404 927 1562
484 987 1733
556 1045 1908
623 1096 2080
687 1141 2245
748 1181 2405
808 1216 2560
870 1249 2715
0 814 398
0 795 531
0 788 619
0 796 713
0 812 837
0 848 973
0 900 1132
0 966 1310
0 1036 1474
0 1105 1647
349 1157 1822
408 1225 1989
464 1283 2153
534 1331 2313
600 1374 2469
662 1414 2623
721 1458 2776
0 1049 504
0 1024 633
0 1011 732
0 1014 827
0 1025 962
0 1047 1084
0 1084 1222
0 1136 1375
0 1199 1510
0 1267 1692
0 1332 1866
92 1393 2040
248 1455 2214
453 1519 2386
450 1579 2536
501 1617 2684
565 1650 2832
159 1313 621
0 1288 731
0 1267 854
0 1266 946
0 1275 1064
0 1286 1208
0 1303 1332
0 1333 1454
0 1377 1574
0 1432 1737
0 1509 1907
50 1577 2075
143 1625 2241
237 1668 2401
332 1706 2560
511 1741 2728
474 1785 2884
375 1621 741
0 1596 837
0 1570 966
0 1558 1072
0 1566 1171
0 1575 1310
0 1577 1443
0 1585 1532
0 1601 1657
0 1630 1799
0 1668 1952
47 1710 2110
130 1752 2268
208 1791 2424
277 1826 2576
346 1860 2726
421 1892 2877
567 1868 856
214 1835 955
0 1811 1066
0 1796 1182
0 1794 1285
0 1800 1389
0 1804 1522
0 1793 1644
0 1792 1755
0 1798 1875
5 1815 2005
69 1842 2148
143 1874 2298
215 1907 2447
277 1939 2595
332 1970 2742
384 2000 2888
740 2093 958
399 2053 1059
0 2026 1160
0 2007 1274
0 1999 1380
0 2003 1464
0 2003 1567
0 1995 1758
0 1978 1856
8 1969 1959
50 1966 2070
114 1976 2195
183 1996 2331
239 2021 2472
291 2048 2615
337 2075 2758
385 2104 2902
898 2304 1055
545 2254 1154
143 2217 1252
0 2195 1352
0 2183 1450
0 2183 1532
0 2182 1649
128 2176 1789
0 2164 1949
85 2140 2053
118 2124 2148
155 2117 2253
206 2121 2371
259 2135 2500
307 2156 2637
356 2180 2776
402 2206 2918
1053 2506 1148
680 2445 1245
309 2400 1339
0 2371 1431
0 2356 1502
0 2350 1611
8 2348 1728
186 2345 1849
294 2334 2012
66 2316 2143
216 2290 2242
234 2270 2331
261 2259 2430
301 2259 2542
348 2270 2665
384 2287 2797
421 2307 2933
1203 2701 1239
795 2628 1329
419 2571 1417
41 2535 1482
0 2515 1576
0 2506 1686
53 2503 1803
226 2501 1923
352 2495 2045
221 2483 2255
241 2457 2330
309 2428 2419
320 2406 2502
337 2391 2595
369 2389 2702
410 2397 2821
443 2411 2948
1336 2892 1330
904 2807 1411
531 2741 1472
199 2696 1555
0 2670 1652
15 2658 1759
146 2653 1875
286 2651 1994
398 2647 2114
485 2639 2245
24 2629 2434
373 2593 2511
401 2562 2589
405 2536 2666
417 2520 2754
443 2515 2856
478 2518 2969
1472 3079 1418
1011 2983 1470
615 2905 1545
292 2852 1631
66 2821 1725
60 2805 1830
183 2798 1945
315 2795 2063
428 2793 2183
522 2789 2302
584 2778 2451
265 2760 2598
459 2723 2683
466 2691 2752
467 2662 2823
474 2640 2903
488 2624 2992
1591 3260 1482
1106 3152 1551
703 3066 1625
386 3006 1706
167 2969 1798
137 2950 1901
237 2942 2014
355 2939 2132
461 2937 2251
551 2933 2368
626 2926 2485
661 2912 2657
399 2889 2762
528 2851 2846
523 2814 2906
515 2774 2962
505 2733 3019
1715 3442 1581
1206 3323 1642
788 3226 1709
480 3158 1785
274 3116 1872
228 3094 1970
290 3083 2082
389 3079 2199
492 3077 2317
584 3075 2432
659 3070 2545
721 3060 2660
528 3046 2872
507 3016 2925
587 2971 2997
567 2914 3032
534 2847 3054
333 81 1
443 17 1
388 50 202
378 67 340
365 97 510
370 134 680
397 180 855
439 236 1029
490 297 1202
544 358 1373
599 417 1515
651 475 1697
698 524 1879
739 571 2057
775 611 2230
811 650 2395
845 687 2557
336 239 109
375 220 139
396 202 296
377 225 405
373 254 556
391 293 723
426 344 901
474 402 1082
528 465 1259
582 527 1431
635 586 1576
685 642 1757
730 694 1938
769 741 2114
806 782 2284
841 821 2448
874 857 2609
427 392 68
408 387 192
380 388 338
338 403 484
345 425 621
386 459 782
432 511 961
491 571 1141
558 632 1318
616 694 1471
668 754 1635
717 811 1816
759 862 1996
800 910 2169
836 952 2336
871 991 2498
903 1028 2658
397 599 277
325 598 365
312 589 464
285 591 599
165 622 730
103 662 895
170 710 1069
371 758 1232
429 826 1400
494 890 1540
564 950 1714
631 1005 1890
693 1055 2064
750 1099 2230
805 1138 2392
858 1173 2549
914 1205 2704
413 817 401
250 818 486
71 818 582
122 807 692
0 824 834
0 849 974
0 893 1139
0 953 1318
2 1017 1474
189 1079 1637
441 1135 1801
482 1200 1973
543 1253 2141
608 1299 2301
671 1338 2458
726 1376 2613
779 1412 2766
452 1064 527
147 1063 612
0 1053 696
0 1040 807
0 1043 938
0 1053 1076
0 1083 1220
0 1130 1377
0 1190 1514
34 1254 1687
125 1318 1864
233 1378 2041
444 1430 2222
489 1502 2378
519 1559 2530
571 1594 2679
630 1625 2827
527 1350 663
323 1326 734
64 1309 817
0 1298 917
0 1294 1034
0 1298 1198
0 1309 1325
0 1336 1453
0 1377 1578
12 1427 1738
95 1501 1907
185 1572 2077
263 1619 2245
338 1661 2408
433 1697 2568
541 1733 2739
517 1773 2882
736 1661 788
510 1632 862
255 1610 943
0 1596 1037
0 1590 1141
0 1592 1274
0 1590 1432
0 1593 1527
0 1606 1657
34 1632 1799
98 1668 1954
180 1710 2114
250 1752 2275
312 1791 2432
369 1825 2585
427 1856 2735
499 1886 2887
944 1914 904
690 1878 980
427 1848 1062
140 1829 1154
0 1820 1253
0 1818 1363
50 1816 1485
0 1806 1630
44 1799 1750
76 1803 1874
131 1819 2008
193 1845 2154
257 1878 2305
316 1911 2456
366 1943 2605
413 1972 2752
458 2001 2898
1151 2146 1004
858 2102 1081
578 2066 1163
301 2040 1255
79 2026 1352
37 2021 1450
128 2017 1543
235 2009 1723
121 1992 1848
152 1979 1957
177 1975 2073
225 1982 2200
277 2001 2338
327 2026 2481
374 2053 2625
417 2080 2770
460 2109 2914
1357 2365 1101
1019 2312 1176
711 2267 1256
427 2234 1343
201 2213 1435
128 2204 1512
194 2200 1628
298 2194 1752
0 2184 1955
241 2156 2052
244 2137 2151
257 2127 2259
289 2129 2379
336 2141 2509
379 2162 2647
426 2186 2788
472 2212 2930
1548 2577 1196
1171 2514 1268
833 2461 1345
542 2418 1427
311 2391 1492
221 2376 1595
259 2370 1710
345 2365 1832
418 2356 1975
183 2340 2142
334 2308 2245
332 2285 2337
341 2270 2438
368 2268 2550
407 2276 2675
441 2292 2808
480 2312 2944
1727 2781 1288
1321 2710 1356
948 2645 1426
636 2593 1479
386 2557 1570
284 2537 1673
305 2529 1788
385 2525 1908
467 2519 2031
519 2506 2198
336 2482 2331
407 2449 2426
399 2422 2510
404 2403 2604
424 2397 2711
459 2402 2831
489 2414 2959
1894 2980 1381
1456 2901 1435
1057 2827 1482
727 2765 1558
480 2721 1649
365 2695 1751
375 2683 1864
442 2678 1983
519 2675 2105
588 2667 2229
472 2651 2445
458 2619 2515
488 2584 2600
477 2553 2677
475 2531 2764
489 2522 2866
516 2522 2979
2049 3174 1453
1591 3087 1503
1164 3005 1567
805 2933 1640
543 2881 1727
408 2849 1827
402 2833 1937
465 2827 2055
545 2824 2176
619 2819 2297
679 2808 2425
341 2793 2620
533 2750 2690
541 2713 2764
527 2679 2834
521 2651 2913
523 2631 3001
2195 3364 1546
1709 3267 1598
1260 3176 1656
884 3096 1725
615 3037 1806
466 2999 1903
448 2981 2011
504 2973 2128
584 2971 2248
657 2967 2367
717 2960 2484
752 2945 2629
461 2924 2778
606 2879 2858
592 2837 2919
569 2791 2974
544 2745 3031
2336 3550 1653
1835 3448 1700
1361 3349 1752
963 3259 1812
685 3192 1888
524 3149 1980
491 3126 2084
534 3117 2199
609 3114 2317
685 3112 2434
747 3107 2548
801 3097 2662
823 3080 2830
565 3052 2939
662 3000 3014
627 2938 3048
579 2865 3068
525 134 1
573 91 1
605 47 105
551 80 336
527 94 491
507 117 667
495 150 849
501 196 1024
527 251 1193
566 310 1360
612 370 1499
660 428 1676
704 481 1859
743 527 2038
779 569 2212
813 606 2379
846 644 2542
568 262 12
586 242 61
613 208 147
550 233 405
533 246 541
516 274 710
516 315 891
533 366 1072
564 423 1246
606 482 1415
653 542 1558
699 599 1738
740 651 1920
778 698 2098
813 740 2269
847 779 2435
