Postproduction/IWLTBAP - Humble/LUTs by IWLTBAP (3DL)/IWLTBAP Humble - Standard.3dl
# Copyright: (C) Copyright 2017 by IWLTBAP
# Cannot be resold, shared or otherwise redistributed
# Website: https://luts.iwltbap.com
0 256 512 768 1023
4 7 0
215 137 532
473 386 1233
698 609 1913
850 771 2584
0 760 469
0 806 842
0 1048 1470
400 1306 2163
669 1505 2785
0 1819 839
0 1774 1314
0 1782 1756
43 1871 2291
321 1999 2880
536 2611 1218
0 2474 1609
232 2472 2067
243 2391 2494
411 2410 2941
973 3317 1534
0 3059 1862
384 3043 2318
143 3016 2854
497 2832 3042
726 202 1
763 90 479
624 213 1194
720 435 1838
853 599 2530
893 843 321
760 795 764
609 925 1423
755 1157 2098
931 1311 2742
1498 1955 1012
745 1875 1270
400 1810 1732
496 1879 2317
636 1993 2922
2325 2873 1461
1253 2684 1604
743 2571 2004
589 2458 2528
643 2434 2992
3034 3683 1907
1675 3412 1986
903 3207 2326
1028 3161 2786
696 2909 3105
1743 381 2
1847 151 241
1835 90 1052
1344 259 1846
946 401 2493
1892 1169 436
1936 998 654
1766 878 1340
1293 973 2052
1137 1098 2694
2205 1991 899
2105 1982 1311
1698 1866 1713
1062 1807 2343
1058 1879 2947
2828 2902 1718
2657 2896 1959
1892 2778 2111
1151 2554 2574
1128 2494 3098
3604 3817 2520
3422 3789 2562
2378 3565 2554
1667 3377 2837
1001 3020 3197
2658 557 2
2741 340 174
2710 0 719
2719 0 1439
2562 294 2510
2936 1390 126
2982 1203 538
2985 1021 1061
2790 899 1810
2179 1028 2805
3053 2354 1140
2996 2232 1410
3007 2033 1554
2789 1896 2273
1989 1772 3019
3285 2927 1536
3234 2961 1952
3190 2983 2327
2686 2796 2698
1723 2434 3230
3840 3837 2573
3849 3874 2927
3787 3881 3156
3154 3746 3174
1465 3176 3328
3462 784 3
3556 557 33
3533 271 695
3441 0 1136
3379 0 1599
3676 1597 4
3747 1402 399
3787 1209 988
3720 972 1456
3527 643 2038
3828 2605 1091
3834 2367 1148
3861 2134 1373
3890 2010 1825
3780 1701 2548
3908 3388 1830
3911 3386 2226
3895 3252 2465
3903 2975 2562
3953 2813 3111
3921 3730 2185
3952 3810 2648
3983 3876 3085
4007 3932 3478
3871 3932 3787
