Postproduction/IWLTBAP - Humble/LUTs by IWLTBAP (3DL)/IWLTBAP Humble - Standard.3dl
# Copyright: (C) Copyright 2017 by IWLTBAP
# Cannot be resold, shared or otherwise redistributed
# Website: https://luts.iwltbap.com
0 128 256 384 512 640 768 896 1023
4 7 0
133 50 187
215 137 532
338 264 876
473 386 1233
595 504 1551
698 609 1913
778 696 2260
850 771 2584
0 375 131
0 401 394
0 482 655
210 591 1024
401 722 1364
570 840 1673
720 940 2022
828 1025 2355
901 1102 2674
0 760 469
0 763 625
0 806 842
0 908 1132
0 1048 1470
25 1187 1832
400 1306 2163
538 1405 2478
669 1505 2785
0 1255 666
0 1232 882
0 1261 1094
0 1297 1337
0 1375 1568
0 1510 1900
30 1628 2235
250 1713 2553
484 1791 2881
0 1819 839
0 1766 1126
0 1774 1314
0 1784 1554
0 1782 1756
0 1810 2000
43 1871 2291
195 1937 2587
321 1999 2880
226 2238 1037
0 2161 1305
0 2153 1473
0 2164 1670
0 2142 1954
1 2112 2144
127 2115 2365
250 2153 2629
349 2201 2908
536 2611 1218
0 2501 1436
0 2474 1609
0 2480 1819
232 2472 2067
134 2433 2330
243 2391 2494
325 2383 2695
411 2410 2941
765 2970 1389
0 2814 1539
0 2771 1738
0 2769 1954
315 2765 2189
492 2749 2483
378 2698 2674
414 2647 2813
460 2620 2985
973 3317 1534
0 3114 1686
0 3059 1862
79 3049 2082
384 3043 2318
576 3034 2542
143 3016 2854
519 2944 2983
497 2832 3042
333 81 1
388 50 202
365 97 510
397 180 855
490 297 1202
599 417 1515
698 524 1879
775 611 2230
845 687 2557
427 392 68
380 388 338
345 425 621
432 511 961
558 632 1318
668 754 1635
759 862 1996
836 952 2336
903 1028 2658
413 817 401
71 818 582
0 824 834
0 893 1139
2 1017 1474
441 1135 1801
543 1253 2141
671 1338 2458
779 1412 2766
527 1350 663
64 1309 817
0 1294 1034
0 1309 1325
0 1377 1578
95 1501 1907
263 1619 2245
433 1697 2568
517 1773 2882
944 1914 904
427 1848 1062
0 1820 1253
50 1816 1485
44 1799 1750
131 1819 2008
257 1878 2305
366 1943 2605
458 2001 2898
1357 2365 1101
711 2267 1256
201 2213 1435
194 2200 1628
0 2184 1955
244 2137 2151
289 2129 2379
379 2162 2647
472 2212 2930
1727 2781 1288
948 2645 1426
386 2557 1570
305 2529 1788
467 2519 2031
336 2482 2331
399 2422 2510
424 2397 2711
489 2414 2959
2049 3174 1453
1164 3005 1567
543 2881 1727
402 2833 1937
545 2824 2176
679 2808 2425
533 2750 2690
527 2679 2834
523 2631 3001
2336 3550 1653
1361 3349 1752
685 3192 1888
491 3126 2084
609 3114 2317
747 3107 2548
823 3080 2830
662 3000 3014
579 2865 3068
726 202 1
838 57 1
763 90 479
690 127 834
624 213 1194
645 321 1491
720 435 1838
790 524 2193
853 599 2530
745 493 214
774 452 313
750 418 611
690 459 926
679 554 1289
727 667 1601
799 776 1961
866 868 2309
921 941 2639
893 843 321
829 825 523
760 795 764
577 839 1089
609 925 1423
677 1043 1741
755 1157 2098
845 1243 2428
931 1311 2742
1128 1354 670
877 1347 844
509 1337 1025
364 1312 1301
310 1349 1556
380 1451 1894
500 1583 2247
656 1662 2576
706 1721 2868
1498 1955 1012
1117 1926 1136
745 1875 1270
514 1842 1449
400 1810 1732
410 1821 2007
496 1879 2317
577 1943 2626
636 1993 2922
1893 2435 1277
1515 2374 1353
1014 2296 1448
681 2246 1605
623 2216 1873
491 2164 2152
500 2148 2396
581 2181 2675
663 2232 2964
2325 2873 1461
1872 2794 1510
1253 2684 1604
818 2603 1777
743 2571 2004
555 2536 2351
589 2458 2528
582 2421 2737
643 2434 2992
2700 3292 1663
2189 3196 1701
1473 3056 1784
935 2941 1946
831 2896 2165
882 2874 2410
696 2815 2706
679 2720 2863
638 2653 3031
3034 3683 1907
2484 3579 1929
1675 3412 1986
1044 3264 2122
903 3207 2326
971 3191 2557
1028 3161 2786
806 3071 3040
696 2909 3105
1233 289 2
1319 161 2
1349 61 256
1287 107 775
1149 157 1165
928 241 1501
822 338 1828
835 430 2161
884 510 2507
1277 596 103
1321 548 234
1354 467 435
1243 462 898
1095 504 1261
945 593 1589
901 690 1935
927 777 2277
964 847 2614
1315 987 406
1299 950 613
1295 884 728
1205 828 1058
1064 854 1373
980 935 1697
981 1035 2051
1017 1124 2390
1049 1196 2715
1543 1415 570
1490 1402 777
1373 1366 991
1205 1304 1252
854 1311 1525
845 1358 1865
855 1476 2211
886 1578 2540
929 1631 2844
1878 1946 987
1748 1945 1177
1474 1933 1339
1036 1901 1469
806 1829 1727
700 1807 2002
737 1853 2323
787 1911 2641
860 1951 2950
2238 2427 1375
2084 2421 1467
1749 2395 1554
1322 2330 1659
1001 2266 1836
782 2192 2152
750 2165 2410
817 2195 2703
872 2238 3000
2597 2901 1669
2449 2882 1722
2116 2825 1765
1572 2728 1845
1172 2649 2009
1023 2589 2272
819 2499 2546
790 2453 2769
862 2467 3040
3000 3353 1941
2843 3325 1957
2455 3247 1971
1800 3114 2033
1313 3006 2190
1179 2953 2408
951 2890 2753
868 2771 2896
796 2685 3071
3373 3762 2246
3200 3730 2236
2765 3642 2223
2014 3483 2254
1432 3347 2380
1288 3292 2576
1284 3256 2799
978 3161 3080
834 2959 3148
1743 381 2
1829 257 2
1847 151 241
1873 33 534
1835 90 1052
1689 164 1443
1344 259 1846
1055 334 2190
946 401 2493
1846 699 13
1890 649 167
1918 574 406
1924 472 692
1799 484 1183
1593 538 1538
1296 624 1945
1105 697 2284
1041 761 2593
1892 1169 436
1914 1088 519
1936 998 654
1947 897 849
1766 878 1340
1534 904 1669
1293 973 2052
1173 1040 2384
1137 1098 2694
1989 1633 688
1956 1598 890
1909 1540 1096
1871 1419 1211
1718 1326 1500
1488 1311 1815
1323 1353 2173
1239 1417 2500
1199 1489 2809
2205 1991 899
2162 1992 1120
2105 1982 1311
1956 1948 1473
1698 1866 1713
1218 1813 2012
1062 1807 2343
1104 1844 2656
1058 1879 2947
2491 2418 1324
2429 2421 1473
2337 2420 1636
2086 2406 1775
1611 2356 1911
1250 2240 2179
1071 2167 2430
1068 2175 2729
1074 2200 3027
2828 2902 1718
2768 2902 1853
2657 2896 1959
2362 2861 2027
1892 2778 2111
1479 2678 2267
1151 2554 2574
1067 2487 2807
1128 2494 3098
3219 3389 2120
3157 3387 2199
3044 3370 2244
2721 3304 2263
2141 3182 2316
1683 3076 2454
1447 2979 2680
1129 2834 2937
1016 2726 3125
3604 3817 2520
3547 3811 2555
3422 3789 2562
3053 3712 2544
2378 3565 2554
1851 3443 2656
1667 3377 2837
1445 3264 3148
1001 3020 3197
2216 474 2
2301 342 2
2313 244 221
2318 67 481
2318 0 782
2324 0 1262
2222 140 1660
1861 264 2181
1361 325 2589
2359 794 2
2404 741 103
2432 667 378
2435 564 637
2399 459 973
2299 473 1419
2119 546 1824
1742 635 2296
1325 689 2655
2467 1303 301
2483 1207 417
2505 1108 597
2516 1015 826
2486 921 1145
2312 908 1576
2052 943 1993
1678 998 2412
1354 1034 2733
2524 1830 773
2497 1758 926
2502 1664 1015
2516 1560 1128
2517 1424 1316
2291 1388 1782
2001 1371 2159
1667 1382 2530
1425 1390 2830
2591 2148 1005
2551 2133 1210
2515 2102 1396
2467 2048 1552
2408 1963 1675
2231 1859 2008
1936 1797 2312
1678 1771 2645
1423 1770 2938
2771 2459 1242
2733 2468 1437
2701 2472 1612
2658 2467 1786
2502 2430 1964
2186 2325 2195
1644 2207 2477
1417 2138 2774
1346 2126 3076
3031 2891 1629
2993 2901 1820
2956 2912 1999
2885 2918 2158
2659 2899 2279
2188 2815 2389
1705 2646 2643
1435 2509 2857
1386 2478 3152
3393 3391 2114
3372 3403 2275
3340 3412 2414
3251 3410 2510
2982 3366 2562
2496 3259 2613
1986 3110 2723
1519 2919 3000
1307 2771 3195
3749 3840 2627
3738 3850 2751
3709 3853 2835
3618 3841 2874
3331 3780 2868
2782 3658 2864
2279 3540 2937
1892 3394 3085
1199 3089 3255
2658 557 2
2730 440 2
2741 340 174
2730 174 478
2710 0 719
2697 0 1015
2719 0 1439
2728 110 1870
2562 294 2510
2798 918 3
2861 842 40
2893 764 340
2894 668 632
2858 539 886
2792 413 1230
2730 443 1594
2652 529 2067
2352 665 2670
2936 1390 126
2955 1300 304
2982 1203 538
2997 1115 800
2985 1021 1061
2913 915 1422
2790 899 1810
2595 952 2275
2179 1028 2805
3006 1956 752
3005 1853 812
3016 1745 897
3029 1640 1047
3031 1560 1267
2998 1458 1553
2818 1417 2043
2537 1411 2470
2059 1416 2920
3053 2354 1140
3022 2301 1283
2996 2232 1410
2992 2138 1471
3007 2033 1554
3010 1944 1733
2789 1896 2273
2461 1835 2640
1989 1772 3019
3113 2616 1314
3082 2618 1479
3055 2608 1669
3030 2580 1852
2989 2525 2034
2906 2439 2186
2741 2298 2527
2370 2185 2792
1923 2079 3118
3285 2927 1536
3255 2943 1745
3234 2961 1952
3221 2978 2148
3190 2983 2327
3039 2940 2494
2686 2796 2698
2105 2592 2948
1723 2434 3230
3534 3372 1995
3527 3394 2199
3520 3417 2395
3510 3439 2576
3464 3453 2732
3266 3427 2834
2794 3305 2900
2164 3065 3134
1685 2803 3285
3840 3837 2573
3848 3859 2760
3849 3874 2927
3839 3884 3065
3787 3881 3156
3586 3842 3179
3154 3746 3174
2511 3563 3195
1465 3176 3328
3077 668 3
3131 589 3
3165 451 111
3151 319 454
3126 96 716
3081 0 944
3063 0 1226
3104 0 1575
3234 43 1993
3203 1033 3
3274 946 3
3310 865 284
3318 769 602
3294 648 874
3226 515 1118
3163 352 1430
3142 390 1779
3227 463 2216
3339 1488 3
3363 1396 183
3394 1302 473
3417 1207 755
3414 1123 1037
3369 1011 1292
3297 865 1610
3230 848 1996
3220 903 2460
3421 2022 582
3429 1915 649
3444 1812 776
3461 1710 965
3469 1633 1211
3468 1564 1441
3411 1435 1804
3298 1378 2246
3166 1389 2701
3486 2518 1171
3470 2424 1247
3463 2321 1311
3472 2205 1361
3482 2089 1450
3492 2015 1644
3485 1950 1962
3311 1902 2509
3064 1846 2922
3525 2861 1457
3510 2831 1607
3494 2783 1741
3476 2713 1865
3462 2612 1971
3484 2494 2027
3495 2405 2200
3283 2331 2773
2937 2205 3123
3586 3102 1591
3581 3119 1794
3577 3132 1983
3569 3131 2185
3555 3107 2375
3520 3040 2551
3414 2940 2732
3300 2749 3004
2805 2562 3314
3705 3409 1912
3711 3440 2133
3717 3472 2355
3723 3504 2568
3729 3532 2764
3717 3538 2923
3589 3478 3060
3200 3293 3235
2480 2960 3445
3887 3797 2401
3903 3829 2619
3916 3858 2829
3925 3880 3025
3929 3899 3207
3910 3909 3354
3790 3890 3438
3323 3769 3435
2149 3395 3499
3462 784 3
3508 709 3
3556 557 33
3553 438 394
3533 271 695
3490 23 924
3441 0 1136
3409 0 1371
3379 0 1599
3574 1141 4
3640 1050 4
3676 965 205
3694 865 547
3686 757 840
3655 606 1084
3577 471 1305
3498 246 1551
3448 0 1815
3676 1597 4
3715 1515 60
3747 1402 399
3775 1299 698
3787 1209 988
3779 1104 1245
3720 972 1456
3636 762 1760
3527 643 2038
3763 2068 368
3776 1971 487
3795 1876 666
3816 1776 887
3836 1689 1142
3846 1632 1406
3826 1545 1629
3759 1327 1971
3653 1158 2271
3828 2605 1091
3824 2486 1128
3834 2367 1148
3847 2251 1231
3861 2134 1373
3875 2058 1558
3890 2010 1825
3848 1898 2179
3780 1701 2548
3877 3095 1606
3870 3017 1685
3862 2916 1741
3853 2801 1802
3867 2666 1814
3884 2526 1881
3907 2450 2086
3929 2386 2368
3865 2236 2838
3908 3388 1830
3911 3399 2041
3911 3386 2226
3906 3338 2365
3895 3252 2465
3876 3122 2554
3903 2975 2562
3951 2907 2722
3953 2813 3111
3927 3569 2006
3936 3611 2241
3948 3647 2472
3961 3673 2680
3968 3678 2843
3967 3652 2954
3947 3576 3124
3925 3511 3333
3939 3460 3567
3921 3730 2185
3935 3771 2417
3952 3810 2648
3969 3845 2870
3983 3876 3085
3996 3905 3288
4007 3932 3478
4004 3954 3652
3871 3932 3787
