Postproduction/IWLTBAP - Humble/LUTs by IWLTBAP (3DL)/IWLTBAP Humble - V-Log.3dl
# Copyright: (C) Copyright 2010-2017 by IWLTBAP SAS for SmallHD
# Cannot be resold, shared or otherwise redistributed
# Website: https://luts.iwltbap.com
# IWLTBAP Humble (V-Log)
0 64 128 192 256 320 384 448 512 576 640 704 768 832 896 960 1023
0  0  0
16  0  0
48  0  0
80  0  32
96  16  76
128  43 198
170  80 357
217 128 524
297 208 746
399 303 1037
541 413 1395
684 523 1827
806 626 2348
835 642 2473
835 642 2491
835 658 2521
851 658 2553
31  16  0
31  31  14
48  16  16
80  31  47
93  47  92
112  75 213
160 106 367
217 153 540
297 231 754
414 319 1046
541 429 1401
684 555 1838
806 657 2352
835 673 2476
835 674 2505
851 674 2536
851 689 2553
62  46  0
62  47  14
62  62  32
80  62  62
80  78 122
82 121 228
154 152 397
231 199 585
311 277 812
429 365 1090
555 475 1441
698 597 1868
810 688 2378
835 690 2489
851 704 2519
851 706 2538
851 720 2569
125 109  0
125 109  16
125 109  32
96 125 109
80 153 169
64 184 259
48 231 399
136 279 556
300 350 822
454 444 1182
587 538 1504
713 644 1932
823 719 2396
848 725 2502
851 735 2523
851 738 2553
864 751 2582
116 216  44
132 228  59
132 216  88
144 228 137
56 260 248
8 292 339
4 329 449
4 386 601
132 449 806
361 568 1145
596 646 1551
732 707 2011
831 766 2436
851 766 2508
851 770 2537
852 771 2565
867 782 2585
0 391 188
0 402 204
0 402 220
0 402 254
0 402 324
0 423 418
0 449 502
0 496 623
0 573 835
115 682 1138
419 837 1524
742 885 2062
839 813 2476
851 805 2524
851 813 2553
867 813 2570
867 830 2601
0 560 383
0 560 389
0 560 405
0 560 431
0 562 463
0 576 512
0 592 608
0 633 718
0 696 879
0 811 1153
98 969 1529
472 1153 2031
849 1065 2541
861 897 2550
867 907 2579
867 913 2596
877 913 2627
0 790 515
0 783 524
0 774 545
0 774 573
0 774 605
0 790 655
0 800 743
0 832 864
0 879 1005
0 972 1218
0 1121 1538
107 1315 2008
504 1510 2597
643 1469 2708
652 1469 2733
659 1485 2764
675 1485 2780
0 1108 698
0 1100 722
0 1091 738
0 1091 770
0 1091 798
0 1091 838
0 1108 901
0 1124 1029
0 1156 1188
0 1203 1369
0 1318 1603
0 1513 2031
260 1714 2553
433 1774 2786
449 1774 2810
449 1782 2835
465 1790 2866
0 1565 959
0 1565 982
0 1565 998
0 1565 1030
0 1556 1062
0 1556 1098
0 1565 1146
0 1581 1227
0 1590 1393
0 1606 1551
0 1646 1770
0 1740 2099
192 1882 2569
276 1948 2778
289 1948 2796
305 1964 2826
314 1964 2842
0 2033 1244
0 2033 1260
0 2033 1282
0 2033 1308
0 2017 1336
0 2017 1368
0 2017 1409
0 2027 1472
0 2033 1549
0 2026 1778
0 2011 2001
59 2021 2243
228 2103 2615
301 2159 2800
311 2159 2826
317 2159 2848
327 2159 2864
0 2481 1513
0 2476 1528
0 2476 1548
0 2476 1566
0 2476 1587
0 2476 1619
0 2476 1657
0 2465 1724
4 2476 1815
107 2474 1952
21 2459 2243
244 2395 2481
351 2406 2761
395 2438 2868
406 2438 2884
411 2438 2912
411 2450 2927
0 2922 1846
0 2922 1861
4 2918 1882
4 2918 1898
7 2918 1931
11 2918 1963
48 2906 2005
102 2906 2064
224 2906 2147
354 2906 2262
501 2906 2422
215 2880 2741
469 2770 2950
469 2755 2990
469 2754 3003
469 2753 3007
469 2738 3019
0 2989 1943
16 2986 1959
16 2986 1975
29 2986 2004
51 2986 2035
83 2986 2066
154 2986 2106
233 2986 2160
329 2986 2240
431 2982 2342
557 2970 2491
266 2947 2804
493 2838 2978
481 2810 3006
481 2795 3019
481 2794 3019
481 2778 3035
16 3019 1943
32 3019 1974
32 3019 1991
45 3005 2009
64 3005 2039
91 3005 2073
156 3005 2113
242 3005 2176
331 3003 2248
431 3003 2358
557 2999 2507
270 2967 2820
497 2854 2990
497 2826 3019
481 2810 3019
481 2810 3035
481 2796 3035
16 3035 1959
32 3035 1975
32 3035 2005
45 3035 2023
76 3035 2051
107 3035 2082
170 3035 2129
249 3035 2177
337 3028 2264
441 3020 2359
557 3019 2508
332 2998 2825
509 2882 3007
497 2842 3022
497 2841 3035
497 2826 3035
481 2811 3035
16 3051 1975
32 3051 1991
32 3051 2007
45 3051 2036
76 3051 2055
123 3051 2098
186 3051 2135
258 3051 2193
345 3051 2272
447 3051 2374
557 3035 2523
421 3014 2830
513 2898 3023
497 2858 3035
497 2858 3035
497 2842 3036
497 2842 3051
31  0  0
63  0  0
94  0  0
112  0  32
127  16  80
155  43 198
186  80 352
233 121 524
297 200 739
399 288 1030
541 397 1395
684 523 1822
806 614 2337
835 627 2473
835 642 2491
835 642 2521
851 643 2553
47  31  0
48  31  0
79  17  0
109  31  48
112  47  95
155  64 209
186 106 367
233 153 531
297 224 754
415 319 1046
541 429 1401
684 554 1838
806 646 2352
835 658 2476
835 660 2505
851 674 2522
851 674 2553
78  48  0
93  48  0
93  62  16
97  62  75
97  78 122
125 110 228
171 141 397
233 197 585
320 270 812
429 365 1090
557 475 1441
698 587 1868
810 678 2368
838 690 2489
851 704 2519
851 705 2538
851 706 2569
140 109  0
140 109  14
140 123  32
112 125 107
97 153 169
95 184 259
80 221 386
164 276 556
308 342 813
454 435 1182
587 532 1504
713 633 1932
823 710 2396
851 720 2492
851 722 2523
851 735 2553
867 738 2569
148 228  40
148 228  59
160 228  76
160 231 133
100 260 248
41 292 336
19 329 449
32 386 601
159 449 798
377 568 1134
600 640 1551
732 696 2011
831 751 2436
851 754 2508
851 766 2537
863 767 2554
867 770 2585
4 402 177
4 402 192
4 402 220
8 402 243
14 402 319
0 423 418
0 449 512
0 496 623
0 569 835
144 678 1138
429 832 1519
742 880 2062
839 809 2476
851 797 2521
851 804 2548
867 813 2570
867 814 2601
0 560 373
0 560 389
0 560 403
0 560 421
0 576 463
0 576 512
0 592 608
0 633 718
0 696 879
0 804 1153
128 963 1529
477 1148 2031
849 1059 2541
861 897 2547
867 897 2579
867 908 2596
877 913 2627
0 790 508
0 790 524
0 790 540
0 780 573
0 790 605
0 790 655
0 806 728
0 832 864
0 879 1005
0 965 1218
0 1121 1545
133 1310 2008
516 1510 2597
646 1469 2708
659 1469 2733
668 1478 2757
675 1485 2780
0 1108 698
0 1108 713
0 1108 738
0 1091 767
0 1091 790
0 1091 838
0 1108 901
0 1124 1029
0 1156 1188
0 1203 1369
0 1318 1603
4 1513 2031
268 1714 2553
436 1774 2786
451 1774 2818
457 1782 2835
457 1790 2866
0 1581 950
0 1581 966
0 1574 998
0 1565 1020
0 1565 1051
0 1565 1094
0 1565 1146
0 1581 1218
0 1597 1378
0 1606 1551
0 1646 1770
4 1740 2099
203 1882 2569
289 1948 2778
305 1948 2796
313 1964 2826
321 1964 2842
0 2033 1235
0 2033 1259
0 2033 1276
0 2033 1305
0 2033 1330
0 2017 1368
0 2017 1409
0 2033 1456
0 2033 1543
0 2033 1769
0 2011 2001
75 2021 2244
242 2103 2619
311 2159 2800
326 2159 2828
327 2159 2848
342 2168 2873
0 2492 1502
0 2481 1518
0 2481 1534
0 2481 1563
0 2481 1582
0 2476 1610
0 2476 1657
0 2476 1720
9 2476 1808
138 2476 1952
22 2459 2243
249 2395 2481
355 2410 2761
395 2438 2868
411 2438 2884
411 2438 2912
421 2450 2932
0 2922 1846
0 2922 1861
4 2922 1882
7 2922 1898
11 2922 1931
32 2922 1963
79 2922 2005
140 2918 2064
244 2917 2147
378 2906 2262
516 2906 2422
216 2880 2741
469 2770 2950
481 2758 2990
481 2754 3005
481 2754 3007
481 2738 3019
0 3002 1943
19 2989 1959
35 2989 1975
51 2989 2004
92 2989 2026
122 2989 2066
185 2989 2106
258 2986 2160
345 2986 2240
447 2986 2342
564 2982 2491
302 2949 2804
497 2838 2978
497 2810 3019
482 2797 3019
481 2794 3020
481 2781 3035
16 3019 1943
34 3019 1974
48 3019 1991
63 3019 2009
97 3019 2039
127 3019 2071
186 3019 2113
264 3018 2176
353 3005 2248
447 3005 2358
574 3003 2507
308 2978 2820
508 2866 2993
497 2826 3019
497 2812 3019
497 2810 3035
496 2796 3035
32 3036 1959
48 3036 1975
64 3036 2005
79 3036 2023
111 3036 2051
139 3035 2082
201 3035 2129
266 3035 2177
360 3035 2264
457 3035 2359
574 3020 2508
358 2999 2825
513 2883 3007
497 2843 3035
497 2842 3035
497 2826 3035
497 2826 3036
32 3067 1975
48 3067 1991
64 3067 2007
79 3067 2036
111 3067 2055
155 3066 2098
212 3051 2135
281 3051 2193
361 3051 2272
463 3051 2374
574 3051 2523
448 3019 2830
525 2914 3023
513 2871 3035
497 2858 3035
497 2842 3051
497 2842 3051
62  0  0
109  0  0
140  0  13
172  0  32
172  16  80
188  32 168
206  74 327
238 112 510
297 184 724
399 273 1016
541 383 1379
684 507 1811
806 610 2336
835 626 2460
835 626 2491
849 642 2521
851 642 2537
78  31  0
94  31  0
140  17  0
157  31  47
158  45  95
185  63 184
206  96 339
247 138 510
311 209 738
415 303 1030
541 413 1386
684 539 1822
806 641 2348
835 657 2473
850 658 2505
851 658 2522
851 673 2553
108  62  0
124  62  0
124  62  0
129  62  74
142  78 138
174 105 242
202 136 383
249 183 554
313 246 768
422 342 1060
555 459 1411
698 586 1852
821 678 2368
851 690 2489
851 704 2519
851 704 2538
865 720 2569
157 123  0
155 125  14
158 125  29
145 138  92
126 154 170
126 184 260
133 218 411
227 262 588
337 334 858
462 420 1177
574 522 1487
713 633 1901
823 719 2393
851 735 2503
853 738 2523
867 751 2553
867 752 2583
178 230  40
178 230  57
178 230  74
192 232 121
146 248 260
73 292 337
36 327 451
63 375 615
212 449 817
428 542 1175
606 608 1573
732 680 2002
839 750 2432
851 757 2508
865 766 2537
867 768 2565
867 782 2585
12 405 177
12 405 192
24 405 223
29 402 243
62 402 307
7 434 418
0 453 516
0 496 648
4 571 859
207 678 1154
475 818 1535
748 840 2082
839 793 2472
851 786 2521
865 797 2539
867 797 2570
867 802 2601
0 576 357
0 576 373
0 576 399
0 576 421
0 576 449
0 590 512
0 608 618
0 637 728
0 696 885
0 811 1169
196 963 1533
518 1137 2045
857 1005 2537
854 881 2547
867 881 2567
867 884 2595
867 897 2627
0 804 499
0 804 515
0 799 540
0 790 561
0 790 592
0 790 648
0 806 728
0 837 864
0 879 1006
0 972 1234
0 1121 1554
180 1310 2020
541 1494 2602
673 1437 2702
684 1441 2724
691 1448 2749
705 1453 2775
0 1124 682
0 1122 698
0 1116 728
0 1108 759
0 1108 790
0 1108 835
0 1108 895
0 1124 1021
0 1156 1188
0 1210 1377
0 1328 1617
4 1513 2039
297 1714 2569
452 1761 2789
457 1774 2818
458 1774 2842
465 1790 2866
0 1597 936
0 1597 959
0 1588 982
0 1581 1014
0 1572 1046
0 1565 1082
0 1581 1139
0 1583 1211
0 1598 1378
0 1615 1551
0 1646 1770
9 1740 2099
218 1889 2572
305 1948 2781
314 1948 2801
321 1964 2826
337 1964 2849
0 2049 1220
0 2049 1244
0 2049 1260
0 2033 1292
0 2033 1320
0 2033 1356
0 2033 1401
0 2033 1456
0 2035 1533
0 2033 1756
5 2011 2001
91 2021 2254
254 2103 2621
325 2159 2800
327 2159 2828
343 2159 2848
343 2169 2874
0 2497 1497
0 2497 1512
0 2492 1534
0 2492 1550
0 2490 1571
0 2481 1609
0 2481 1657
0 2481 1720
9 2481 1807
155 2476 1950
42 2465 2243
265 2395 2481
365 2410 2761
409 2438 2868
411 2438 2897
420 2438 2912
427 2450 2932
0 2934 1834
0 2934 1850
4 2934 1876
7 2923 1898
16 2922 1929
40 2922 1963
94 2922 2001
166 2922 2064
273 2922 2143
393 2922 2262
531 2916 2422
231 2884 2741
485 2774 2950
485 2770 2990
485 2754 3007
481 2754 3007
481 2738 3023
0 3003 1930
31 3003 1958
48 3003 1975
77 3003 2004
110 3003 2026
155 3003 2058
212 2994 2097
280 2989 2160
369 2989 2240
463 2989 2342
574 2986 2491
347 2952 2804
507 2838 2988
497 2810 3019
497 2808 3019
497 2794 3022
497 2781 3035
16 3021 1943
34 3021 1961
64 3021 1989
93 3019 2007
124 3019 2039
169 3019 2071
218 3019 2113
284 3019 2176
369 3019 2248
463 3019 2358
588 3003 2507
351 2981 2820
513 2866 2995
497 2826 3019
497 2826 3021
497 2810 3035
497 2810 3035
32 3051 1959
63 3051 1975
80 3051 1992
109 3051 2023
140 3038 2051
174 3036 2082
232 3036 2129
296 3036 2176
377 3036 2257
473 3035 2359
590 3035 2508
401 2999 2825
525 2883 3007
513 2856 3035
510 2842 3035
497 2826 3035
497 2826 3051
48 3067 1975
78 3067 1990
94 3067 2007
110 3067 2036
154 3067 2055
187 3067 2087
234 3067 2129
298 3067 2193
377 3067 2272
479 3051 2374
590 3051 2523
464 3030 2830
529 2914 3023
513 2874 3035
513 2858 3037
513 2855 3051
497 2842 3051
141  16  0
172  13  0
203  0  0
237  0  45
237  16  92
237  32 155
253  58 293
279  96 476
326 152 690
415 247 985
531 365 1352
684 494 1790
806 598 2323
835 616 2460
837 626 2489
851 626 2521
851 642 2537
141  45  0
157  45  0
203  32  14
237  29  47
225  32 108
237  59 168
253  80 293
279 123 479
326 184 693
415 273 992
541 396 1355
684 523 1798
810 630 2336
848 642 2473
851 657 2504
851 658 2522
