Postproduction/IWLTBAP - Humble/LUTs by IWLTBAP (3DL)/IWLTBAP Humble - LOG.3dl
# Copyright: (C) Copyright 2017 by IWLTBAP
# Cannot be resold, shared or otherwise redistributed
# Website: https://luts.iwltbap.com
0 64 128 192 256 320 384 448 512 576 640 704 768 832 896 960 1023
4 7 0
51 3 13
100 20 71
138 56 211
186 113 450
269 197 695
378 297 979
488 401 1276
592 502 1545
684 595 1859
756 672 2160
805 723 2375
829 749 2489
835 754 2513
840 760 2537
845 765 2561
850 771 2584
38 32 0
35 35 22
88 47 77
111 78 193
175 126 415
256 203 654
360 303 931
471 404 1225
576 506 1498
670 600 1799
745 681 2104
799 737 2340
833 774 2496
838 779 2520
844 785 2544
849 790 2568
854 796 2591
154 136 0
148 133 18
111 155 149
66 195 252
81 241 450
226 293 663
359 372 929
471 460 1217
574 545 1480
665 626 1772
741 701 2075
798 761 2326
836 799 2494
843 805 2528
848 809 2551
853 815 2575
858 820 2599
89 283 74
99 274 85
115 273 147
38 302 292
0 352 462
43 406 685
280 475 931
440 563 1219
577 650 1490
674 735 1779
752 811 2085
812 867 2345
850 902 2516
858 905 2556
862 903 2577
867 902 2599
871 901 2621
0 460 289
0 456 291
0 457 307
0 463 359
0 481 485
0 532 660
4 621 937
278 710 1240
444 810 1502
600 897 1793
735 971 2095
830 1029 2367
872 1069 2547
884 1077 2601
888 1077 2624
893 1077 2646
897 1078 2668
0 672 424
0 667 434
0 669 447
0 671 492
0 679 584
0 707 734
0 774 946
0 880 1237
71 994 1540
382 1094 1831
522 1186 2130
659 1252 2404
745 1294 2592
780 1307 2665
793 1307 2687
806 1307 2709
819 1307 2730
0 947 551
0 943 566
0 945 582
0 946 617
0 945 709
0 960 850
0 989 1035
0 1059 1267
0 1166 1524
0 1283 1850
270 1382 2166
417 1487 2447
507 1559 2650
556 1578 2744
571 1578 2765
586 1579 2786
601 1581 2808
0 1294 680
0 1288 701
0 1291 723
0 1292 753
0 1281 858
0 1285 978
0 1301 1171
0 1320 1357
0 1376 1549
0 1479 1836
0 1591 2142
180 1669 2434
383 1723 2671
476 1756 2806
469 1760 2829
464 1765 2852
468 1769 2873
0 1702 804
0 1696 830
0 1697 858
0 1698 887
0 1681 989
0 1669 1123
0 1677 1268
0 1678 1476
0 1675 1638
0 1703 1861
0 1761 2133
100 1824 2412
230 1877 2651
307 1911 2804
319 1914 2827
331 1917 2849
345 1921 2871
8 2032 935
5 2026 959
3 2026 985
1 2025 1010
0 2012 1080
0 1981 1242
0 1976 1383
0 1982 1516
0 1963 1761
0 1940 1937
11 1946 2147
126 1984 2398
231 2027 2642
292 2059 2805
307 2066 2846
315 2069 2867
323 2072 2889
311 2325 1080
216 2318 1098
127 2318 1119
37 2316 1139
0 2306 1174
0 2262 1324
0 2241 1455
0 2241 1599
0 2237 1800
0 2204 2046
45 2166 2211
159 2160 2408
265 2185 2638
325 2213 2808
345 2223 2871
352 2225 2891
358 2228 2912
532 2605 1215
456 2595 1232
384 2592 1251
312 2587 1270
215 2579 1290
0 2531 1389
0 2489 1515
0 2483 1670
0 2480 1863
245 2464 2101
135 2420 2325
232 2375 2473
307 2362 2655
373 2378 2825
395 2387 2900
399 2388 2918
405 2390 2938
711 2882 1347
643 2870 1361
577 2863 1378
511 2854 1394
437 2844 1407
81 2794 1461
0 2731 1591
0 2713 1739
5 2707 1930
287 2699 2140
269 2679 2417
337 2624 2590
375 2574 2722
418 2556 2860
443 2556 2939
448 2556 2954
454 2556 2971
866 3138 1453
799 3124 1463
735 3113 1474
670 3102 1486
602 3090 1498
229 3026 1560
0 2956 1673
0 2929 1823
7 2920 2013
301 2911 2221
500 2899 2430
151 2872 2706
450 2807 2842
465 2750 2939
471 2725 2989
472 2720 2997
474 2716 3008
943 3265 1506
873 3246 1517
805 3227 1528
737 3209 1539
669 3192 1551
240 3106 1620
0 3040 1722
0 3015 1867
52 3008 2057
340 3003 2267
533 2996 2476
445 2978 2763
489 2924 2915
499 2849 3000
492 2814 3020
491 2806 3026
490 2799 3032
958 3291 1520
888 3272 1531
819 3253 1541
750 3234 1553
675 3215 1565
221 3123 1638
0 3061 1735
0 3036 1874
60 3028 2061
339 3023 2271
532 3017 2479
615 2998 2753
486 2949 2924
506 2868 3010
497 2832 3028
494 2823 3031
493 2815 3037
973 3317 1534
903 3298 1544
833 3279 1555
763 3260 1566
682 3238 1579
213 3142 1654
0 3081 1750
0 3057 1881
57 3049 2065
337 3044 2274
530 3037 2481
648 3020 2739
474 2975 2931
513 2889 3020
503 2850 3035
500 2841 3039
497 2832 3042
58 13 0
117 3 12
148 18 75
171 50 202
203 106 439
273 187 683
374 285 964
483 389 1260
588 491 1530
679 584 1840
752 662 2144
802 714 2363
829 743 2487
834 748 2511
839 754 2535
844 759 2559
850 765 2582
47 32 0
59 32 5
112 40 71
142 67 173
185 115 393
255 190 632
353 289 906
463 390 1199
569 492 1474
663 587 1771
740 669 2078
795 728 2323
832 767 2491
838 773 2518
843 779 2542
849 784 2566
854 790 2590
154 128 0
146 126 16
126 140 121
100 170 217
122 210 409
243 255 622
347 335 886
456 424 1175
560 513 1452
655 603 1737
734 686 2045
794 749 2307
832 788 2481
842 798 2525
847 803 2549
852 809 2573
858 814 2597
141 259 56
146 253 69
155 253 120
87 279 274
23 328 438
94 379 652
295 448 902
449 536 1190
573 627 1469
668 714 1755
747 790 2062
809 849 2330
847 885 2506
856 890 2552
861 890 2574
865 889 2596
869 889 2618
0 456 253
0 450 262
0 453 279
1 457 340
0 475 475
0 522 651
4 610 934
291 697 1225
456 797 1491
609 883 1780
743 957 2084
830 1019 2362
872 1060 2544
884 1069 2599
888 1069 2622
892 1070 2644
897 1069 2666
0 672 417
0 668 429
0 670 442
0 672 488
0 678 579
0 704 729
0 769 942
0 874 1234
86 986 1533
393 1087 1825
530 1179 2125
666 1246 2402
754 1287 2590
788 1300 2664
801 1300 2685
813 1301 2707
825 1301 2729
0 953 542
0 948 560
0 950 577
0 950 614
0 947 706
0 960 847
0 989 1033
0 1059 1266
0 1165 1525
0 1282 1850
282 1380 2165
426 1484 2446
515 1557 2654
563 1576 2744
578 1576 2765
592 1576 2786
607 1578 2807
0 1305 665
0 1298 689
0 1303 711
0 1303 742
0 1289 855
0 1290 976
0 1305 1169
0 1323 1358
0 1379 1551
0 1481 1840
11 1593 2144
193 1671 2437
401 1725 2678
479 1756 2807
468 1761 2831
463 1766 2854
466 1770 2875
60 1713 801
2 1709 817
3 1710 846
5 1710 876
0 1691 984
0 1678 1123
0 1684 1269
0 1685 1479
0 1681 1643
0 1708 1866
10 1765 2138
116 1828 2416
243 1880 2659
316 1913 2806
327 1916 2828
339 1920 2851
352 1923 2873
145 2044 939
83 2038 956
84 2039 983
87 2039 1009
12 2024 1079
0 1991 1241
0 1984 1384
0 1990 1517
0 1971 1765
0 1947 1943
25 1951 2153
141 1988 2404
244 2032 2650
304 2064 2814
316 2070 2848
324 2073 2869
332 2076 2891
428 2341 1085
371 2334 1102
281 2333 1122
189 2331 1142
92 2321 1176
0 2277 1320
0 2252 1456
0 2250 1602
21 2246 1802
6 2213 2053
66 2173 2219
173 2166 2415
276 2191 2646
335 2219 2816
354 2228 2873
360 2229 2893
367 2232 2914
643 2625 1221
584 2616 1237
511 2611 1255
437 2606 1274
352 2597 1296
48 2546 1394
0 2503 1516
0 2493 1674
14 2489 1869
269 2473 2105
157 2429 2333
247 2382 2482
317 2368 2663
381 2382 2832
401 2391 2901
405 2392 2920
410 2394 2940
824 2906 1354
758 2893 1366
693 2886 1383
627 2877 1399
563 2867 1411
199 2812 1468
0 2747 1594
0 2725 1746
35 2718 1937
310 2709 2147
333 2689 2426
354 2634 2600
387 2581 2730
427 2563 2870
448 2562 2941
453 2561 2957
458 2561 2973
983 3166 1460
913 3150 1470
849 3140 1483
783 3128 1494
716 3115 1507
335 3045 1570
28 2972 1681
0 2942 1831
45 2931 2020
327 2923 2228
519 2911 2438
175 2884 2717
463 2818 2851
475 2758 2947
477 2732 2992
478 2728 3001
479 2722 3010
1056 3283 1513
982 3265 1523
914 3246 1534
846 3228 1545
762 3207 1558
332 3119 1628
51 3050 1728
7 3021 1873
89 3012 2063
362 3008 2272
549 3001 2482
422 2983 2767
499 2927 2920
505 2849 3003
498 2816 3022
497 2809 3027
495 2801 3033
1071 3309 1526
997 3291 1536
928 3272 1547
859 3253 1558
765 3230 1572
325 3135 1646
51 3071 1742
7 3042 1880
97 3033 2067
361 3028 2276
549 3022 2484
592 3003 2756
501 2952 2930
512 2870 3013
503 2834 3029
500 2825 3033
499 2818 3038
1086 3335 1540
1012 3317 1550
943 3298 1561
873 3279 1571
771 3253 1587
325 3154 1662
51 3091 1757
7 3064 1887
97 3054 2071
359 3049 2279
547 3042 2486
662 3025 2743
488 2978 2936
520 2892 3022
508 2853 3037
505 2843 3040
502 2834 3044
189 40 0
233 26 0
277 17 101
270 46 204
270 91 432
305 157 677
385 253 956
486 359 1250
588 465 1520
678 562 1831
751 643 2134
800 697 2355
828 728 2482
833 736 2507
838 743 2531
844 750 2556
849 756 2580
169 54 0
175 51 13
257 32 80
239 61 172
246 102 380
282 170 620
359 264 892
463 369 1185
565 475 1463
660 573 1757
737 658 2064
793 719 2313
830 759 2482
838 767 2516
843 773 2540
848 778 2564
853 784 2588
206 152 1
199 143 13
215 139 62
182 156 202
221 176 378
267 230 602
350 313 868
454 405 1159
557 498 1441
653 593 1726
733 677 2036
793 741 2301
832 782 2476
842 792 2524
847 797 2548
852 803 2571
857 809 2595
229 261 42
224 255 57
221 256 110
186 271 270
89 316 428
158 364 639
318 436 894
455 528 1186
574 622 1468
668 710 1754
748 787 2062
810 847 2333
848 885 2509
857 890 2551
861 890 2574
866 890 2596
870 890 2618
0 470 238
0 465 250
0 466 279
0 473 344
0 486 485
0 530 664
4 616 949
304 702 1232
463 801 1497
614 890 1790
745 964 2094
831 1025 2373
874 1066 2553
885 1073 2601
889 1073 2623
894 1074 2646
898 1075 2668
0 692 418
0 688 430
0 690 446
0 690 499
0 696 592
0 719 744
0 782 958
0 887 1251
83 998 1549
397 1100 1840
532 1191 2140
668 1257 2415
752 1298 2601
783 1309 2666
795 1310 2688
808 1310 2710
820 1310 2732
0 979 540
0 973 558
0 975 580
0 974 625
0 970 721
0 981 862
0 1008 1052
0 1078 1285
0 1182 1544
0 1298 1866
284 1396 2180
432 1499 2463
516 1569 2666
558 1586 2747
571 1588 2769
584 1590 2790
598 1591 2811
0 1340 659
0 1333 683
0 1334 709
0 1336 742
0 1318 868
0 1318 991
0 1332 1188
0 1347 1378
0 1403 1572
0 1504 1861
25 1612 2164
205 1685 2454
403 1738 2692
495 1765 2811
483 1770 2834
472 1775 2858
471 1780 2880
132 1744 806
58 1739 821
9 1741 841
10 1742 875
0 1721 995
0 1704 1138
0 1708 1286
0 1708 1496
0 1702 1665
0 1727 1889
18 1782 2158
140 1844 2435
259 1895 2676
321 1924 2809
332 1928 2831
343 1931 2853
356 1934 2875
297 2074 952
238 2068 969
182 2069 989
184 2068 1015
28 2050 1092
0 2018 1252
0 2009 1398
0 2012 1533
0 1992 1787
1 1967 1966
43 1969 2174
165 2005 2424
261 2047 2668
317 2078 2826
325 2082 2851
333 2085 2872
341 2088 2893
555 2374 1097
498 2366 1113
445 2364 1133
354 2363 1153
195 2349 1191
0 2304 1330
0 2277 1465
0 2273 1619
48 2266 1822
12 2233 2074
98 2192 2241
196 2183 2436
294 2207 2665
350 2234 2831
365 2241 2877
371 2243 2897
378 2245 2918
764 2661 1234
704 2650 1249
648 2645 1267
575 2641 1286
475 2628 1310
84 2573 1409
0 2528 1531
0 2515 1692
39 2510 1890
304 2494 2126
190 2449 2355
270 2401 2503
332 2385 2683
393 2398 2845
410 2404 2905
414 2406 2924
419 2408 2943
946 2944 1369
880 2931 1380
819 2923 1394
752 2915 1410
678 2902 1423
294 2838 1483
0 2774 1609
0 2749 1765
78 2739 1960
347 2731 2170
367 2709 2448
377 2654 2622
403 2599 2751
437 2578 2886
454 2576 2946
458 2575 2961
463 2575 2977
1106 3203 1473
1034 3186 1484
967 3173 1495
900 3160 1506
819 3143 1520
410 3064 1591
48 2991 1700
0 2958 1851
102 2947 2043
369 2940 2251
548 2928 2460
198 2902 2739
483 2835 2873
486 2771 2963
485 2747 2998
485 2742 3007
486 2737 3015
1168 3302 1519
1095 3283 1528
1022 3265 1539
954 3247 1550
846 3220 1567
412 3126 1641
88 3058 1742
10 3027 1888
141 3017 2079
397 3012 2289
573 3005 2498
367 2986 2797
514 2926 2931
510 2845 3007
503 2818 3023
502 2811 3029
500 2803 3035
1184 3328 1533
1110 3309 1542
1037 3290 1552
968 3272 1563
849 3242 1582
400 3143 1659
103 3079 1756
14 3048 1896
147 3038 2084
395 3033 2293
573 3026 2501
496 3007 2782
518 2951 2941
518 2867 3017
509 2837 3031
505 2827 3034
504 2820 3040
1199 3354 1546
1125 3335 1556
1052 3316 1566
982 3298 1577
854 3265 1596
401 3161 1676
103 3100 1770
14 3070 1902
152 3058 2087
393 3054 2296
571 3047 2502
672 3028 2768
514 2977 2949
525 2889 3026
514 2855 3039
510 2845 3042
508 2836 3045
354 86 1
372 73 1
455 21 6
398 52 210
374 77 409
364 129 658
409 210 934
491 313 1222
586 420 1495
675 519 1802
747 603 2109
797 659 2335
826 692 2470
831 700 2495
836 708 2519
841 716 2544
846 724 2569
317 86 1
318 80 4
381 47 13
351 62 186
335 91 357
331 144 597
376 224 867
465 326 1155
562 433 1438
654 535 1723
732 623 2033
789 688 2293
827 731 2467
836 743 2508
841 751 2533
846 758 2557
