Postproduction/IWLTBAP - Humble/LUTs by IWLTBAP (3DL)/IWLTBAP Humble - V-Log.3dl
# Copyright: (C) Copyright 2010-2017 by IWLTBAP SAS for SmallHD
# Cannot be resold, shared or otherwise redistributed
# Website: https://luts.iwltbap.com
# IWLTBAP Humble (V-Log)
0 256 512 768 1023
0  0  0
96  16  76
297 208 746
806 626 2348
851 658 2553
116 216  44
56 260 248
132 449 806
831 766 2436
867 782 2585
0 1108 698
0 1091 798
0 1156 1188
260 1714 2553
465 1790 2866
0 2922 1846
7 2918 1931
224 2906 2147
469 2770 2950
469 2738 3019
16 3051 1975
76 3051 2055
345 3051 2272
513 2898 3023
497 2842 3051
232  32  0
329  16  92
357 136 646
810 594 2312
863 626 2537
345 297  44
285 264 196
389 369 847
851 798 2408
895 831 2601
0 1168 614
0 1156 778
0 1172 1188
377 1702 2605
477 1770 2870
80 2950 1830
88 2938 1915
313 2930 2135
501 2786 2954
497 2754 3023
140 3083 1959
204 3083 2051
409 3067 2264
545 2914 3023
513 2842 3051
1148 264  0
1200 188  0
1260  48 553
955 501 2139
971 602 2497
1296 393  0
1260 389  72
1316 232 638
999 702 2224
1019 782 2553
1726 1533 626
1935 1738 851
1075 1148 1108
1023 1348 2637
1075 1348 2762
533 3047 1742
357 3003 1818
883 3083 2115
698 2854 3007
566 2774 3047
465 3155 1870
369 3123 1951
802 3187 2224
718 2982 3071
610 2882 3083
3388 578  0
3388 529  64
3376 409 437
3288  0 1449
3332  0 1726
3444 710  4
3448 674  88
3436 557 473
3316  0 1517
3356  32 1806
3516 1268  0
3504 1124  0
3649 1457 774
3500 650 1902
3472 710 2119
3902 3709 2529
3914 3721 2613
3938 3781 2966
3464 3565 3496
3251 3436 3665
3942 3854 2806
3942 3858 2886
3958 3894 3139
3159 3713 3472
2236 3416 3488
3565 610  0
3565 562  92
3565 441 457
3452  44 1457
3436  0 1734
3597 738  16
3613 702 124
3613 586 497
3508 260 1537
3480 108 1830
3685 1332  7
3709 1308 108
3797 1445 770
3673 899 1846
3605 819 2103
3986 3801 3035
3986 3801 3099
4002 3826 3235
3966 3737 3545
3906 3721 3709
3998 3918 3340
4014 3918 3404
4014 3950 3524
3974 3962 3733
3870 3934 3789
