Postproduction/IWLTBAP - Humble/LUTs by IWLTBAP (3DL)/IWLTBAP Humble - LOG.3dl
# Copyright: (C) Copyright 2017 by IWLTBAP
# Cannot be resold, shared or otherwise redistributed
# Website: https://luts.iwltbap.com
0 128 256 384 512 640 768 896 1023
4 7 0
100 20 71
186 113 450
378 297 979
592 502 1545
756 672 2160
829 749 2489
840 760 2537
850 771 2584
154 136 0
111 155 149
81 241 450
359 372 929
574 545 1480
741 701 2075
836 799 2494
848 809 2551
858 820 2599
0 460 289
0 457 307
0 481 485
4 621 937
444 810 1502
735 971 2095
872 1069 2547
888 1077 2624
897 1078 2668
0 947 551
0 945 582
0 945 709
0 989 1035
0 1166 1524
270 1382 2166
507 1559 2650
571 1578 2765
601 1581 2808
0 1702 804
0 1697 858
0 1681 989
0 1677 1268
0 1675 1638
0 1761 2133
230 1877 2651
319 1914 2827
345 1921 2871
311 2325 1080
127 2318 1119
0 2306 1174
0 2241 1455
0 2237 1800
45 2166 2211
265 2185 2638
345 2223 2871
358 2228 2912
711 2882 1347
577 2863 1378
437 2844 1407
0 2731 1591
5 2707 1930
269 2679 2417
375 2574 2722
443 2556 2939
454 2556 2971
943 3265 1506
805 3227 1528
669 3192 1551
0 3040 1722
52 3008 2057
533 2996 2476
489 2924 2915
492 2814 3020
490 2799 3032
973 3317 1534
833 3279 1555
682 3238 1579
0 3081 1750
57 3049 2065
530 3037 2481
474 2975 2931
503 2850 3035
497 2832 3042
189 40 0
277 17 101
270 91 432
385 253 956
588 465 1520
751 643 2134
828 728 2482
838 743 2531
849 756 2580
206 152 1
215 139 62
221 176 378
350 313 868
557 498 1441
733 677 2036
832 782 2476
847 797 2548
857 809 2595
0 470 238
0 466 279
0 486 485
4 616 949
463 801 1497
745 964 2094
874 1066 2553
889 1073 2623
898 1075 2668
0 979 540
0 975 580
0 970 721
0 1008 1052
0 1182 1544
284 1396 2180
516 1569 2666
571 1588 2769
598 1591 2811
132 1744 806
9 1741 841
0 1721 995
0 1708 1286
0 1702 1665
18 1782 2158
259 1895 2676
332 1928 2831
356 1934 2875
555 2374 1097
445 2364 1133
195 2349 1191
0 2277 1465
48 2266 1822
98 2192 2241
294 2207 2665
365 2241 2877
378 2245 2918
946 2944 1369
819 2923 1394
678 2902 1423
0 2774 1609
78 2739 1960
367 2709 2448
403 2599 2751
454 2576 2946
463 2575 2977
1168 3302 1519
1022 3265 1539
846 3220 1567
88 3058 1742
141 3017 2079
573 3005 2498
514 2926 2931
503 2818 3023
500 2803 3035
1199 3354 1546
1052 3316 1566
854 3265 1596
103 3100 1770
152 3058 2087
571 3047 2502
514 2977 2949
514 2855 3039
508 2836 3045
593 164 1
627 118 1
600 82 369
508 160 899
592 353 1459
745 544 2060
825 641 2452
835 659 2503
845 677 2553
518 186 3
526 159 5
488 138 321
439 209 803
561 397 1385
728 594 1978
827 708 2442
844 732 2526
854 747 2575
509 488 134
501 486 171
459 472 432
424 540 891
608 726 1467
786 906 2084
884 1015 2552
895 1023 2612
903 1027 2658
401 1059 523
334 1065 551
0 1060 697
0 1047 1072
0 1199 1578
441 1400 2207
597 1554 2682
635 1571 2767
657 1577 2810
679 1835 849
618 1833 878
297 1811 990
0 1771 1290
0 1749 1702
130 1814 2198
345 1921 2715
395 1946 2842
414 1952 2886
947 2452 1125
868 2446 1159
659 2421 1231
0 2336 1473
181 2311 1846
191 2229 2280
339 2234 2702
398 2262 2885
412 2268 2926
1224 3018 1395
1103 2998 1417
946 2973 1446
97 2826 1636
177 2778 1993
449 2747 2482
435 2629 2785
468 2600 2954
475 2597 2984
1482 3354 1538
1338 3320 1557
1129 3269 1588
272 3089 1765
259 3031 2103
626 3018 2523
549 2928 2949
519 2824 3028
514 2809 3039
1543 3412 1569
1398 3377 1587
1166 3321 1621
344 3137 1794
274 3075 2110
625 3062 2524
553 2983 2965
530 2861 3043
521 2842 3050
1272 297 2
1276 273 2
1329 125 51
1239 106 750
899 215 1388
780 397 1925
847 516 2379
858 541 2467
865 559 2520
1116 304 2
1116 288 2
1164 190 36
1074 157 682
808 261 1312
763 450 1868
846 579 2372
864 607 2489
871 622 2540
1097 610 200
1105 605 213
1146 560 325
1057 483 809
846 572 1406
848 742 1996
920 857 2496
928 870 2574
933 877 2622
1156 1073 417
1157 1077 449
1123 1073 610
948 1004 972
698 1067 1501
768 1259 2120
886 1384 2637
907 1401 2728
919 1405 2772
1510 1886 974
1483 1892 1004
1312 1898 1094
767 1835 1284
438 1758 1672
488 1809 2206
614 1911 2749
647 1930 2872
662 1934 2917
2004 2605 1327
1960 2605 1345
1817 2590 1382
1081 2470 1487
627 2378 1809
489 2278 2304
551 2265 2747
604 2292 2924
617 2298 2967
2458 3239 1538
2380 3233 1559
2266 3221 1584
1351 3050 1700
662 2883 1999
783 2835 2441
594 2685 2832
573 2634 2983
573 2626 3011
2742 3577 1736
2652 3560 1750
2471 3526 1773
1516 3333 1860
738 3139 2124
856 3106 2541
718 2992 2988
636 2867 3062
620 2847 3073
2808 3637 1781
2722 3621 1793
2510 3581 1814
1550 3387 1892
756 3189 2126
844 3150 2528
685 3061 2985
637 2903 3076
614 2878 3080
2017 444 2
2011 420 2
2062 289 9
2043 83 396
1993 37 1122
1493 248 1845
1029 353 2330
963 386 2449
944 403 2493
1893 451 2
1897 437 2
1954 353 7
1962 174 374
1889 155 1097
1411 306 1815
1007 417 2322
962 453 2461
951 468 2507
2011 726 2
2021 723 15
2063 684 155
2079 542 527
1926 462 1234
1423 579 1939
1083 677 2445
1049 693 2534
1036 699 2578
1964 1345 544
1970 1343 572
1979 1303 678
1991 1145 829
1785 1012 1403
1329 1060 2035
1168 1156 2572
1159 1172 2672
1154 1177 2718
2076 1888 829
2082 1898 870
2076 1911 998
1983 1891 1274
1602 1769 1615
984 1718 2191
1024 1789 2741
1015 1807 2874
1011 1810 2916
2477 2588 1478
2479 2598 1504
2469 2611 1558
2280 2603 1714
1572 2499 1859
959 2320 2297
936 2281 2787
976 2306 2988
982 2311 3033
3015 3332 1965
3016 3342 1982
3014 3352 2002
2810 3319 2031
1868 3119 2088
1241 2950 2411
898 2755 2870
831 2675 3042
829 2666 3073
3358 3714 2244
3349 3713 2252
3328 3709 2261
3085 3663 2256
2049 3443 2274
1333 3260 2555
987 3132 3040
863 2946 3126
831 2918 3136
3395 3768 2272
3377 3764 2271
3345 3758 2266
3058 3702 2244
2008 3482 2249
1254 3289 2514
1150 3195 2982
828 2975 3131
791 2944 3135
2700 568 2
2688 561 2
2721 481 2
2716 288 287
2654 0 724
2627 0 1403
2462 208 2126
2174 301 2515
2036 317 2606
2630 608 3
2640 588 3
2680 531 3
2698 361 283
2644 82 729
2597 79 1422
2393 284 2183
2126 360 2536
2009 374 2622
2779 866 3
2798 854 3
2853 804 22
2876 671 437
2800 442 883
2673 357 1531
2404 522 2356
2243 565 2578
2143 577 2666
2877 1524 287
2886 1520 310
2907 1453 397
2928 1284 668
2915 1109 1091
2689 987 1796
2125 1052 2586
1929 1066 2754
1842 1069 2818
2833 2172 1016
2838 2175 1047
2837 2166 1131
2796 2075 1332
2794 1891 1449
2550 1743 2074
1899 1657 2728
1713 1639 2890
1657 1631 2935
2907 2578 1327
2914 2591 1364
2918 2607 1427
2880 2624 1671
2801 2610 1964
2313 2441 2319
1515 2214 2836
1419 2186 3059
1409 2182 3107
3328 3319 2046
3337 3332 2080
3350 3349 2124
3330 3368 2310
3184 3358 2484
2442 3199 2570
1504 2866 2935
1318 2732 3145
1311 2719 3184
3685 3778 2550
3686 3780 2570
3688 3783 2597
3669 3792 2727
3524 3774 2803
2696 3591 2791
1860 3347 3008
1224 3061 3219
1149 3020 3226
3714 3836 2615
3708 3837 2630
3702 3837 2644
3669 3841 2720
3508 3815 2752
2591 3614 2720
1823 3409 2942
1143 3088 3217
1069 3044 3217
3231 712 3
3226 708 3
3247 665 3
3284 469 140
3229 189 671
3130 0 1077
3150 0 1592
3233 17 1881
3250 29 1959
3231 753 3
3235 750 3
3263 722 3
3318 537 153
3275 290 688
3172 38 1101
3190 0 1632
3254 55 1881
3273 62 1945
3374 1009 3
3389 999 3
3448 939 3
3490 806 313
3459 593 819
3327 301 1243
3311 7 1767
3313 201 1898
3327 197 1948
3517 1606 3
3528 1605 26
3553 1574 114
3593 1419 520
3612 1238 999
3526 1009 1442
3404 817 2059
3415 805 2199
3418 799 2251
3572 2357 936
3579 2354 956
3589 2322 994
3599 2168 1044
3611 1963 1251
3615 1821 1636
3440 1671 2432
3376 1639 2647
3355 1630 2709
3551 2917 1492
3559 2926 1525
3569 2938 1578
3558 2908 1781
3520 2790 1991
3510 2568 2129
3293 2386 2815
3011 2275 3083
2948 2252 3143
3619 3297 1818
3627 3312 1860
3638 3331 1909
3644 3371 2152
3638 3410 2494
3604 3417 2802
3073 3161 3087
2324 2825 3345
2221 2776 3377
3839 3752 2378
3842 3756 2407
3847 3761 2441
3861 3791 2663
3870 3827 2969
3828 3845 3241
3234 3707 3292
1922 3254 3390
1720 3177 3374
3862 3827 2517
3864 3831 2548
3866 3835 2578
3875 3856 2745
3878 3882 3008
3817 3889 3226
3209 3758 3232
1663 3262 3347
1504 3187 3338
3408 764 3
3412 760 3
3422 748 3
3500 542 44
3484 313 616
3405 0 1031
3358 0 1419
3353 0 1615
3361 0 1661
3427 813 3
3430 810 3
3448 786 3
3521 599 78
3507 381 648
3425 72 1066
3369 0 1467
3360 0 1650
3366 0 1695
3491 1046 3
3505 1035 3
3556 975 4
3607 840 273
3597 637 793
3492 351 1206
3408 0 1646
3398 0 1759
3393 35 1803
3648 1637 4
3653 1636 4
3671 1602 76
3712 1464 498
3744 1272 981
3693 1054 1423
3566 695 1968
3513 719 2061
3510 699 2094
3757 2396 869
3758 2391 892
3762 2347 919
3774 2199 983
3798 1998 1216
3819 1863 1615
3736 1617 2265
3667 1553 2443
3658 1525 2474
3836 3126 1645
3836 3127 1672
3835 3123 1719
3827 3049 1853
3808 2870 1969
3834 2600 2017
3869 2443 2479
3768 2343 2913
3746 2321 2929
3887 3495 1935
3889 3504 1973
3891 3516 2020
3902 3560 2272
3917 3594 2604
3912 3544 2861
3834 3349 3148
3844 3213 3361
3815 3183 3460
3906 3705 2173
3908 3712 2208
3910 3718 2245
3924 3757 2470
3949 3811 2810
3973 3861 3173
3971 3888 3491
3709 3809 3692
3634 3783 3724
3915 3739 2215
3917 3745 2249
3919 3751 2284
3929 3779 2443
3953 3831 2766
3978 3884 3139
3982 3928 3486
3594 3831 3665
3431 3783 3667
3462 784 3
3466 778 3
3473 771 3
3555 569 20
3545 350 578
3470 0 1007
3406 0 1384
3383 0 1557
3379 0 1599
3481 832 3
3483 829 3
3497 811 3
3575 622 51
3568 413 620
3488 77 1048
3412 0 1435
3388 0 1592
3384 0 1634
3541 1056 3
3556 1044 3
3603 989 4
3657 854 236
3653 656 769
3557 367 1190
3441 0 1596
3418 0 1706
3411 0 1744
3691 1647 4
3697 1646 4
3720 1609 64
3761 1477 482
3795 1283 968
3755 1068 1414
3605 675 1920
3564 637 2009
3532 662 2046
3804 2400 838
3805 2396 863
3810 2347 890
3823 2205 963
3848 2007 1205
3872 1874 1609
3789 1614 2208
3745 1493 2382
3714 1480 2426
3884 3163 1673
3884 3165 1700
3883 3158 1751
3876 3077 1870
3859 2886 1966
3888 2606 2000
3937 2453 2424
3887 2339 2805
3875 2308 2873
3924 3530 1966
3926 3541 2004
3928 3553 2054
3939 3598 2311
3954 3629 2634
3947 3567 2890
3911 3364 3146
3973 3279 3334
3984 3248 3359
3920 3704 2155
3921 3711 2190
3923 3717 2225
3934 3754 2427
3960 3809 2764
3986 3862 3135
4008 3897 3467
3917 3889 3738
3896 3879 3761
3921 3730 2185
3923 3736 2219
3925 3742 2254
3934 3769 2403
3958 3822 2722
3984 3879 3103
4006 3931 3466
3929 3946 3764
3871 3932 3787
