Postproduction/IWLTBAP - Humble/LUTs by IWLTBAP (3DL)/IWLTBAP Humble - LOG.3dl
# Copyright: (C) Copyright 2017 by IWLTBAP
# Cannot be resold, shared or otherwise redistributed
# Website: https://luts.iwltbap.com
0 256 512 768 1023
4 7 0
186 113 450
592 502 1545
829 749 2489
850 771 2584
0 460 289
0 481 485
444 810 1502
872 1069 2547
897 1078 2668
0 1702 804
0 1681 989
0 1675 1638
230 1877 2651
345 1921 2871
711 2882 1347
437 2844 1407
5 2707 1930
375 2574 2722
454 2556 2971
973 3317 1534
682 3238 1579
57 3049 2065
474 2975 2931
497 2832 3042
593 164 1
600 82 369
592 353 1459
825 641 2452
845 677 2553
509 488 134
459 472 432
608 726 1467
884 1015 2552
903 1027 2658
679 1835 849
297 1811 990
0 1749 1702
345 1921 2715
414 1952 2886
1224 3018 1395
946 2973 1446
177 2778 1993
435 2629 2785
475 2597 2984
1543 3412 1569
1166 3321 1621
274 3075 2110
553 2983 2965
521 2842 3050
2017 444 2
2062 289 9
1993 37 1122
1029 353 2330
944 403 2493
2011 726 2
2063 684 155
1926 462 1234
1083 677 2445
1036 699 2578
2076 1888 829
2076 1911 998
1602 1769 1615
1024 1789 2741
1011 1810 2916
3015 3332 1965
3014 3352 2002
1868 3119 2088
898 2755 2870
829 2666 3073
3395 3768 2272
3345 3758 2266
2008 3482 2249
1150 3195 2982
791 2944 3135
3231 712 3
3247 665 3
3229 189 671
3150 0 1592
3250 29 1959
3374 1009 3
3448 939 3
3459 593 819
3311 7 1767
3327 197 1948
3572 2357 936
3589 2322 994
3611 1963 1251
3440 1671 2432
3355 1630 2709
3619 3297 1818
3638 3331 1909
3638 3410 2494
3073 3161 3087
2221 2776 3377
3862 3827 2517
3866 3835 2578
3878 3882 3008
3209 3758 3232
1504 3187 3338
3462 784 3
3473 771 3
3545 350 578
3406 0 1384
3379 0 1599
3541 1056 3
3603 989 4
3653 656 769
3441 0 1596
3411 0 1744
3804 2400 838
3810 2347 890
3848 2007 1205
3789 1614 2208
3714 1480 2426
3924 3530 1966
3928 3553 2054
3954 3629 2634
3911 3364 3146
3984 3248 3359
3921 3730 2185
3925 3742 2254
3958 3822 2722
4006 3931 3466
3871 3932 3787
