Postproduction/IWLTBAP - Humble/LUTs by IWLTBAP (CUBE)/UTILITY/REDlog to Rec.709/U-REDLOG-V1-LTR.cube
# Copyright: (C) Copyright 2010-2018 by IWLTBAP SAS
# Cannot be resold, shared or otherwise redistributed
# Website: https://luts.iwltbap.com
TITLE "REDLog Version 1 (Utility LOG to Rec.709)"
LUT_3D_SIZE 32
0.000000 0.000000 0.000000
0.000000 0.000000 0.000000
0.003113 0.000000 0.000000
0.030548 0.000000 0.000000
0.058075 0.000000 0.000000
0.084991 0.000000 0.000000
0.120178 0.000000 0.000000
0.157196 0.000000 0.000000
0.194977 0.000000 0.000000
0.239288 0.000000 0.000000
0.286285 0.000000 0.000000
0.336243 0.000000 0.000000
0.388672 0.000000 0.000000
0.443604 0.000000 0.000000
0.499542 0.000000 0.000000
0.552185 0.000000 0.000000
0.605560 0.000000 0.000000
0.657593 0.000000 0.000000
0.703094 0.000000 0.000000
0.746460 0.000000 0.000000
0.784668 0.000000 0.000000
0.820099 0.000000 0.000000
0.852600 0.000000 0.000000
0.881134 0.000000 0.000000
0.903687 0.000000 0.000000
0.924225 0.000000 0.000000
0.941711 0.000000 0.000000
0.958771 0.000000 0.000000
0.969727 0.000000 0.000000
0.982849 0.000000 0.000000
0.993134 0.000000 0.000000
1.000000 0.000000 0.000000
0.000000 0.000000 0.000000
0.000000 0.000000 0.000000
0.003113 0.000000 0.000000
0.030548 0.000000 0.000000
0.058075 0.000000 0.000000
0.084991 0.000000 0.000000
0.120178 0.000000 0.000000
0.157196 0.000000 0.000000
0.194977 0.000000 0.000000
0.239288 0.000000 0.000000
0.286285 0.000000 0.000000
0.336243 0.000000 0.000000
0.388672 0.000000 0.000000
0.443604 0.000000 0.000000
0.499542 0.000000 0.000000
0.552185 0.000000 0.000000
0.605560 0.000000 0.000000
0.657593 0.000000 0.000000
0.703094 0.000000 0.000000
0.746460 0.000000 0.000000
0.784668 0.000000 0.000000
0.820099 0.000000 0.000000
0.852600 0.000000 0.000000
0.881134 0.000000 0.000000
0.903687 0.000000 0.000000
0.924225 0.000000 0.000000
0.941711 0.000000 0.000000
0.958771 0.000000 0.000000
0.969727 0.000000 0.000000
0.982849 0.000000 0.000000
0.993134 0.000000 0.000000
1.000000 0.000000 0.000000
0.000000 0.003113 0.000000
0.000000 0.003113 0.000000
0.003113 0.003113 0.000000
0.030548 0.003113 0.000000
0.058075 0.003113 0.000000
0.084991 0.003113 0.000000
0.120178 0.003113 0.000000
0.157196 0.003113 0.000000
0.194977 0.003113 0.000000
0.239288 0.003113 0.000000
0.286285 0.003113 0.000000
0.336243 0.003113 0.000000
0.388672 0.003113 0.000000
0.443604 0.003113 0.000000
0.499542 0.003113 0.000000
0.552185 0.003113 0.000000
0.605560 0.003113 0.000000
0.657593 0.003113 0.000000
0.703094 0.003113 0.000000
0.746460 0.003113 0.000000
0.784668 0.003113 0.000000
0.820099 0.003113 0.000000
0.852600 0.003113 0.000000
0.881134 0.003113 0.000000
0.903687 0.003113 0.000000
0.924225 0.003113 0.000000
0.941711 0.003113 0.000000
0.958771 0.003113 0.000000
0.969727 0.003113 0.000000
0.982849 0.003113 0.000000
0.993134 0.003113 0.000000
1.000000 0.003113 0.000000
0.000000 0.030548 0.000000
0.000000 0.030548 0.000000
0.003113 0.030548 0.000000
0.030548 0.030548 0.000000
0.058075 0.030548 0.000000
0.084991 0.030548 0.000000
0.120178 0.030548 0.000000
0.157196 0.030548 0.000000
0.194977 0.030548 0.000000
0.239288 0.030548 0.000000
0.286285 0.030548 0.000000
0.336243 0.030548 0.000000
0.388672 0.030548 0.000000
0.443604 0.030548 0.000000
0.499542 0.030548 0.000000
0.552185 0.030548 0.000000
0.605560 0.030548 0.000000
0.657593 0.030548 0.000000
0.703094 0.030548 0.000000
0.746460 0.030548 0.000000
0.784668 0.030548 0.000000
0.820099 0.030548 0.000000
0.852600 0.030548 0.000000
0.881134 0.030548 0.000000
0.903687 0.030548 0.000000
0.924225 0.030548 0.000000
0.941711 0.030548 0.000000
0.958771 0.030548 0.000000
0.969727 0.030548 0.000000
0.982849 0.030548 0.000000
0.993134 0.030548 0.000000
1.000000 0.030548 0.000000
0.000000 0.058075 0.000000
0.000000 0.058075 0.000000
0.003113 0.058075 0.000000
0.030548 0.058075 0.000000
0.058075 0.058075 0.000000
0.084991 0.058075 0.000000
0.120178 0.058075 0.000000
0.157196 0.058075 0.000000
0.194977 0.058075 0.000000
0.239288 0.058075 0.000000
0.286285 0.058075 0.000000
0.336243 0.058075 0.000000
0.388672 0.058075 0.000000
0.443604 0.058075 0.000000
0.499542 0.058075 0.000000
0.552185 0.058075 0.000000
0.605560 0.058075 0.000000
0.657593 0.058075 0.000000
0.703094 0.058075 0.000000
0.746460 0.058075 0.000000
0.784668 0.058075 0.000000
0.820099 0.058075 0.000000
0.852600 0.058075 0.000000
0.881134 0.058075 0.000000
0.903687 0.058075 0.000000
0.924225 0.058075 0.000000
0.941711 0.058075 0.000000
0.958771 0.058075 0.000000
0.969727 0.058075 0.000000
0.982849 0.058075 0.000000
0.993134 0.058075 0.000000
1.000000 0.058075 0.000000
0.000000 0.084991 0.000000
0.000000 0.084991 0.000000
0.003113 0.084991 0.000000
0.030548 0.084991 0.000000
0.058075 0.084991 0.000000
0.084991 0.084991 0.000000
0.120178 0.084991 0.000000
0.157196 0.084991 0.000000
0.194977 0.084991 0.000000
0.239288 0.084991 0.000000
0.286285 0.084991 0.000000
0.336243 0.084991 0.000000
0.388672 0.084991 0.000000
0.443604 0.084991 0.000000
0.499542 0.084991 0.000000
0.552185 0.084991 0.000000
0.605560 0.084991 0.000000
0.657593 0.084991 0.000000
0.703094 0.084991 0.000000
0.746460 0.084991 0.000000
0.784668 0.084991 0.000000
0.820099 0.084991 0.000000
0.852600 0.084991 0.000000
0.881134 0.084991 0.000000
0.903687 0.084991 0.000000
0.924225 0.084991 0.000000
0.941711 0.084991 0.000000
0.958771 0.084991 0.000000
0.969727 0.084991 0.000000
0.982849 0.084991 0.000000
0.993134 0.084991 0.000000
1.000000 0.084991 0.000000
0.000000 0.120178 0.000000
0.000000 0.120178 0.000000
0.003113 0.120178 0.000000
0.030548 0.120178 0.000000
0.058075 0.120178 0.000000
0.084991 0.120178 0.000000
0.120178 0.120178 0.000000
0.157196 0.120178 0.000000
0.194977 0.120178 0.000000
0.239288 0.120178 0.000000
0.286285 0.120178 0.000000
0.336243 0.120178 0.000000
0.388672 0.120178 0.000000
0.443604 0.120178 0.000000
0.499542 0.120178 0.000000
0.552185 0.120178 0.000000
0.605560 0.120178 0.000000
0.657593 0.120178 0.000000
0.703094 0.120178 0.000000
0.746460 0.120178 0.000000
0.784668 0.120178 0.000000
0.820099 0.120178 0.000000
0.852600 0.120178 0.000000
0.881134 0.120178 0.000000
0.903687 0.120178 0.000000
0.924225 0.120178 0.000000
0.941711 0.120178 0.000000
0.958771 0.120178 0.000000
0.969727 0.120178 0.000000
0.982849 0.120178 0.000000
0.993134 0.120178 0.000000
1.000000 0.120178 0.000000
0.000000 0.157196 0.000000
0.000000 0.157196 0.000000
0.003113 0.157196 0.000000
0.030548 0.157196 0.000000
0.058075 0.157196 0.000000
0.084991 0.157196 0.000000
0.120178 0.157196 0.000000
0.157196 0.157196 0.000000
0.194977 0.157196 0.000000
0.239288 0.157196 0.000000
0.286285 0.157196 0.000000
0.336243 0.157196 0.000000
0.388672 0.157196 0.000000
0.443604 0.157196 0.000000
0.499542 0.157196 0.000000
0.552185 0.157196 0.000000
0.605560 0.157196 0.000000
0.657593 0.157196 0.000000
0.703094 0.157196 0.000000
0.746460 0.157196 0.000000
0.784668 0.157196 0.000000
0.820099 0.157196 0.000000
0.852600 0.157196 0.000000
0.881134 0.157196 0.000000
0.903687 0.157196 0.000000
0.924225 0.157196 0.000000
0.941711 0.157196 0.000000
0.958771 0.157196 0.000000
0.969727 0.157196 0.000000
0.982849 0.157196 0.000000
0.993134 0.157196 0.000000
1.000000 0.157196 0.000000
0.000000 0.194977 0.000000
0.000000 0.194977 0.000000
0.003113 0.194977 0.000000
0.030548 0.194977 0.000000
0.058075 0.194977 0.000000
0.084991 0.194977 0.000000
0.120178 0.194977 0.000000
0.157196 0.194977 0.000000
0.194977 0.194977 0.000000
0.239288 0.194977 0.000000
0.286285 0.194977 0.000000
0.336243 0.194977 0.000000
0.388672 0.194977 0.000000
0.443604 0.194977 0.000000
0.499542 0.194977 0.000000
0.552185 0.194977 0.000000
0.605560 0.194977 0.000000
0.657593 0.194977 0.000000
0.703094 0.194977 0.000000
0.746460 0.194977 0.000000
0.784668 0.194977 0.000000
0.820099 0.194977 0.000000
0.852600 0.194977 0.000000
0.881134 0.194977 0.000000
0.903687 0.194977 0.000000
0.924225 0.194977 0.000000
0.941711 0.194977 0.000000
0.958771 0.194977 0.000000
0.969727 0.194977 0.000000
0.982849 0.194977 0.000000
0.993134 0.194977 0.000000
1.000000 0.194977 0.000000
0.000000 0.239288 0.000000
0.000000 0.239288 0.000000
0.003113 0.239288 0.000000
0.030548 0.239288 0.000000
0.058075 0.239288 0.000000
0.084991 0.239288 0.000000
0.120178 0.239288 0.000000
0.157196 0.239288 0.000000
0.194977 0.239288 0.000000
0.239288 0.239288 0.000000
0.286285 0.239288 0.000000
0.336243 0.239288 0.000000
0.388672 0.239288 0.000000
0.443604 0.239288 0.000000
0.499542 0.239288 0.000000
0.552185 0.239288 0.000000
0.605560 0.239288 0.000000
0.657593 0.239288 0.000000
0.703094 0.239288 0.000000
0.746460 0.239288 0.000000
0.784668 0.239288 0.000000
0.820099 0.239288 0.000000
0.852600 0.239288 0.000000
0.881134 0.239288 0.000000
0.903687 0.239288 0.000000
0.924225 0.239288 0.000000
0.941711 0.239288 0.000000
0.958771 0.239288 0.000000
0.969727 0.239288 0.000000
0.982849 0.239288 0.000000
0.993134 0.239288 0.000000
1.000000 0.239288 0.000000
0.000000 0.286285 0.000000
0.000000 0.286285 0.000000
0.003113 0.286285 0.000000
0.030548 0.286285 0.000000
0.058075 0.286285 0.000000
0.084991 0.286285 0.000000
0.120178 0.286285 0.000000
0.157196 0.286285 0.000000
0.194977 0.286285 0.000000
0.239288 0.286285 0.000000
0.286285 0.286285 0.000000
0.336243 0.286285 0.000000
0.388672 0.286285 0.000000
0.443604 0.286285 0.000000
0.499542 0.286285 0.000000
0.552185 0.286285 0.000000
0.605560 0.286285 0.000000
0.657593 0.286285 0.000000
0.703094 0.286285 0.000000
0.746460 0.286285 0.000000
0.784668 0.286285 0.000000
0.820099 0.286285 0.000000
0.852600 0.286285 0.000000
0.881134 0.286285 0.000000
0.903687 0.286285 0.000000
0.924225 0.286285 0.000000
0.941711 0.286285 0.000000
0.958771 0.286285 0.000000
0.969727 0.286285 0.000000
0.982849 0.286285 0.000000
0.993134 0.286285 0.000000
1.000000 0.286285 0.000000
0.000000 0.336243 0.000000
0.000000 0.336243 0.000000
0.003113 0.336243 0.000000
0.030548 0.336243 0.000000
0.058075 0.336243 0.000000
0.084991 0.336243 0.000000
0.120178 0.336243 0.000000
0.157196 0.336243 0.000000
0.194977 0.336243 0.000000
0.239288 0.336243 0.000000
0.286285 0.336243 0.000000
0.336243 0.336243 0.000000
0.388672 0.336243 0.000000
0.443604 0.336243 0.000000
0.499542 0.336243 0.000000
0.552185 0.336243 0.000000
0.605560 0.336243 0.000000
0.657593 0.336243 0.000000
0.703094 0.336243 0.000000
0.746460 0.336243 0.000000
0.784668 0.336243 0.000000
0.820099 0.336243 0.000000
0.852600 0.336243 0.000000
0.881134 0.336243 0.000000
0.903687 0.336243 0.000000
0.924225 0.336243 0.000000
0.941711 0.336243 0.000000
0.958771 0.336243 0.000000
0.969727 0.336243 0.000000
0.982849 0.336243 0.000000
0.993134 0.336243 0.000000
1.000000 0.336243 0.000000
0.000000 0.388672 0.000000
0.000000 0.388672 0.000000
0.003113 0.388672 0.000000
0.030548 0.388672 0.000000
0.058075 0.388672 0.000000
0.084991 0.388672 0.000000
0.120178 0.388672 0.000000
0.157196 0.388672 0.000000
0.194977 0.388672 0.000000
0.239288 0.388672 0.000000
0.286285 0.388672 0.000000
0.336243 0.388672 0.000000
0.388672 0.388672 0.000000
0.443604 0.388672 0.000000
0.499542 0.388672 0.000000
0.552185 0.388672 0.000000
0.605560 0.388672 0.000000
0.657593 0.388672 0.000000
0.703094 0.388672 0.000000
0.746460 0.388672 0.000000
0.784668 0.388672 0.000000
0.820099 0.388672 0.000000
0.852600 0.388672 0.000000
0.881134 0.388672 0.000000
0.903687 0.388672 0.000000
0.924225 0.388672 0.000000
0.941711 0.388672 0.000000
0.958771 0.388672 0.000000
0.969727 0.388672 0.000000
0.982849 0.388672 0.000000
0.993134 0.388672 0.000000
1.000000 0.388672 0.000000
0.000000 0.443604 0.000000
0.000000 0.443604 0.000000
0.003113 0.443604 0.000000
0.030548 0.443604 0.000000
0.058075 0.443604 0.000000
0.084991 0.443604 0.000000
0.120178 0.443604 0.000000
0.157196 0.443604 0.000000
0.194977 0.443604 0.000000
0.239288 0.443604 0.000000
0.286285 0.443604 0.000000
0.336243 0.443604 0.000000
0.388672 0.443604 0.000000
0.443604 0.443604 0.000000
0.499542 0.443604 0.000000
0.552185 0.443604 0.000000
0.605560 0.443604 0.000000
0.657593 0.443604 0.000000
0.703094 0.443604 0.000000
0.746460 0.443604 0.000000
0.784668 0.443604 0.000000
0.820099 0.443604 0.000000
0.852600 0.443604 0.000000
0.881134 0.443604 0.000000
0.903687 0.443604 0.000000
0.924225 0.443604 0.000000
0.941711 0.443604 0.000000
0.958771 0.443604 0.000000
0.969727 0.443604 0.000000
0.982849 0.443604 0.000000
0.993134 0.443604 0.000000
1.000000 0.443604 0.000000
0.000000 0.499542 0.000000
0.000000 0.499542 0.000000
0.003113 0.499542 0.000000
0.030548 0.499542 0.000000
0.058075 0.499542 0.000000
0.084991 0.499542 0.000000
0.120178 0.499542 0.000000
0.157196 0.499542 0.000000
0.194977 0.499542 0.000000
0.239288 0.499542 0.000000
0.286285 0.499542 0.000000
0.336243 0.499542 0.000000
0.388672 0.499542 0.000000
0.443604 0.499542 0.000000
0.499542 0.499542 0.000000
0.552185 0.499542 0.000000
0.605560 0.499542 0.000000
0.657593 0.499542 0.000000
0.703094 0.499542 0.000000
0.746460 0.499542 0.000000
0.784668 0.499542 0.000000
0.820099 0.499542 0.000000
0.852600 0.499542 0.000000
0.881134 0.499542 0.000000
0.903687 0.499542 0.000000
0.924225 0.499542 0.000000
0.941711 0.499542 0.000000
0.958771 0.499542 0.000000
0.969727 0.499542 0.000000
0.982849 0.499542 0.000000
0.993134 0.499542 0.000000
1.000000 0.499542 0.000000
0.000000 0.552185 0.000000
0.000000 0.552185 0.000000
0.003113 0.552185 0.000000
0.030548 0.552185 0.000000
0.058075 0.552185 0.000000
0.084991 0.552185 0.000000
0.120178 0.552185 0.000000
0.157196 0.552185 0.000000
0.194977 0.552185 0.000000
0.239288 0.552185 0.000000
0.286285 0.552185 0.000000
0.336243 0.552185 0.000000
0.388672 0.552185 0.000000
0.443604 0.552185 0.000000
0.499542 0.552185 0.000000
0.552185 0.552185 0.000000
0.605560 0.552185 0.000000
0.657593 0.552185 0.000000
0.703094 0.552185 0.000000
0.746460 0.552185 0.000000
0.784668 0.552185 0.000000
0.820099 0.552185 0.000000
0.852600 0.552185 0.000000
0.881134 0.552185 0.000000
0.903687 0.552185 0.000000
0.924225 0.552185 0.000000
0.941711 0.552185 0.000000
0.958771 0.552185 0.000000
0.969727 0.552185 0.000000
0.982849 0.552185 0.000000
0.993134 0.552185 0.000000
1.000000 0.552185 0.000000
0.000000 0.605560 0.000000
0.000000 0.605560 0.000000
0.003113 0.605560 0.000000
0.030548 0.605560 0.000000
0.058075 0.605560 0.000000
0.084991 0.605560 0.000000
0.120178 0.605560 0.000000
0.157196 0.605560 0.000000
0.194977 0.605560 0.000000
0.239288 0.605560 0.000000
0.286285 0.605560 0.000000
0.336243 0.605560 0.000000
0.388672 0.605560 0.000000
0.443604 0.605560 0.000000
0.499542 0.605560 0.000000
0.552185 0.605560 0.000000
0.605560 0.605560 0.000000
0.657593 0.605560 0.000000
0.703094 0.605560 0.000000
0.746460 0.605560 0.000000
0.784668 0.605560 0.000000
0.820099 0.605560 0.000000
0.852600 0.605560 0.000000
0.881134 0.605560 0.000000
0.903687 0.605560 0.000000
0.924225 0.605560 0.000000
0.941711 0.605560 0.000000
0.958771 0.605560 0.000000
0.969727 0.605560 0.000000
0.982849 0.605560 0.000000
0.993134 0.605560 0.000000
1.000000 0.605560 0.000000
0.000000 0.657593 0.000000
0.000000 0.657593 0.000000
0.003113 0.657593 0.000000
0.030548 0.657593 0.000000
0.058075 0.657593 0.000000
0.084991 0.657593 0.000000
0.120178 0.657593 0.000000
0.157196 0.657593 0.000000
0.194977 0.657593 0.000000
0.239288 0.657593 0.000000
0.286285 0.657593 0.000000
0.336243 0.657593 0.000000
0.388672 0.657593 0.000000
0.443604 0.657593 0.000000
0.499542 0.657593 0.000000
0.552185 0.657593 0.000000
0.605560 0.657593 0.000000
0.657593 0.657593 0.000000
0.703094 0.657593 0.000000
0.746460 0.657593 0.000000
0.784668 0.657593 0.000000
0.820099 0.657593 0.000000
0.852600 0.657593 0.000000
0.881134 0.657593 0.000000
0.903687 0.657593 0.000000
0.924225 0.657593 0.000000
0.941711 0.657593 0.000000
0.958771 0.657593 0.000000
0.969727 0.657593 0.000000
0.982849 0.657593 0.000000
0.993134 0.657593 0.000000
1.000000 0.657593 0.000000
0.000000 0.703094 0.000000
0.000000 0.703094 0.000000
0.003113 0.703094 0.000000
0.030548 0.703094 0.000000
0.058075 0.703094 0.000000
0.084991 0.703094 0.000000
0.120178 0.703094 0.000000
0.157196 0.703094 0.000000
0.194977 0.703094 0.000000
0.239288 0.703094 0.000000
0.286285 0.703094 0.000000
0.336243 0.703094 0.000000
0.388672 0.703094 0.000000
0.443604 0.703094 0.000000
0.499542 0.703094 0.000000
0.552185 0.703094 0.000000
0.605560 0.703094 0.000000
0.657593 0.703094 0.000000
0.703094 0.703094 0.000000
0.746460 0.703094 0.000000
0.784668 0.703094 0.000000
0.820099 0.703094 0.000000
0.852600 0.703094 0.000000
0.881134 0.703094 0.000000
0.903687 0.703094 0.000000
0.924225 0.703094 0.000000
0.941711 0.703094 0.000000
0.958771 0.703094 0.000000
0.969727 0.703094 0.000000
0.982849 0.703094 0.000000
0.993134 0.703094 0.000000
1.000000 0.703094 0.000000
0.000000 0.746460 0.000000
0.000000 0.746460 0.000000
0.003113 0.746460 0.000000
0.030548 0.746460 0.000000
0.058075 0.746460 0.000000
0.084991 0.746460 0.000000
0.120178 0.746460 0.000000
0.157196 0.746460 0.000000
0.194977 0.746460 0.000000
0.239288 0.746460 0.000000
0.286285 0.746460 0.000000
0.336243 0.746460 0.000000
0.388672 0.746460 0.000000
0.443604 0.746460 0.000000
0.499542 0.746460 0.000000
0.552185 0.746460 0.000000
0.605560 0.746460 0.000000
0.657593 0.746460 0.000000
0.703094 0.746460 0.000000
0.746460 0.746460 0.000000
0.784668 0.746460 0.000000
0.820099 0.746460 0.000000
0.852600 0.746460 0.000000
0.881134 0.746460 0.000000
0.903687 0.746460 0.000000
0.924225 0.746460 0.000000
0.941711 0.746460 0.000000
0.958771 0.746460 0.000000
0.969727 0.746460 0.000000
0.982849 0.746460 0.000000
0.993134 0.746460 0.000000
1.000000 0.746460 0.000000
0.000000 0.784668 0.000000
0.000000 0.784668 0.000000
0.003113 0.784668 0.000000
0.030548 0.784668 0.000000
0.058075 0.784668 0.000000
0.084991 0.784668 0.000000
0.120178 0.784668 0.000000
0.157196 0.784668 0.000000
0.194977 0.784668 0.000000
0.239288 0.784668 0.000000
0.286285 0.784668 0.000000
0.336243 0.784668 0.000000
0.388672 0.784668 0.000000
0.443604 0.784668 0.000000
0.499542 0.784668 0.000000
0.552185 0.784668 0.000000
0.605560 0.784668 0.000000
0.657593 0.784668 0.000000
0.703094 0.784668 0.000000
0.746460 0.784668 0.000000
0.784668 0.784668 0.000000
0.820099 0.784668 0.000000
0.852600 0.784668 0.000000
0.881134 0.784668 0.000000
0.903687 0.784668 0.000000
0.924225 0.784668 0.000000
0.941711 0.784668 0.000000
0.958771 0.784668 0.000000
0.969727 0.784668 0.000000
0.982849 0.784668 0.000000
0.993134 0.784668 0.000000
1.000000 0.784668 0.000000
0.000000 0.820099 0.000000
0.000000 0.820099 0.000000
0.003113 0.820099 0.000000
0.030548 0.820099 0.000000
0.058075 0.820099 0.000000
0.084991 0.820099 0.000000
0.120178 0.820099 0.000000
0.157196 0.820099 0.000000
0.194977 0.820099 0.000000
0.239288 0.820099 0.000000
0.286285 0.820099 0.000000
0.336243 0.820099 0.000000
0.388672 0.820099 0.000000
0.443604 0.820099 0.000000
0.499542 0.820099 0.000000
0.552185 0.820099 0.000000
0.605560 0.820099 0.000000
0.657593 0.820099 0.000000
0.703094 0.820099 0.000000
0.746460 0.820099 0.000000
0.784668 0.820099 0.000000
0.820099 0.820099 0.000000
0.852600 0.820099 0.000000
0.881134 0.820099 0.000000
0.903687 0.820099 0.000000
0.924225 0.820099 0.000000
0.941711 0.820099 0.000000
0.958771 0.820099 0.000000
0.969727 0.820099 0.000000
0.982849 0.820099 0.000000
0.993134 0.820099 0.000000
1.000000 0.820099 0.000000
0.000000 0.852600 0.000000
0.000000 0.852600 0.000000
0.003113 0.852600 0.000000
0.030548 0.852600 0.000000
0.058075 0.852600 0.000000
0.084991 0.852600 0.000000
0.120178 0.852600 0.000000
0.157196 0.852600 0.000000
0.194977 0.852600 0.000000
0.239288 0.852600 0.000000
0.286285 0.852600 0.000000
0.336243 0.852600 0.000000
0.388672 0.852600 0.000000
0.443604 0.852600 0.000000
0.499542 0.852600 0.000000
0.552185 0.852600 0.000000
0.605560 0.852600 0.000000
0.657593 0.852600 0.000000
0.703094 0.852600 0.000000
0.746460 0.852600 0.000000
0.784668 0.852600 0.000000
0.820099 0.852600 0.000000
0.852600 0.852600 0.000000
0.881134 0.852600 0.000000
0.903687 0.852600 0.000000
0.924225 0.852600 0.000000
0.941711 0.852600 0.000000
0.958771 0.852600 0.000000
0.969727 0.852600 0.000000
0.982849 0.852600 0.000000
0.993134 0.852600 0.000000
1.000000 0.852600 0.000000
0.000000 0.881134 0.000000
0.000000 0.881134 0.000000
0.003113 0.881134 0.000000
0.030548 0.881134 0.000000
0.058075 0.881134 0.000000
0.084991 0.881134 0.000000
0.120178 0.881134 0.000000
0.157196 0.881134 0.000000
0.194977 0.881134 0.000000
0.239288 0.881134 0.000000
0.286285 0.881134 0.000000
0.336243 0.881134 0.000000
0.388672 0.881134 0.000000
0.443604 0.881134 0.000000
0.499542 0.881134 0.000000
0.552185 0.881134 0.000000
0.605560 0.881134 0.000000
0.657593 0.881134 0.000000
0.703094 0.881134 0.000000
0.746460 0.881134 0.000000
0.784668 0.881134 0.000000
0.820099 0.881134 0.000000
0.852600 0.881134 0.000000
0.881134 0.881134 0.000000
0.903687 0.881134 0.000000
0.924225 0.881134 0.000000
0.941711 0.881134 0.000000
0.958771 0.881134 0.000000
0.969727 0.881134 0.000000
0.982849 0.881134 0.000000
0.993134 0.881134 0.000000
1.000000 0.881134 0.000000
0.000000 0.903687 0.000000
0.000000 0.903687 0.000000
0.003113 0.903687 0.000000
0.030548 0.903687 0.000000
0.058075 0.903687 0.000000
0.084991 0.903687 0.000000
0.120178 0.903687 0.000000
0.157196 0.903687 0.000000
0.194977 0.903687 0.000000
0.239288 0.903687 0.000000
0.286285 0.903687 0.000000
0.336243 0.903687 0.000000
0.388672 0.903687 0.000000
0.443604 0.903687 0.000000
0.499542 0.903687 0.000000
0.552185 0.903687 0.000000
0.605560 0.903687 0.000000
0.657593 0.903687 0.000000
0.703094 0.903687 0.000000
0.746460 0.903687 0.000000
0.784668 0.903687 0.000000
0.820099 0.903687 0.000000
0.852600 0.903687 0.000000
0.881134 0.903687 0.000000
0.903687 0.903687 0.000000
0.924225 0.903687 0.000000
0.941711 0.903687 0.000000
0.958771 0.903687 0.000000
0.969727 0.903687 0.000000
0.982849 0.903687 0.000000
0.993134 0.903687 0.000000
1.000000 0.903687 0.000000
0.000000 0.924225 0.000000
0.000000 0.924225 0.000000
0.003113 0.924225 0.000000
0.030548 0.924225 0.000000
0.058075 0.924225 0.000000
0.084991 0.924225 0.000000
0.120178 0.924225 0.000000
0.157196 0.924225 0.000000
0.194977 0.924225 0.000000
0.239288 0.924225 0.000000
0.286285 0.924225 0.000000
0.336243 0.924225 0.000000
0.388672 0.924225 0.000000
0.443604 0.924225 0.000000
0.499542 0.924225 0.000000
0.552185 0.924225 0.000000
0.605560 0.924225 0.000000
0.657593 0.924225 0.000000
0.703094 0.924225 0.000000
0.746460 0.924225 0.000000
0.784668 0.924225 0.000000
0.820099 0.924225 0.000000
0.852600 0.924225 0.000000
0.881134 0.924225 0.000000
0.903687 0.924225 0.000000
0.924225 0.924225 0.000000
0.941711 0.924225 0.000000
0.958771 0.924225 0.000000
0.969727 0.924225 0.000000
0.982849 0.924225 0.000000
0.993134 0.924225 0.000000
1.000000 0.924225 0.000000
0.000000 0.941711 0.000000
0.000000 0.941711 0.000000
0.003113 0.941711 0.000000
0.030548 0.941711 0.000000
0.058075 0.941711 0.000000
0.084991 0.941711 0.000000
0.120178 0.941711 0.000000
0.157196 0.941711 0.000000
0.194977 0.941711 0.000000
0.239288 0.941711 0.000000
0.286285 0.941711 0.000000
0.336243 0.941711 0.000000
0.388672 0.941711 0.000000
0.443604 0.941711 0.000000
0.499542 0.941711 0.000000
0.552185 0.941711 0.000000
0.605560 0.941711 0.000000
0.657593 0.941711 0.000000
0.703094 0.941711 0.000000
0.746460 0.941711 0.000000
0.784668 0.941711 0.000000
0.820099 0.941711 0.000000
0.852600 0.941711 0.000000
0.881134 0.941711 0.000000
0.903687 0.941711 0.000000
0.924225 0.941711 0.000000
0.941711 0.941711 0.000000
0.958771 0.941711 0.000000
0.969727 0.941711 0.000000
0.982849 0.941711 0.000000
0.993134 0.941711 0.000000
1.000000 0.941711 0.000000
0.000000 0.958771 0.000000
0.000000 0.958771 0.000000
0.003113 0.958771 0.000000
0.030548 0.958771 0.000000
0.058075 0.958771 0.000000
0.084991 0.958771 0.000000
0.120178 0.958771 0.000000
0.157196 0.958771 0.000000
0.194977 0.958771 0.000000
0.239288 0.958771 0.000000
0.286285 0.958771 0.000000
0.336243 0.958771 0.000000
0.388672 0.958771 0.000000
0.443604 0.958771 0.000000
0.499542 0.958771 0.000000
0.552185 0.958771 0.000000
0.605560 0.958771 0.000000
