Postproduction/IWLTBAP - Humble/LUTs by IWLTBAP (CUBE)/UTILITY/REDlog to Rec.709/U-REDLOG-V1-LTR.cube
# Copyright: (C) Copyright 2010-2018 by IWLTBAP SAS
# Cannot be resold, shared or otherwise redistributed
# Website: https://luts.iwltbap.com
TITLE "REDLog Version 1 (Utility LOG to Rec.709)"
LUT_3D_SIZE 5
DOMAIN_MIN 0.000000 0.000000 0.000000
DOMAIN_MAX 0.903226 0.903226 0.903226
0.000000 0.000000 0.000000
0.157196 0.000000 0.000000
0.499542 0.000000 0.000000
0.820099 0.000000 0.000000
0.969727 0.000000 0.000000
0.000000 0.157196 0.000000
0.157196 0.157196 0.000000
0.499542 0.157196 0.000000
0.820099 0.157196 0.000000
0.969727 0.157196 0.000000
0.000000 0.499542 0.000000
0.157196 0.499542 0.000000
0.499542 0.499542 0.000000
0.820099 0.499542 0.000000
0.969727 0.499542 0.000000
0.000000 0.820099 0.000000
0.157196 0.820099 0.000000
0.499542 0.820099 0.000000
0.820099 0.820099 0.000000
0.969727 0.820099 0.000000
0.000000 0.969727 0.000000
0.157196 0.969727 0.000000
0.499542 0.969727 0.000000
0.820099 0.969727 0.000000
0.969727 0.969727 0.000000
0.000000 0.000000 0.157196
0.157196 0.000000 0.157196
0.499542 0.000000 0.157196
0.820099 0.000000 0.157196
0.969727 0.000000 0.157196
0.000000 0.157196 0.157196
0.157196 0.157196 0.157196
0.499542 0.157196 0.157196
0.820099 0.157196 0.157196
0.969727 0.157196 0.157196
0.000000 0.499542 0.157196
0.157196 0.499542 0.157196
0.499542 0.499542 0.157196
0.820099 0.499542 0.157196
0.969727 0.499542 0.157196
0.000000 0.820099 0.157196
0.157196 0.820099 0.157196
0.499542 0.820099 0.157196
0.820099 0.820099 0.157196
0.969727 0.820099 0.157196
0.000000 0.969727 0.157196
0.157196 0.969727 0.157196
0.499542 0.969727 0.157196
0.820099 0.969727 0.157196
0.969727 0.969727 0.157196
0.000000 0.000000 0.499542
0.157196 0.000000 0.499542
0.499542 0.000000 0.499542
0.820099 0.000000 0.499542
0.969727 0.000000 0.499542
0.000000 0.157196 0.499542
0.157196 0.157196 0.499542
0.499542 0.157196 0.499542
0.820099 0.157196 0.499542
0.969727 0.157196 0.499542
0.000000 0.499542 0.499542
0.157196 0.499542 0.499542
0.499542 0.499542 0.499542
0.820099 0.499542 0.499542
0.969727 0.499542 0.499542
0.000000 0.820099 0.499542
0.157196 0.820099 0.499542
0.499542 0.820099 0.499542
0.820099 0.820099 0.499542
0.969727 0.820099 0.499542
0.000000 0.969727 0.499542
0.157196 0.969727 0.499542
0.499542 0.969727 0.499542
0.820099 0.969727 0.499542
0.969727 0.969727 0.499542
0.000000 0.000000 0.820099
0.157196 0.000000 0.820099
0.499542 0.000000 0.820099
0.820099 0.000000 0.820099
0.969727 0.000000 0.820099
0.000000 0.157196 0.820099
0.157196 0.157196 0.820099
0.499542 0.157196 0.820099
0.820099 0.157196 0.820099
0.969727 0.157196 0.820099
0.000000 0.499542 0.820099
0.157196 0.499542 0.820099
0.499542 0.499542 0.820099
0.820099 0.499542 0.820099
0.969727 0.499542 0.820099
0.000000 0.820099 0.820099
0.157196 0.820099 0.820099
0.499542 0.820099 0.820099
0.820099 0.820099 0.820099
0.969727 0.820099 0.820099
0.000000 0.969727 0.820099
0.157196 0.969727 0.820099
0.499542 0.969727 0.820099
0.820099 0.969727 0.820099
0.969727 0.969727 0.820099
0.000000 0.000000 0.969727
0.157196 0.000000 0.969727
0.499542 0.000000 0.969727
0.820099 0.000000 0.969727
0.969727 0.000000 0.969727
0.000000 0.157196 0.969727
0.157196 0.157196 0.969727
0.499542 0.157196 0.969727
0.820099 0.157196 0.969727
0.969727 0.157196 0.969727
0.000000 0.499542 0.969727
0.157196 0.499542 0.969727
0.499542 0.499542 0.969727
0.820099 0.499542 0.969727
0.969727 0.499542 0.969727
0.000000 0.820099 0.969727
0.157196 0.820099 0.969727
0.499542 0.820099 0.969727
0.820099 0.820099 0.969727
0.969727 0.820099 0.969727
0.000000 0.969727 0.969727
0.157196 0.969727 0.969727
0.499542 0.969727 0.969727
0.820099 0.969727 0.969727
0.969727 0.969727 0.969727
