Postproduction/IWLTBAP - Humble/LUTs by IWLTBAP (CUBE)/UTILITY/REDlog to Rec.709/U-REDLOG-V2-LTR.cube
# Copyright: (C) Copyright 2010-2018 by IWLTBAP SAS
# Cannot be resold, shared or otherwise redistributed
# Website: https://luts.iwltbap.com
TITLE "REDLog Version 2 (Utility LOG to Rec.709)"
LUT_3D_SIZE 32
0.000000 0.000000 0.000000
0.000000 0.000000 0.000000
0.000000 0.000000 0.000000
0.000580 0.000000 0.000000
0.021759 0.000000 0.000000
0.043701 0.000000 0.000000
0.073669 0.000000 0.000000
0.106354 0.000000 0.000000
0.140717 0.000000 0.000000
0.181976 0.000000 0.000000
0.226837 0.000000 0.000000
0.275452 0.000000 0.000000
0.327454 0.000000 0.000000
0.382812 0.000000 0.000000
0.440063 0.000000 0.000000
0.494598 0.000000 0.000000
0.550598 0.000000 0.000000
0.605743 0.000000 0.000000
0.654419 0.000000 0.000000
0.701141 0.000000 0.000000
0.742584 0.000000 0.000000
0.781219 0.000000 0.000000
0.816833 0.000000 0.000000
0.848236 0.000000 0.000000
0.873138 0.000000 0.000000
0.895905 0.000000 0.000000
0.915344 0.000000 0.000000
0.934296 0.000000 0.000000
0.946533 0.000000 0.000000
0.961182 0.000000 0.000000
0.972687 0.000000 0.000000
0.980377 0.000000 0.000000
0.000000 0.000000 0.000000
0.000000 0.000000 0.000000
0.000000 0.000000 0.000000
0.000580 0.000000 0.000000
0.021759 0.000000 0.000000
0.043701 0.000000 0.000000
0.073669 0.000000 0.000000
0.106354 0.000000 0.000000
0.140717 0.000000 0.000000
0.181976 0.000000 0.000000
0.226837 0.000000 0.000000
0.275452 0.000000 0.000000
0.327454 0.000000 0.000000
0.382812 0.000000 0.000000
0.440063 0.000000 0.000000
0.494598 0.000000 0.000000
0.550598 0.000000 0.000000
0.605743 0.000000 0.000000
0.654419 0.000000 0.000000
0.701141 0.000000 0.000000
0.742584 0.000000 0.000000
0.781219 0.000000 0.000000
0.816833 0.000000 0.000000
0.848236 0.000000 0.000000
0.873138 0.000000 0.000000
0.895905 0.000000 0.000000
0.915344 0.000000 0.000000
0.934296 0.000000 0.000000
0.946533 0.000000 0.000000
0.961182 0.000000 0.000000
0.972687 0.000000 0.000000
0.980377 0.000000 0.000000
0.000000 0.000000 0.000000
0.000000 0.000000 0.000000
0.000000 0.000000 0.000000
0.000580 0.000000 0.000000
0.021759 0.000000 0.000000
0.043701 0.000000 0.000000
0.073669 0.000000 0.000000
0.106354 0.000000 0.000000
0.140717 0.000000 0.000000
0.181976 0.000000 0.000000
0.226837 0.000000 0.000000
0.275452 0.000000 0.000000
0.327454 0.000000 0.000000
0.382812 0.000000 0.000000
0.440063 0.000000 0.000000
0.494598 0.000000 0.000000
0.550598 0.000000 0.000000
0.605743 0.000000 0.000000
0.654419 0.000000 0.000000
0.701141 0.000000 0.000000
0.742584 0.000000 0.000000
0.781219 0.000000 0.000000
0.816833 0.000000 0.000000
0.848236 0.000000 0.000000
0.873138 0.000000 0.000000
0.895905 0.000000 0.000000
0.915344 0.000000 0.000000
0.934296 0.000000 0.000000
0.946533 0.000000 0.000000
0.961182 0.000000 0.000000
0.972687 0.000000 0.000000
0.980377 0.000000 0.000000
0.000000 0.000580 0.000000
0.000000 0.000580 0.000000
0.000000 0.000580 0.000000
0.000580 0.000580 0.000000
0.021759 0.000580 0.000000
0.043701 0.000580 0.000000
0.073669 0.000580 0.000000
0.106354 0.000580 0.000000
0.140717 0.000580 0.000000
0.181976 0.000580 0.000000
0.226837 0.000580 0.000000
0.275452 0.000580 0.000000
0.327454 0.000580 0.000000
0.382812 0.000580 0.000000
0.440063 0.000580 0.000000
0.494598 0.000580 0.000000
0.550598 0.000580 0.000000
0.605743 0.000580 0.000000
0.654419 0.000580 0.000000
0.701141 0.000580 0.000000
0.742584 0.000580 0.000000
0.781219 0.000580 0.000000
0.816833 0.000580 0.000000
0.848236 0.000580 0.000000
0.873138 0.000580 0.000000
0.895905 0.000580 0.000000
0.915344 0.000580 0.000000
0.934296 0.000580 0.000000
0.946533 0.000580 0.000000
0.961182 0.000580 0.000000
0.972687 0.000580 0.000000
0.980377 0.000580 0.000000
0.000000 0.021759 0.000000
0.000000 0.021759 0.000000
0.000000 0.021759 0.000000
0.000580 0.021759 0.000000
0.021759 0.021759 0.000000
0.043701 0.021759 0.000000
0.073669 0.021759 0.000000
0.106354 0.021759 0.000000
0.140717 0.021759 0.000000
0.181976 0.021759 0.000000
0.226837 0.021759 0.000000
0.275452 0.021759 0.000000
0.327454 0.021759 0.000000
0.382812 0.021759 0.000000
0.440063 0.021759 0.000000
0.494598 0.021759 0.000000
0.550598 0.021759 0.000000
0.605743 0.021759 0.000000
0.654419 0.021759 0.000000
0.701141 0.021759 0.000000
0.742584 0.021759 0.000000
0.781219 0.021759 0.000000
0.816833 0.021759 0.000000
0.848236 0.021759 0.000000
0.873138 0.021759 0.000000
0.895905 0.021759 0.000000
0.915344 0.021759 0.000000
0.934296 0.021759 0.000000
0.946533 0.021759 0.000000
0.961182 0.021759 0.000000
0.972687 0.021759 0.000000
0.980377 0.021759 0.000000
0.000000 0.043701 0.000000
0.000000 0.043701 0.000000
0.000000 0.043701 0.000000
0.000580 0.043701 0.000000
0.021759 0.043701 0.000000
0.043701 0.043701 0.000000
0.073669 0.043701 0.000000
0.106354 0.043701 0.000000
0.140717 0.043701 0.000000
0.181976 0.043701 0.000000
0.226837 0.043701 0.000000
0.275452 0.043701 0.000000
0.327454 0.043701 0.000000
0.382812 0.043701 0.000000
0.440063 0.043701 0.000000
0.494598 0.043701 0.000000
0.550598 0.043701 0.000000
0.605743 0.043701 0.000000
0.654419 0.043701 0.000000
0.701141 0.043701 0.000000
0.742584 0.043701 0.000000
0.781219 0.043701 0.000000
0.816833 0.043701 0.000000
0.848236 0.043701 0.000000
0.873138 0.043701 0.000000
0.895905 0.043701 0.000000
0.915344 0.043701 0.000000
0.934296 0.043701 0.000000
0.946533 0.043701 0.000000
0.961182 0.043701 0.000000
0.972687 0.043701 0.000000
0.980377 0.043701 0.000000
0.000000 0.073669 0.000000
0.000000 0.073669 0.000000
0.000000 0.073669 0.000000
0.000580 0.073669 0.000000
0.021759 0.073669 0.000000
0.043701 0.073669 0.000000
0.073669 0.073669 0.000000
0.106354 0.073669 0.000000
0.140717 0.073669 0.000000
0.181976 0.073669 0.000000
0.226837 0.073669 0.000000
0.275452 0.073669 0.000000
0.327454 0.073669 0.000000
0.382812 0.073669 0.000000
0.440063 0.073669 0.000000
0.494598 0.073669 0.000000
0.550598 0.073669 0.000000
0.605743 0.073669 0.000000
0.654419 0.073669 0.000000
0.701141 0.073669 0.000000
0.742584 0.073669 0.000000
0.781219 0.073669 0.000000
0.816833 0.073669 0.000000
0.848236 0.073669 0.000000
0.873138 0.073669 0.000000
0.895905 0.073669 0.000000
0.915344 0.073669 0.000000
0.934296 0.073669 0.000000
0.946533 0.073669 0.000000
0.961182 0.073669 0.000000
0.972687 0.073669 0.000000
0.980377 0.073669 0.000000
0.000000 0.106354 0.000000
0.000000 0.106354 0.000000
0.000000 0.106354 0.000000
0.000580 0.106354 0.000000
0.021759 0.106354 0.000000
0.043701 0.106354 0.000000
0.073669 0.106354 0.000000
0.106354 0.106354 0.000000
0.140717 0.106354 0.000000
0.181976 0.106354 0.000000
0.226837 0.106354 0.000000
0.275452 0.106354 0.000000
0.327454 0.106354 0.000000
0.382812 0.106354 0.000000
0.440063 0.106354 0.000000
0.494598 0.106354 0.000000
0.550598 0.106354 0.000000
0.605743 0.106354 0.000000
0.654419 0.106354 0.000000
0.701141 0.106354 0.000000
0.742584 0.106354 0.000000
0.781219 0.106354 0.000000
0.816833 0.106354 0.000000
0.848236 0.106354 0.000000
0.873138 0.106354 0.000000
0.895905 0.106354 0.000000
0.915344 0.106354 0.000000
0.934296 0.106354 0.000000
0.946533 0.106354 0.000000
0.961182 0.106354 0.000000
0.972687 0.106354 0.000000
0.980377 0.106354 0.000000
0.000000 0.140717 0.000000
0.000000 0.140717 0.000000
0.000000 0.140717 0.000000
0.000580 0.140717 0.000000
0.021759 0.140717 0.000000
0.043701 0.140717 0.000000
0.073669 0.140717 0.000000
0.106354 0.140717 0.000000
0.140717 0.140717 0.000000
0.181976 0.140717 0.000000
0.226837 0.140717 0.000000
0.275452 0.140717 0.000000
0.327454 0.140717 0.000000
0.382812 0.140717 0.000000
0.440063 0.140717 0.000000
0.494598 0.140717 0.000000
0.550598 0.140717 0.000000
0.605743 0.140717 0.000000
0.654419 0.140717 0.000000
0.701141 0.140717 0.000000
0.742584 0.140717 0.000000
0.781219 0.140717 0.000000
0.816833 0.140717 0.000000
0.848236 0.140717 0.000000
0.873138 0.140717 0.000000
0.895905 0.140717 0.000000
0.915344 0.140717 0.000000
0.934296 0.140717 0.000000
0.946533 0.140717 0.000000
0.961182 0.140717 0.000000
0.972687 0.140717 0.000000
0.980377 0.140717 0.000000
0.000000 0.181976 0.000000
0.000000 0.181976 0.000000
0.000000 0.181976 0.000000
0.000580 0.181976 0.000000
0.021759 0.181976 0.000000
0.043701 0.181976 0.000000
0.073669 0.181976 0.000000
0.106354 0.181976 0.000000
0.140717 0.181976 0.000000
0.181976 0.181976 0.000000
0.226837 0.181976 0.000000
0.275452 0.181976 0.000000
0.327454 0.181976 0.000000
0.382812 0.181976 0.000000
0.440063 0.181976 0.000000
0.494598 0.181976 0.000000
0.550598 0.181976 0.000000
0.605743 0.181976 0.000000
0.654419 0.181976 0.000000
0.701141 0.181976 0.000000
0.742584 0.181976 0.000000
0.781219 0.181976 0.000000
0.816833 0.181976 0.000000
0.848236 0.181976 0.000000
0.873138 0.181976 0.000000
0.895905 0.181976 0.000000
0.915344 0.181976 0.000000
0.934296 0.181976 0.000000
0.946533 0.181976 0.000000
0.961182 0.181976 0.000000
0.972687 0.181976 0.000000
0.980377 0.181976 0.000000
0.000000 0.226837 0.000000
0.000000 0.226837 0.000000
0.000000 0.226837 0.000000
0.000580 0.226837 0.000000
0.021759 0.226837 0.000000
0.043701 0.226837 0.000000
0.073669 0.226837 0.000000
0.106354 0.226837 0.000000
0.140717 0.226837 0.000000
0.181976 0.226837 0.000000
0.226837 0.226837 0.000000
0.275452 0.226837 0.000000
0.327454 0.226837 0.000000
0.382812 0.226837 0.000000
0.440063 0.226837 0.000000
0.494598 0.226837 0.000000
0.550598 0.226837 0.000000
0.605743 0.226837 0.000000
0.654419 0.226837 0.000000
0.701141 0.226837 0.000000
0.742584 0.226837 0.000000
0.781219 0.226837 0.000000
0.816833 0.226837 0.000000
0.848236 0.226837 0.000000
0.873138 0.226837 0.000000
0.895905 0.226837 0.000000
0.915344 0.226837 0.000000
0.934296 0.226837 0.000000
0.946533 0.226837 0.000000
0.961182 0.226837 0.000000
0.972687 0.226837 0.000000
0.980377 0.226837 0.000000
0.000000 0.275452 0.000000
0.000000 0.275452 0.000000
0.000000 0.275452 0.000000
0.000580 0.275452 0.000000
0.021759 0.275452 0.000000
0.043701 0.275452 0.000000
0.073669 0.275452 0.000000
0.106354 0.275452 0.000000
0.140717 0.275452 0.000000
0.181976 0.275452 0.000000
0.226837 0.275452 0.000000
0.275452 0.275452 0.000000
0.327454 0.275452 0.000000
0.382812 0.275452 0.000000
0.440063 0.275452 0.000000
0.494598 0.275452 0.000000
0.550598 0.275452 0.000000
0.605743 0.275452 0.000000
0.654419 0.275452 0.000000
0.701141 0.275452 0.000000
0.742584 0.275452 0.000000
0.781219 0.275452 0.000000
0.816833 0.275452 0.000000
0.848236 0.275452 0.000000
0.873138 0.275452 0.000000
0.895905 0.275452 0.000000
0.915344 0.275452 0.000000
0.934296 0.275452 0.000000
0.946533 0.275452 0.000000
0.961182 0.275452 0.000000
0.972687 0.275452 0.000000
0.980377 0.275452 0.000000
0.000000 0.327454 0.000000
0.000000 0.327454 0.000000
0.000000 0.327454 0.000000
0.000580 0.327454 0.000000
0.021759 0.327454 0.000000
0.043701 0.327454 0.000000
0.073669 0.327454 0.000000
0.106354 0.327454 0.000000
0.140717 0.327454 0.000000
0.181976 0.327454 0.000000
0.226837 0.327454 0.000000
0.275452 0.327454 0.000000
0.327454 0.327454 0.000000
0.382812 0.327454 0.000000
0.440063 0.327454 0.000000
0.494598 0.327454 0.000000
0.550598 0.327454 0.000000
0.605743 0.327454 0.000000
0.654419 0.327454 0.000000
0.701141 0.327454 0.000000
0.742584 0.327454 0.000000
0.781219 0.327454 0.000000
0.816833 0.327454 0.000000
0.848236 0.327454 0.000000
0.873138 0.327454 0.000000
0.895905 0.327454 0.000000
0.915344 0.327454 0.000000
0.934296 0.327454 0.000000
0.946533 0.327454 0.000000
0.961182 0.327454 0.000000
0.972687 0.327454 0.000000
0.980377 0.327454 0.000000
0.000000 0.382812 0.000000
0.000000 0.382812 0.000000
0.000000 0.382812 0.000000
0.000580 0.382812 0.000000
0.021759 0.382812 0.000000
0.043701 0.382812 0.000000
0.073669 0.382812 0.000000
0.106354 0.382812 0.000000
0.140717 0.382812 0.000000
0.181976 0.382812 0.000000
0.226837 0.382812 0.000000
0.275452 0.382812 0.000000
0.327454 0.382812 0.000000
0.382812 0.382812 0.000000
0.440063 0.382812 0.000000
0.494598 0.382812 0.000000
0.550598 0.382812 0.000000
0.605743 0.382812 0.000000
0.654419 0.382812 0.000000
0.701141 0.382812 0.000000
0.742584 0.382812 0.000000
0.781219 0.382812 0.000000
0.816833 0.382812 0.000000
0.848236 0.382812 0.000000
0.873138 0.382812 0.000000
0.895905 0.382812 0.000000
0.915344 0.382812 0.000000
0.934296 0.382812 0.000000
0.946533 0.382812 0.000000
0.961182 0.382812 0.000000
0.972687 0.382812 0.000000
0.980377 0.382812 0.000000
0.000000 0.440063 0.000000
0.000000 0.440063 0.000000
0.000000 0.440063 0.000000
0.000580 0.440063 0.000000
0.021759 0.440063 0.000000
0.043701 0.440063 0.000000
0.073669 0.440063 0.000000
0.106354 0.440063 0.000000
0.140717 0.440063 0.000000
0.181976 0.440063 0.000000
0.226837 0.440063 0.000000
0.275452 0.440063 0.000000
0.327454 0.440063 0.000000
0.382812 0.440063 0.000000
0.440063 0.440063 0.000000
0.494598 0.440063 0.000000
0.550598 0.440063 0.000000
0.605743 0.440063 0.000000
0.654419 0.440063 0.000000
0.701141 0.440063 0.000000
0.742584 0.440063 0.000000
0.781219 0.440063 0.000000
0.816833 0.440063 0.000000
0.848236 0.440063 0.000000
0.873138 0.440063 0.000000
0.895905 0.440063 0.000000
0.915344 0.440063 0.000000
0.934296 0.440063 0.000000
0.946533 0.440063 0.000000
0.961182 0.440063 0.000000
0.972687 0.440063 0.000000
0.980377 0.440063 0.000000
0.000000 0.494598 0.000000
0.000000 0.494598 0.000000
0.000000 0.494598 0.000000
0.000580 0.494598 0.000000
0.021759 0.494598 0.000000
0.043701 0.494598 0.000000
0.073669 0.494598 0.000000
0.106354 0.494598 0.000000
0.140717 0.494598 0.000000
0.181976 0.494598 0.000000
0.226837 0.494598 0.000000
0.275452 0.494598 0.000000
0.327454 0.494598 0.000000
0.382812 0.494598 0.000000
0.440063 0.494598 0.000000
0.494598 0.494598 0.000000
0.550598 0.494598 0.000000
0.605743 0.494598 0.000000
0.654419 0.494598 0.000000
0.701141 0.494598 0.000000
0.742584 0.494598 0.000000
0.781219 0.494598 0.000000
0.816833 0.494598 0.000000
0.848236 0.494598 0.000000
0.873138 0.494598 0.000000
0.895905 0.494598 0.000000
0.915344 0.494598 0.000000
0.934296 0.494598 0.000000
0.946533 0.494598 0.000000
0.961182 0.494598 0.000000
0.972687 0.494598 0.000000
0.980377 0.494598 0.000000
0.000000 0.550598 0.000000
0.000000 0.550598 0.000000
0.000000 0.550598 0.000000
0.000580 0.550598 0.000000
0.021759 0.550598 0.000000
0.043701 0.550598 0.000000
0.073669 0.550598 0.000000
0.106354 0.550598 0.000000
0.140717 0.550598 0.000000
0.181976 0.550598 0.000000
0.226837 0.550598 0.000000
0.275452 0.550598 0.000000
0.327454 0.550598 0.000000
0.382812 0.550598 0.000000
0.440063 0.550598 0.000000
0.494598 0.550598 0.000000
0.550598 0.550598 0.000000
0.605743 0.550598 0.000000
0.654419 0.550598 0.000000
0.701141 0.550598 0.000000
0.742584 0.550598 0.000000
0.781219 0.550598 0.000000
0.816833 0.550598 0.000000
0.848236 0.550598 0.000000
0.873138 0.550598 0.000000
0.895905 0.550598 0.000000
0.915344 0.550598 0.000000
0.934296 0.550598 0.000000
0.946533 0.550598 0.000000
0.961182 0.550598 0.000000
0.972687 0.550598 0.000000
0.980377 0.550598 0.000000
0.000000 0.605743 0.000000
0.000000 0.605743 0.000000
0.000000 0.605743 0.000000
0.000580 0.605743 0.000000
0.021759 0.605743 0.000000
0.043701 0.605743 0.000000
0.073669 0.605743 0.000000
0.106354 0.605743 0.000000
0.140717 0.605743 0.000000
0.181976 0.605743 0.000000
0.226837 0.605743 0.000000
0.275452 0.605743 0.000000
0.327454 0.605743 0.000000
0.382812 0.605743 0.000000
0.440063 0.605743 0.000000
0.494598 0.605743 0.000000
0.550598 0.605743 0.000000
0.605743 0.605743 0.000000
0.654419 0.605743 0.000000
0.701141 0.605743 0.000000
0.742584 0.605743 0.000000
0.781219 0.605743 0.000000
0.816833 0.605743 0.000000
0.848236 0.605743 0.000000
0.873138 0.605743 0.000000
0.895905 0.605743 0.000000
0.915344 0.605743 0.000000
0.934296 0.605743 0.000000
0.946533 0.605743 0.000000
0.961182 0.605743 0.000000
0.972687 0.605743 0.000000
0.980377 0.605743 0.000000
0.000000 0.654419 0.000000
0.000000 0.654419 0.000000
0.000000 0.654419 0.000000
0.000580 0.654419 0.000000
0.021759 0.654419 0.000000
0.043701 0.654419 0.000000
0.073669 0.654419 0.000000
0.106354 0.654419 0.000000
0.140717 0.654419 0.000000
0.181976 0.654419 0.000000
0.226837 0.654419 0.000000
0.275452 0.654419 0.000000
0.327454 0.654419 0.000000
0.382812 0.654419 0.000000
0.440063 0.654419 0.000000
0.494598 0.654419 0.000000
0.550598 0.654419 0.000000
0.605743 0.654419 0.000000
0.654419 0.654419 0.000000
0.701141 0.654419 0.000000
0.742584 0.654419 0.000000
0.781219 0.654419 0.000000
0.816833 0.654419 0.000000
0.848236 0.654419 0.000000
0.873138 0.654419 0.000000
0.895905 0.654419 0.000000
0.915344 0.654419 0.000000
0.934296 0.654419 0.000000
0.946533 0.654419 0.000000
0.961182 0.654419 0.000000
0.972687 0.654419 0.000000
0.980377 0.654419 0.000000
0.000000 0.701141 0.000000
0.000000 0.701141 0.000000
0.000000 0.701141 0.000000
0.000580 0.701141 0.000000
0.021759 0.701141 0.000000
0.043701 0.701141 0.000000
0.073669 0.701141 0.000000
0.106354 0.701141 0.000000
0.140717 0.701141 0.000000
0.181976 0.701141 0.000000
0.226837 0.701141 0.000000
0.275452 0.701141 0.000000
0.327454 0.701141 0.000000
0.382812 0.701141 0.000000
0.440063 0.701141 0.000000
0.494598 0.701141 0.000000
0.550598 0.701141 0.000000
0.605743 0.701141 0.000000
0.654419 0.701141 0.000000
0.701141 0.701141 0.000000
0.742584 0.701141 0.000000
0.781219 0.701141 0.000000
0.816833 0.701141 0.000000
0.848236 0.701141 0.000000
0.873138 0.701141 0.000000
0.895905 0.701141 0.000000
0.915344 0.701141 0.000000
0.934296 0.701141 0.000000
0.946533 0.701141 0.000000
0.961182 0.701141 0.000000
0.972687 0.701141 0.000000
0.980377 0.701141 0.000000
0.000000 0.742584 0.000000
0.000000 0.742584 0.000000
0.000000 0.742584 0.000000
0.000580 0.742584 0.000000
0.021759 0.742584 0.000000
0.043701 0.742584 0.000000
0.073669 0.742584 0.000000
0.106354 0.742584 0.000000
0.140717 0.742584 0.000000
0.181976 0.742584 0.000000
0.226837 0.742584 0.000000
0.275452 0.742584 0.000000
0.327454 0.742584 0.000000
0.382812 0.742584 0.000000
0.440063 0.742584 0.000000
0.494598 0.742584 0.000000
0.550598 0.742584 0.000000
0.605743 0.742584 0.000000
0.654419 0.742584 0.000000
0.701141 0.742584 0.000000
0.742584 0.742584 0.000000
0.781219 0.742584 0.000000
0.816833 0.742584 0.000000
0.848236 0.742584 0.000000
0.873138 0.742584 0.000000
0.895905 0.742584 0.000000
0.915344 0.742584 0.000000
0.934296 0.742584 0.000000
0.946533 0.742584 0.000000
0.961182 0.742584 0.000000
0.972687 0.742584 0.000000
0.980377 0.742584 0.000000
0.000000 0.781219 0.000000
0.000000 0.781219 0.000000
0.000000 0.781219 0.000000
0.000580 0.781219 0.000000
0.021759 0.781219 0.000000
0.043701 0.781219 0.000000
0.073669 0.781219 0.000000
0.106354 0.781219 0.000000
0.140717 0.781219 0.000000
0.181976 0.781219 0.000000
0.226837 0.781219 0.000000
0.275452 0.781219 0.000000
0.327454 0.781219 0.000000
0.382812 0.781219 0.000000
0.440063 0.781219 0.000000
0.494598 0.781219 0.000000
0.550598 0.781219 0.000000
0.605743 0.781219 0.000000
0.654419 0.781219 0.000000
0.701141 0.781219 0.000000
0.742584 0.781219 0.000000
0.781219 0.781219 0.000000
0.816833 0.781219 0.000000
0.848236 0.781219 0.000000
0.873138 0.781219 0.000000
0.895905 0.781219 0.000000
0.915344 0.781219 0.000000
0.934296 0.781219 0.000000
0.946533 0.781219 0.000000
0.961182 0.781219 0.000000
0.972687 0.781219 0.000000
0.980377 0.781219 0.000000
0.000000 0.816833 0.000000
0.000000 0.816833 0.000000
0.000000 0.816833 0.000000
0.000580 0.816833 0.000000
0.021759 0.816833 0.000000
0.043701 0.816833 0.000000
0.073669 0.816833 0.000000
0.106354 0.816833 0.000000
0.140717 0.816833 0.000000
0.181976 0.816833 0.000000
0.226837 0.816833 0.000000
0.275452 0.816833 0.000000
0.327454 0.816833 0.000000
0.382812 0.816833 0.000000
0.440063 0.816833 0.000000
0.494598 0.816833 0.000000
0.550598 0.816833 0.000000
0.605743 0.816833 0.000000
0.654419 0.816833 0.000000
0.701141 0.816833 0.000000
0.742584 0.816833 0.000000
0.781219 0.816833 0.000000
0.816833 0.816833 0.000000
0.848236 0.816833 0.000000
0.873138 0.816833 0.000000
0.895905 0.816833 0.000000
0.915344 0.816833 0.000000
0.934296 0.816833 0.000000
0.946533 0.816833 0.000000
0.961182 0.816833 0.000000
0.972687 0.816833 0.000000
0.980377 0.816833 0.000000
0.000000 0.848236 0.000000
0.000000 0.848236 0.000000
0.000000 0.848236 0.000000
0.000580 0.848236 0.000000
0.021759 0.848236 0.000000
0.043701 0.848236 0.000000
0.073669 0.848236 0.000000
0.106354 0.848236 0.000000
0.140717 0.848236 0.000000
0.181976 0.848236 0.000000
0.226837 0.848236 0.000000
0.275452 0.848236 0.000000
0.327454 0.848236 0.000000
0.382812 0.848236 0.000000
0.440063 0.848236 0.000000
0.494598 0.848236 0.000000
0.550598 0.848236 0.000000
0.605743 0.848236 0.000000
0.654419 0.848236 0.000000
0.701141 0.848236 0.000000
0.742584 0.848236 0.000000
0.781219 0.848236 0.000000
0.816833 0.848236 0.000000
0.848236 0.848236 0.000000
0.873138 0.848236 0.000000
0.895905 0.848236 0.000000
0.915344 0.848236 0.000000
0.934296 0.848236 0.000000
0.946533 0.848236 0.000000
0.961182 0.848236 0.000000
0.972687 0.848236 0.000000
0.980377 0.848236 0.000000
0.000000 0.873138 0.000000
0.000000 0.873138 0.000000
0.000000 0.873138 0.000000
0.000580 0.873138 0.000000
0.021759 0.873138 0.000000
0.043701 0.873138 0.000000
0.073669 0.873138 0.000000
0.106354 0.873138 0.000000
0.140717 0.873138 0.000000
0.181976 0.873138 0.000000
0.226837 0.873138 0.000000
0.275452 0.873138 0.000000
0.327454 0.873138 0.000000
0.382812 0.873138 0.000000
0.440063 0.873138 0.000000
0.494598 0.873138 0.000000
0.550598 0.873138 0.000000
0.605743 0.873138 0.000000
0.654419 0.873138 0.000000
0.701141 0.873138 0.000000
0.742584 0.873138 0.000000
0.781219 0.873138 0.000000
0.816833 0.873138 0.000000
0.848236 0.873138 0.000000
0.873138 0.873138 0.000000
0.895905 0.873138 0.000000
0.915344 0.873138 0.000000
0.934296 0.873138 0.000000
0.946533 0.873138 0.000000
0.961182 0.873138 0.000000
0.972687 0.873138 0.000000
0.980377 0.873138 0.000000
0.000000 0.895905 0.000000
0.000000 0.895905 0.000000
0.000000 0.895905 0.000000
0.000580 0.895905 0.000000
0.021759 0.895905 0.000000
0.043701 0.895905 0.000000
0.073669 0.895905 0.000000
0.106354 0.895905 0.000000
0.140717 0.895905 0.000000
0.181976 0.895905 0.000000
0.226837 0.895905 0.000000
0.275452 0.895905 0.000000
0.327454 0.895905 0.000000
0.382812 0.895905 0.000000
0.440063 0.895905 0.000000
0.494598 0.895905 0.000000
0.550598 0.895905 0.000000
0.605743 0.895905 0.000000
0.654419 0.895905 0.000000
0.701141 0.895905 0.000000
0.742584 0.895905 0.000000
0.781219 0.895905 0.000000
0.816833 0.895905 0.000000
0.848236 0.895905 0.000000
0.873138 0.895905 0.000000
0.895905 0.895905 0.000000
0.915344 0.895905 0.000000
0.934296 0.895905 0.000000
0.946533 0.895905 0.000000
0.961182 0.895905 0.000000
0.972687 0.895905 0.000000
0.980377 0.895905 0.000000
0.000000 0.915344 0.000000
0.000000 0.915344 0.000000
0.000000 0.915344 0.000000
0.000580 0.915344 0.000000
0.021759 0.915344 0.000000
0.043701 0.915344 0.000000
0.073669 0.915344 0.000000
0.106354 0.915344 0.000000
0.140717 0.915344 0.000000
0.181976 0.915344 0.000000
0.226837 0.915344 0.000000
0.275452 0.915344 0.000000
0.327454 0.915344 0.000000
0.382812 0.915344 0.000000
0.440063 0.915344 0.000000
0.494598 0.915344 0.000000
0.550598 0.915344 0.000000
0.605743 0.915344 0.000000
0.654419 0.915344 0.000000
0.701141 0.915344 0.000000
0.742584 0.915344 0.000000
0.781219 0.915344 0.000000
0.816833 0.915344 0.000000
0.848236 0.915344 0.000000
0.873138 0.915344 0.000000
0.895905 0.915344 0.000000
0.915344 0.915344 0.000000
0.934296 0.915344 0.000000
0.946533 0.915344 0.000000
0.961182 0.915344 0.000000
0.972687 0.915344 0.000000
0.980377 0.915344 0.000000
0.000000 0.934296 0.000000
0.000000 0.934296 0.000000
0.000000 0.934296 0.000000
0.000580 0.934296 0.000000
0.021759 0.934296 0.000000
0.043701 0.934296 0.000000
0.073669 0.934296 0.000000
0.106354 0.934296 0.000000
0.140717 0.934296 0.000000
0.181976 0.934296 0.000000
0.226837 0.934296 0.000000
0.275452 0.934296 0.000000
0.327454 0.934296 0.000000
0.382812 0.934296 0.000000
0.440063 0.934296 0.000000
0.494598 0.934296 0.000000
0.550598 0.934296 0.000000
