Postproduction/IWLTBAP - Humble/LUTs by IWLTBAP (CUBE)/UTILITY/REDlog to Rec.709/U-REDLOG-V1-LTR.cube
# Copyright: (C) Copyright 2010-2018 by IWLTBAP SAS
# Cannot be resold, shared or otherwise redistributed
# Website: https://luts.iwltbap.com
TITLE "REDLog Version 1 (Utility LOG to Rec.709)"
LUT_3D_SIZE 8
DOMAIN_MIN 0.000000 0.000000 0.000000
DOMAIN_MAX 0.903226 0.903226 0.903226
0.000000 0.000000 0.000000
0.058075 0.000000 0.000000
0.194977 0.000000 0.000000
0.388672 0.000000 0.000000
0.605560 0.000000 0.000000
0.784668 0.000000 0.000000
0.903687 0.000000 0.000000
0.969727 0.000000 0.000000
0.000000 0.058075 0.000000
0.058075 0.058075 0.000000
0.194977 0.058075 0.000000
0.388672 0.058075 0.000000
0.605560 0.058075 0.000000
0.784668 0.058075 0.000000
0.903687 0.058075 0.000000
0.969727 0.058075 0.000000
0.000000 0.194977 0.000000
0.058075 0.194977 0.000000
0.194977 0.194977 0.000000
0.388672 0.194977 0.000000
0.605560 0.194977 0.000000
0.784668 0.194977 0.000000
0.903687 0.194977 0.000000
0.969727 0.194977 0.000000
0.000000 0.388672 0.000000
0.058075 0.388672 0.000000
0.194977 0.388672 0.000000
0.388672 0.388672 0.000000
0.605560 0.388672 0.000000
0.784668 0.388672 0.000000
0.903687 0.388672 0.000000
0.969727 0.388672 0.000000
0.000000 0.605560 0.000000
0.058075 0.605560 0.000000
0.194977 0.605560 0.000000
0.388672 0.605560 0.000000
0.605560 0.605560 0.000000
0.784668 0.605560 0.000000
0.903687 0.605560 0.000000
0.969727 0.605560 0.000000
0.000000 0.784668 0.000000
0.058075 0.784668 0.000000
0.194977 0.784668 0.000000
0.388672 0.784668 0.000000
0.605560 0.784668 0.000000
0.784668 0.784668 0.000000
0.903687 0.784668 0.000000
0.969727 0.784668 0.000000
0.000000 0.903687 0.000000
0.058075 0.903687 0.000000
0.194977 0.903687 0.000000
0.388672 0.903687 0.000000
0.605560 0.903687 0.000000
0.784668 0.903687 0.000000
0.903687 0.903687 0.000000
0.969727 0.903687 0.000000
0.000000 0.969727 0.000000
0.058075 0.969727 0.000000
0.194977 0.969727 0.000000
0.388672 0.969727 0.000000
0.605560 0.969727 0.000000
0.784668 0.969727 0.000000
0.903687 0.969727 0.000000
0.969727 0.969727 0.000000
0.000000 0.000000 0.058075
0.058075 0.000000 0.058075
0.194977 0.000000 0.058075
0.388672 0.000000 0.058075
0.605560 0.000000 0.058075
0.784668 0.000000 0.058075
0.903687 0.000000 0.058075
0.969727 0.000000 0.058075
0.000000 0.058075 0.058075
0.058075 0.058075 0.058075
0.194977 0.058075 0.058075
0.388672 0.058075 0.058075
0.605560 0.058075 0.058075
0.784668 0.058075 0.058075
0.903687 0.058075 0.058075
0.969727 0.058075 0.058075
0.000000 0.194977 0.058075
0.058075 0.194977 0.058075
0.194977 0.194977 0.058075
0.388672 0.194977 0.058075
0.605560 0.194977 0.058075
0.784668 0.194977 0.058075
0.903687 0.194977 0.058075
0.969727 0.194977 0.058075
0.000000 0.388672 0.058075
0.058075 0.388672 0.058075
0.194977 0.388672 0.058075
0.388672 0.388672 0.058075
0.605560 0.388672 0.058075
0.784668 0.388672 0.058075
0.903687 0.388672 0.058075
0.969727 0.388672 0.058075
0.000000 0.605560 0.058075
0.058075 0.605560 0.058075
0.194977 0.605560 0.058075
0.388672 0.605560 0.058075
0.605560 0.605560 0.058075
0.784668 0.605560 0.058075
0.903687 0.605560 0.058075
0.969727 0.605560 0.058075
0.000000 0.784668 0.058075
0.058075 0.784668 0.058075
0.194977 0.784668 0.058075
0.388672 0.784668 0.058075
0.605560 0.784668 0.058075
0.784668 0.784668 0.058075
0.903687 0.784668 0.058075
0.969727 0.784668 0.058075
0.000000 0.903687 0.058075
0.058075 0.903687 0.058075
0.194977 0.903687 0.058075
0.388672 0.903687 0.058075
0.605560 0.903687 0.058075
0.784668 0.903687 0.058075
0.903687 0.903687 0.058075
0.969727 0.903687 0.058075
0.000000 0.969727 0.058075
0.058075 0.969727 0.058075
0.194977 0.969727 0.058075
0.388672 0.969727 0.058075
0.605560 0.969727 0.058075
0.784668 0.969727 0.058075
0.903687 0.969727 0.058075
0.969727 0.969727 0.058075
0.000000 0.000000 0.194977
0.058075 0.000000 0.194977
0.194977 0.000000 0.194977
0.388672 0.000000 0.194977
0.605560 0.000000 0.194977
0.784668 0.000000 0.194977
0.903687 0.000000 0.194977
0.969727 0.000000 0.194977
0.000000 0.058075 0.194977
0.058075 0.058075 0.194977
0.194977 0.058075 0.194977
0.388672 0.058075 0.194977
0.605560 0.058075 0.194977
0.784668 0.058075 0.194977
0.903687 0.058075 0.194977
0.969727 0.058075 0.194977
0.000000 0.194977 0.194977
0.058075 0.194977 0.194977
0.194977 0.194977 0.194977
0.388672 0.194977 0.194977
0.605560 0.194977 0.194977
0.784668 0.194977 0.194977
0.903687 0.194977 0.194977
0.969727 0.194977 0.194977
0.000000 0.388672 0.194977
0.058075 0.388672 0.194977
0.194977 0.388672 0.194977
0.388672 0.388672 0.194977
0.605560 0.388672 0.194977
0.784668 0.388672 0.194977
0.903687 0.388672 0.194977
0.969727 0.388672 0.194977
0.000000 0.605560 0.194977
0.058075 0.605560 0.194977
0.194977 0.605560 0.194977
0.388672 0.605560 0.194977
0.605560 0.605560 0.194977
0.784668 0.605560 0.194977
0.903687 0.605560 0.194977
0.969727 0.605560 0.194977
0.000000 0.784668 0.194977
0.058075 0.784668 0.194977
0.194977 0.784668 0.194977
0.388672 0.784668 0.194977
0.605560 0.784668 0.194977
0.784668 0.784668 0.194977
0.903687 0.784668 0.194977
0.969727 0.784668 0.194977
0.000000 0.903687 0.194977
0.058075 0.903687 0.194977
0.194977 0.903687 0.194977
0.388672 0.903687 0.194977
0.605560 0.903687 0.194977
0.784668 0.903687 0.194977
0.903687 0.903687 0.194977
0.969727 0.903687 0.194977
0.000000 0.969727 0.194977
0.058075 0.969727 0.194977
0.194977 0.969727 0.194977
0.388672 0.969727 0.194977
0.605560 0.969727 0.194977
0.784668 0.969727 0.194977
0.903687 0.969727 0.194977
0.969727 0.969727 0.194977
0.000000 0.000000 0.388672
0.058075 0.000000 0.388672
0.194977 0.000000 0.388672
0.388672 0.000000 0.388672
0.605560 0.000000 0.388672
0.784668 0.000000 0.388672
0.903687 0.000000 0.388672
0.969727 0.000000 0.388672
0.000000 0.058075 0.388672
0.058075 0.058075 0.388672
0.194977 0.058075 0.388672
0.388672 0.058075 0.388672
0.605560 0.058075 0.388672
0.784668 0.058075 0.388672
0.903687 0.058075 0.388672
0.969727 0.058075 0.388672
0.000000 0.194977 0.388672
0.058075 0.194977 0.388672
0.194977 0.194977 0.388672
0.388672 0.194977 0.388672
0.605560 0.194977 0.388672
0.784668 0.194977 0.388672
0.903687 0.194977 0.388672
0.969727 0.194977 0.388672
0.000000 0.388672 0.388672
0.058075 0.388672 0.388672
0.194977 0.388672 0.388672
0.388672 0.388672 0.388672
0.605560 0.388672 0.388672
0.784668 0.388672 0.388672
0.903687 0.388672 0.388672
0.969727 0.388672 0.388672
0.000000 0.605560 0.388672
0.058075 0.605560 0.388672
0.194977 0.605560 0.388672
0.388672 0.605560 0.388672
0.605560 0.605560 0.388672
0.784668 0.605560 0.388672
0.903687 0.605560 0.388672
0.969727 0.605560 0.388672
0.000000 0.784668 0.388672
0.058075 0.784668 0.388672
0.194977 0.784668 0.388672
0.388672 0.784668 0.388672
0.605560 0.784668 0.388672
0.784668 0.784668 0.388672
0.903687 0.784668 0.388672
0.969727 0.784668 0.388672
0.000000 0.903687 0.388672
0.058075 0.903687 0.388672
0.194977 0.903687 0.388672
0.388672 0.903687 0.388672
0.605560 0.903687 0.388672
0.784668 0.903687 0.388672
0.903687 0.903687 0.388672
0.969727 0.903687 0.388672
0.000000 0.969727 0.388672
0.058075 0.969727 0.388672
0.194977 0.969727 0.388672
0.388672 0.969727 0.388672
0.605560 0.969727 0.388672
0.784668 0.969727 0.388672
0.903687 0.969727 0.388672
0.969727 0.969727 0.388672
0.000000 0.000000 0.605560
0.058075 0.000000 0.605560
0.194977 0.000000 0.605560
0.388672 0.000000 0.605560
0.605560 0.000000 0.605560
0.784668 0.000000 0.605560
0.903687 0.000000 0.605560
0.969727 0.000000 0.605560
0.000000 0.058075 0.605560
0.058075 0.058075 0.605560
0.194977 0.058075 0.605560
0.388672 0.058075 0.605560
0.605560 0.058075 0.605560
0.784668 0.058075 0.605560
0.903687 0.058075 0.605560
0.969727 0.058075 0.605560
0.000000 0.194977 0.605560
0.058075 0.194977 0.605560
0.194977 0.194977 0.605560
0.388672 0.194977 0.605560
0.605560 0.194977 0.605560
0.784668 0.194977 0.605560
0.903687 0.194977 0.605560
0.969727 0.194977 0.605560
0.000000 0.388672 0.605560
0.058075 0.388672 0.605560
0.194977 0.388672 0.605560
0.388672 0.388672 0.605560
0.605560 0.388672 0.605560
0.784668 0.388672 0.605560
0.903687 0.388672 0.605560
0.969727 0.388672 0.605560
0.000000 0.605560 0.605560
0.058075 0.605560 0.605560
0.194977 0.605560 0.605560
0.388672 0.605560 0.605560
0.605560 0.605560 0.605560
0.784668 0.605560 0.605560
0.903687 0.605560 0.605560
0.969727 0.605560 0.605560
0.000000 0.784668 0.605560
0.058075 0.784668 0.605560
0.194977 0.784668 0.605560
0.388672 0.784668 0.605560
0.605560 0.784668 0.605560
0.784668 0.784668 0.605560
0.903687 0.784668 0.605560
0.969727 0.784668 0.605560
0.000000 0.903687 0.605560
0.058075 0.903687 0.605560
0.194977 0.903687 0.605560
0.388672 0.903687 0.605560
0.605560 0.903687 0.605560
0.784668 0.903687 0.605560
0.903687 0.903687 0.605560
0.969727 0.903687 0.605560
0.000000 0.969727 0.605560
0.058075 0.969727 0.605560
0.194977 0.969727 0.605560
0.388672 0.969727 0.605560
0.605560 0.969727 0.605560
0.784668 0.969727 0.605560
0.903687 0.969727 0.605560
0.969727 0.969727 0.605560
0.000000 0.000000 0.784668
0.058075 0.000000 0.784668
0.194977 0.000000 0.784668
0.388672 0.000000 0.784668
0.605560 0.000000 0.784668
0.784668 0.000000 0.784668
0.903687 0.000000 0.784668
0.969727 0.000000 0.784668
0.000000 0.058075 0.784668
0.058075 0.058075 0.784668
0.194977 0.058075 0.784668
0.388672 0.058075 0.784668
0.605560 0.058075 0.784668
0.784668 0.058075 0.784668
0.903687 0.058075 0.784668
0.969727 0.058075 0.784668
0.000000 0.194977 0.784668
0.058075 0.194977 0.784668
0.194977 0.194977 0.784668
0.388672 0.194977 0.784668
0.605560 0.194977 0.784668
0.784668 0.194977 0.784668
0.903687 0.194977 0.784668
0.969727 0.194977 0.784668
0.000000 0.388672 0.784668
0.058075 0.388672 0.784668
0.194977 0.388672 0.784668
0.388672 0.388672 0.784668
0.605560 0.388672 0.784668
0.784668 0.388672 0.784668
0.903687 0.388672 0.784668
0.969727 0.388672 0.784668
0.000000 0.605560 0.784668
0.058075 0.605560 0.784668
0.194977 0.605560 0.784668
0.388672 0.605560 0.784668
0.605560 0.605560 0.784668
0.784668 0.605560 0.784668
0.903687 0.605560 0.784668
0.969727 0.605560 0.784668
0.000000 0.784668 0.784668
0.058075 0.784668 0.784668
0.194977 0.784668 0.784668
0.388672 0.784668 0.784668
0.605560 0.784668 0.784668
0.784668 0.784668 0.784668
0.903687 0.784668 0.784668
0.969727 0.784668 0.784668
0.000000 0.903687 0.784668
0.058075 0.903687 0.784668
0.194977 0.903687 0.784668
0.388672 0.903687 0.784668
0.605560 0.903687 0.784668
0.784668 0.903687 0.784668
0.903687 0.903687 0.784668
0.969727 0.903687 0.784668
0.000000 0.969727 0.784668
0.058075 0.969727 0.784668
0.194977 0.969727 0.784668
0.388672 0.969727 0.784668
0.605560 0.969727 0.784668
0.784668 0.969727 0.784668
0.903687 0.969727 0.784668
0.969727 0.969727 0.784668
0.000000 0.000000 0.903687
0.058075 0.000000 0.903687
0.194977 0.000000 0.903687
0.388672 0.000000 0.903687
0.605560 0.000000 0.903687
0.784668 0.000000 0.903687
0.903687 0.000000 0.903687
0.969727 0.000000 0.903687
0.000000 0.058075 0.903687
0.058075 0.058075 0.903687
0.194977 0.058075 0.903687
0.388672 0.058075 0.903687
0.605560 0.058075 0.903687
0.784668 0.058075 0.903687
0.903687 0.058075 0.903687
0.969727 0.058075 0.903687
0.000000 0.194977 0.903687
0.058075 0.194977 0.903687
0.194977 0.194977 0.903687
0.388672 0.194977 0.903687
0.605560 0.194977 0.903687
0.784668 0.194977 0.903687
0.903687 0.194977 0.903687
0.969727 0.194977 0.903687
0.000000 0.388672 0.903687
0.058075 0.388672 0.903687
0.194977 0.388672 0.903687
0.388672 0.388672 0.903687
0.605560 0.388672 0.903687
0.784668 0.388672 0.903687
0.903687 0.388672 0.903687
0.969727 0.388672 0.903687
0.000000 0.605560 0.903687
0.058075 0.605560 0.903687
0.194977 0.605560 0.903687
0.388672 0.605560 0.903687
0.605560 0.605560 0.903687
0.784668 0.605560 0.903687
0.903687 0.605560 0.903687
0.969727 0.605560 0.903687
0.000000 0.784668 0.903687
0.058075 0.784668 0.903687
0.194977 0.784668 0.903687
0.388672 0.784668 0.903687
0.605560 0.784668 0.903687
0.784668 0.784668 0.903687
0.903687 0.784668 0.903687
0.969727 0.784668 0.903687
0.000000 0.903687 0.903687
0.058075 0.903687 0.903687
0.194977 0.903687 0.903687
0.388672 0.903687 0.903687
0.605560 0.903687 0.903687
0.784668 0.903687 0.903687
0.903687 0.903687 0.903687
0.969727 0.903687 0.903687
0.000000 0.969727 0.903687
0.058075 0.969727 0.903687
0.194977 0.969727 0.903687
0.388672 0.969727 0.903687
0.605560 0.969727 0.903687
0.784668 0.969727 0.903687
0.903687 0.969727 0.903687
0.969727 0.969727 0.903687
0.000000 0.000000 0.969727
0.058075 0.000000 0.969727
0.194977 0.000000 0.969727
0.388672 0.000000 0.969727
0.605560 0.000000 0.969727
0.784668 0.000000 0.969727
0.903687 0.000000 0.969727
0.969727 0.000000 0.969727
0.000000 0.058075 0.969727
0.058075 0.058075 0.969727
0.194977 0.058075 0.969727
0.388672 0.058075 0.969727
0.605560 0.058075 0.969727
0.784668 0.058075 0.969727
0.903687 0.058075 0.969727
0.969727 0.058075 0.969727
0.000000 0.194977 0.969727
0.058075 0.194977 0.969727
0.194977 0.194977 0.969727
0.388672 0.194977 0.969727
0.605560 0.194977 0.969727
0.784668 0.194977 0.969727
0.903687 0.194977 0.969727
0.969727 0.194977 0.969727
0.000000 0.388672 0.969727
0.058075 0.388672 0.969727
0.194977 0.388672 0.969727
0.388672 0.388672 0.969727
0.605560 0.388672 0.969727
0.784668 0.388672 0.969727
0.903687 0.388672 0.969727
0.969727 0.388672 0.969727
0.000000 0.605560 0.969727
0.058075 0.605560 0.969727
0.194977 0.605560 0.969727
0.388672 0.605560 0.969727
0.605560 0.605560 0.969727
0.784668 0.605560 0.969727
0.903687 0.605560 0.969727
0.969727 0.605560 0.969727
0.000000 0.784668 0.969727
0.058075 0.784668 0.969727
0.194977 0.784668 0.969727
0.388672 0.784668 0.969727
0.605560 0.784668 0.969727
0.784668 0.784668 0.969727
0.903687 0.784668 0.969727
0.969727 0.784668 0.969727
0.000000 0.903687 0.969727
0.058075 0.903687 0.969727
0.194977 0.903687 0.969727
0.388672 0.903687 0.969727
0.605560 0.903687 0.969727
0.784668 0.903687 0.969727
0.903687 0.903687 0.969727
0.969727 0.903687 0.969727
0.000000 0.969727 0.969727
0.058075 0.969727 0.969727
0.194977 0.969727 0.969727
0.388672 0.969727 0.969727
0.605560 0.969727 0.969727
0.784668 0.969727 0.969727
0.903687 0.969727 0.969727
0.969727 0.969727 0.969727
