Postproduction/IWLTBAP - Humble/LUTs by IWLTBAP (CUBE)/UTILITY/REDlog to Rec.709/U-REDLOG-V2-LTR.cube
# Copyright: (C) Copyright 2010-2018 by IWLTBAP SAS
# Cannot be resold, shared or otherwise redistributed
# Website: https://luts.iwltbap.com
TITLE "REDLog Version 2 (Utility LOG to Rec.709)"
LUT_3D_SIZE 8
DOMAIN_MIN 0.000000 0.000000 0.000000
DOMAIN_MAX 0.903226 0.903226 0.903226
0.000000 0.000000 0.000000
0.021759 0.000000 0.000000
0.140717 0.000000 0.000000
0.327454 0.000000 0.000000
0.550598 0.000000 0.000000
0.742584 0.000000 0.000000
0.873138 0.000000 0.000000
0.946533 0.000000 0.000000
0.000000 0.021759 0.000000
0.021759 0.021759 0.000000
0.140717 0.021759 0.000000
0.327454 0.021759 0.000000
0.550598 0.021759 0.000000
0.742584 0.021759 0.000000
0.873138 0.021759 0.000000
0.946533 0.021759 0.000000
0.000000 0.140717 0.000000
0.021759 0.140717 0.000000
0.140717 0.140717 0.000000
0.327454 0.140717 0.000000
0.550598 0.140717 0.000000
0.742584 0.140717 0.000000
0.873138 0.140717 0.000000
0.946533 0.140717 0.000000
0.000000 0.327454 0.000000
0.021759 0.327454 0.000000
0.140717 0.327454 0.000000
0.327454 0.327454 0.000000
0.550598 0.327454 0.000000
0.742584 0.327454 0.000000
0.873138 0.327454 0.000000
0.946533 0.327454 0.000000
0.000000 0.550598 0.000000
0.021759 0.550598 0.000000
0.140717 0.550598 0.000000
0.327454 0.550598 0.000000
0.550598 0.550598 0.000000
0.742584 0.550598 0.000000
0.873138 0.550598 0.000000
0.946533 0.550598 0.000000
0.000000 0.742584 0.000000
0.021759 0.742584 0.000000
0.140717 0.742584 0.000000
0.327454 0.742584 0.000000
0.550598 0.742584 0.000000
0.742584 0.742584 0.000000
0.873138 0.742584 0.000000
0.946533 0.742584 0.000000
0.000000 0.873138 0.000000
0.021759 0.873138 0.000000
0.140717 0.873138 0.000000
0.327454 0.873138 0.000000
0.550598 0.873138 0.000000
0.742584 0.873138 0.000000
0.873138 0.873138 0.000000
0.946533 0.873138 0.000000
0.000000 0.946533 0.000000
0.021759 0.946533 0.000000
0.140717 0.946533 0.000000
0.327454 0.946533 0.000000
0.550598 0.946533 0.000000
0.742584 0.946533 0.000000
0.873138 0.946533 0.000000
0.946533 0.946533 0.000000
0.000000 0.000000 0.021759
0.021759 0.000000 0.021759
0.140717 0.000000 0.021759
0.327454 0.000000 0.021759
0.550598 0.000000 0.021759
0.742584 0.000000 0.021759
0.873138 0.000000 0.021759
0.946533 0.000000 0.021759
0.000000 0.021759 0.021759
0.021759 0.021759 0.021759
0.140717 0.021759 0.021759
0.327454 0.021759 0.021759
0.550598 0.021759 0.021759
0.742584 0.021759 0.021759
0.873138 0.021759 0.021759
0.946533 0.021759 0.021759
0.000000 0.140717 0.021759
0.021759 0.140717 0.021759
0.140717 0.140717 0.021759
0.327454 0.140717 0.021759
0.550598 0.140717 0.021759
0.742584 0.140717 0.021759
0.873138 0.140717 0.021759
0.946533 0.140717 0.021759
0.000000 0.327454 0.021759
0.021759 0.327454 0.021759
0.140717 0.327454 0.021759
0.327454 0.327454 0.021759
0.550598 0.327454 0.021759
0.742584 0.327454 0.021759
0.873138 0.327454 0.021759
0.946533 0.327454 0.021759
0.000000 0.550598 0.021759
0.021759 0.550598 0.021759
0.140717 0.550598 0.021759
0.327454 0.550598 0.021759
0.550598 0.550598 0.021759
0.742584 0.550598 0.021759
0.873138 0.550598 0.021759
0.946533 0.550598 0.021759
0.000000 0.742584 0.021759
0.021759 0.742584 0.021759
0.140717 0.742584 0.021759
0.327454 0.742584 0.021759
0.550598 0.742584 0.021759
0.742584 0.742584 0.021759
0.873138 0.742584 0.021759
0.946533 0.742584 0.021759
0.000000 0.873138 0.021759
0.021759 0.873138 0.021759
0.140717 0.873138 0.021759
0.327454 0.873138 0.021759
0.550598 0.873138 0.021759
0.742584 0.873138 0.021759
0.873138 0.873138 0.021759
0.946533 0.873138 0.021759
0.000000 0.946533 0.021759
0.021759 0.946533 0.021759
0.140717 0.946533 0.021759
0.327454 0.946533 0.021759
0.550598 0.946533 0.021759
0.742584 0.946533 0.021759
0.873138 0.946533 0.021759
0.946533 0.946533 0.021759
0.000000 0.000000 0.140717
0.021759 0.000000 0.140717
0.140717 0.000000 0.140717
0.327454 0.000000 0.140717
0.550598 0.000000 0.140717
0.742584 0.000000 0.140717
0.873138 0.000000 0.140717
0.946533 0.000000 0.140717
0.000000 0.021759 0.140717
0.021759 0.021759 0.140717
0.140717 0.021759 0.140717
0.327454 0.021759 0.140717
0.550598 0.021759 0.140717
0.742584 0.021759 0.140717
0.873138 0.021759 0.140717
0.946533 0.021759 0.140717
0.000000 0.140717 0.140717
0.021759 0.140717 0.140717
0.140717 0.140717 0.140717
0.327454 0.140717 0.140717
0.550598 0.140717 0.140717
0.742584 0.140717 0.140717
0.873138 0.140717 0.140717
0.946533 0.140717 0.140717
0.000000 0.327454 0.140717
0.021759 0.327454 0.140717
0.140717 0.327454 0.140717
0.327454 0.327454 0.140717
0.550598 0.327454 0.140717
0.742584 0.327454 0.140717
0.873138 0.327454 0.140717
0.946533 0.327454 0.140717
0.000000 0.550598 0.140717
0.021759 0.550598 0.140717
0.140717 0.550598 0.140717
0.327454 0.550598 0.140717
0.550598 0.550598 0.140717
0.742584 0.550598 0.140717
0.873138 0.550598 0.140717
0.946533 0.550598 0.140717
0.000000 0.742584 0.140717
0.021759 0.742584 0.140717
0.140717 0.742584 0.140717
0.327454 0.742584 0.140717
0.550598 0.742584 0.140717
0.742584 0.742584 0.140717
0.873138 0.742584 0.140717
0.946533 0.742584 0.140717
0.000000 0.873138 0.140717
0.021759 0.873138 0.140717
0.140717 0.873138 0.140717
0.327454 0.873138 0.140717
0.550598 0.873138 0.140717
0.742584 0.873138 0.140717
0.873138 0.873138 0.140717
0.946533 0.873138 0.140717
0.000000 0.946533 0.140717
0.021759 0.946533 0.140717
0.140717 0.946533 0.140717
0.327454 0.946533 0.140717
0.550598 0.946533 0.140717
0.742584 0.946533 0.140717
0.873138 0.946533 0.140717
0.946533 0.946533 0.140717
0.000000 0.000000 0.327454
0.021759 0.000000 0.327454
0.140717 0.000000 0.327454
0.327454 0.000000 0.327454
0.550598 0.000000 0.327454
0.742584 0.000000 0.327454
0.873138 0.000000 0.327454
0.946533 0.000000 0.327454
0.000000 0.021759 0.327454
0.021759 0.021759 0.327454
0.140717 0.021759 0.327454
0.327454 0.021759 0.327454
0.550598 0.021759 0.327454
0.742584 0.021759 0.327454
0.873138 0.021759 0.327454
0.946533 0.021759 0.327454
0.000000 0.140717 0.327454
0.021759 0.140717 0.327454
0.140717 0.140717 0.327454
0.327454 0.140717 0.327454
0.550598 0.140717 0.327454
0.742584 0.140717 0.327454
0.873138 0.140717 0.327454
0.946533 0.140717 0.327454
0.000000 0.327454 0.327454
0.021759 0.327454 0.327454
0.140717 0.327454 0.327454
0.327454 0.327454 0.327454
0.550598 0.327454 0.327454
0.742584 0.327454 0.327454
0.873138 0.327454 0.327454
0.946533 0.327454 0.327454
0.000000 0.550598 0.327454
0.021759 0.550598 0.327454
0.140717 0.550598 0.327454
0.327454 0.550598 0.327454
0.550598 0.550598 0.327454
0.742584 0.550598 0.327454
0.873138 0.550598 0.327454
0.946533 0.550598 0.327454
0.000000 0.742584 0.327454
0.021759 0.742584 0.327454
0.140717 0.742584 0.327454
0.327454 0.742584 0.327454
0.550598 0.742584 0.327454
0.742584 0.742584 0.327454
0.873138 0.742584 0.327454
0.946533 0.742584 0.327454
0.000000 0.873138 0.327454
0.021759 0.873138 0.327454
0.140717 0.873138 0.327454
0.327454 0.873138 0.327454
0.550598 0.873138 0.327454
0.742584 0.873138 0.327454
0.873138 0.873138 0.327454
0.946533 0.873138 0.327454
0.000000 0.946533 0.327454
0.021759 0.946533 0.327454
0.140717 0.946533 0.327454
0.327454 0.946533 0.327454
0.550598 0.946533 0.327454
0.742584 0.946533 0.327454
0.873138 0.946533 0.327454
0.946533 0.946533 0.327454
0.000000 0.000000 0.550598
0.021759 0.000000 0.550598
0.140717 0.000000 0.550598
0.327454 0.000000 0.550598
0.550598 0.000000 0.550598
0.742584 0.000000 0.550598
0.873138 0.000000 0.550598
0.946533 0.000000 0.550598
0.000000 0.021759 0.550598
0.021759 0.021759 0.550598
0.140717 0.021759 0.550598
0.327454 0.021759 0.550598
0.550598 0.021759 0.550598
0.742584 0.021759 0.550598
0.873138 0.021759 0.550598
0.946533 0.021759 0.550598
0.000000 0.140717 0.550598
0.021759 0.140717 0.550598
0.140717 0.140717 0.550598
0.327454 0.140717 0.550598
0.550598 0.140717 0.550598
0.742584 0.140717 0.550598
0.873138 0.140717 0.550598
0.946533 0.140717 0.550598
0.000000 0.327454 0.550598
0.021759 0.327454 0.550598
0.140717 0.327454 0.550598
0.327454 0.327454 0.550598
0.550598 0.327454 0.550598
0.742584 0.327454 0.550598
0.873138 0.327454 0.550598
0.946533 0.327454 0.550598
0.000000 0.550598 0.550598
0.021759 0.550598 0.550598
0.140717 0.550598 0.550598
0.327454 0.550598 0.550598
0.550598 0.550598 0.550598
0.742584 0.550598 0.550598
0.873138 0.550598 0.550598
0.946533 0.550598 0.550598
0.000000 0.742584 0.550598
0.021759 0.742584 0.550598
0.140717 0.742584 0.550598
0.327454 0.742584 0.550598
0.550598 0.742584 0.550598
0.742584 0.742584 0.550598
0.873138 0.742584 0.550598
0.946533 0.742584 0.550598
0.000000 0.873138 0.550598
0.021759 0.873138 0.550598
0.140717 0.873138 0.550598
0.327454 0.873138 0.550598
0.550598 0.873138 0.550598
0.742584 0.873138 0.550598
0.873138 0.873138 0.550598
0.946533 0.873138 0.550598
0.000000 0.946533 0.550598
0.021759 0.946533 0.550598
0.140717 0.946533 0.550598
0.327454 0.946533 0.550598
0.550598 0.946533 0.550598
0.742584 0.946533 0.550598
0.873138 0.946533 0.550598
0.946533 0.946533 0.550598
0.000000 0.000000 0.742584
0.021759 0.000000 0.742584
0.140717 0.000000 0.742584
0.327454 0.000000 0.742584
0.550598 0.000000 0.742584
0.742584 0.000000 0.742584
0.873138 0.000000 0.742584
0.946533 0.000000 0.742584
0.000000 0.021759 0.742584
0.021759 0.021759 0.742584
0.140717 0.021759 0.742584
0.327454 0.021759 0.742584
0.550598 0.021759 0.742584
0.742584 0.021759 0.742584
0.873138 0.021759 0.742584
0.946533 0.021759 0.742584
0.000000 0.140717 0.742584
0.021759 0.140717 0.742584
0.140717 0.140717 0.742584
0.327454 0.140717 0.742584
0.550598 0.140717 0.742584
0.742584 0.140717 0.742584
0.873138 0.140717 0.742584
0.946533 0.140717 0.742584
0.000000 0.327454 0.742584
0.021759 0.327454 0.742584
0.140717 0.327454 0.742584
0.327454 0.327454 0.742584
0.550598 0.327454 0.742584
0.742584 0.327454 0.742584
0.873138 0.327454 0.742584
0.946533 0.327454 0.742584
0.000000 0.550598 0.742584
0.021759 0.550598 0.742584
0.140717 0.550598 0.742584
0.327454 0.550598 0.742584
0.550598 0.550598 0.742584
0.742584 0.550598 0.742584
0.873138 0.550598 0.742584
0.946533 0.550598 0.742584
0.000000 0.742584 0.742584
0.021759 0.742584 0.742584
0.140717 0.742584 0.742584
0.327454 0.742584 0.742584
0.550598 0.742584 0.742584
0.742584 0.742584 0.742584
0.873138 0.742584 0.742584
0.946533 0.742584 0.742584
0.000000 0.873138 0.742584
0.021759 0.873138 0.742584
0.140717 0.873138 0.742584
0.327454 0.873138 0.742584
0.550598 0.873138 0.742584
0.742584 0.873138 0.742584
0.873138 0.873138 0.742584
0.946533 0.873138 0.742584
0.000000 0.946533 0.742584
0.021759 0.946533 0.742584
0.140717 0.946533 0.742584
0.327454 0.946533 0.742584
0.550598 0.946533 0.742584
0.742584 0.946533 0.742584
0.873138 0.946533 0.742584
0.946533 0.946533 0.742584
0.000000 0.000000 0.873138
0.021759 0.000000 0.873138
0.140717 0.000000 0.873138
0.327454 0.000000 0.873138
0.550598 0.000000 0.873138
0.742584 0.000000 0.873138
0.873138 0.000000 0.873138
0.946533 0.000000 0.873138
0.000000 0.021759 0.873138
0.021759 0.021759 0.873138
0.140717 0.021759 0.873138
0.327454 0.021759 0.873138
0.550598 0.021759 0.873138
0.742584 0.021759 0.873138
0.873138 0.021759 0.873138
0.946533 0.021759 0.873138
0.000000 0.140717 0.873138
0.021759 0.140717 0.873138
0.140717 0.140717 0.873138
0.327454 0.140717 0.873138
0.550598 0.140717 0.873138
0.742584 0.140717 0.873138
0.873138 0.140717 0.873138
0.946533 0.140717 0.873138
0.000000 0.327454 0.873138
0.021759 0.327454 0.873138
0.140717 0.327454 0.873138
0.327454 0.327454 0.873138
0.550598 0.327454 0.873138
0.742584 0.327454 0.873138
0.873138 0.327454 0.873138
0.946533 0.327454 0.873138
0.000000 0.550598 0.873138
0.021759 0.550598 0.873138
0.140717 0.550598 0.873138
0.327454 0.550598 0.873138
0.550598 0.550598 0.873138
0.742584 0.550598 0.873138
0.873138 0.550598 0.873138
0.946533 0.550598 0.873138
0.000000 0.742584 0.873138
0.021759 0.742584 0.873138
0.140717 0.742584 0.873138
0.327454 0.742584 0.873138
0.550598 0.742584 0.873138
0.742584 0.742584 0.873138
0.873138 0.742584 0.873138
0.946533 0.742584 0.873138
0.000000 0.873138 0.873138
0.021759 0.873138 0.873138
0.140717 0.873138 0.873138
0.327454 0.873138 0.873138
0.550598 0.873138 0.873138
0.742584 0.873138 0.873138
0.873138 0.873138 0.873138
0.946533 0.873138 0.873138
0.000000 0.946533 0.873138
0.021759 0.946533 0.873138
0.140717 0.946533 0.873138
0.327454 0.946533 0.873138
0.550598 0.946533 0.873138
0.742584 0.946533 0.873138
0.873138 0.946533 0.873138
0.946533 0.946533 0.873138
0.000000 0.000000 0.946533
0.021759 0.000000 0.946533
0.140717 0.000000 0.946533
0.327454 0.000000 0.946533
0.550598 0.000000 0.946533
0.742584 0.000000 0.946533
0.873138 0.000000 0.946533
0.946533 0.000000 0.946533
0.000000 0.021759 0.946533
0.021759 0.021759 0.946533
0.140717 0.021759 0.946533
0.327454 0.021759 0.946533
0.550598 0.021759 0.946533
0.742584 0.021759 0.946533
0.873138 0.021759 0.946533
0.946533 0.021759 0.946533
0.000000 0.140717 0.946533
0.021759 0.140717 0.946533
0.140717 0.140717 0.946533
0.327454 0.140717 0.946533
0.550598 0.140717 0.946533
0.742584 0.140717 0.946533
0.873138 0.140717 0.946533
0.946533 0.140717 0.946533
0.000000 0.327454 0.946533
0.021759 0.327454 0.946533
0.140717 0.327454 0.946533
0.327454 0.327454 0.946533
0.550598 0.327454 0.946533
0.742584 0.327454 0.946533
0.873138 0.327454 0.946533
0.946533 0.327454 0.946533
0.000000 0.550598 0.946533
0.021759 0.550598 0.946533
0.140717 0.550598 0.946533
0.327454 0.550598 0.946533
0.550598 0.550598 0.946533
0.742584 0.550598 0.946533
0.873138 0.550598 0.946533
0.946533 0.550598 0.946533
0.000000 0.742584 0.946533
0.021759 0.742584 0.946533
0.140717 0.742584 0.946533
0.327454 0.742584 0.946533
0.550598 0.742584 0.946533
0.742584 0.742584 0.946533
0.873138 0.742584 0.946533
0.946533 0.742584 0.946533
0.000000 0.873138 0.946533
0.021759 0.873138 0.946533
0.140717 0.873138 0.946533
0.327454 0.873138 0.946533
0.550598 0.873138 0.946533
0.742584 0.873138 0.946533
0.873138 0.873138 0.946533
0.946533 0.873138 0.946533
0.000000 0.946533 0.946533
0.021759 0.946533 0.946533
0.140717 0.946533 0.946533
0.327454 0.946533 0.946533
0.550598 0.946533 0.946533
0.742584 0.946533 0.946533
0.873138 0.946533 0.946533
0.946533 0.946533 0.946533
