Postproduction/IWLTBAP - Humble/LUTs by IWLTBAP (CUBE)/UTILITY/REDlog to Rec.709/U-REDLOG-V2-LTR.cube
# Copyright: (C) Copyright 2010-2018 by IWLTBAP SAS
# Cannot be resold, shared or otherwise redistributed
# Website: https://luts.iwltbap.com
TITLE "REDLog Version 2 (Utility LOG to Rec.709)"
LUT_3D_SIZE 5
DOMAIN_MIN 0.000000 0.000000 0.000000
DOMAIN_MAX 0.903226 0.903226 0.903226
0.000000 0.000000 0.000000
0.106354 0.000000 0.000000
0.440063 0.000000 0.000000
0.781219 0.000000 0.000000
0.946533 0.000000 0.000000
0.000000 0.106354 0.000000
0.106354 0.106354 0.000000
0.440063 0.106354 0.000000
0.781219 0.106354 0.000000
0.946533 0.106354 0.000000
0.000000 0.440063 0.000000
0.106354 0.440063 0.000000
0.440063 0.440063 0.000000
0.781219 0.440063 0.000000
0.946533 0.440063 0.000000
0.000000 0.781219 0.000000
0.106354 0.781219 0.000000
0.440063 0.781219 0.000000
0.781219 0.781219 0.000000
0.946533 0.781219 0.000000
0.000000 0.946533 0.000000
0.106354 0.946533 0.000000
0.440063 0.946533 0.000000
0.781219 0.946533 0.000000
0.946533 0.946533 0.000000
0.000000 0.000000 0.106354
0.106354 0.000000 0.106354
0.440063 0.000000 0.106354
0.781219 0.000000 0.106354
0.946533 0.000000 0.106354
0.000000 0.106354 0.106354
0.106354 0.106354 0.106354
0.440063 0.106354 0.106354
0.781219 0.106354 0.106354
0.946533 0.106354 0.106354
0.000000 0.440063 0.106354
0.106354 0.440063 0.106354
0.440063 0.440063 0.106354
0.781219 0.440063 0.106354
0.946533 0.440063 0.106354
0.000000 0.781219 0.106354
0.106354 0.781219 0.106354
0.440063 0.781219 0.106354
0.781219 0.781219 0.106354
0.946533 0.781219 0.106354
0.000000 0.946533 0.106354
0.106354 0.946533 0.106354
0.440063 0.946533 0.106354
0.781219 0.946533 0.106354
0.946533 0.946533 0.106354
0.000000 0.000000 0.440063
0.106354 0.000000 0.440063
0.440063 0.000000 0.440063
0.781219 0.000000 0.440063
0.946533 0.000000 0.440063
0.000000 0.106354 0.440063
0.106354 0.106354 0.440063
0.440063 0.106354 0.440063
0.781219 0.106354 0.440063
0.946533 0.106354 0.440063
0.000000 0.440063 0.440063
0.106354 0.440063 0.440063
0.440063 0.440063 0.440063
0.781219 0.440063 0.440063
0.946533 0.440063 0.440063
0.000000 0.781219 0.440063
0.106354 0.781219 0.440063
0.440063 0.781219 0.440063
0.781219 0.781219 0.440063
0.946533 0.781219 0.440063
0.000000 0.946533 0.440063
0.106354 0.946533 0.440063
0.440063 0.946533 0.440063
0.781219 0.946533 0.440063
0.946533 0.946533 0.440063
0.000000 0.000000 0.781219
0.106354 0.000000 0.781219
0.440063 0.000000 0.781219
0.781219 0.000000 0.781219
0.946533 0.000000 0.781219
0.000000 0.106354 0.781219
0.106354 0.106354 0.781219
0.440063 0.106354 0.781219
0.781219 0.106354 0.781219
0.946533 0.106354 0.781219
0.000000 0.440063 0.781219
0.106354 0.440063 0.781219
0.440063 0.440063 0.781219
0.781219 0.440063 0.781219
0.946533 0.440063 0.781219
0.000000 0.781219 0.781219
0.106354 0.781219 0.781219
0.440063 0.781219 0.781219
0.781219 0.781219 0.781219
0.946533 0.781219 0.781219
0.000000 0.946533 0.781219
0.106354 0.946533 0.781219
0.440063 0.946533 0.781219
0.781219 0.946533 0.781219
0.946533 0.946533 0.781219
0.000000 0.000000 0.946533
0.106354 0.000000 0.946533
0.440063 0.000000 0.946533
0.781219 0.000000 0.946533
0.946533 0.000000 0.946533
0.000000 0.106354 0.946533
0.106354 0.106354 0.946533
0.440063 0.106354 0.946533
0.781219 0.106354 0.946533
0.946533 0.106354 0.946533
0.000000 0.440063 0.946533
0.106354 0.440063 0.946533
0.440063 0.440063 0.946533
0.781219 0.440063 0.946533
0.946533 0.440063 0.946533
0.000000 0.781219 0.946533
0.106354 0.781219 0.946533
0.440063 0.781219 0.946533
0.781219 0.781219 0.946533
0.946533 0.781219 0.946533
0.000000 0.946533 0.946533
0.106354 0.946533 0.946533
0.440063 0.946533 0.946533
0.781219 0.946533 0.946533
0.946533 0.946533 0.946533
