Postproduction/IWLTBAP - Humble/LUTs by IWLTBAP (CUBE)/UTILITY/REDlogFilm to Rec.709/U-REDLOGFILM-V1-LTR.cube
# Copyright: (C) Copyright 2010-2018 by IWLTBAP SAS
# Cannot be resold, shared or otherwise redistributed
# Website: https://luts.iwltbap.com
TITLE "REDLogFilm Version 1 (Utility LOG to Rec.709)"
LUT_3D_SIZE 32
0.000000 0.000000 0.000000
0.000000 0.000000 0.000000
0.001556 0.000000 0.000000
0.020111 0.000000 0.000000
0.041290 0.000000 0.000000
0.063232 0.000000 0.000000
0.093201 0.000000 0.000000
0.125885 0.000000 0.000000
0.160248 0.000000 0.000000
0.201538 0.000000 0.000000
0.246399 0.000000 0.000000
0.295013 0.000000 0.000000
0.347015 0.000000 0.000000
0.402405 0.000000 0.000000
0.459656 0.000000 0.000000
0.514221 0.000000 0.000000
0.570160 0.000000 0.000000
0.625336 0.000000 0.000000
0.674011 0.000000 0.000000
0.720734 0.000000 0.000000
0.762177 0.000000 0.000000
0.800812 0.000000 0.000000
0.836426 0.000000 0.000000
0.867859 0.000000 0.000000
0.892761 0.000000 0.000000
0.915527 0.000000 0.000000
0.934967 0.000000 0.000000
0.953918 0.000000 0.000000
0.966156 0.000000 0.000000
0.980804 0.000000 0.000000
0.992310 0.000000 0.000000
1.000000 0.000000 0.000000
0.000000 0.000000 0.000000
0.000000 0.000000 0.000000
0.001556 0.000000 0.000000
0.020111 0.000000 0.000000
0.041290 0.000000 0.000000
0.063232 0.000000 0.000000
0.093201 0.000000 0.000000
0.125885 0.000000 0.000000
0.160248 0.000000 0.000000
0.201538 0.000000 0.000000
0.246399 0.000000 0.000000
0.295013 0.000000 0.000000
0.347015 0.000000 0.000000
0.402405 0.000000 0.000000
0.459656 0.000000 0.000000
0.514221 0.000000 0.000000
0.570160 0.000000 0.000000
0.625336 0.000000 0.000000
0.674011 0.000000 0.000000
0.720734 0.000000 0.000000
0.762177 0.000000 0.000000
0.800812 0.000000 0.000000
0.836426 0.000000 0.000000
0.867859 0.000000 0.000000
0.892761 0.000000 0.000000
0.915527 0.000000 0.000000
0.934967 0.000000 0.000000
0.953918 0.000000 0.000000
0.966156 0.000000 0.000000
0.980804 0.000000 0.000000
0.992310 0.000000 0.000000
1.000000 0.000000 0.000000
0.000000 0.001556 0.000000
0.000000 0.001556 0.000000
0.001556 0.001556 0.000000
0.020111 0.001556 0.000000
0.041290 0.001556 0.000000
0.063232 0.001556 0.000000
0.093201 0.001556 0.000000
0.125885 0.001556 0.000000
0.160248 0.001556 0.000000
0.201538 0.001556 0.000000
0.246399 0.001556 0.000000
0.295013 0.001556 0.000000
0.347015 0.001556 0.000000
0.402405 0.001556 0.000000
0.459656 0.001556 0.000000
0.514221 0.001556 0.000000
0.570160 0.001556 0.000000
0.625336 0.001556 0.000000
0.674011 0.001556 0.000000
0.720734 0.001556 0.000000
0.762177 0.001556 0.000000
0.800812 0.001556 0.000000
0.836426 0.001556 0.000000
0.867859 0.001556 0.000000
0.892761 0.001556 0.000000
0.915527 0.001556 0.000000
0.934967 0.001556 0.000000
0.953918 0.001556 0.000000
0.966156 0.001556 0.000000
0.980804 0.001556 0.000000
0.992310 0.001556 0.000000
1.000000 0.001556 0.000000
0.000000 0.020111 0.000000
0.000000 0.020111 0.000000
0.001556 0.020111 0.000000
0.020111 0.020111 0.000000
0.041290 0.020111 0.000000
0.063232 0.020111 0.000000
0.093201 0.020111 0.000000
0.125885 0.020111 0.000000
0.160248 0.020111 0.000000
0.201538 0.020111 0.000000
0.246399 0.020111 0.000000
0.295013 0.020111 0.000000
0.347015 0.020111 0.000000
0.402405 0.020111 0.000000
0.459656 0.020111 0.000000
0.514221 0.020111 0.000000
0.570160 0.020111 0.000000
0.625336 0.020111 0.000000
0.674011 0.020111 0.000000
0.720734 0.020111 0.000000
0.762177 0.020111 0.000000
0.800812 0.020111 0.000000
0.836426 0.020111 0.000000
0.867859 0.020111 0.000000
0.892761 0.020111 0.000000
0.915527 0.020111 0.000000
0.934967 0.020111 0.000000
0.953918 0.020111 0.000000
0.966156 0.020111 0.000000
0.980804 0.020111 0.000000
0.992310 0.020111 0.000000
1.000000 0.020111 0.000000
0.000000 0.041290 0.000000
0.000000 0.041290 0.000000
0.001556 0.041290 0.000000
0.020111 0.041290 0.000000
0.041290 0.041290 0.000000
0.063232 0.041290 0.000000
0.093201 0.041290 0.000000
0.125885 0.041290 0.000000
0.160248 0.041290 0.000000
0.201538 0.041290 0.000000
0.246399 0.041290 0.000000
0.295013 0.041290 0.000000
0.347015 0.041290 0.000000
0.402405 0.041290 0.000000
0.459656 0.041290 0.000000
0.514221 0.041290 0.000000
0.570160 0.041290 0.000000
0.625336 0.041290 0.000000
0.674011 0.041290 0.000000
0.720734 0.041290 0.000000
0.762177 0.041290 0.000000
0.800812 0.041290 0.000000
0.836426 0.041290 0.000000
0.867859 0.041290 0.000000
0.892761 0.041290 0.000000
0.915527 0.041290 0.000000
0.934967 0.041290 0.000000
0.953918 0.041290 0.000000
0.966156 0.041290 0.000000
0.980804 0.041290 0.000000
0.992310 0.041290 0.000000
1.000000 0.041290 0.000000
0.000000 0.063232 0.000000
0.000000 0.063232 0.000000
0.001556 0.063232 0.000000
0.020111 0.063232 0.000000
0.041290 0.063232 0.000000
0.063232 0.063232 0.000000
0.093201 0.063232 0.000000
0.125885 0.063232 0.000000
0.160248 0.063232 0.000000
0.201538 0.063232 0.000000
0.246399 0.063232 0.000000
0.295013 0.063232 0.000000
0.347015 0.063232 0.000000
0.402405 0.063232 0.000000
0.459656 0.063232 0.000000
0.514221 0.063232 0.000000
0.570160 0.063232 0.000000
0.625336 0.063232 0.000000
0.674011 0.063232 0.000000
0.720734 0.063232 0.000000
0.762177 0.063232 0.000000
0.800812 0.063232 0.000000
0.836426 0.063232 0.000000
0.867859 0.063232 0.000000
0.892761 0.063232 0.000000
0.915527 0.063232 0.000000
0.934967 0.063232 0.000000
0.953918 0.063232 0.000000
0.966156 0.063232 0.000000
0.980804 0.063232 0.000000
0.992310 0.063232 0.000000
1.000000 0.063232 0.000000
0.000000 0.093201 0.000000
0.000000 0.093201 0.000000
0.001556 0.093201 0.000000
0.020111 0.093201 0.000000
0.041290 0.093201 0.000000
0.063232 0.093201 0.000000
0.093201 0.093201 0.000000
0.125885 0.093201 0.000000
0.160248 0.093201 0.000000
0.201538 0.093201 0.000000
0.246399 0.093201 0.000000
0.295013 0.093201 0.000000
0.347015 0.093201 0.000000
0.402405 0.093201 0.000000
0.459656 0.093201 0.000000
0.514221 0.093201 0.000000
0.570160 0.093201 0.000000
0.625336 0.093201 0.000000
0.674011 0.093201 0.000000
0.720734 0.093201 0.000000
0.762177 0.093201 0.000000
0.800812 0.093201 0.000000
0.836426 0.093201 0.000000
0.867859 0.093201 0.000000
0.892761 0.093201 0.000000
0.915527 0.093201 0.000000
0.934967 0.093201 0.000000
0.953918 0.093201 0.000000
0.966156 0.093201 0.000000
0.980804 0.093201 0.000000
0.992310 0.093201 0.000000
1.000000 0.093201 0.000000
0.000000 0.125885 0.000000
0.000000 0.125885 0.000000
0.001556 0.125885 0.000000
0.020111 0.125885 0.000000
0.041290 0.125885 0.000000
0.063232 0.125885 0.000000
0.093201 0.125885 0.000000
0.125885 0.125885 0.000000
0.160248 0.125885 0.000000
0.201538 0.125885 0.000000
0.246399 0.125885 0.000000
0.295013 0.125885 0.000000
0.347015 0.125885 0.000000
0.402405 0.125885 0.000000
0.459656 0.125885 0.000000
0.514221 0.125885 0.000000
0.570160 0.125885 0.000000
0.625336 0.125885 0.000000
0.674011 0.125885 0.000000
0.720734 0.125885 0.000000
0.762177 0.125885 0.000000
0.800812 0.125885 0.000000
0.836426 0.125885 0.000000
0.867859 0.125885 0.000000
0.892761 0.125885 0.000000
0.915527 0.125885 0.000000
0.934967 0.125885 0.000000
0.953918 0.125885 0.000000
0.966156 0.125885 0.000000
0.980804 0.125885 0.000000
0.992310 0.125885 0.000000
1.000000 0.125885 0.000000
0.000000 0.160248 0.000000
0.000000 0.160248 0.000000
0.001556 0.160248 0.000000
0.020111 0.160248 0.000000
0.041290 0.160248 0.000000
0.063232 0.160248 0.000000
0.093201 0.160248 0.000000
0.125885 0.160248 0.000000
0.160248 0.160248 0.000000
0.201538 0.160248 0.000000
0.246399 0.160248 0.000000
0.295013 0.160248 0.000000
0.347015 0.160248 0.000000
0.402405 0.160248 0.000000
0.459656 0.160248 0.000000
0.514221 0.160248 0.000000
0.570160 0.160248 0.000000
0.625336 0.160248 0.000000
0.674011 0.160248 0.000000
0.720734 0.160248 0.000000
0.762177 0.160248 0.000000
0.800812 0.160248 0.000000
0.836426 0.160248 0.000000
0.867859 0.160248 0.000000
0.892761 0.160248 0.000000
0.915527 0.160248 0.000000
0.934967 0.160248 0.000000
0.953918 0.160248 0.000000
0.966156 0.160248 0.000000
0.980804 0.160248 0.000000
0.992310 0.160248 0.000000
1.000000 0.160248 0.000000
0.000000 0.201538 0.000000
0.000000 0.201538 0.000000
0.001556 0.201538 0.000000
0.020111 0.201538 0.000000
0.041290 0.201538 0.000000
0.063232 0.201538 0.000000
0.093201 0.201538 0.000000
0.125885 0.201538 0.000000
0.160248 0.201538 0.000000
0.201538 0.201538 0.000000
0.246399 0.201538 0.000000
0.295013 0.201538 0.000000
0.347015 0.201538 0.000000
0.402405 0.201538 0.000000
0.459656 0.201538 0.000000
0.514221 0.201538 0.000000
0.570160 0.201538 0.000000
0.625336 0.201538 0.000000
0.674011 0.201538 0.000000
0.720734 0.201538 0.000000
0.762177 0.201538 0.000000
0.800812 0.201538 0.000000
0.836426 0.201538 0.000000
0.867859 0.201538 0.000000
0.892761 0.201538 0.000000
0.915527 0.201538 0.000000
0.934967 0.201538 0.000000
0.953918 0.201538 0.000000
0.966156 0.201538 0.000000
0.980804 0.201538 0.000000
0.992310 0.201538 0.000000
1.000000 0.201538 0.000000
0.000000 0.246399 0.000000
0.000000 0.246399 0.000000
0.001556 0.246399 0.000000
0.020111 0.246399 0.000000
0.041290 0.246399 0.000000
0.063232 0.246399 0.000000
0.093201 0.246399 0.000000
0.125885 0.246399 0.000000
0.160248 0.246399 0.000000
0.201538 0.246399 0.000000
0.246399 0.246399 0.000000
0.295013 0.246399 0.000000
0.347015 0.246399 0.000000
0.402405 0.246399 0.000000
0.459656 0.246399 0.000000
0.514221 0.246399 0.000000
0.570160 0.246399 0.000000
0.625336 0.246399 0.000000
0.674011 0.246399 0.000000
0.720734 0.246399 0.000000
0.762177 0.246399 0.000000
0.800812 0.246399 0.000000
0.836426 0.246399 0.000000
0.867859 0.246399 0.000000
0.892761 0.246399 0.000000
0.915527 0.246399 0.000000
0.934967 0.246399 0.000000
0.953918 0.246399 0.000000
0.966156 0.246399 0.000000
0.980804 0.246399 0.000000
0.992310 0.246399 0.000000
1.000000 0.246399 0.000000
0.000000 0.295013 0.000000
0.000000 0.295013 0.000000
0.001556 0.295013 0.000000
0.020111 0.295013 0.000000
0.041290 0.295013 0.000000
0.063232 0.295013 0.000000
0.093201 0.295013 0.000000
0.125885 0.295013 0.000000
0.160248 0.295013 0.000000
0.201538 0.295013 0.000000
0.246399 0.295013 0.000000
0.295013 0.295013 0.000000
0.347015 0.295013 0.000000
0.402405 0.295013 0.000000
0.459656 0.295013 0.000000
0.514221 0.295013 0.000000
0.570160 0.295013 0.000000
0.625336 0.295013 0.000000
0.674011 0.295013 0.000000
0.720734 0.295013 0.000000
0.762177 0.295013 0.000000
0.800812 0.295013 0.000000
0.836426 0.295013 0.000000
0.867859 0.295013 0.000000
0.892761 0.295013 0.000000
0.915527 0.295013 0.000000
0.934967 0.295013 0.000000
0.953918 0.295013 0.000000
0.966156 0.295013 0.000000
0.980804 0.295013 0.000000
0.992310 0.295013 0.000000
1.000000 0.295013 0.000000
0.000000 0.347015 0.000000
0.000000 0.347015 0.000000
0.001556 0.347015 0.000000
0.020111 0.347015 0.000000
0.041290 0.347015 0.000000
0.063232 0.347015 0.000000
0.093201 0.347015 0.000000
0.125885 0.347015 0.000000
0.160248 0.347015 0.000000
0.201538 0.347015 0.000000
0.246399 0.347015 0.000000
0.295013 0.347015 0.000000
0.347015 0.347015 0.000000
0.402405 0.347015 0.000000
0.459656 0.347015 0.000000
0.514221 0.347015 0.000000
0.570160 0.347015 0.000000
0.625336 0.347015 0.000000
0.674011 0.347015 0.000000
0.720734 0.347015 0.000000
0.762177 0.347015 0.000000
0.800812 0.347015 0.000000
0.836426 0.347015 0.000000
0.867859 0.347015 0.000000
0.892761 0.347015 0.000000
0.915527 0.347015 0.000000
0.934967 0.347015 0.000000
0.953918 0.347015 0.000000
0.966156 0.347015 0.000000
0.980804 0.347015 0.000000
0.992310 0.347015 0.000000
1.000000 0.347015 0.000000
0.000000 0.402405 0.000000
0.000000 0.402405 0.000000
0.001556 0.402405 0.000000
0.020111 0.402405 0.000000
0.041290 0.402405 0.000000
0.063232 0.402405 0.000000
0.093201 0.402405 0.000000
0.125885 0.402405 0.000000
0.160248 0.402405 0.000000
0.201538 0.402405 0.000000
0.246399 0.402405 0.000000
0.295013 0.402405 0.000000
0.347015 0.402405 0.000000
0.402405 0.402405 0.000000
0.459656 0.402405 0.000000
0.514221 0.402405 0.000000
0.570160 0.402405 0.000000
0.625336 0.402405 0.000000
0.674011 0.402405 0.000000
0.720734 0.402405 0.000000
0.762177 0.402405 0.000000
0.800812 0.402405 0.000000
0.836426 0.402405 0.000000
0.867859 0.402405 0.000000
0.892761 0.402405 0.000000
0.915527 0.402405 0.000000
0.934967 0.402405 0.000000
0.953918 0.402405 0.000000
0.966156 0.402405 0.000000
0.980804 0.402405 0.000000
0.992310 0.402405 0.000000
1.000000 0.402405 0.000000
0.000000 0.459656 0.000000
0.000000 0.459656 0.000000
0.001556 0.459656 0.000000
0.020111 0.459656 0.000000
0.041290 0.459656 0.000000
0.063232 0.459656 0.000000
0.093201 0.459656 0.000000
0.125885 0.459656 0.000000
0.160248 0.459656 0.000000
0.201538 0.459656 0.000000
0.246399 0.459656 0.000000
0.295013 0.459656 0.000000
0.347015 0.459656 0.000000
0.402405 0.459656 0.000000
0.459656 0.459656 0.000000
0.514221 0.459656 0.000000
0.570160 0.459656 0.000000
0.625336 0.459656 0.000000
0.674011 0.459656 0.000000
0.720734 0.459656 0.000000
0.762177 0.459656 0.000000
0.800812 0.459656 0.000000
0.836426 0.459656 0.000000
0.867859 0.459656 0.000000
0.892761 0.459656 0.000000
0.915527 0.459656 0.000000
0.934967 0.459656 0.000000
0.953918 0.459656 0.000000
0.966156 0.459656 0.000000
0.980804 0.459656 0.000000
0.992310 0.459656 0.000000
1.000000 0.459656 0.000000
0.000000 0.514221 0.000000
0.000000 0.514221 0.000000
0.001556 0.514221 0.000000
0.020111 0.514221 0.000000
0.041290 0.514221 0.000000
0.063232 0.514221 0.000000
0.093201 0.514221 0.000000
0.125885 0.514221 0.000000
0.160248 0.514221 0.000000
0.201538 0.514221 0.000000
0.246399 0.514221 0.000000
0.295013 0.514221 0.000000
0.347015 0.514221 0.000000
0.402405 0.514221 0.000000
0.459656 0.514221 0.000000
0.514221 0.514221 0.000000
0.570160 0.514221 0.000000
0.625336 0.514221 0.000000
0.674011 0.514221 0.000000
0.720734 0.514221 0.000000
0.762177 0.514221 0.000000
0.800812 0.514221 0.000000
0.836426 0.514221 0.000000
0.867859 0.514221 0.000000
0.892761 0.514221 0.000000
0.915527 0.514221 0.000000
0.934967 0.514221 0.000000
0.953918 0.514221 0.000000
0.966156 0.514221 0.000000
0.980804 0.514221 0.000000
0.992310 0.514221 0.000000
1.000000 0.514221 0.000000
0.000000 0.570160 0.000000
0.000000 0.570160 0.000000
0.001556 0.570160 0.000000
0.020111 0.570160 0.000000
0.041290 0.570160 0.000000
0.063232 0.570160 0.000000
0.093201 0.570160 0.000000
0.125885 0.570160 0.000000
0.160248 0.570160 0.000000
0.201538 0.570160 0.000000
0.246399 0.570160 0.000000
0.295013 0.570160 0.000000
0.347015 0.570160 0.000000
0.402405 0.570160 0.000000
0.459656 0.570160 0.000000
0.514221 0.570160 0.000000
0.570160 0.570160 0.000000
0.625336 0.570160 0.000000
0.674011 0.570160 0.000000
0.720734 0.570160 0.000000
0.762177 0.570160 0.000000
0.800812 0.570160 0.000000
0.836426 0.570160 0.000000
0.867859 0.570160 0.000000
0.892761 0.570160 0.000000
0.915527 0.570160 0.000000
0.934967 0.570160 0.000000
0.953918 0.570160 0.000000
0.966156 0.570160 0.000000
0.980804 0.570160 0.000000
0.992310 0.570160 0.000000
1.000000 0.570160 0.000000
0.000000 0.625336 0.000000
0.000000 0.625336 0.000000
0.001556 0.625336 0.000000
0.020111 0.625336 0.000000
0.041290 0.625336 0.000000
0.063232 0.625336 0.000000
0.093201 0.625336 0.000000
0.125885 0.625336 0.000000
0.160248 0.625336 0.000000
0.201538 0.625336 0.000000
0.246399 0.625336 0.000000
0.295013 0.625336 0.000000
0.347015 0.625336 0.000000
0.402405 0.625336 0.000000
0.459656 0.625336 0.000000
0.514221 0.625336 0.000000
0.570160 0.625336 0.000000
0.625336 0.625336 0.000000
0.674011 0.625336 0.000000
0.720734 0.625336 0.000000
0.762177 0.625336 0.000000
0.800812 0.625336 0.000000
0.836426 0.625336 0.000000
0.867859 0.625336 0.000000
0.892761 0.625336 0.000000
0.915527 0.625336 0.000000
0.934967 0.625336 0.000000
0.953918 0.625336 0.000000
0.966156 0.625336 0.000000
0.980804 0.625336 0.000000
0.992310 0.625336 0.000000
1.000000 0.625336 0.000000
0.000000 0.674011 0.000000
0.000000 0.674011 0.000000
0.001556 0.674011 0.000000
0.020111 0.674011 0.000000
0.041290 0.674011 0.000000
0.063232 0.674011 0.000000
0.093201 0.674011 0.000000
0.125885 0.674011 0.000000
0.160248 0.674011 0.000000
0.201538 0.674011 0.000000
0.246399 0.674011 0.000000
0.295013 0.674011 0.000000
0.347015 0.674011 0.000000
0.402405 0.674011 0.000000
0.459656 0.674011 0.000000
0.514221 0.674011 0.000000
0.570160 0.674011 0.000000
0.625336 0.674011 0.000000
0.674011 0.674011 0.000000
0.720734 0.674011 0.000000
0.762177 0.674011 0.000000
0.800812 0.674011 0.000000
0.836426 0.674011 0.000000
0.867859 0.674011 0.000000
0.892761 0.674011 0.000000
0.915527 0.674011 0.000000
0.934967 0.674011 0.000000
0.953918 0.674011 0.000000
0.966156 0.674011 0.000000
0.980804 0.674011 0.000000
0.992310 0.674011 0.000000
1.000000 0.674011 0.000000
0.000000 0.720734 0.000000
0.000000 0.720734 0.000000
0.001556 0.720734 0.000000
0.020111 0.720734 0.000000
0.041290 0.720734 0.000000
0.063232 0.720734 0.000000
0.093201 0.720734 0.000000
0.125885 0.720734 0.000000
0.160248 0.720734 0.000000
0.201538 0.720734 0.000000
0.246399 0.720734 0.000000
0.295013 0.720734 0.000000
0.347015 0.720734 0.000000
0.402405 0.720734 0.000000
0.459656 0.720734 0.000000
0.514221 0.720734 0.000000
0.570160 0.720734 0.000000
0.625336 0.720734 0.000000
0.674011 0.720734 0.000000
0.720734 0.720734 0.000000
0.762177 0.720734 0.000000
0.800812 0.720734 0.000000
0.836426 0.720734 0.000000
0.867859 0.720734 0.000000
0.892761 0.720734 0.000000
0.915527 0.720734 0.000000
0.934967 0.720734 0.000000
0.953918 0.720734 0.000000
0.966156 0.720734 0.000000
0.980804 0.720734 0.000000
0.992310 0.720734 0.000000
1.000000 0.720734 0.000000
0.000000 0.762177 0.000000
0.000000 0.762177 0.000000
0.001556 0.762177 0.000000
0.020111 0.762177 0.000000
0.041290 0.762177 0.000000
0.063232 0.762177 0.000000
0.093201 0.762177 0.000000
0.125885 0.762177 0.000000
0.160248 0.762177 0.000000
0.201538 0.762177 0.000000
0.246399 0.762177 0.000000
0.295013 0.762177 0.000000
0.347015 0.762177 0.000000
0.402405 0.762177 0.000000
0.459656 0.762177 0.000000
0.514221 0.762177 0.000000
0.570160 0.762177 0.000000
0.625336 0.762177 0.000000
0.674011 0.762177 0.000000
0.720734 0.762177 0.000000
0.762177 0.762177 0.000000
0.800812 0.762177 0.000000
0.836426 0.762177 0.000000
0.867859 0.762177 0.000000
0.892761 0.762177 0.000000
0.915527 0.762177 0.000000
0.934967 0.762177 0.000000
0.953918 0.762177 0.000000
0.966156 0.762177 0.000000
0.980804 0.762177 0.000000
0.992310 0.762177 0.000000
1.000000 0.762177 0.000000
0.000000 0.800812 0.000000
0.000000 0.800812 0.000000
0.001556 0.800812 0.000000
0.020111 0.800812 0.000000
0.041290 0.800812 0.000000
0.063232 0.800812 0.000000
0.093201 0.800812 0.000000
0.125885 0.800812 0.000000
0.160248 0.800812 0.000000
0.201538 0.800812 0.000000
0.246399 0.800812 0.000000
0.295013 0.800812 0.000000
0.347015 0.800812 0.000000
0.402405 0.800812 0.000000
0.459656 0.800812 0.000000
0.514221 0.800812 0.000000
0.570160 0.800812 0.000000
0.625336 0.800812 0.000000
0.674011 0.800812 0.000000
0.720734 0.800812 0.000000
0.762177 0.800812 0.000000
0.800812 0.800812 0.000000
0.836426 0.800812 0.000000
0.867859 0.800812 0.000000
0.892761 0.800812 0.000000
0.915527 0.800812 0.000000
0.934967 0.800812 0.000000
0.953918 0.800812 0.000000
0.966156 0.800812 0.000000
0.980804 0.800812 0.000000
0.992310 0.800812 0.000000
1.000000 0.800812 0.000000
0.000000 0.836426 0.000000
0.000000 0.836426 0.000000
0.001556 0.836426 0.000000
0.020111 0.836426 0.000000
0.041290 0.836426 0.000000
0.063232 0.836426 0.000000
0.093201 0.836426 0.000000
0.125885 0.836426 0.000000
0.160248 0.836426 0.000000
0.201538 0.836426 0.000000
0.246399 0.836426 0.000000
0.295013 0.836426 0.000000
0.347015 0.836426 0.000000
0.402405 0.836426 0.000000
0.459656 0.836426 0.000000
0.514221 0.836426 0.000000
0.570160 0.836426 0.000000
0.625336 0.836426 0.000000
0.674011 0.836426 0.000000
0.720734 0.836426 0.000000
0.762177 0.836426 0.000000
0.800812 0.836426 0.000000
0.836426 0.836426 0.000000
0.867859 0.836426 0.000000
0.892761 0.836426 0.000000
0.915527 0.836426 0.000000
0.934967 0.836426 0.000000
0.953918 0.836426 0.000000
0.966156 0.836426 0.000000
0.980804 0.836426 0.000000
0.992310 0.836426 0.000000
1.000000 0.836426 0.000000
0.000000 0.867859 0.000000
0.000000 0.867859 0.000000
0.001556 0.867859 0.000000
0.020111 0.867859 0.000000
0.041290 0.867859 0.000000
0.063232 0.867859 0.000000
0.093201 0.867859 0.000000
0.125885 0.867859 0.000000
0.160248 0.867859 0.000000
0.201538 0.867859 0.000000
0.246399 0.867859 0.000000
0.295013 0.867859 0.000000
0.347015 0.867859 0.000000
0.402405 0.867859 0.000000
0.459656 0.867859 0.000000
0.514221 0.867859 0.000000
0.570160 0.867859 0.000000
0.625336 0.867859 0.000000
0.674011 0.867859 0.000000
0.720734 0.867859 0.000000
0.762177 0.867859 0.000000
0.800812 0.867859 0.000000
0.836426 0.867859 0.000000
0.867859 0.867859 0.000000
0.892761 0.867859 0.000000
0.915527 0.867859 0.000000
0.934967 0.867859 0.000000
0.953918 0.867859 0.000000
0.966156 0.867859 0.000000
0.980804 0.867859 0.000000
0.992310 0.867859 0.000000
1.000000 0.867859 0.000000
0.000000 0.892761 0.000000
0.000000 0.892761 0.000000
0.001556 0.892761 0.000000
0.020111 0.892761 0.000000
0.041290 0.892761 0.000000
0.063232 0.892761 0.000000
0.093201 0.892761 0.000000
0.125885 0.892761 0.000000
0.160248 0.892761 0.000000
0.201538 0.892761 0.000000
0.246399 0.892761 0.000000
0.295013 0.892761 0.000000
0.347015 0.892761 0.000000
0.402405 0.892761 0.000000
0.459656 0.892761 0.000000
0.514221 0.892761 0.000000
0.570160 0.892761 0.000000
0.625336 0.892761 0.000000
0.674011 0.892761 0.000000
0.720734 0.892761 0.000000
0.762177 0.892761 0.000000
0.800812 0.892761 0.000000
0.836426 0.892761 0.000000
0.867859 0.892761 0.000000
0.892761 0.892761 0.000000
0.915527 0.892761 0.000000
0.934967 0.892761 0.000000
0.953918 0.892761 0.000000
0.966156 0.892761 0.000000
0.980804 0.892761 0.000000
0.992310 0.892761 0.000000
1.000000 0.892761 0.000000
0.000000 0.915527 0.000000
0.000000 0.915527 0.000000
0.001556 0.915527 0.000000
0.020111 0.915527 0.000000
0.041290 0.915527 0.000000
0.063232 0.915527 0.000000
0.093201 0.915527 0.000000
0.125885 0.915527 0.000000
0.160248 0.915527 0.000000
0.201538 0.915527 0.000000
0.246399 0.915527 0.000000
0.295013 0.915527 0.000000
0.347015 0.915527 0.000000
0.402405 0.915527 0.000000
0.459656 0.915527 0.000000
0.514221 0.915527 0.000000
0.570160 0.915527 0.000000
0.625336 0.915527 0.000000
0.674011 0.915527 0.000000
0.720734 0.915527 0.000000
0.762177 0.915527 0.000000
0.800812 0.915527 0.000000
0.836426 0.915527 0.000000
0.867859 0.915527 0.000000
0.892761 0.915527 0.000000
0.915527 0.915527 0.000000
0.934967 0.915527 0.000000
0.953918 0.915527 0.000000
0.966156 0.915527 0.000000
0.980804 0.915527 0.000000
0.992310 0.915527 0.000000
1.000000 0.915527 0.000000
0.000000 0.934967 0.000000
0.000000 0.934967 0.000000
0.001556 0.934967 0.000000
0.020111 0.934967 0.000000
0.041290 0.934967 0.000000
0.063232 0.934967 0.000000
0.093201 0.934967 0.000000
0.125885 0.934967 0.000000
0.160248 0.934967 0.000000
0.201538 0.934967 0.000000
0.246399 0.934967 0.000000
0.295013 0.934967 0.000000
0.347015 0.934967 0.000000
0.402405 0.934967 0.000000
0.459656 0.934967 0.000000
0.514221 0.934967 0.000000
0.570160 0.934967 0.000000
0.625336 0.934967 0.000000
0.674011 0.934967 0.000000
0.720734 0.934967 0.000000
0.762177 0.934967 0.000000
0.800812 0.934967 0.000000
0.836426 0.934967 0.000000
0.867859 0.934967 0.000000
0.892761 0.934967 0.000000
0.915527 0.934967 0.000000
0.934967 0.934967 0.000000
0.953918 0.934967 0.000000
0.966156 0.934967 0.000000
0.980804 0.934967 0.000000
0.992310 0.934967 0.000000
1.000000 0.934967 0.000000
0.000000 0.953918 0.000000
0.000000 0.953918 0.000000
0.001556 0.953918 0.000000
0.020111 0.953918 0.000000
0.041290 0.953918 0.000000
0.063232 0.953918 0.000000
0.093201 0.953918 0.000000
0.125885 0.953918 0.000000
0.160248 0.953918 0.000000
0.201538 0.953918 0.000000
0.246399 0.953918 0.000000
0.295013 0.953918 0.000000
0.347015 0.953918 0.000000
0.402405 0.953918 0.000000
0.459656 0.953918 0.000000
0.514221 0.953918 0.000000
0.570160 0.953918 0.000000
