Postproduction/IWLTBAP - Humble/LUTs by IWLTBAP (CUBE)/UTILITY/REDlogFilm to Rec.709/U-REDLOGFILM-V1-LTR.cube
# Copyright: (C) Copyright 2010-2018 by IWLTBAP SAS
# Cannot be resold, shared or otherwise redistributed
# Website: https://luts.iwltbap.com
TITLE "REDLogFilm Version 1 (Utility LOG to Rec.709)"
LUT_3D_SIZE 5
DOMAIN_MIN 0.000000 0.000000 0.000000
DOMAIN_MAX 0.903226 0.903226 0.903226
0.000000 0.000000 0.000000
0.125885 0.000000 0.000000
0.459656 0.000000 0.000000
0.800812 0.000000 0.000000
0.966156 0.000000 0.000000
0.000000 0.125885 0.000000
0.125885 0.125885 0.000000
0.459656 0.125885 0.000000
0.800812 0.125885 0.000000
0.966156 0.125885 0.000000
0.000000 0.459656 0.000000
0.125885 0.459656 0.000000
0.459656 0.459656 0.000000
0.800812 0.459656 0.000000
0.966156 0.459656 0.000000
0.000000 0.800812 0.000000
0.125885 0.800812 0.000000
0.459656 0.800812 0.000000
0.800812 0.800812 0.000000
0.966156 0.800812 0.000000
0.000000 0.966156 0.000000
0.125885 0.966156 0.000000
0.459656 0.966156 0.000000
0.800812 0.966156 0.000000
0.966156 0.966156 0.000000
0.000000 0.000000 0.125885
0.125885 0.000000 0.125885
0.459656 0.000000 0.125885
0.800812 0.000000 0.125885
0.966156 0.000000 0.125885
0.000000 0.125885 0.125885
0.125885 0.125885 0.125885
0.459656 0.125885 0.125885
0.800812 0.125885 0.125885
0.966156 0.125885 0.125885
0.000000 0.459656 0.125885
0.125885 0.459656 0.125885
0.459656 0.459656 0.125885
0.800812 0.459656 0.125885
0.966156 0.459656 0.125885
0.000000 0.800812 0.125885
0.125885 0.800812 0.125885
0.459656 0.800812 0.125885
0.800812 0.800812 0.125885
0.966156 0.800812 0.125885
0.000000 0.966156 0.125885
0.125885 0.966156 0.125885
0.459656 0.966156 0.125885
0.800812 0.966156 0.125885
0.966156 0.966156 0.125885
0.000000 0.000000 0.459656
0.125885 0.000000 0.459656
0.459656 0.000000 0.459656
0.800812 0.000000 0.459656
0.966156 0.000000 0.459656
0.000000 0.125885 0.459656
0.125885 0.125885 0.459656
0.459656 0.125885 0.459656
0.800812 0.125885 0.459656
0.966156 0.125885 0.459656
0.000000 0.459656 0.459656
0.125885 0.459656 0.459656
0.459656 0.459656 0.459656
0.800812 0.459656 0.459656
0.966156 0.459656 0.459656
0.000000 0.800812 0.459656
0.125885 0.800812 0.459656
0.459656 0.800812 0.459656
0.800812 0.800812 0.459656
0.966156 0.800812 0.459656
0.000000 0.966156 0.459656
0.125885 0.966156 0.459656
0.459656 0.966156 0.459656
0.800812 0.966156 0.459656
0.966156 0.966156 0.459656
0.000000 0.000000 0.800812
0.125885 0.000000 0.800812
0.459656 0.000000 0.800812
0.800812 0.000000 0.800812
0.966156 0.000000 0.800812
0.000000 0.125885 0.800812
0.125885 0.125885 0.800812
0.459656 0.125885 0.800812
0.800812 0.125885 0.800812
0.966156 0.125885 0.800812
0.000000 0.459656 0.800812
0.125885 0.459656 0.800812
0.459656 0.459656 0.800812
0.800812 0.459656 0.800812
0.966156 0.459656 0.800812
0.000000 0.800812 0.800812
0.125885 0.800812 0.800812
0.459656 0.800812 0.800812
0.800812 0.800812 0.800812
0.966156 0.800812 0.800812
0.000000 0.966156 0.800812
0.125885 0.966156 0.800812
0.459656 0.966156 0.800812
0.800812 0.966156 0.800812
0.966156 0.966156 0.800812
0.000000 0.000000 0.966156
0.125885 0.000000 0.966156
0.459656 0.000000 0.966156
0.800812 0.000000 0.966156
0.966156 0.000000 0.966156
0.000000 0.125885 0.966156
0.125885 0.125885 0.966156
0.459656 0.125885 0.966156
0.800812 0.125885 0.966156
0.966156 0.125885 0.966156
0.000000 0.459656 0.966156
0.125885 0.459656 0.966156
0.459656 0.459656 0.966156
0.800812 0.459656 0.966156
0.966156 0.459656 0.966156
0.000000 0.800812 0.966156
0.125885 0.800812 0.966156
0.459656 0.800812 0.966156
0.800812 0.800812 0.966156
0.966156 0.800812 0.966156
0.000000 0.966156 0.966156
0.125885 0.966156 0.966156
0.459656 0.966156 0.966156
0.800812 0.966156 0.966156
0.966156 0.966156 0.966156
