Postproduction/IWLTBAP - Humble/LUTs by IWLTBAP (CUBE)/UTILITY/REDlogFilm to Rec.709/U-REDLOGFILM-V2-LTR.cube
# Copyright: (C) Copyright 2010-2018 by IWLTBAP SAS
# Cannot be resold, shared or otherwise redistributed
# Website: https://luts.iwltbap.com
TITLE "REDLogFilm Version 2 (Utility LOG to Rec.709)"
LUT_3D_SIZE 5
DOMAIN_MIN 0.000000 0.000000 0.000000
DOMAIN_MAX 0.903226 0.903226 0.903226
0.000000 0.000000 0.000000
0.087646 0.000000 0.000000
0.363312 0.000000 0.000000
0.782532 0.000000 0.000000
1.000000 0.000000 0.000000
0.000000 0.087036 0.000000
0.086945 0.086945 0.000000
0.364563 0.079742 0.000000
0.795319 0.071503 0.000000
1.000000 0.073853 0.000000
0.000000 0.353027 0.000000
0.077850 0.362640 0.000000
0.365784 0.365784 0.000000
0.809265 0.365082 0.000000
1.000000 0.371643 0.000000
0.000000 0.778839 0.000000
0.075653 0.802002 0.000000
0.366058 0.811035 0.000000
0.811127 0.811127 0.000000
1.000000 0.820282 0.000000
0.000000 1.000000 0.000000
0.097748 1.000000 0.000000
0.382996 1.000000 0.000000
0.831268 1.000000 0.000000
1.000000 0.999878 0.006592
0.000000 0.000000 0.087097
0.087982 0.000000 0.087982
0.363190 0.000000 0.078583
0.782227 0.000000 0.062988
1.000000 0.000000 0.055237
0.000000 0.086884 0.086884
0.087311 0.087311 0.087311
0.365967 0.081268 0.081268
0.800079 0.074402 0.074402
1.000000 0.077576 0.077576
0.000000 0.355988 0.070587
0.081787 0.366516 0.081787
0.369812 0.369812 0.085754
0.817108 0.369507 0.085114
1.000000 0.376068 0.092407
0.000000 0.786438 0.065704
0.080658 0.809937 0.080658
0.370453 0.818604 0.086395
0.818573 0.818573 0.086304
1.000000 0.827148 0.091644
0.000000 1.000000 0.089844
0.101562 1.000000 0.101562
0.385925 1.000000 0.102753
0.835297 1.000000 0.096497
1.000000 1.000000 0.094086
0.000000 0.000000 0.368591
0.084625 0.000000 0.369019
0.360077 0.000000 0.360077
0.777161 0.000000 0.346619
1.000000 0.000000 0.340820
0.000000 0.083435 0.367859
0.084778 0.084778 0.369141
0.364960 0.080231 0.364960
0.800415 0.074707 0.359772
1.000000 0.078430 0.363281
0.000000 0.356415 0.356415
0.082947 0.367523 0.367523
0.371277 0.371277 0.371277
0.819885 0.371185 0.371185
1.000000 0.377930 0.377930
0.000000 0.789734 0.353699
0.082550 0.813019 0.367188
0.372009 0.821564 0.372009
0.820587 0.820587 0.371643
1.000000 0.828583 0.376068
0.000000 1.000000 0.374634
0.102295 1.000000 0.385468
0.385803 1.000000 0.385803
0.833313 1.000000 0.378876
1.000000 1.000000 0.375977
0.000000 0.000000 0.808350
0.079834 0.000000 0.808289
0.355316 0.000000 0.792633
0.769196 0.000000 0.769196
1.000000 0.000000 0.760254
0.000000 0.078857 0.806793
0.081116 0.081116 0.810547
0.362671 0.077942 0.805481
0.798004 0.073303 0.798004
1.000000 0.077850 0.805420
0.000000 0.355438 0.792755
0.082458 0.367065 0.812805
0.371185 0.371185 0.819916
0.820160 0.371338 0.820160
1.000000 0.378174 0.832001
0.000000 0.789886 0.789886
0.082672 0.813202 0.813202
0.371857 0.821320 0.821320
0.820068 0.820068 0.820068
1.000000 0.826935 0.826935
0.000000 1.000000 0.824951
0.100952 1.000000 0.842743
0.383698 1.000000 0.841644
0.827881 1.000000 0.827881
1.000000 1.000000 0.822327
0.000000 0.000000 0.999939
0.077148 0.000000 1.000000
0.352875 0.000000 1.000000
0.765869 0.000000 1.000000
1.000000 0.000000 1.000000
0.000000 0.076721 1.000000
0.080139 0.080139 1.000000
0.363159 0.078339 1.000000
0.800293 0.074585 1.000000
1.000000 0.079620 1.000000
0.000000 0.356903 1.000000
0.084259 0.368835 1.000000
0.373230 0.373230 1.000000
0.824310 0.373596 1.000000
1.000000 0.380432 1.000000
0.000000 0.794067 1.000000
0.085175 0.817047 1.000000
0.373993 0.824921 1.000000
0.822754 0.822754 1.000000
1.000000 0.828552 1.000000
0.000000 1.000000 1.000000
0.101898 1.000000 1.000000
0.383575 1.000000 1.000000
0.826294 1.000000 1.000000
1.000000 1.000000 1.000000
