Postproduction/IWLTBAP - Humble/LUTs by IWLTBAP (CUBE)/UTILITY/REDlogFilm to Rec.709/U-REDLOGFILM-V1-LTR.cube
# Copyright: (C) Copyright 2010-2018 by IWLTBAP SAS
# Cannot be resold, shared or otherwise redistributed
# Website: https://luts.iwltbap.com
TITLE "REDLogFilm Version 1 (Utility LOG to Rec.709)"
LUT_3D_SIZE 8
DOMAIN_MIN 0.000000 0.000000 0.000000
DOMAIN_MAX 0.903226 0.903226 0.903226
0.000000 0.000000 0.000000
0.041290 0.000000 0.000000
0.160248 0.000000 0.000000
0.347015 0.000000 0.000000
0.570160 0.000000 0.000000
0.762177 0.000000 0.000000
0.892761 0.000000 0.000000
0.966156 0.000000 0.000000
0.000000 0.041290 0.000000
0.041290 0.041290 0.000000
0.160248 0.041290 0.000000
0.347015 0.041290 0.000000
0.570160 0.041290 0.000000
0.762177 0.041290 0.000000
0.892761 0.041290 0.000000
0.966156 0.041290 0.000000
0.000000 0.160248 0.000000
0.041290 0.160248 0.000000
0.160248 0.160248 0.000000
0.347015 0.160248 0.000000
0.570160 0.160248 0.000000
0.762177 0.160248 0.000000
0.892761 0.160248 0.000000
0.966156 0.160248 0.000000
0.000000 0.347015 0.000000
0.041290 0.347015 0.000000
0.160248 0.347015 0.000000
0.347015 0.347015 0.000000
0.570160 0.347015 0.000000
0.762177 0.347015 0.000000
0.892761 0.347015 0.000000
0.966156 0.347015 0.000000
0.000000 0.570160 0.000000
0.041290 0.570160 0.000000
0.160248 0.570160 0.000000
0.347015 0.570160 0.000000
0.570160 0.570160 0.000000
0.762177 0.570160 0.000000
0.892761 0.570160 0.000000
0.966156 0.570160 0.000000
0.000000 0.762177 0.000000
0.041290 0.762177 0.000000
0.160248 0.762177 0.000000
0.347015 0.762177 0.000000
0.570160 0.762177 0.000000
0.762177 0.762177 0.000000
0.892761 0.762177 0.000000
0.966156 0.762177 0.000000
0.000000 0.892761 0.000000
0.041290 0.892761 0.000000
0.160248 0.892761 0.000000
0.347015 0.892761 0.000000
0.570160 0.892761 0.000000
0.762177 0.892761 0.000000
0.892761 0.892761 0.000000
0.966156 0.892761 0.000000
0.000000 0.966156 0.000000
0.041290 0.966156 0.000000
0.160248 0.966156 0.000000
0.347015 0.966156 0.000000
0.570160 0.966156 0.000000
0.762177 0.966156 0.000000
0.892761 0.966156 0.000000
0.966156 0.966156 0.000000
0.000000 0.000000 0.041290
0.041290 0.000000 0.041290
0.160248 0.000000 0.041290
0.347015 0.000000 0.041290
0.570160 0.000000 0.041290
0.762177 0.000000 0.041290
0.892761 0.000000 0.041290
0.966156 0.000000 0.041290
0.000000 0.041290 0.041290
0.041290 0.041290 0.041290
0.160248 0.041290 0.041290
0.347015 0.041290 0.041290
0.570160 0.041290 0.041290
0.762177 0.041290 0.041290
0.892761 0.041290 0.041290
0.966156 0.041290 0.041290
0.000000 0.160248 0.041290
0.041290 0.160248 0.041290
0.160248 0.160248 0.041290
0.347015 0.160248 0.041290
0.570160 0.160248 0.041290
0.762177 0.160248 0.041290
0.892761 0.160248 0.041290
0.966156 0.160248 0.041290
0.000000 0.347015 0.041290
0.041290 0.347015 0.041290
0.160248 0.347015 0.041290
0.347015 0.347015 0.041290
0.570160 0.347015 0.041290
0.762177 0.347015 0.041290
0.892761 0.347015 0.041290
0.966156 0.347015 0.041290
0.000000 0.570160 0.041290
0.041290 0.570160 0.041290
0.160248 0.570160 0.041290
0.347015 0.570160 0.041290
0.570160 0.570160 0.041290
0.762177 0.570160 0.041290
0.892761 0.570160 0.041290
0.966156 0.570160 0.041290
0.000000 0.762177 0.041290
0.041290 0.762177 0.041290
0.160248 0.762177 0.041290
0.347015 0.762177 0.041290
0.570160 0.762177 0.041290
0.762177 0.762177 0.041290
0.892761 0.762177 0.041290
0.966156 0.762177 0.041290
0.000000 0.892761 0.041290
0.041290 0.892761 0.041290
0.160248 0.892761 0.041290
0.347015 0.892761 0.041290
0.570160 0.892761 0.041290
0.762177 0.892761 0.041290
0.892761 0.892761 0.041290
0.966156 0.892761 0.041290
0.000000 0.966156 0.041290
0.041290 0.966156 0.041290
0.160248 0.966156 0.041290
0.347015 0.966156 0.041290
0.570160 0.966156 0.041290
0.762177 0.966156 0.041290
0.892761 0.966156 0.041290
0.966156 0.966156 0.041290
0.000000 0.000000 0.160248
0.041290 0.000000 0.160248
0.160248 0.000000 0.160248
0.347015 0.000000 0.160248
0.570160 0.000000 0.160248
0.762177 0.000000 0.160248
0.892761 0.000000 0.160248
0.966156 0.000000 0.160248
0.000000 0.041290 0.160248
0.041290 0.041290 0.160248
0.160248 0.041290 0.160248
0.347015 0.041290 0.160248
0.570160 0.041290 0.160248
0.762177 0.041290 0.160248
0.892761 0.041290 0.160248
0.966156 0.041290 0.160248
0.000000 0.160248 0.160248
0.041290 0.160248 0.160248
0.160248 0.160248 0.160248
0.347015 0.160248 0.160248
0.570160 0.160248 0.160248
0.762177 0.160248 0.160248
0.892761 0.160248 0.160248
0.966156 0.160248 0.160248
0.000000 0.347015 0.160248
0.041290 0.347015 0.160248
0.160248 0.347015 0.160248
0.347015 0.347015 0.160248
0.570160 0.347015 0.160248
0.762177 0.347015 0.160248
0.892761 0.347015 0.160248
0.966156 0.347015 0.160248
0.000000 0.570160 0.160248
0.041290 0.570160 0.160248
0.160248 0.570160 0.160248
0.347015 0.570160 0.160248
0.570160 0.570160 0.160248
0.762177 0.570160 0.160248
0.892761 0.570160 0.160248
0.966156 0.570160 0.160248
0.000000 0.762177 0.160248
0.041290 0.762177 0.160248
0.160248 0.762177 0.160248
0.347015 0.762177 0.160248
0.570160 0.762177 0.160248
0.762177 0.762177 0.160248
0.892761 0.762177 0.160248
0.966156 0.762177 0.160248
0.000000 0.892761 0.160248
0.041290 0.892761 0.160248
0.160248 0.892761 0.160248
0.347015 0.892761 0.160248
0.570160 0.892761 0.160248
0.762177 0.892761 0.160248
0.892761 0.892761 0.160248
0.966156 0.892761 0.160248
0.000000 0.966156 0.160248
0.041290 0.966156 0.160248
0.160248 0.966156 0.160248
0.347015 0.966156 0.160248
0.570160 0.966156 0.160248
0.762177 0.966156 0.160248
0.892761 0.966156 0.160248
0.966156 0.966156 0.160248
0.000000 0.000000 0.347015
0.041290 0.000000 0.347015
0.160248 0.000000 0.347015
0.347015 0.000000 0.347015
0.570160 0.000000 0.347015
0.762177 0.000000 0.347015
0.892761 0.000000 0.347015
0.966156 0.000000 0.347015
0.000000 0.041290 0.347015
0.041290 0.041290 0.347015
0.160248 0.041290 0.347015
0.347015 0.041290 0.347015
0.570160 0.041290 0.347015
0.762177 0.041290 0.347015
0.892761 0.041290 0.347015
0.966156 0.041290 0.347015
0.000000 0.160248 0.347015
0.041290 0.160248 0.347015
0.160248 0.160248 0.347015
0.347015 0.160248 0.347015
0.570160 0.160248 0.347015
0.762177 0.160248 0.347015
0.892761 0.160248 0.347015
0.966156 0.160248 0.347015
0.000000 0.347015 0.347015
0.041290 0.347015 0.347015
0.160248 0.347015 0.347015
0.347015 0.347015 0.347015
0.570160 0.347015 0.347015
0.762177 0.347015 0.347015
0.892761 0.347015 0.347015
0.966156 0.347015 0.347015
0.000000 0.570160 0.347015
0.041290 0.570160 0.347015
0.160248 0.570160 0.347015
0.347015 0.570160 0.347015
0.570160 0.570160 0.347015
0.762177 0.570160 0.347015
0.892761 0.570160 0.347015
0.966156 0.570160 0.347015
0.000000 0.762177 0.347015
0.041290 0.762177 0.347015
0.160248 0.762177 0.347015
0.347015 0.762177 0.347015
0.570160 0.762177 0.347015
0.762177 0.762177 0.347015
0.892761 0.762177 0.347015
0.966156 0.762177 0.347015
0.000000 0.892761 0.347015
0.041290 0.892761 0.347015
0.160248 0.892761 0.347015
0.347015 0.892761 0.347015
0.570160 0.892761 0.347015
0.762177 0.892761 0.347015
0.892761 0.892761 0.347015
0.966156 0.892761 0.347015
0.000000 0.966156 0.347015
0.041290 0.966156 0.347015
0.160248 0.966156 0.347015
0.347015 0.966156 0.347015
0.570160 0.966156 0.347015
0.762177 0.966156 0.347015
0.892761 0.966156 0.347015
0.966156 0.966156 0.347015
0.000000 0.000000 0.570160
0.041290 0.000000 0.570160
0.160248 0.000000 0.570160
0.347015 0.000000 0.570160
0.570160 0.000000 0.570160
0.762177 0.000000 0.570160
0.892761 0.000000 0.570160
0.966156 0.000000 0.570160
0.000000 0.041290 0.570160
0.041290 0.041290 0.570160
0.160248 0.041290 0.570160
0.347015 0.041290 0.570160
0.570160 0.041290 0.570160
0.762177 0.041290 0.570160
0.892761 0.041290 0.570160
0.966156 0.041290 0.570160
0.000000 0.160248 0.570160
0.041290 0.160248 0.570160
0.160248 0.160248 0.570160
0.347015 0.160248 0.570160
0.570160 0.160248 0.570160
0.762177 0.160248 0.570160
0.892761 0.160248 0.570160
0.966156 0.160248 0.570160
0.000000 0.347015 0.570160
0.041290 0.347015 0.570160
0.160248 0.347015 0.570160
0.347015 0.347015 0.570160
0.570160 0.347015 0.570160
0.762177 0.347015 0.570160
0.892761 0.347015 0.570160
0.966156 0.347015 0.570160
0.000000 0.570160 0.570160
0.041290 0.570160 0.570160
0.160248 0.570160 0.570160
0.347015 0.570160 0.570160
0.570160 0.570160 0.570160
0.762177 0.570160 0.570160
0.892761 0.570160 0.570160
0.966156 0.570160 0.570160
0.000000 0.762177 0.570160
0.041290 0.762177 0.570160
0.160248 0.762177 0.570160
0.347015 0.762177 0.570160
0.570160 0.762177 0.570160
0.762177 0.762177 0.570160
0.892761 0.762177 0.570160
0.966156 0.762177 0.570160
0.000000 0.892761 0.570160
0.041290 0.892761 0.570160
0.160248 0.892761 0.570160
0.347015 0.892761 0.570160
0.570160 0.892761 0.570160
0.762177 0.892761 0.570160
0.892761 0.892761 0.570160
0.966156 0.892761 0.570160
0.000000 0.966156 0.570160
0.041290 0.966156 0.570160
0.160248 0.966156 0.570160
0.347015 0.966156 0.570160
0.570160 0.966156 0.570160
0.762177 0.966156 0.570160
0.892761 0.966156 0.570160
0.966156 0.966156 0.570160
0.000000 0.000000 0.762177
0.041290 0.000000 0.762177
0.160248 0.000000 0.762177
0.347015 0.000000 0.762177
0.570160 0.000000 0.762177
0.762177 0.000000 0.762177
0.892761 0.000000 0.762177
0.966156 0.000000 0.762177
0.000000 0.041290 0.762177
0.041290 0.041290 0.762177
0.160248 0.041290 0.762177
0.347015 0.041290 0.762177
0.570160 0.041290 0.762177
0.762177 0.041290 0.762177
0.892761 0.041290 0.762177
0.966156 0.041290 0.762177
0.000000 0.160248 0.762177
0.041290 0.160248 0.762177
0.160248 0.160248 0.762177
0.347015 0.160248 0.762177
0.570160 0.160248 0.762177
0.762177 0.160248 0.762177
0.892761 0.160248 0.762177
0.966156 0.160248 0.762177
0.000000 0.347015 0.762177
0.041290 0.347015 0.762177
0.160248 0.347015 0.762177
0.347015 0.347015 0.762177
0.570160 0.347015 0.762177
0.762177 0.347015 0.762177
0.892761 0.347015 0.762177
0.966156 0.347015 0.762177
0.000000 0.570160 0.762177
0.041290 0.570160 0.762177
0.160248 0.570160 0.762177
0.347015 0.570160 0.762177
0.570160 0.570160 0.762177
0.762177 0.570160 0.762177
0.892761 0.570160 0.762177
0.966156 0.570160 0.762177
0.000000 0.762177 0.762177
0.041290 0.762177 0.762177
0.160248 0.762177 0.762177
0.347015 0.762177 0.762177
0.570160 0.762177 0.762177
0.762177 0.762177 0.762177
0.892761 0.762177 0.762177
0.966156 0.762177 0.762177
0.000000 0.892761 0.762177
0.041290 0.892761 0.762177
0.160248 0.892761 0.762177
0.347015 0.892761 0.762177
0.570160 0.892761 0.762177
0.762177 0.892761 0.762177
0.892761 0.892761 0.762177
0.966156 0.892761 0.762177
0.000000 0.966156 0.762177
0.041290 0.966156 0.762177
0.160248 0.966156 0.762177
0.347015 0.966156 0.762177
0.570160 0.966156 0.762177
0.762177 0.966156 0.762177
0.892761 0.966156 0.762177
0.966156 0.966156 0.762177
0.000000 0.000000 0.892761
0.041290 0.000000 0.892761
0.160248 0.000000 0.892761
0.347015 0.000000 0.892761
0.570160 0.000000 0.892761
0.762177 0.000000 0.892761
0.892761 0.000000 0.892761
0.966156 0.000000 0.892761
0.000000 0.041290 0.892761
0.041290 0.041290 0.892761
0.160248 0.041290 0.892761
0.347015 0.041290 0.892761
0.570160 0.041290 0.892761
0.762177 0.041290 0.892761
0.892761 0.041290 0.892761
0.966156 0.041290 0.892761
0.000000 0.160248 0.892761
0.041290 0.160248 0.892761
0.160248 0.160248 0.892761
0.347015 0.160248 0.892761
0.570160 0.160248 0.892761
0.762177 0.160248 0.892761
0.892761 0.160248 0.892761
0.966156 0.160248 0.892761
0.000000 0.347015 0.892761
0.041290 0.347015 0.892761
0.160248 0.347015 0.892761
0.347015 0.347015 0.892761
0.570160 0.347015 0.892761
0.762177 0.347015 0.892761
0.892761 0.347015 0.892761
0.966156 0.347015 0.892761
0.000000 0.570160 0.892761
0.041290 0.570160 0.892761
0.160248 0.570160 0.892761
0.347015 0.570160 0.892761
0.570160 0.570160 0.892761
0.762177 0.570160 0.892761
0.892761 0.570160 0.892761
0.966156 0.570160 0.892761
0.000000 0.762177 0.892761
0.041290 0.762177 0.892761
0.160248 0.762177 0.892761
0.347015 0.762177 0.892761
0.570160 0.762177 0.892761
0.762177 0.762177 0.892761
0.892761 0.762177 0.892761
0.966156 0.762177 0.892761
0.000000 0.892761 0.892761
0.041290 0.892761 0.892761
0.160248 0.892761 0.892761
0.347015 0.892761 0.892761
0.570160 0.892761 0.892761
0.762177 0.892761 0.892761
0.892761 0.892761 0.892761
0.966156 0.892761 0.892761
0.000000 0.966156 0.892761
0.041290 0.966156 0.892761
0.160248 0.966156 0.892761
0.347015 0.966156 0.892761
0.570160 0.966156 0.892761
0.762177 0.966156 0.892761
0.892761 0.966156 0.892761
0.966156 0.966156 0.892761
0.000000 0.000000 0.966156
0.041290 0.000000 0.966156
0.160248 0.000000 0.966156
0.347015 0.000000 0.966156
0.570160 0.000000 0.966156
0.762177 0.000000 0.966156
0.892761 0.000000 0.966156
0.966156 0.000000 0.966156
0.000000 0.041290 0.966156
0.041290 0.041290 0.966156
0.160248 0.041290 0.966156
0.347015 0.041290 0.966156
0.570160 0.041290 0.966156
0.762177 0.041290 0.966156
0.892761 0.041290 0.966156
0.966156 0.041290 0.966156
0.000000 0.160248 0.966156
0.041290 0.160248 0.966156
0.160248 0.160248 0.966156
0.347015 0.160248 0.966156
0.570160 0.160248 0.966156
0.762177 0.160248 0.966156
0.892761 0.160248 0.966156
0.966156 0.160248 0.966156
0.000000 0.347015 0.966156
0.041290 0.347015 0.966156
0.160248 0.347015 0.966156
0.347015 0.347015 0.966156
0.570160 0.347015 0.966156
0.762177 0.347015 0.966156
0.892761 0.347015 0.966156
0.966156 0.347015 0.966156
0.000000 0.570160 0.966156
0.041290 0.570160 0.966156
0.160248 0.570160 0.966156
0.347015 0.570160 0.966156
0.570160 0.570160 0.966156
0.762177 0.570160 0.966156
0.892761 0.570160 0.966156
0.966156 0.570160 0.966156
0.000000 0.762177 0.966156
0.041290 0.762177 0.966156
0.160248 0.762177 0.966156
0.347015 0.762177 0.966156
0.570160 0.762177 0.966156
0.762177 0.762177 0.966156
0.892761 0.762177 0.966156
0.966156 0.762177 0.966156
0.000000 0.892761 0.966156
0.041290 0.892761 0.966156
0.160248 0.892761 0.966156
0.347015 0.892761 0.966156
0.570160 0.892761 0.966156
0.762177 0.892761 0.966156
0.892761 0.892761 0.966156
0.966156 0.892761 0.966156
0.000000 0.966156 0.966156
0.041290 0.966156 0.966156
0.160248 0.966156 0.966156
0.347015 0.966156 0.966156
0.570160 0.966156 0.966156
0.762177 0.966156 0.966156
0.892761 0.966156 0.966156
0.966156 0.966156 0.966156
