Postproduction/IWLTBAP - Humble/LUTs by IWLTBAP (CUBE)/UTILITY/REDlogFilm to Rec.709/U-REDLOGFILM-V2-LTR.cube
# Copyright: (C) Copyright 2010-2018 by IWLTBAP SAS
# Cannot be resold, shared or otherwise redistributed
# Website: https://luts.iwltbap.com
TITLE "REDLogFilm Version 2 (Utility LOG to Rec.709)"
LUT_3D_SIZE 8
DOMAIN_MIN 0.000000 0.000000 0.000000
DOMAIN_MAX 0.903226 0.903226 0.903226
0.000000 0.000000 0.000000
0.000000 0.000000 0.000000
0.127167 0.000000 0.000000
0.277893 0.000000 0.000000
0.461426 0.000000 0.000000
0.708496 0.000000 0.000000
0.991913 0.000000 0.000000
1.000000 0.000000 0.000000
0.000000 0.000000 0.000000
0.000000 0.000000 0.000000
0.126434 0.000000 0.000000
0.276794 0.000000 0.000000
0.460236 0.000000 0.000000
0.708405 0.000000 0.000000
0.992249 0.000000 0.000000
1.000000 0.000000 0.000000
0.000000 0.125458 0.000000
0.000000 0.125763 0.000000
0.126068 0.126068 0.000000
0.278320 0.123596 0.000000
0.466156 0.120026 0.000000
0.722290 0.116760 0.000000
0.994293 0.116180 0.000000
1.000000 0.119354 0.000000
0.000000 0.269745 0.000000
0.000000 0.273163 0.000000
0.122192 0.277008 0.000000
0.277710 0.277710 0.000000
0.468628 0.276794 0.000000
0.729248 0.275848 0.000000
0.995667 0.276642 0.000000
1.000000 0.280914 0.000000
0.000000 0.450073 0.000000
0.000000 0.457275 0.000000
0.118988 0.464691 0.000000
0.276062 0.467560 0.000000
0.467926 0.467926 0.000000
0.729980 0.467926 0.000000
0.995941 0.469971 0.000000
1.000000 0.476166 0.000000
0.000000 0.701202 0.000000
0.000000 0.713135 0.000000
0.118347 0.724701 0.000000
0.276123 0.729675 0.000000
0.468262 0.730499 0.000000
0.730377 0.730377 0.000000
0.995941 0.733246 0.000000
1.000000 0.740387 0.000000
0.000000 0.992859 0.000000
0.000000 0.994232 0.000000
0.123810 0.995789 0.000000
0.281036 0.996368 0.000000
0.473877 0.996368 0.000000
0.736725 0.996277 0.000000
0.996338 0.996185 0.000000
1.000000 0.996765 0.002502
0.000000 1.000000 0.000000
0.000000 1.000000 0.000000
0.137085 1.000000 0.000000
0.292938 1.000000 0.000000
0.487274 1.000000 0.000000
0.751587 1.000000 0.000000
0.997742 0.999878 0.003601
1.000000 0.999878 0.006592
0.000000 0.000000 0.000000
0.000000 0.000000 0.000000
0.127258 0.000000 0.000000
0.277893 0.000000 0.000000
0.461334 0.000000 0.000000
0.708069 0.000000 0.000000
0.991791 0.000000 0.000000
1.000000 0.000000 0.000000
0.000000 0.000000 0.000000
0.000000 0.000000 0.000000
0.126221 0.000000 0.000000
0.276794 0.000000 0.000000
0.460510 0.000000 0.000000
0.709290 0.000000 0.000000
0.992401 0.000000 0.000000
1.000000 0.000000 0.000000
0.000000 0.125519 0.000000
0.000000 0.125732 0.000000
0.126617 0.126617 0.000000
0.279236 0.124542 0.000000
0.467682 0.121338 0.000000
0.724945 0.118561 0.000000
0.994873 0.118164 0.000000
1.000000 0.121368 0.000000
0.000000 0.270782 0.000000
0.000000 0.274414 0.000000
0.123779 0.278534 0.000000
0.279510 0.279510 0.000000
0.470917 0.278656 0.000000
0.732971 0.277832 0.000000
0.996124 0.278931 0.000000
1.000000 0.283234 0.000000
0.000000 0.452667 0.000000
0.000000 0.459717 0.000000
0.121094 0.467468 0.000000
0.278259 0.470551 0.000000
0.470734 0.470734 0.000000
0.734314 0.470825 0.000000
0.996368 0.472992 0.000000
1.000000 0.479187 0.000000
0.000000 0.705109 0.000000
0.000000 0.716949 0.000000
0.120789 0.728760 0.000000
0.278503 0.734131 0.000000
0.471313 0.734863 0.000000
0.734650 0.734650 0.000000
0.996399 0.737091 0.000000
1.000000 0.744263 0.000000
0.000000 0.993317 0.000000
0.000000 0.994904 0.000000
0.126068 0.996246 0.000000
0.283203 0.996765 0.000000
0.476746 0.996796 0.000000
0.740173 0.996674 0.000000
0.996674 0.996582 0.000000
1.000000 0.997101 0.003662
0.000000 1.000000 0.000000
0.000000 1.000000 0.000000
0.138977 1.000000 0.000000
0.294556 1.000000 0.000000
0.489075 1.000000 0.000000
0.753632 1.000000 0.000000
0.997925 0.999878 0.004913
1.000000 0.999878 0.007538
0.000000 0.000000 0.126801
0.000000 0.000000 0.127289
0.127197 0.000000 0.127197
0.277802 0.000000 0.123047
0.461090 0.000000 0.116028
0.707489 0.000000 0.108490
0.991638 0.000000 0.102936
1.000000 0.000000 0.100372
0.000000 0.000000 0.127258
0.000000 0.000000 0.126801
0.126068 0.000000 0.126068
0.276672 0.000000 0.121887
0.460571 0.000000 0.115570
0.709686 0.000000 0.109680
0.992523 0.000000 0.106354
1.000000 0.000000 0.107330
0.000000 0.125458 0.125458
0.000000 0.125885 0.125885
0.127045 0.127045 0.127045
0.280182 0.125427 0.125427
0.469208 0.122498 0.122498
0.727509 0.120056 0.120056
0.995178 0.119934 0.119873
1.000000 0.123169 0.123169
0.000000 0.271606 0.116699
0.000000 0.275696 0.120941
0.125397 0.280151 0.125397
0.281342 0.281342 0.126617
0.473358 0.280457 0.125702
0.736511 0.279785 0.125031
0.996552 0.281036 0.126282
1.000000 0.285431 0.130707
0.000000 0.454742 0.110992
0.000000 0.462219 0.117065
0.123169 0.470154 0.123169
0.280396 0.473297 0.125702
0.473572 0.473572 0.125885
0.738159 0.473633 0.126038
0.996857 0.476105 0.127777
1.000000 0.481873 0.132568
0.000000 0.709137 0.109222
0.000000 0.721161 0.116028
0.123047 0.733093 0.123047
0.280579 0.737885 0.125854
0.473999 0.738678 0.126282
0.738403 0.738403 0.126190
0.996826 0.740845 0.127502
1.000000 0.747650 0.131195
0.000000 0.993774 0.114655
0.000000 0.995392 0.121796
0.128204 0.996735 0.128204
0.285095 0.997192 0.130402
0.478973 0.997192 0.129944
0.743561 0.997040 0.128876
0.997009 0.997009 0.128845
1.000000 0.997559 0.130981
0.000000 1.000000 0.129425
0.000000 1.000000 0.135559
0.140686 1.000000 0.140686
0.295990 1.000000 0.141418
0.490662 1.000000 0.139252
0.755615 1.000000 0.136017
0.998077 1.000000 0.133362
1.000000 1.000000 0.132935
0.000000 0.000000 0.280365
0.000000 0.000000 0.280640
0.125824 0.000000 0.280457
0.276245 0.000000 0.276245
0.458923 0.000000 0.269257
0.704926 0.000000 0.262329
0.990387 0.000000 0.257111
1.000000 0.000000 0.255249
0.000000 0.000000 0.280457
0.000000 0.000000 0.279968
0.124664 0.000000 0.279449
0.275452 0.000000 0.275452
0.458954 0.000000 0.269226
0.708008 0.000000 0.264008
0.992401 0.000000 0.261383
1.000000 0.000000 0.262543
0.000000 0.124146 0.278870
0.000000 0.124878 0.279633
0.126312 0.126312 0.281097
0.279846 0.125122 0.279846
0.469147 0.122345 0.277191
0.728058 0.120331 0.275208
0.995300 0.120361 0.275208
1.000000 0.123840 0.278656
0.000000 0.271393 0.271393
0.000000 0.275879 0.275879
0.125732 0.280457 0.280457
0.281677 0.281677 0.281677
0.473999 0.281036 0.281036
0.737915 0.280609 0.280609
0.996735 0.281891 0.281891
1.000000 0.286438 0.286438
0.000000 0.455444 0.266479
0.000000 0.463379 0.272491
0.124054 0.471191 0.278839
0.281189 0.474304 0.281189
0.474731 0.474731 0.281555
0.739899 0.474976 0.281708
0.997009 0.477386 0.283417
1.000000 0.483032 0.287994
0.000000 0.710510 0.265167
0.000000 0.722839 0.272034
0.124115 0.734741 0.278839
0.281464 0.739502 0.281464
0.475433 0.740173 0.281891
0.739960 0.739960 0.281769
0.996948 0.741913 0.282867
1.000000 0.748657 0.286743
0.000000 0.994019 0.270538
0.000000 0.995575 0.277618
0.129059 0.996887 0.283752
0.285645 0.997406 0.285645
0.479736 0.997406 0.285248
0.744293 0.997192 0.284027
0.997070 0.997070 0.283630
1.000000 0.997589 0.285583
0.000000 1.000000 0.284790
0.000000 1.000000 0.290710
0.140991 1.000000 0.295593
0.295990 1.000000 0.295990
0.490540 1.000000 0.293732
0.754913 1.000000 0.290192
0.997986 1.000000 0.287354
1.000000 1.000000 0.286865
0.000000 0.000000 0.470642
0.000000 0.000000 0.470947
0.123627 0.000000 0.470673
0.274078 0.000000 0.465027
0.455841 0.000000 0.455841
0.700958 0.000000 0.446899
0.988281 0.000000 0.440887
1.000000 0.000000 0.438416
0.000000 0.000000 0.470184
0.000000 0.000000 0.469696
0.122528 0.000000 0.469177
0.273346 0.000000 0.464172
0.456665 0.000000 0.456665
0.705566 0.000000 0.449982
0.992188 0.000000 0.447052
1.000000 0.000000 0.448883
0.000000 0.122040 0.468597
0.000000 0.123230 0.470123
0.125000 0.125000 0.472473
0.278809 0.124023 0.471252
0.468262 0.121735 0.468262
0.727264 0.119873 0.465973
0.995270 0.119995 0.466187
1.000000 0.123474 0.470551
0.000000 0.270538 0.460693
0.000000 0.275299 0.466705
0.125397 0.280151 0.472809
0.281372 0.281372 0.474487
0.473999 0.280975 0.473999
0.737976 0.280609 0.473511
0.996735 0.281982 0.475525
1.000000 0.286469 0.480988
0.000000 0.455322 0.455322
0.000000 0.463318 0.463318
0.124146 0.471222 0.471222
0.281128 0.474243 0.474243
0.474976 0.474976 0.474976
0.740326 0.475464 0.475464
0.997040 0.477661 0.477661
1.000000 0.483093 0.483093
0.000000 0.710815 0.453888
0.000000 0.723297 0.462799
0.124146 0.735046 0.471375
0.281555 0.739685 0.474823
0.475555 0.740448 0.475555
0.740234 0.740234 0.475342
0.996979 0.741669 0.476440
1.000000 0.748291 0.481110
0.000000 0.994080 0.460907
0.000000 0.995636 0.469727
0.128967 0.996857 0.477722
0.285553 0.997406 0.480225
0.479492 0.997345 0.479492
0.743561 0.997070 0.477661
0.997009 0.997009 0.476776
1.000000 0.997437 0.478912
0.000000 1.000000 0.478912
0.000000 1.000000 0.486084
0.140411 1.000000 0.492157
0.295349 1.000000 0.492706
0.489227 1.000000 0.489227
0.752380 1.000000 0.484039
0.997711 1.000000 0.480133
1.000000 1.000000 0.479401
0.000000 0.000000 0.729919
0.000000 0.000000 0.730408
0.121338 0.000000 0.729614
0.271301 0.000000 0.721497
0.452850 0.000000 0.709412
0.696686 0.000000 0.696686
0.985779 0.000000 0.688507
1.000000 0.000000 0.685577
0.000000 0.000000 0.728973
0.000000 0.000000 0.728302
0.120148 0.000000 0.727631
0.270966 0.000000 0.720978
0.454346 0.000000 0.711456
0.702972 0.000000 0.702972
0.991852 0.000000 0.699341
1.000000 0.000000 0.702484
0.000000 0.120056 0.727509
0.000000 0.121521 0.729980
0.123657 0.123657 0.734009
0.277802 0.122986 0.732910
0.467468 0.121094 0.729340
0.726562 0.119476 0.726562
0.995117 0.119598 0.726715
1.000000 0.123230 0.733490
0.000000 0.269775 0.718719
0.000000 0.274750 0.727295
0.124878 0.279663 0.736237
0.281006 0.281006 0.738647
0.473846 0.280884 0.738403
0.737885 0.280548 0.737885
0.996674 0.281830 0.740143
1.000000 0.286621 0.748383
0.000000 0.455017 0.712402
0.000000 0.463165 0.723602
0.123993 0.471130 0.734650
0.281250 0.474396 0.739075
0.475220 0.475220 0.740051
0.740540 0.475616 0.740540
0.997040 0.477386 0.743195
1.000000 0.483124 0.751129
0.000000 0.711060 0.711060
0.000000 0.723389 0.723389
0.124146 0.734833 0.734833
0.281647 0.739807 0.739807
0.475555 0.740448 0.740448
0.739868 0.739868 0.739868
0.996948 0.741272 0.741272
1.000000 0.747589 0.747589
0.000000 0.994080 0.720764
0.000000 0.995575 0.732574
0.128693 0.996826 0.743195
0.285339 0.997345 0.746552
0.478912 0.997314 0.745300
0.742218 0.996979 0.742218
0.996887 0.996887 0.740662
1.000000 0.997284 0.743408
0.000000 1.000000 0.744781
0.000000 1.000000 0.754333
0.139709 1.000000 0.762238
0.294464 1.000000 0.762543
0.487701 1.000000 0.757324
0.749603 1.000000 0.749603
0.997406 1.000000 0.744019
1.000000 1.000000 0.742554
0.000000 0.000000 0.995331
0.000000 0.000000 0.995361
0.119354 0.000000 0.995392
0.269287 0.000000 0.994263
0.450256 0.000000 0.992950
0.693726 0.000000 0.989563
0.983459 0.000000 0.983459
1.000000 0.000000 0.981781
0.000000 0.000000 0.995209
0.000000 0.000000 0.995148
0.118378 0.000000 0.995148
0.269409 0.000000 0.994232
0.452850 0.000000 0.993225
0.701538 0.000000 0.992279
0.991394 0.000000 0.991394
1.000000 0.000000 0.992126
0.000000 0.118652 0.995178
0.000000 0.120483 0.995483
0.122833 0.122833 0.995911
0.277466 0.122681 0.995850
0.467377 0.121002 0.995514
0.726593 0.119476 0.995178
0.995117 0.119781 0.995117
1.000000 0.123627 0.995850
0.000000 0.269623 0.994232
0.000000 0.274658 0.995392
0.124847 0.279602 0.996338
0.281403 0.281403 0.996735
0.474365 0.281281 0.996674
0.738586 0.280975 0.996613
0.996735 0.282288 0.996735
1.000000 0.287140 0.997681
0.000000 0.455383 0.993561
0.000000 0.463745 0.994995
0.124420 0.471649 0.996185
0.281830 0.475220 0.996796
0.476074 0.476074 0.996918
0.741211 0.476135 0.996887
0.997162 0.478180 0.997162
1.000000 0.483795 0.998108
0.000000 0.712158 0.993347
0.000000 0.724396 0.994904
0.124695 0.735931 0.996216
0.282166 0.740784 0.996826
0.476105 0.741211 0.996948
0.740204 0.740204 0.996857
0.996979 0.741577 0.996979
1.000000 0.747833 0.997772
0.000000 0.994110 0.994110
0.000000 0.995667 0.995667
0.128998 0.996887 0.996887
0.285553 0.997406 0.997406
0.479004 0.997314 0.997314
0.741547 0.996948 0.996948
0.996826 0.996826 0.996826
1.000000 0.997192 0.997192
0.000000 1.000000 0.997131
0.000000 1.000000 0.998199
0.139404 1.000000 0.999146
0.293945 1.000000 0.999237
0.486420 1.000000 0.998657
0.747833 1.000000 0.997833
0.997131 1.000000 0.997131
1.000000 1.000000 0.996918
0.000000 0.000000 0.999939
0.000000 0.000000 0.999939
0.118317 0.000000 1.000000
0.268433 0.000000 1.000000
0.449158 0.000000 1.000000
0.692627 0.000000 1.000000
0.982819 0.000000 1.000000
1.000000 0.000000 1.000000
0.000000 0.000000 0.999939
0.000000 0.000000 0.999939
0.117706 0.000000 1.000000
0.269104 0.000000 1.000000
0.452759 0.000000 1.000000
0.702087 0.000000 1.000000
0.991852 0.000000 1.000000
1.000000 0.000000 1.000000
0.000000 0.118469 1.000000
0.000000 0.120453 1.000000
0.123291 0.123291 1.000000
0.278198 0.123444 1.000000
0.468536 0.121948 1.000000
0.728302 0.120483 1.000000
0.995361 0.121063 1.000000
1.000000 0.125061 1.000000
0.000000 0.270447 1.000000
0.000000 0.275574 1.000000
0.126038 0.280762 1.000000
0.282715 0.282715 1.000000
0.476257 0.282593 1.000000
0.741119 0.282410 1.000000
0.997070 0.283875 1.000000
1.000000 0.288788 1.000000
0.000000 0.457184 1.000000
0.000000 0.465454 1.000000
0.125916 0.473572 1.000000
0.283447 0.477356 1.000000
0.477997 0.477997 1.000000
0.744202 0.478180 1.000000
0.997498 0.480072 1.000000
1.000000 0.485748 1.000000
0.000000 0.714813 1.000000
0.000000 0.726807 1.000000
0.126312 0.738739 1.000000
0.283691 0.743622 1.000000
0.477875 0.743805 1.000000
0.742584 0.742584 1.000000
0.997284 0.744080 1.000000
1.000000 0.749573 1.000000
0.000000 0.994507 1.000000
0.000000 0.995941 1.000000
0.130310 0.997192 1.000000
0.286957 0.997650 1.000000
0.480042 0.997498 1.000000
0.743256 0.997192 1.000000
0.996979 0.996979 1.000000
1.000000 0.997223 1.000000
0.000000 1.000000 1.000000
0.000000 1.000000 1.000000
0.140137 1.000000 1.000000
0.294250 1.000000 1.000000
0.486450 1.000000 1.000000
0.747620 1.000000 1.000000
0.997101 1.000000 1.000000
1.000000 1.000000 1.000000
