Postproduction/IWLTBAP - Humble/LUTs by IWLTBAP (CUBE)/UTILITY/REDlogFilm to Rec.709/U-REDLOGFILM-V2-LTR.cube
# Copyright: (C) Copyright 2010-2018 by IWLTBAP SAS
# Cannot be resold, shared or otherwise redistributed
# Website: https://luts.iwltbap.com
TITLE "REDLogFilm Version 2 (Utility LOG to Rec.709)"
LUT_3D_SIZE 32
0.000000 0.000000 0.000000
0.000000 0.000000 0.000000
0.000000 0.000000 0.000000
0.000000 0.000000 0.000000
0.000000 0.000000 0.000000
0.000000 0.000000 0.000000
0.041260 0.000000 0.000000
0.087646 0.000000 0.000000
0.127167 0.000000 0.000000
0.164429 0.000000 0.000000
0.200989 0.000000 0.000000
0.238586 0.000000 0.000000
0.277893 0.000000 0.000000
0.319244 0.000000 0.000000
0.363312 0.000000 0.000000
0.410675 0.000000 0.000000
0.461426 0.000000 0.000000
0.516266 0.000000 0.000000
0.575348 0.000000 0.000000
0.639404 0.000000 0.000000
0.708496 0.000000 0.000000
0.782532 0.000000 0.000000
0.862000 0.000000 0.000000
0.944305 0.000000 0.000000
0.991913 0.000000 0.000000
0.999969 0.000000 0.000000
1.000000 0.000000 0.000000
1.000000 0.000000 0.000000
1.000000 0.000000 0.000000
1.000000 0.000000 0.000000
1.000000 0.000000 0.000000
1.000000 0.176697 0.176697
0.000000 0.000000 0.000000
0.000000 0.000000 0.000000
0.000000 0.000000 0.000000
0.000000 0.000000 0.000000
0.000000 0.000000 0.000000
0.000000 0.000000 0.000000
0.041565 0.000000 0.000000
0.088135 0.000000 0.000000
0.127319 0.000000 0.000000
0.164246 0.000000 0.000000
0.200806 0.000000 0.000000
0.238434 0.000000 0.000000
0.277740 0.000000 0.000000
0.319153 0.000000 0.000000
0.362915 0.000000 0.000000
0.410095 0.000000 0.000000
0.460815 0.000000 0.000000
0.515564 0.000000 0.000000
0.574890 0.000000 0.000000
0.638794 0.000000 0.000000
0.707611 0.000000 0.000000
0.781830 0.000000 0.000000
0.861328 0.000000 0.000000
0.944031 0.000000 0.000000
0.991760 0.000000 0.000000
0.999939 0.000000 0.000000
1.000000 0.000000 0.000000
1.000000 0.000000 0.000000
1.000000 0.000000 0.000000
1.000000 0.000000 0.000000
1.000000 0.000000 0.000000
1.000000 0.191071 0.191071
0.000000 0.000000 0.000000
0.000000 0.000000 0.000000
0.000000 0.000000 0.000000
0.000000 0.000000 0.000000
0.000000 0.000000 0.000000
0.000000 0.000000 0.000000
0.041412 0.000000 0.000000
0.087555 0.000000 0.000000
0.126862 0.000000 0.000000
0.163788 0.000000 0.000000
0.200226 0.000000 0.000000
0.237854 0.000000 0.000000
0.277161 0.000000 0.000000
0.318390 0.000000 0.000000
0.362213 0.000000 0.000000
0.409271 0.000000 0.000000
0.459930 0.000000 0.000000
0.514832 0.000000 0.000000
0.574036 0.000000 0.000000
0.637756 0.000000 0.000000
0.706726 0.000000 0.000000
0.780975 0.000000 0.000000
0.860870 0.000000 0.000000
0.943878 0.000000 0.000000
0.991638 0.000000 0.000000
0.999908 0.000000 0.000000
1.000000 0.000000 0.000000
1.000000 0.000000 0.000000
1.000000 0.000000 0.000000
1.000000 0.000000 0.000000
1.000000 0.000000 0.000000
1.000000 0.215607 0.215607
0.000000 0.000000 0.000000
0.000000 0.000000 0.000000
0.000000 0.000000 0.000000
0.000000 0.000000 0.000000
0.000000 0.000000 0.000000
0.000000 0.000000 0.000000
0.041199 0.000000 0.000000
0.087341 0.000000 0.000000
0.126556 0.000000 0.000000
0.163544 0.000000 0.000000
0.200073 0.000000 0.000000
0.237671 0.000000 0.000000
0.276886 0.000000 0.000000
0.317993 0.000000 0.000000
0.361847 0.000000 0.000000
0.409119 0.000000 0.000000
0.459930 0.000000 0.000000
0.514801 0.000000 0.000000
0.573883 0.000000 0.000000
0.637756 0.000000 0.000000
0.706879 0.000000 0.000000
0.781708 0.000000 0.000000
0.861755 0.000000 0.000000
0.944336 0.000000 0.000000
0.992004 0.000000 0.000000
1.000000 0.000000 0.000000
1.000000 0.000000 0.000000
1.000000 0.000000 0.000000
1.000000 0.000000 0.000000
1.000000 0.000000 0.000000
1.000000 0.000000 0.000000
1.000000 0.268646 0.268646
0.000000 0.000000 0.000000
0.000000 0.000000 0.000000
0.000000 0.000000 0.000000
0.000000 0.000000 0.000000
0.000000 0.000000 0.000000
0.000000 0.000000 0.000000
0.040802 0.000000 0.000000
0.087036 0.000000 0.000000
0.126434 0.000000 0.000000
0.163513 0.000000 0.000000
0.199951 0.000000 0.000000
0.237549 0.000000 0.000000
0.276794 0.000000 0.000000
0.318085 0.000000 0.000000
0.362030 0.000000 0.000000
0.409454 0.000000 0.000000
0.460236 0.000000 0.000000
0.515228 0.000000 0.000000
0.574677 0.000000 0.000000
0.638733 0.000000 0.000000
0.708405 0.000000 0.000000
0.783325 0.000000 0.000000
0.863586 0.000000 0.000000
0.945618 0.000000 0.000000
0.992249 0.000000 0.000000
1.000000 0.000000 0.000000
1.000000 0.000000 0.000000
1.000000 0.000000 0.000000
1.000000 0.000000 0.000000
1.000000 0.000000 0.000000
1.000000 0.000000 0.000000
1.000000 0.355560 0.355499
0.000000 0.000000 0.000000
0.000000 0.000000 0.000000
0.000000 0.000000 0.000000
0.000000 0.000000 0.000000
0.000000 0.000000 0.000000
0.000000 0.000000 0.000000
0.040802 0.000000 0.000000
0.087067 0.000000 0.000000
0.126556 0.000000 0.000000
0.163544 0.000000 0.000000
0.200012 0.000000 0.000000
0.237762 0.000000 0.000000
0.277069 0.000000 0.000000
0.318573 0.000000 0.000000
0.362640 0.000000 0.000000
0.410034 0.000000 0.000000
0.461090 0.000000 0.000000
0.516357 0.000000 0.000000
0.576233 0.000000 0.000000
0.641083 0.000000 0.000000
0.710968 0.000000 0.000000
0.786102 0.000000 0.000000
0.867340 0.000000 0.000000
0.947876 0.000000 0.000000
0.992615 0.000000 0.000000
1.000000 0.000000 0.000000
1.000000 0.000000 0.000000
1.000000 0.000000 0.000000
1.000000 0.000000 0.000000
1.000000 0.000000 0.000000
1.000000 0.000000 0.000000
1.000000 0.450012 0.447662
0.000000 0.041199 0.000000
0.000000 0.041138 0.000000
0.000000 0.040894 0.000000
0.000000 0.040710 0.000000
0.000000 0.040527 0.000000
0.000000 0.040588 0.000000
0.040802 0.040802 0.000000
0.087189 0.040680 0.000000
0.126556 0.040161 0.000000
0.163574 0.039185 0.000000
0.200226 0.037964 0.000000
0.238037 0.036316 0.000000
0.277588 0.034760 0.000000
0.319153 0.032379 0.000000
0.363373 0.030304 0.000000
0.411133 0.028259 0.000000
0.462524 0.026154 0.000000
0.518188 0.024139 0.000000
0.578339 0.022217 0.000000
0.643646 0.020355 0.000000
0.714264 0.018585 0.000000
0.790405 0.017120 0.000000
0.872284 0.015930 0.000000
0.950989 0.015320 0.000000
0.993164 0.015106 0.000000
1.000000 0.015289 0.000000
1.000000 0.015869 0.000000
1.000000 0.016724 0.000000
1.000000 0.018250 0.000000
1.000000 0.019806 0.000000
1.000000 0.021210 0.000000
1.000000 0.560516 0.545868
0.000000 0.087036 0.000000
0.000000 0.086823 0.000000
0.000000 0.086609 0.000000
0.000000 0.086517 0.000000
0.000000 0.086578 0.000000
0.000000 0.086792 0.000000
0.040436 0.086945 0.000000
0.086945 0.086945 0.000000
0.126404 0.086578 0.000000
0.163605 0.086121 0.000000
0.200409 0.084869 0.000000
0.238434 0.083893 0.000000
0.278107 0.082581 0.000000
0.319855 0.081177 0.000000
0.364563 0.079742 0.000000
0.412354 0.078308 0.000000
0.464417 0.076996 0.000000
0.520325 0.075745 0.000000
0.580994 0.074463 0.000000
0.646790 0.073212 0.000000
0.718048 0.072235 0.000000
0.795319 0.071503 0.000000
0.878601 0.071075 0.000000
0.954865 0.070801 0.000000
0.993744 0.070801 0.000000
1.000000 0.071014 0.000000
1.000000 0.071777 0.000000
1.000000 0.072723 0.000000
1.000000 0.073853 0.000000
1.000000 0.074951 0.000000
1.000000 0.076172 0.000000
1.000000 0.663635 0.638123
0.000000 0.125458 0.000000
0.000000 0.125366 0.000000
0.000000 0.125244 0.000000
0.000000 0.125366 0.000000
0.000000 0.125763 0.000000
0.000000 0.125824 0.000000
0.039398 0.126038 0.000000
0.086273 0.126038 0.000000
0.126068 0.126068 0.000000
0.163422 0.125854 0.000000
0.200500 0.125305 0.000000
0.238586 0.124512 0.000000
0.278320 0.123596 0.000000
0.320496 0.122711 0.000000
0.365479 0.121826 0.000000
0.413727 0.120972 0.000000
0.466156 0.120026 0.000000
0.522339 0.119171 0.000000
0.583832 0.118378 0.000000
0.650146 0.117676 0.000000
0.722290 0.116760 0.000000
0.800201 0.116364 0.000000
0.883789 0.116180 0.000000
0.958130 0.116028 0.000000
0.994293 0.116180 0.000000
1.000000 0.116547 0.000000
1.000000 0.117676 0.000000
1.000000 0.118500 0.000000
1.000000 0.119354 0.000000
1.000000 0.120483 0.000000
1.000000 0.121552 0.000000
1.000000 0.753357 0.724548
0.000000 0.160980 0.000000
0.000000 0.161102 0.000000
0.000000 0.161072 0.000000
0.000000 0.161438 0.000000
0.000000 0.161957 0.000000
0.000000 0.162292 0.000000
0.037811 0.162567 0.000000
0.084808 0.162933 0.000000
0.125214 0.162964 0.000000
0.163055 0.163055 0.000000
0.200165 0.162720 0.000000
0.238464 0.162201 0.000000
0.278564 0.161377 0.000000
0.320801 0.160706 0.000000
0.366302 0.160187 0.000000
0.414948 0.159546 0.000000
0.467499 0.158844 0.000000
0.524414 0.158203 0.000000
0.586029 0.157684 0.000000
0.653046 0.157196 0.000000
0.725586 0.156860 0.000000
0.803833 0.156494 0.000000
0.888031 0.156311 0.000000
0.960632 0.156311 0.000000
0.994995 0.156616 0.000000
1.000000 0.157135 0.000000
1.000000 0.157898 0.000000
1.000000 0.158691 0.000000
1.000000 0.159637 0.000000
1.000000 0.160828 0.000000
1.000000 0.162292 0.000000
1.000000 0.820709 0.792023
0.000000 0.196228 0.000000
0.000000 0.196564 0.000000
0.000000 0.196777 0.000000
0.000000 0.197174 0.000000
0.000000 0.197571 0.000000
0.000000 0.198090 0.000000
0.035339 0.198639 0.000000
0.083405 0.199249 0.000000
0.124390 0.199615 0.000000
0.162201 0.199738 0.000000
0.199615 0.199615 0.000000
0.238159 0.199371 0.000000
0.278503 0.198975 0.000000
0.321136 0.198761 0.000000
0.366638 0.198212 0.000000
0.415405 0.197662 0.000000
0.468262 0.197205 0.000000
0.525421 0.196716 0.000000
0.587372 0.196320 0.000000
0.654755 0.195953 0.000000
0.727417 0.195618 0.000000
0.806000 0.195374 0.000000
0.890900 0.195374 0.000000
0.962524 0.195465 0.000000
0.995331 0.195923 0.000000
1.000000 0.196442 0.000000
1.000000 0.197205 0.000000
1.000000 0.198151 0.000000
1.000000 0.199219 0.000000
1.000000 0.200531 0.000000
1.000000 0.201752 0.000000
1.000000 0.865387 0.837250
0.000000 0.232269 0.000000
0.000000 0.232758 0.000000
0.000000 0.233154 0.000000
0.000000 0.233704 0.000000
0.000000 0.234436 0.000000
0.000000 0.235229 0.000000
0.032990 0.236023 0.000000
0.081696 0.236786 0.000000
0.123230 0.237335 0.000000
0.161194 0.237793 0.000000
0.198975 0.237823 0.000000
0.237671 0.237671 0.000000
0.278290 0.237579 0.000000
0.320953 0.237305 0.000000
0.366516 0.236969 0.000000
0.415649 0.236603 0.000000
0.468536 0.236237 0.000000
0.526062 0.235870 0.000000
0.588043 0.235504 0.000000
0.655518 0.235199 0.000000
0.728485 0.234894 0.000000
0.807495 0.234863 0.000000
0.892761 0.234955 0.000000
0.963959 0.235168 0.000000
0.995575 0.235535 0.000000
1.000000 0.236206 0.000000
1.000000 0.237061 0.000000
1.000000 0.238251 0.000000
1.000000 0.239410 0.000000
1.000000 0.240631 0.000000
1.000000 0.241882 0.000000
1.000000 0.894775 0.867340
0.000000 0.269745 0.000000
0.000000 0.270355 0.000000
0.000000 0.270996 0.000000
0.000000 0.271851 0.000000
0.000000 0.273163 0.000000
0.000000 0.274292 0.000000
0.030945 0.275299 0.000000
0.080231 0.276154 0.000000
0.122192 0.277008 0.000000
0.160278 0.277496 0.000000
0.198395 0.277893 0.000000
0.237274 0.277893 0.000000
0.277710 0.277710 0.000000
0.320435 0.277496 0.000000
0.366302 0.277374 0.000000
0.415375 0.277039 0.000000
0.468628 0.276794 0.000000
0.526123 0.276459 0.000000
0.588196 0.276123 0.000000
0.655975 0.275970 0.000000
0.729248 0.275848 0.000000
0.808380 0.275818 0.000000
0.893829 0.276031 0.000000
0.964569 0.276245 0.000000
0.995667 0.276642 0.000000
1.000000 0.277527 0.000000
1.000000 0.278534 0.000000
1.000000 0.279755 0.000000
1.000000 0.280914 0.000000
1.000000 0.282227 0.000000
1.000000 0.283539 0.000000
1.000000 0.918701 0.892426
0.000000 0.309662 0.000000
0.000000 0.310638 0.000000
0.000000 0.311676 0.000000
0.000000 0.313141 0.000000
0.000000 0.314362 0.000000
0.000000 0.315552 0.000000
0.028931 0.316833 0.000000
0.078979 0.317963 0.000000
0.121277 0.318878 0.000000
0.159637 0.319672 0.000000
0.197723 0.319977 0.000000
0.236572 0.320160 0.000000
0.277283 0.320221 0.000000
0.320160 0.320160 0.000000
0.365967 0.319916 0.000000
0.415253 0.319794 0.000000
0.468323 0.319550 0.000000
0.525970 0.319275 0.000000
0.588379 0.319092 0.000000
0.656189 0.319031 0.000000
0.729767 0.318939 0.000000
0.809052 0.319031 0.000000
0.894409 0.319183 0.000000
0.965027 0.319458 0.000000
0.995758 0.320129 0.000000
1.000000 0.321045 0.000000
1.000000 0.322205 0.000000
1.000000 0.323395 0.000000
1.000000 0.324677 0.000000
1.000000 0.326355 0.000000
1.000000 0.330261 0.000000
1.000000 0.937012 0.911713
0.000000 0.353027 0.000000
0.000000 0.354248 0.000000
0.000000 0.355560 0.000000
0.000000 0.356934 0.000000
0.000000 0.358276 0.000000
0.000000 0.359680 0.000000
0.027313 0.361206 0.000000
0.077850 0.362640 0.000000
0.120514 0.364075 0.000000
0.158936 0.364899 0.000000
0.197144 0.365265 0.000000
0.236084 0.365570 0.000000
0.276794 0.365784 0.000000
0.319733 0.365814 0.000000
0.365784 0.365784 0.000000
0.415039 0.365601 0.000000
0.468109 0.365326 0.000000
0.525940 0.365295 0.000000
0.588379 0.365143 0.000000
0.656403 0.365143 0.000000
0.729919 0.365021 0.000000
0.809265 0.365082 0.000000
0.895081 0.365417 0.000000
0.965454 0.365845 0.000000
0.995819 0.366577 0.000000
1.000000 0.367584 0.000000
1.000000 0.368713 0.000000
1.000000 0.370056 0.000000
1.000000 0.371643 0.000000
1.000000 0.373108 0.000000
1.000000 0.382507 0.000000
1.000000 0.947144 0.920868
0.000000 0.399536 0.000000
0.000000 0.401093 0.000000
0.000000 0.402588 0.000000
0.000000 0.404144 0.000000
0.000000 0.405792 0.000000
0.000000 0.407593 0.000000
0.025970 0.409302 0.000000
0.076904 0.410889 0.000000
0.119720 0.412109 0.000000
0.158264 0.413177 0.000000
0.196594 0.414093 0.000000
0.235687 0.414490 0.000000
0.276489 0.414764 0.000000
0.319397 0.414886 0.000000
0.365326 0.414795 0.000000
0.414795 0.414795 0.000000
0.468109 0.414703 0.000000
0.525879 0.414612 0.000000
0.588470 0.414581 0.000000
0.656311 0.414520 0.000000
0.729919 0.414490 0.000000
0.809448 0.414642 0.000000
0.895447 0.415100 0.000000
0.965790 0.415680 0.000000
0.995941 0.416412 0.000000
1.000000 0.417389 0.000000
1.000000 0.418640 0.000000
1.000000 0.420227 0.000000
1.000000 0.421906 0.000000
1.000000 0.423584 0.000000
1.000000 0.435791 0.000000
1.000000 0.954529 0.926239
0.000000 0.450073 0.000000
0.000000 0.451996 0.000000
0.000000 0.453491 0.000000
0.000000 0.455322 0.000000
0.000000 0.457275 0.000000
0.000000 0.459412 0.000000
0.024628 0.461304 0.000000
0.075928 0.463104 0.000000
0.118988 0.464691 0.000000
0.157715 0.465942 0.000000
0.196136 0.466797 0.000000
0.235321 0.467377 0.000000
0.276062 0.467560 0.000000
0.319031 0.467773 0.000000
0.365051 0.467896 0.000000
0.414612 0.468018 0.000000
0.467926 0.467926 0.000000
0.525848 0.467926 0.000000
0.588318 0.467773 0.000000
0.656281 0.467712 0.000000
0.729980 0.467926 0.000000
0.809723 0.468201 0.000000
0.895599 0.468567 0.000000
0.965851 0.469177 0.000000
0.995941 0.469971 0.000000
1.000000 0.471161 0.000000
1.000000 0.472687 0.000000
1.000000 0.474243 0.000000
1.000000 0.476166 0.000000
1.000000 0.477905 0.000000
1.000000 0.489197 0.000000
1.000000 0.960449 0.929718
0.000000 0.504944 0.000000
0.000000 0.506866 0.000000
0.000000 0.508636 0.000000
0.000000 0.510895 0.000000
0.000000 0.513458 0.000000
0.000000 0.515533 0.000000
0.023560 0.517761 0.000000
0.075256 0.519745 0.000000
0.118591 0.521637 0.000000
0.157379 0.522919 0.000000
0.195862 0.524170 0.000000
0.234955 0.524750 0.000000
0.275757 0.525024 0.000000
0.318848 0.525452 0.000000
0.364899 0.525635 0.000000
0.414429 0.525726 0.000000
0.467773 0.525696 0.000000
0.525604 0.525604 0.000000
0.588226 0.525726 0.000000
0.656464 0.525757 0.000000
0.730011 0.525818 0.000000
0.809998 0.526123 0.000000
0.895508 0.526520 0.000000
0.965851 0.527100 0.000000
0.995941 0.528046 0.000000
1.000000 0.529358 0.000000
1.000000 0.530975 0.000000
1.000000 0.532562 0.000000
1.000000 0.534363 0.000000
1.000000 0.536377 0.000000
1.000000 0.546692 0.000000
1.000000 0.964813 0.929504
0.000000 0.564484 0.000000
0.000000 0.566986 0.000000
0.000000 0.569092 0.000000
0.000000 0.571747 0.000000
0.000000 0.574219 0.000000
0.000000 0.576569 0.000000
0.022919 0.579102 0.000000
0.074860 0.581512 0.000000
0.118378 0.583832 0.000000
0.157196 0.585388 0.000000
0.195679 0.586365 0.000000
0.234802 0.587006 0.000000
0.275757 0.587585 0.000000
0.318817 0.587891 0.000000
0.364960 0.588226 0.000000
0.414429 0.588226 0.000000
0.467804 0.588226 0.000000
0.525635 0.588135 0.000000
0.588409 0.588409 0.000000
0.656494 0.588531 0.000000
0.730225 0.588623 0.000000
0.809998 0.588776 0.000000
0.895447 0.589172 0.000000
0.965942 0.589996 0.000000
0.995941 0.590973 0.000000
1.000000 0.592224 0.000000
1.000000 0.593933 0.000000
1.000000 0.595795 0.000000
1.000000 0.597717 0.000000
1.000000 0.599915 0.000000
1.000000 0.608948 0.000000
1.000000 0.967072 0.924042
0.000000 0.629913 0.000000
0.000000 0.632660 0.000000
0.000000 0.635071 0.000000
0.000000 0.637634 0.000000
0.000000 0.640320 0.000000
0.000000 0.643280 0.000000
0.022919 0.646240 0.000000
0.074860 0.648926 0.000000
0.118225 0.651062 0.000000
0.157104 0.652954 0.000000
0.195679 0.654297 0.000000
0.234955 0.655151 0.000000
0.275818 0.655670 0.000000
0.318939 0.656189 0.000000
0.365051 0.656311 0.000000
0.414429 0.656311 0.000000
0.468048 0.656616 0.000000
0.526001 0.656525 0.000000
0.588531 0.656494 0.000000
0.656708 0.656708 0.000000
0.730225 0.656708 0.000000
0.809998 0.656860 0.000000
0.895874 0.657654 0.000000
0.965881 0.658234 0.000000
0.995972 0.659271 0.000000
1.000000 0.660553 0.000000
1.000000 0.662140 0.000000
1.000000 0.664185 0.000000
1.000000 0.666443 0.000000
1.000000 0.668701 0.000000
1.000000 0.673370 0.000000
1.000000 0.969299 0.914764
0.000000 0.701202 0.000000
0.000000 0.703949 0.000000
0.000000 0.706726 0.000000
0.000000 0.709869 0.000000
0.000000 0.713135 0.000000
0.000000 0.716156 0.000000
0.023254 0.719330 0.000000
0.074982 0.722260 0.000000
0.118347 0.724701 0.000000
0.157257 0.726624 0.000000
0.195953 0.728058 0.000000
0.235291 0.729126 0.000000
0.276123 0.729675 0.000000
0.319183 0.730011 0.000000
0.365204 0.730255 0.000000
0.414917 0.730560 0.000000
0.468262 0.730499 0.000000
0.526306 0.730682 0.000000
0.588867 0.730560 0.000000
0.656860 0.730408 0.000000
0.730377 0.730377 0.000000
0.810394 0.730927 0.000000
0.895935 0.731293 0.000000
0.966034 0.732269 0.000000
0.995941 0.733246 0.000000
1.000000 0.734467 0.000000
1.000000 0.736481 0.000000
1.000000 0.738403 0.000000
1.000000 0.740387 0.000000
1.000000 0.742676 0.000000
1.000000 0.745270 0.000000
1.000000 0.973145 0.904053
0.000000 0.778839 0.000000
0.000000 0.781677 0.000000
0.000000 0.784821 0.000000
0.000000 0.788452 0.000000
0.000000 0.792145 0.000000
0.000000 0.795380 0.000000
0.024017 0.798859 0.000000
0.075653 0.802002 0.000000
0.119019 0.804810 0.000000
0.158020 0.807068 0.000000
0.196564 0.808502 0.000000
0.235870 0.809448 0.000000
0.276672 0.810150 0.000000
0.319916 0.810791 0.000000
0.366058 0.811035 0.000000
0.415558 0.811127 0.000000
0.469086 0.811340 0.000000
0.526978 0.811035 0.000000
0.589447 0.810822 0.000000
0.657837 0.810974 0.000000
0.731445 0.810944 0.000000
0.811127 0.811127 0.000000
0.896790 0.811646 0.000000
0.966248 0.812195 0.000000
0.995941 0.812866 0.000000
1.000000 0.814728 0.000000
1.000000 0.816376 0.000000
1.000000 0.818390 0.000000
1.000000 0.820282 0.000000
1.000000 0.822723 0.000000
1.000000 0.824921 0.000000
1.000000 0.980682 0.900421
0.000000 0.862976 0.000000
0.000000 0.866760 0.000000
0.000000 0.870422 0.000000
0.000000 0.873962 0.000000
0.000000 0.877991 0.000000
0.000000 0.881439 0.000000
0.025665 0.885193 0.000000
0.077118 0.888916 0.000000
0.120209 0.891846 0.000000
0.159088 0.894165 0.000000
0.197510 0.895660 0.000000
0.236725 0.896576 0.000000
0.277740 0.897369 0.000000
0.320984 0.898163 0.000000
0.367249 0.898529 0.000000
0.416779 0.898529 0.000000
0.470215 0.898346 0.000000
0.528076 0.898102 0.000000
0.590881 0.898163 0.000000
0.658997 0.897888 0.000000
0.732910 0.897583 0.000000
0.812286 0.897522 0.000000
0.898041 0.898041 0.000000
0.966858 0.898407 0.000000
0.996033 0.899811 0.000000
1.000000 0.900848 0.000000
1.000000 0.902679 0.000000
1.000000 0.904663 0.000000
1.000000 0.906708 0.000000
1.000000 0.909485 0.000000
1.000000 0.911591 0.000000
1.000000 0.990143 0.898010
0.000000 0.947723 0.000000
0.000000 0.950012 0.000000
0.000000 0.952179 0.000000
0.000000 0.954285 0.000000
0.000000 0.956360 0.000000
0.000000 0.958435 0.000000
0.028107 0.960602 0.000000
0.079102 0.962952 0.000000
0.121796 0.964630 0.000000
0.160370 0.965851 0.000000
0.198822 0.966766 0.000000
0.238159 0.967377 0.000000
0.279175 0.967865 0.000000
0.322388 0.968140 0.000000
0.368652 0.968262 0.000000
0.418274 0.968170 0.000000
0.471741 0.968140 0.000000
0.529877 0.967957 0.000000
0.592529 0.967773 0.000000
0.660706 0.967743 0.000000
0.734558 0.967529 0.000000
0.813995 0.967346 0.000000
0.899841 0.967529 0.000000
0.967743 0.967712 0.000000
0.996124 0.968048 0.000000
1.000000 0.968781 0.000000
1.000000 0.969696 0.000000
1.000000 0.970612 0.000000
1.000000 0.971985 0.000000
1.000000 0.973572 0.000000
1.000000 0.974823 0.000000
1.000000 0.997192 0.895538
0.000000 0.992859 0.000000
0.000000 0.993256 0.000000
0.000000 0.993561 0.000000
0.000000 0.993896 0.000000
0.000000 0.994232 0.000000
0.000000 0.994781 0.000000
0.031525 0.995148 0.000000
0.081604 0.995514 0.000000
0.123810 0.995789 0.000000
0.162537 0.995972 0.000000
0.200745 0.996155 0.000000
0.240021 0.996246 0.000000
0.281036 0.996368 0.000000
0.324219 0.996399 0.000000
0.370514 0.996399 0.000000
0.420258 0.996399 0.000000
0.473877 0.996368 0.000000
0.532043 0.996368 0.000000
0.594971 0.996368 0.000000
0.662781 0.996338 0.000000
0.736725 0.996277 0.000000
0.816528 0.996246 0.000000
0.902374 0.996216 0.000000
0.969116 0.996216 0.000000
0.996338 0.996185 0.000000
1.000000 0.996277 0.001770
1.000000 0.996399 0.001984
1.000000 0.996582 0.002167
1.000000 0.996765 0.002502
1.000000 0.996979 0.002777
1.000000 0.997223 0.003143
1.000000 0.999695 0.898438
0.000000 1.000000 0.000000
0.000000 1.000000 0.000000
0.000000 1.000000 0.000000
0.000000 1.000000 0.000000
0.000000 1.000000 0.000000
0.000000 1.000000 0.000000
0.036041 1.000000 0.000000
0.084778 1.000000 0.000000
0.126465 1.000000 0.000000
0.165131 1.000000 0.000000
0.203278 1.000000 0.000000
0.242523 1.000000 0.000000
0.283447 1.000000 0.000000
0.326904 1.000000 0.000000
0.373169 1.000000 0.000000
0.423035 1.000000 0.000000
0.476959 1.000000 0.000000
0.534912 1.000000 0.000000
0.597961 1.000000 0.000000
0.666199 1.000000 0.000000
0.740143 1.000000 0.000000
0.819855 1.000000 0.000000
0.905731 1.000000 0.000000
0.970886 0.999939 0.000000
0.996582 0.999878 0.002045
1.000000 0.999878 0.006592
1.000000 0.999878 0.006592
1.000000 0.999878 0.006592
1.000000 0.999878 0.006592
1.000000 0.999878 0.006592
1.000000 0.999878 0.023651
1.000000 1.000000 0.907349
0.000000 1.000000 0.000000
0.000000 1.000000 0.000000
0.000000 1.000000 0.000000
0.000000 1.000000 0.000000
0.000000 1.000000 0.000000
0.000000 1.000000 0.000000
0.040894 1.000000 0.000000
0.089081 1.000000 0.000000
0.129944 1.000000 0.000000
0.168182 1.000000 0.000000
0.206421 1.000000 0.000000
0.245392 1.000000 0.000000
0.286621 1.000000 0.000000
0.330078 1.000000 0.000000
0.376465 1.000000 0.000000
0.426514 1.000000 0.000000
0.480316 1.000000 0.000000
0.538544 1.000000 0.000000
0.601532 1.000000 0.000000
0.670197 1.000000 0.000000
0.744415 1.000000 0.000000
0.824158 1.000000 0.000000
0.909973 1.000000 0.000000
0.973175 0.999908 0.000000
0.996918 0.999878 0.002502
1.000000 0.999878 0.006592
1.000000 0.999878 0.006592
1.000000 0.999878 0.006592
1.000000 0.999878 0.006592
1.000000 0.999878 0.006592
1.000000 0.999878 0.055664
1.000000 1.000000 0.917847
0.000000 1.000000 0.000000
0.000000 1.000000 0.000000
0.000000 1.000000 0.000000
0.000000 1.000000 0.000000
0.000000 1.000000 0.000000
0.000000 1.000000 0.000000
0.046051 1.000000 0.000000
0.093506 1.000000 0.000000
0.133667 1.000000 0.000000
0.171326 1.000000 0.000000
0.209351 1.000000 0.000000
0.248596 1.000000 0.000000
0.289764 1.000000 0.000000
0.333282 1.000000 0.000000
0.379883 1.000000 0.000000
0.429749 1.000000 0.000000
0.483643 1.000000 0.000000
