Postproduction/IWLTBAP - Humble/LUTs by IWLTBAP (3DL)/BONUS/Sedona/IWLTBAP Sedona - Standard.3dl
# Copyright: (C) Copyright 2016 by IWLTBAP
# Cannot be resold, shared or otherwise redistributed
# Website: http://luts.iwltbap.com
0 128 256 384 512 640 768 896 1023
0 0 57
0 0 409
0 191 807
0 452 1174
2 626 1485
44 785 1778
84 913 2039
110 1101 2290
115 1251 2490
0 105 154
0 204 489
0 507 906
0 757 1260
16 954 1584
53 1145 1896
87 1313 2169
117 1450 2397
145 1569 2587
0 469 307
0 624 646
0 776 1005
13 971 1334
47 1155 1647
86 1349 1955
122 1519 2227
157 1666 2462
184 1782 2648
0 845 452
0 1005 761
29 1159 1145
51 1216 1414
77 1336 1703
117 1520 2010
155 1693 2283
191 1842 2519
228 1975 2716
18 1260 627
52 1415 892
93 1540 1249
118 1611 1558
125 1605 1787
151 1707 2066
191 1867 2343
234 2022 2588
271 2154 2785
114 1731 814
153 1862 1029
193 1975 1370
216 2033 1678
234 2076 1978
231 2041 2185
251 2106 2431
284 2224 2663
317 2338 2852
223 2159 957
258 2257 1119
293 2355 1451
314 2419 1764
338 2473 2081
366 2533 2391
354 2474 2571
363 2502 2773
379 2561 2938
305 2494 1054
332 2565 1210
358 2638 1475
382 2708 1802
400 2761 2121
434 2832 2449
466 2899 2743
454 2829 2890
455 2832 3046
375 2824 1178
389 2865 1312
405 2913 1540
427 2974 1879
442 3019 2187
469 3075 2492
504 3141 2782
525 3182 3019
516 3104 3138
682 15 42
726 12 341
390 0 596
298 24 847
261 113 1128
245 246 1441
271 347 1696
322 408 1888
321 488 2074
266 123 87
213 258 451
51 382 821
53 596 1181
86 802 1536
132 989 1865
176 1121 2137
212 1213 2357
207 1381 2568
126 513 323
57 564 559
44 695 935
78 918 1298
121 1140 1652
166 1351 1982
201 1509 2253
231 1633 2474
258 1750 2652
123 851 461
64 925 654
94 1100 1074
126 1205 1406
161 1361 1730
205 1557 2049
242 1724 2318
275 1854 2537
305 1964 2714
193 1251 616
127 1344 800
164 1513 1190
208 1641 1564
220 1660 1832
247 1762 2115
286 1915 2386
323 2047 2609
353 2157 2788
303 1723 798
239 1831 978
275 1976 1327
312 2073 1674
340 2143 2012
340 2119 2245
351 2164 2478
377 2260 2692
398 2343 2857
429 2183 968
352 2255 1112
381 2359 1401
409 2445 1738
434 2514 2082
468 2588 2420
460 2540 2619
458 2541 2802
461 2567 2944
518 2534 1060
427 2571 1183
444 2638 1406
473 2718 1751
492 2784 2093
524 2861 2443
562 2939 2764
552 2877 2925
545 2858 3065
574 2851 1157
476 2864 1272
488 2900 1438
513 2966 1792
531 3020 2121
551 3079 2451
588 3153 2769
616 3211 3035
607 3131 3157
1332 126 36
1443 99 274
1409 131 590
1063 103 825
887 105 1053
850 128 1290
878 171 1500
945 224 1686
990 280 1837
1099 243 35
1049 374 310
1078 330 570
691 317 866
496 418 1230
349 559 1617
328 660 1899
369 712 2083
381 870 2312
913 557 142
939 651 381
710 781 836
404 853 1210
297 1049 1605
273 1279 1978
292 1425 2259
325 1510 2468
335 1588 2637
799 1059 409
695 1061 647
391 1064 990
311 1139 1337
268 1357 1722
293 1577 2073
326 1734 2346
358 1848 2563
374 1924 2722
645 1422 651
507 1419 843
338 1442 1094
311 1597 1494
328 1665 1825
339 1797 2143
379 1955 2420
413 2076 2637
436 2163 2799
583 1861 860
538 1872 1007
444 1931 1239
400 2054 1604
430 2157 1992
442 2173 2280
453 2222 2522
475 2307 2728
488 2367 2875
715 2313 1014
660 2315 1153
568 2359 1354
504 2443 1661
523 2530 2041
564 2626 2426
566 2606 2662
560 2596 2842
553 2596 2964
814 2652 1092
753 2645 1238
669 2671 1424
563 2716 1657
582 2790 2019
611 2880 2417
655 2974 2777
651 2928 2959
638 2892 3089
897 2943 1196
834 2936 1374
643 2927 1475
599 2965 1724
618 3016 2040
637 3078 2389
671 3159 2740
706 3234 3044
698 3160 3177
1795 241 40
1855 167 178
1881 206 554
1841 239 813
1568 242 1069
1322 225 1281
1263 242 1483
1289 271 1671
1345 303 1822
1705 362 34
1705 506 239
1706 405 510
1691 439 798
1297 411 1060
1082 412 1335
993 438 1586
1011 498 1786
1056 581 1960
1628 675 58
1684 717 207
1480 848 661
1434 825 929
1082 851 1288
831 933 1681
648 1019 2005
605 1080 2219
583 1157 2403
1549 990 196
1578 1034 304
1445 1170 779
1192 1297 1255
811 1362 1659
660 1505 2014
592 1648 2311
569 1727 2522
544 1767 2673
1623 1655 527
1530 1639 642
1224 1614 1067
818 1623 1411
688 1652 1785
635 1828 2151
541 2010 2462
526 2110 2678
524 2148 2816
1602 2141 793
1433 2103 940
1083 2061 1296
767 2043 1561
691 2153 1951
668 2213 2300
619 2271 2560
574 2353 2768
577 2388 2896
1708 2579 987
1469 2541 1151
1159 2510 1447
864 2481 1669
746 2546 1995
675 2645 2410
688 2656 2693
664 2643 2875
648 2634 2991
1728 2877 1098
1497 2846 1231
1249 2828 1511
1015 2803 1744
825 2809 1957
718 2890 2365
743 2993 2769
748 2974 2988
730 2927 3111
1581 3089 1189
1423 3067 1322
1233 3056 1637
1006 3028 1800
857 3031 2000
746 3078 2327
753 3160 2700
794 3251 3045
788 3186 3193
2205 351 43
2209 225 169
2262 237 511
2253 317 777
2236 347 1041
1991 357 1304
1709 332 1493
1629 344 1672
1644 373 1815
2221 494 34
2252 617 167
2203 453 403
2217 527 755
2197 549 1040
1791 506 1303
1513 483 1521
1454 508 1712
1486 544 1867
2253 780 34
2295 788 154
2121 1001 609
2097 873 789
2067 893 1094
1573 880 1439
1361 862 1704
1284 874 1913
1310 898 2059
2235 1103 97
2273 1135 185
2158 1257 653
2036 1337 1006
1945 1317 1334
1491 1331 1713
1238 1375 2044
1069 1400 2271
1003 1396 2412
2210 1451 257
2219 1456 327
2126 1569 721
2014 1737 1162
1737 1844 1683
1246 1890 2118
1074 1976 2409
978 2008 2606
902 1988 2730
2401 2249 673
2334 2260 778
2123 2268 1084
1781 2236 1529
1322 2246 1885
1096 2265 2311
1049 2349 2595
980 2431 2809
721 2415 2927
2462 2778 957
2360 2760 1057
2143 2721 1309
1761 2673 1724
1340 2637 2038
1112 2696 2420
1081 2742 2751
1026 2730 2939
849 2692 3041
2429 3040 1064
2306 3021 1167
2137 3007 1411
1883 2994 1781
1556 2962 2087
1160 2940 2362
1043 3038 2778
1004 3045 3037
975 2991 3160
2179 3198 1147
2082 3183 1256
1920 3175 1553
1753 3171 1856
1531 3154 2102
1200 3125 2319
1013 3180 2670
930 3269 3044
974 3229 3223
2555 450 45
2507 280 163
2550 274 410
2575 335 746
2585 418 1001
2581 447 1271
2440 478 1515
2184 457 1686
2059 458 1829
2640 613 37
2677 722 156
2615 575 281
2609 535 700
2637 629 990
2631 647 1284
2368 631 1529
2031 597 1702
1927 613 1846
2730 866 34
2764 886 145
2698 1096 517
2631 941 677
2639 954 1001
2640 963 1303
2230 917 1565
1887 899 1790
1817 891 1941
2787 1270 61
2832 1199 135
2779 1281 503
2621 1486 929
2578 1339 1103
2588 1367 1421
2111 1312 1739
1850 1261 1960
1742 1204 2099
2815 1569 162
2849 1582 217
2829 1660 411
2722 1791 1002
2643 1884 1372
2570 1842 1696
2112 1800 2021
1886 1758 2247
1715 1698 2390
2847 1992 379
2867 1987 431
2832 2043 575
2738 2192 1144
2677 2373 1600
2423 2497 2162
2079 2487 2488
1804 2464 2715
1552 2365 2834
2992 2661 754
2998 2716 863
2955 2808 1026
2789 2885 1527
2530 2874 1965
2167 2852 2361
1849 2872 2758
1643 2866 2990
1375 2813 3116
3022 3138 983
2965 3149 1091
2895 3159 1211
2767 3182 1644
2555 3162 2034
2227 3137 2394
1698 3130 2796
1503 3151 3106
1240 3061 3216
2757 3327 1108
2690 3316 1212
2617 3303 1338
2488 3302 1736
2354 3300 2042
2150 3292 2342
1598 3247 2653
1278 3307 3045
1268 3291 3269
2856 539 46
2773 353 163
2786 301 307
2816 313 713
2847 452 980
2865 510 1233
2864 536 1489
2790 570 1702
2649 578 1848
2960 706 39
2984 800 153
2926 692 271
2856 470 602
2915 646 948
2948 712 1238
2941 721 1504
2813 739 1715
2633 760 1861
3058 933 34
3090 955 137
3069 1149 449
2992 1059 623
2974 961 933
3015 1016 1251
3009 1007 1521
2817 989 1725
2580 982 1871
3148 1302 42
3183 1212 123
3170 1305 401
3097 1556 822
3020 1402 972
3040 1376 1297
3044 1350 1550
2779 1300 1765
2508 1278 1952
3206 1745 160
3254 1703 194
3270 1644 301
3212 1766 826
3118 1997 1294
3033 1836 1475
3057 1817 1721
2726 1718 1937
2485 1644 2105
3269 2071 322
3321 2095 376
3336 2160 492
3320 2273 883
3270 2393 1442
3127 2534 1931
3061 2467 2164
2736 2325 2338
2532 2157 2420
3313 2470 554
3363 2512 636
3372 2566 748
3349 2647 1057
3282 2788 1617
3185 2985 2174
3023 3099 2620
2793 3077 2874
2535 2918 2964
3366 2924 796
3399 2974 897
3409 3048 1022
3394 3154 1288
3317 3290 1873
3142 3350 2322
2836 3333 2702
2568 3368 3070
2151 3278 3279
3295 3381 1007
3224 3396 1130
3169 3398 1244
3123 3417 1483
3056 3454 1926
2931 3448 2247
2725 3444 2574
2137 3422 2991
1511 3357 3317
3139 638 47
3077 518 171
3020 357 308
3045 354 682
3073 471 969
3104 563 1235
3111 586 1462
3112 614 1692
3089 682 1872
3237 795 39
3251 897 160
3195 829 270
3082 527 450
3125 662 908
3178 775 1220
3198 803 1471
3190 815 1704
3138 874 1880
3320 1000 35
3343 1034 140
3330 1203 385
3248 1151 587
3187 961 840
3238 1044 1217
3273 1078 1486
3259 1067 1714
3176 1094 1887
3398 1321 39
3432 1258 124
3428 1352 323
3375 1583 756
3294 1503 932
3281 1364 1227
3328 1403 1511
3310 1362 1723
3195 1356 1890
3465 1820 159
3516 1716 184
3531 1647 284
3486 1775 757
3442 2020 1196
3331 1855 1361
3367 1833 1647
3354 1751 1808
3207 1691 1951
3535 2191 339
3599 2244 413
3633 2278 516
3641 2268 750
3607 2323 1279
3531 2538 1775
3395 2399 1975
3426 2336 2125
3223 2185 2197
3589 2487 507
3658 2556 604
3693 2629 721
3708 2732 899
3707 2861 1479
3677 2981 1994
3583 3103 2430
3491 3054 2655
3255 2857 2703
3613 2800 678
3672 2860 779
3707 2924 891
3719 3000 1038
3722 3116 1585
3684 3251 2078
3604 3438 2573
3482 3557 2951
3321 3530 3159
3622 3171 851
3638 3234 961
3638 3292 1082
3640 3366 1233
3634 3479 1755
3571 3567 2166
3476 3623 2514
3281 3629 2827
2585 3599 3329
3396 754 64
3348 700 178
3240 456 300
3253 452 521
3283 499 915
3336 669 1207
3367 728 1458
3374 743 1673
3390 807 1873
3459 876 39
3471 986 167
3443 986 284
3346 767 385
3303 638 789
3363 835 1157
3419 920 1451
3433 940 1678
3437 992 1883
3518 1068 35
3522 1106 148
3537 1261 292
3476 1298 597
3387 1084 727
3390 1061 1108
3459 1156 1441
3485 1185 1685
3479 1222 1890
3573 1358 41
3578 1296 136
3589 1390 267
3567 1599 685
3511 1621 915
3432 1358 1069
3491 1441 1459
3532 1487 1716
3520 1501 1912
3621 1815 144
3643 1665 170
3647 1630 279
3630 1754 679
3620 1990 1083
3538 1943 1295
3519 1802 1552
3579 1866 1827
3563 1853 2002
3682 2290 366
3725 2273 408
3746 2199 465
3739 2140 659
3721 2234 1153
3706 2479 1633
3579 2354 1821
3639 2364 2092
3633 2328 2239
3729 2561 526
3783 2633 623
3812 2698 741
3829 2765 895
3834 2803 1350
3820 2839 1822
3793 3028 2267
3670 2944 2484
3733 2939 2660
3760 2817 663
3805 2886 771
3830 2957 901
3844 3040 1059
3847 3170 1570
3848 3308 2064
3847 3449 2498
3827 3556 2844
3803 3532 3046
3784 3074 782
3810 3124 888
3826 3174 998
3833 3230 1127
3844 3318 1496
3845 3413 1936
3844 3521 2305
3845 3698 2729
3791 3848 3182
