Postproduction/IWLTBAP - Humble/LUTs by IWLTBAP (3DL)/BONUS/Sedona/IWLTBAP Sedona - V-Log.3dl
# Copyright: (C) Copyright 2010-2017 by IWLTBAP SAS for SmallHD
# Cannot be resold, shared or otherwise redistributed
# Website: https://luts.iwltbap.com
# IWLTBAP Sedona (V-Log)
0 128 256 384 512 640 768 896 1023
0  0  48
0  0  96
0  0 264
0  42 576
0 297 1003
86 423 1501
529 349 1850
674 337 1878
674 353 1911
0  0  48
0  0 110
0  0 281
0 128 642
0 417 1093
76 557 1583
399 439 1953
547 415 1957
517 431 1989
0  11 112
0  16 158
0  56 325
0 236 620
0 582 1071
26 983 1812
273 666 2167
341 598 2143
309 618 2175
0 287 250
0 303 297
0 367 451
0 483 746
0 750 1118
38 1136 1706
134 1517 2515
168 1292 2503
168 1308 2535
0 786 489
0 825 560
0 887 710
0 989 945
24 1099 1292
72 1334 1756
188 1846 2521
216 1959 2689
224 1975 2705
108 1708 993
122 1738 1057
130 1772 1160
150 1804 1302
172 1862 1551
188 1884 2023
266 2171 2645
295 2282 2800
311 2298 2822
389 2778 1561
389 2792 1623
389 2806 1690
405 2826 1796
417 2858 1991
439 2924 2366
485 2982 3015
485 2982 3071
485 2982 3103
401 2890 1686
417 2904 1748
417 2908 1814
417 2924 1921
433 2956 2097
455 3025 2449
513 3093 3059
497 3067 3099
497 3053 3131
417 2938 1718
417 2954 1766
417 2970 1842
433 2986 1953
433 3011 2119
465 3073 2465
525 3155 3075
513 3115 3131
513 3115 3147
0  0  48
13  0  94
0  0 238
0  11 531
0 158 911
124 299 1399
672 305 1802
817 305 1846
800 321 1864
0  0  48
0  0  94
0  0 309
0  72 592
0 273 987
108 439 1507
525 395 1882
676 383 1913
658 399 1941
0  16 110
0  28 158
0  56 327
0 226 624
0 572 1085
54 879 1806
349 578 2079
439 553 2079
423 555 2099
0 287 244
0 303 281
0 363 435
0 469 746
0 742 1118
54 1142 1720
138 1475 2507
214 1148 2463
214 1162 2487
0 778 465
0 810 535
0 871 678
7 981 931
40 1099 1292
88 1342 1770
204 1846 2529
232 1951 2689
232 1967 2705
124 1698 977
130 1730 1041
146 1768 1150
162 1808 1302
188 1870 1551
204 1900 2039
283 2177 2649
311 2284 2800
311 2298 2822
399 2778 1545
405 2792 1607
405 2806 1686
421 2826 1792
425 2858 1977
455 2928 2366
501 2982 3019
501 2995 3085
501 2982 3103
417 2890 1670
431 2904 1732
433 2908 1800
433 2932 1905
449 2956 2087
471 3025 2434
529 3105 3059
513 3067 3101
513 3067 3131
433 2938 1688
433 2954 1750
433 2970 1828
449 2986 1937
449 3011 2105
481 3073 2459
529 3171 3087
529 3129 3131
529 3115 3147
377  0  32
379  0  62
421  0 216
311  0 411
289  0 690
357 122 1194
863 264 1762
987 289 1830
971 305 1846
343  0  32
285  0  78
331  0 204
242  0 425
196  18 720
240 216 1286
726 339 1810
863 367 1876
845 367 1896
212  44  64
268  82  94
72 116 345
11 210 670
24 409 1059
140 604 1599
421 578 2039
505 614 2095
489 614 2111
0 319 250
0 321 266
0 369 423
0 441 714
9 742 1136
82 1174 1794
244 1108 2418
307 917 2342
295 929 2374
0 754 429
0 778 459
7 855 638
26 949 887
68 1095 1292
104 1363 1804
220 1858 2553
248 1941 2689
248 1951 2705
130 1682 929
140 1714 1001
156 1762 1112
172 1814 1280
204 1886 1551
232 1923 2055
299 2187 2661
327 2288 2800
327 2304 2832
405 2766 1513
421 2778 1577
421 2806 1658
433 2826 1768
437 2858 1963
469 2930 2364
517 2999 3019
517 2995 3087
517 2995 3103
433 2876 1637
433 2892 1702
449 2908 1778
449 2924 1888
461 2956 2071
481 3025 2432
543 3109 3059
529 3069 3115
529 3067 3131
445 2938 1670
449 2954 1732
449 2970 1798
461 2986 1905
465 3011 2087
487 3073 2449
545 3171 3091
545 3131 3131
545 3115 3147
1077  74  32
1104  58  48
1154  44 158
1190  74 427
941  58 658
827 102 1067
1083 260 1712
1208 305 1814
1208 305 1830
1053  90  32
1029  90  62
1104  64 146
1156  90 425
855  60 658
752 112 1079
1011 311 1734
1130 367 1844
1124 367 1862
993 140  32
1019 150  48
881 208 200
1021 178 423
684 150 684
545 264 1204
782 481 1856
929 539 1941
913 537 1963
873 409  80
937 453 106
927 515 234
457 521 656
184 646 1130
208 989 1816
377 967 2288
417 945 2332
417 977 2364
150 814 449
136 814 465
116 857 543
108 949 855
120 1075 1268
176 1415 1876
254 1868 2603
266 1892 2673
266 1909 2689
134 1645 835
140 1678 877
156 1732 987
242 1826 1228
277 1892 1519
327 1991 2103
315 2204 2681
343 2288 2806
343 2304 2832
421 2762 1449
421 2778 1521
437 2794 1609
443 2826 1722
453 2858 1927
485 2940 2340
533 2999 3031
533 2999 3087
533 2995 3103
449 2874 1589
449 2890 1654
449 2906 1734
465 2924 1840
473 2956 2039
497 3025 2412
557 3109 3071
545 3083 3115
545 3069 3131
449 2928 1611
459 2938 1674
465 2954 1752
465 2970 1862
481 3003 2055
503 3073 2428
562 3171 3091
562 3131 3131
562 3115 3147
1726 208  48
1734 184  78
1770 152 140
1816 154 373
1806 216 674
1551 250 1037
1389 337 1637
1485 425 1798
1485 425 1814
1718 246  48
1718 232  64
1740 182 126
1800 168 353
1790 224 666
1491 273 1037
1352 367 1650
1447 471 1808
1447 471 1830
1778 289  32
1796 303  48
1694 349 124
1738 216 297
1778 293 674
1397 341 1053
1272 449 1694
1381 549 1846
1381 545 1866
1772 503  32
1804 503  48
1866 553 108
1535 648 439
1666 551 690
1222 582 1182
1134 684 1862
1256 734 1963
1250 734 1979
1846 1043 152
1892 1065 160
2095 1204 204
1820 1186 531
1083 1156 1116
582 1332 1909
594 1389 2465
634 1332 2465
618 1348 2489
584 1776 827
557 1776 845
503 1762 861
491 1834 1043
513 1915 1471
465 2053 2143
447 2268 2756
447 2306 2834
447 2320 2856
421 2742 1316
433 2752 1356
437 2770 1441
453 2796 1575
578 2862 1774
606 2956 2268
678 3063 3075
598 3031 3105
598 3019 3127
449 2842 1429
449 2858 1499
465 2874 1585
465 2906 1712
572 2946 1886
592 3025 2334
654 3157 3091
626 3101 3131
620 3099 3149
465 2898 1453
465 2914 1525
465 2930 1609
481 2954 1738
578 2995 1919
594 3073 2344
666 3211 3107
634 3155 3149
634 3147 3163
2455 353 102
2444 305 134
2438 246 182
2455 256 270
2503 281 626
2525 413 1051
2284 533 1625
2276 622 1782
2260 628 1814
2491 413  96
2477 375 126
2444 291 172
2461 266 250
2503 287 612
2539 429 1057
2268 572 1627
2252 660 1784
2234 674 1814
2563 499  80
2553 483 102
2521 463 150
2477 305 234
2535 311 602
2569 461 1079
2232 642 1637
2234 724 1798
2206 736 1814
2679 604  32
2695 614  48
2699 626  80
2617 823 323
2565 574 533
2627 672 1099
2173 784 1670
2204 847 1818
2181 857 1850
2876 1112  32
2892 1104  48
2930 1079  70
2966 1136 218
2571 1314 768
2653 1118 1174
2105 1095 1822
2194 1114 1923
2165 1106 1939
3083 2035 339
3105 2043 345
3159 2093 377
3312 2262 493
3075 2212 861
2143 2246 1987
1391 2119 2687
1389 2017 2661
1336 1987 2661
1830 3037 1138
1798 3023 1154
1734 3023 1170
1597 2997 1196
1266 2964 1517
1228 3041 2222
911 3157 3129
804 3113 3155
802 3097 3173
1676 3087 1393
1639 3083 1459
1609 3085 1537
1485 3067 1611
1258 3041 1786
1101 3065 2236
847 3225 3129
821 3169 3179
821 3165 3195
1607 3117 1467
1573 3115 1521
1541 3117 1609
1421 3101 1684
1200 3073 1828
1079 3095 2262
847 3261 3139
831 3217 3195
831 3201 3201
3171 481 232
3143 433 260
3139 405 293
3143 405 341
3159 405 638
3213 562 1071
3267 666 1674
3312 762 1830
3312 778 1862
3219 620 228
3201 545 248
3157 463 281
3153 431 335
3163 437 580
3225 594 1055
3284 698 1674
3314 782 1830
3316 798 1862
3275 718 212
3259 682 242
3219 602 273
3171 475 319
3171 457 501
3241 626 1055
3296 746 1690
3328 814 1830
3328 831 1862
3334 829 196
3318 796 212
3302 764 244
3318 863 293
3209 555 385
3253 658 1045
3316 794 1702
3338 855 1846
3348 871 1872
3436 923  40
3436 927  56
3424 907  80
3436 1023 194
3432 1417 666
3322 1067 971
3412 1108 1734
3408 1144 1852
3408 1160 1878
3637 2043 268
3649 2031 273
3653 2015 279
3677 1987 311
3689 1967 495
3609 2240 1425
3508 1820 1878
3492 1766 1941
3478 1754 1961
3785 3071 1031
3797 3079 1063
3797 3103 1112
3809 3133 1190
3821 3235 1413
3821 3336 1894
3677 3725 3063
3673 3729 3137
3645 3725 3171
3745 3171 1015
3745 3181 1035
3745 3187 1063
3749 3237 1184
3761 3316 1551
3737 3416 1925
3402 3729 3063
2946 3657 3255
2844 3633 3290
3717 3239 1059
3717 3255 1075
3717 3271 1108
3733 3308 1234
3733 3392 1609
3705 3488 1957
3328 3701 3007
2731 3629 3263
2513 3593 3344
3229 513 256
3211 465 289
3211 433 321
3211 433 363
3229 435 656
3282 606 1083
3360 814 1658
3388 899 1830
3388 915 1862
3277 626 256
3259 564 273
3217 467 305
3213 451 353
3235 465 610
3294 630 1083
3376 847 1658
3390 931 1830
3402 947 1862
3326 734 240
3306 686 258
3261 596 289
3227 497 337
3235 481 545
3298 654 1067
3392 911 1662
3406 981 1830
3406 995 1862
3400 909 224
3392 887 240
3364 843 273
3330 770 315
3245 531 415
3314 744 1039
3424 1029 1674
3422 1075 1832
3430 1091 1862
3492 1029 128
3492 1059 152
3492 1116 200
3492 1212 305
3476 1389 658
3362 1049 955
3468 1240 1706
3468 1268 1846
3460 1284 1878
3695 1969 329
3695 1945 341
3695 1931 363
3695 1913 393
3679 1898 654
3625 2212 1397
3539 1770 1844
3539 1804 1947
3524 1800 1977
3838 3292 1722
3838 3318 1818
3838 3338 1909
3838 3378 2051
3838 3454 2254
3838 3496 2370
3801 3725 3023
3789 3729 3109
3775 3717 3139
3838 3436 2117
3838 3468 2183
3838 3484 2248
3838 3526 2360
3838 3597 2521
3838 3629 2603
3789 3793 3023
3773 3824 3149
3757 3824 3195
3838 3452 2085
3838 3480 2147
3824 3496 2210
3821 3532 2312
3821 3581 2457
3821 3613 2525
3785 3781 2978
3741 3824 3133
3679 3838 3195
3275 562 256
3259 497 287
3243 449 305
3243 449 353
3259 457 610
3314 622 1067
3408 843 1658
3420 915 1830
3436 931 1846
3324 672 256
3308 624 273
3275 533 305
3257 469 347
3259 479 537
3314 636 1051
3420 879 1658
3436 949 1830
3436 963 1862
3372 766 240
3354 734 256
3324 658 289
3275 517 335
3259 497 477
3324 654 1041
3436 935 1658
3452 1007 1830
3452 1023 1862
3440 939 224
3424 919 240
3408 875 268
3376 814 305
3280 557 393
3330 744 1009
3462 1057 1674
3468 1101 1830
3468 1108 1862
3508 1043 128
3508 1065 152
3516 1116 192
3524 1218 283
3508 1413 650
3380 1045 909
3500 1260 1698
3500 1300 1846
3500 1300 1878
3695 1905 303
3695 1888 309
3695 1872 341
3695 1854 371
3679 1856 612
3641 2179 1344
3571 1786 1848
3571 1836 1961
3571 1836 1993
3854 3308 1738
3854 3324 1838
3854 3352 1931
3854 3394 2079
3854 3468 2284
3854 3512 2400
3838 3725 3007
3821 3717 3093
3821 3717 3127
3854 3452 2133
3854 3468 2198
3854 3494 2262
3854 3532 2374
3854 3597 2535
3854 3633 2605
3834 3793 3019
3819 3824 3147
3805 3838 3179
3854 3452 2039
3854 3468 2103
3854 3484 2163
3854 3516 2264
3854 3565 2408
3854 3587 2473
3834 3781 2962
3805 3838 3131
3789 3854 3179
