Postproduction/IWLTBAP - Humble/LUTs by IWLTBAP (3DL)/BONUS/Sedona/IWLTBAP Sedona - LOG.3dl
# Copyright: (C) Copyright 2016 by IWLTBAP
# Cannot be resold, shared or otherwise redistributed
# Website: http://luts.iwltbap.com
0 64 128 192 256 320 384 448 512 576 640 704 768 832 896 960 1023
0 0 57
0 0 125
0 0 216
0 0 337
0 9 472
0 80 647
0 256 889
0 432 1141
0 577 1391
20 702 1625
52 814 1831
77 893 1991
94 944 2113
107 1049 2236
109 1159 2347
110 1228 2431
115 1251 2490
0 0 61
0 0 124
0 0 227
0 8 354
0 60 500
0 175 686
0 350 920
0 531 1175
0 687 1430
22 822 1670
52 950 1880
73 1030 2034
87 1088 2156
94 1156 2264
93 1254 2373
100 1312 2455
108 1342 2515
0 0 89
0 0 151
0 3 241
0 45 369
0 131 522
0 263 713
0 439 943
0 614 1194
0 772 1453
20 922 1703
44 1050 1913
60 1149 2075
75 1221 2201
88 1283 2307
101 1347 2403
114 1406 2488
123 1438 2549
0 43 128
0 52 184
0 76 280
0 110 391
0 202 548
0 343 740
0 519 966
0 690 1213
3 850 1473
27 1002 1724
52 1133 1937
73 1235 2104
89 1312 2232
103 1375 2339
115 1432 2428
130 1494 2514
137 1521 2573
0 167 180
0 180 233
0 211 327
0 252 451
0 302 586
0 432 772
0 603 993
0 777 1240
12 936 1497
39 1086 1745
67 1221 1961
87 1322 2128
103 1400 2258
118 1466 2365
130 1521 2454
146 1581 2539
153 1612 2599
0 330 250
0 347 297
0 385 385
0 435 512
0 499 667
0 573 826
0 709 1031
3 874 1275
25 1026 1525
55 1179 1774
82 1313 1987
103 1416 2153
120 1496 2285
136 1565 2395
149 1619 2484
162 1675 2565
170 1709 2627
0 542 335
0 563 377
0 604 456
0 662 583
0 732 747
0 811 923
1 874 1092
16 993 1315
42 1132 1560
71 1282 1806
99 1417 2019
122 1522 2185
139 1603 2316
157 1674 2427
169 1728 2516
181 1780 2594
192 1821 2660
0 807 437
0 828 474
0 870 543
0 930 665
2 999 826
13 1074 1006
30 1142 1195
44 1183 1381
64 1270 1604
92 1403 1844
121 1538 2059
144 1643 2225
162 1725 2356
179 1794 2465
196 1856 2559
211 1911 2640
223 1957 2709
5 1124 571
7 1151 609
11 1192 669
21 1247 773
39 1312 923
58 1376 1093
78 1435 1280
95 1484 1493
103 1492 1677
120 1560 1890
146 1674 2100
170 1775 2268
191 1860 2404
211 1934 2518
229 1997 2614
245 2054 2695
257 2099 2763
57 1478 713
64 1507 750
74 1549 803
85 1594 888
103 1652 1025
125 1711 1188
142 1757 1366
158 1801 1584
171 1831 1809
171 1812 1977
186 1861 2162
208 1941 2328
228 2015 2460
248 2084 2575
265 2143 2669
281 2196 2750
293 2241 2817
136 1818 847
146 1847 881
157 1885 924
168 1919 991
182 1965 1113
200 2018 1271
218 2064 1449
234 2104 1666
248 2141 1908
261 2166 2128
255 2129 2263
263 2150 2405
274 2193 2527
289 2245 2635
304 2293 2724
317 2336 2801
327 2374 2865
203 2080 935
211 2102 962
222 2134 1002
233 2165 1058
246 2203 1160
263 2251 1319
277 2297 1499
293 2340 1719
311 2382 1966
331 2425 2212
342 2445 2404
330 2391 2497
333 2397 2607
340 2423 2705
350 2454 2788
358 2482 2857
364 2508 2916
252 2274 988
260 2293 1018
272 2324 1067
281 2351 1120
291 2378 1186
307 2423 1339
324 2472 1528
338 2516 1750
355 2559 1999
378 2609 2254
400 2656 2476
405 2657 2618
391 2600 2682
392 2600 2773
396 2615 2852
401 2632 2919
405 2650 2976
291 2432 1035
299 2449 1070
308 2474 1115
316 2497 1165
324 2518 1221
336 2552 1341
355 2603 1540
370 2649 1766
383 2691 2016
405 2741 2271
431 2793 2501
449 2831 2677
448 2815 2777
436 2762 2829
437 2762 2905
439 2770 2972
440 2777 3027
319 2556 1074
325 2571 1108
333 2593 1151
340 2612 1198
347 2631 1252
356 2656 1341
374 2705 1545
391 2755 1777
404 2797 2027
424 2844 2282
451 2898 2514
472 2942 2698
484 2967 2832
478 2932 2899
469 2890 2945
469 2887 3010
470 2891 3067
344 2672 1113
349 2685 1146
356 2703 1186
362 2719 1231
368 2737 1284
374 2758 1357
389 2800 1556
407 2847 1791
420 2889 2041
438 2933 2292
463 2983 2520
485 3028 2706
501 3061 2849
507 3071 2951
501 3031 3000
495 2998 3044
494 2992 3099
375 2824 1178
379 2834 1208
382 2845 1244
387 2857 1287
391 2871 1336
396 2888 1408
409 2926 1611
425 2969 1848
438 3005 2091
453 3044 2331
475 3087 2547
497 3127 2725
513 3160 2866
523 3179 2976
526 3178 3055
520 3134 3096
516 3104 3138
2 0 50
11 0 114
6 0 206
2 0 321
0 1 454
0 39 610
0 157 823
0 301 1066
10 434 1316
46 557 1556
80 669 1770
107 758 1937
126 827 2068
143 893 2186
156 973 2302
162 1042 2392
163 1075 2451
0 0 54
0 0 112
0 0 226
0 6 358
0 35 495
0 114 662
0 247 879
0 399 1124
4 536 1374
35 664 1617
70 780 1828
96 859 1991
114 926 2122
128 1002 2239
133 1126 2357
134 1209 2446
140 1234 2498
0 0 85
0 1 145
0 7 246
0 46 373
0 116 521
0 226 701
0 391 929
0 565 1184
5 718 1442
37 859 1690
66 990 1904
84 1082 2066
97 1143 2189
106 1199 2294
111 1295 2400
123 1363 2484
135 1400 2540
0 48 131
0 60 176
0 82 275
0 114 393
0 199 550
0 326 736
0 493 960
0 666 1212
11 828 1475
39 981 1729
64 1110 1942
84 1211 2108
99 1286 2235
113 1346 2339
126 1407 2431
141 1471 2518
152 1503 2571
0 170 183
0 190 221
0 218 311
0 257 442
0 308 591
0 428 775
0 593 994
3 767 1245
25 926 1505
53 1080 1758
80 1215 1973
101 1314 2139
116 1390 2266
131 1454 2372
143 1509 2460
158 1569 2545
169 1601 2598
0 327 248
0 352 284
0 385 363
0 436 493
0 503 661
0 579 832
0 710 1038
13 874 1284
40 1028 1538
70 1184 1790
97 1316 2003
118 1416 2167
135 1496 2297
151 1562 2404
163 1615 2492
177 1671 2573
187 1701 2626
0 534 330
0 564 364
0 599 432
0 658 557
0 732 730
1 817 921
10 886 1104
31 1002 1330
58 1143 1578
89 1294 1826
116 1427 2037
138 1529 2202
155 1609 2330
172 1676 2438
185 1729 2525
196 1780 2603
209 1815 2659
0 797 431
0 831 465
0 867 525
1 926 639
9 999 805
26 1080 997
47 1157 1201
62 1201 1398
82 1287 1624
110 1420 1866
139 1553 2079
161 1654 2242
179 1735 2371
196 1803 2479
212 1861 2570
227 1915 2649
240 1952 2706
24 1111 563
18 1153 602
23 1193 656
34 1247 751
52 1316 903
74 1387 1083
95 1454 1282
114 1508 1507
122 1516 1700
139 1581 1914
165 1692 2122
188 1791 2288
210 1875 2421
229 1945 2533
246 2005 2625
262 2060 2705
275 2097 2761
87 1465 706
81 1512 746
90 1555 795
102 1602 874
119 1662 1009
142 1727 1179
163 1783 1370
181 1831 1597
195 1864 1831
194 1843 2004
208 1885 2187
229 1961 2349
247 2031 2479
266 2097 2590
283 2153 2681
298 2205 2760
310 2239 2817
163 1811 846
163 1855 881
174 1893 921
186 1932 982
200 1978 1099
219 2034 1260
238 2087 1448
256 2132 1673
272 2172 1923
286 2199 2152
279 2161 2290
285 2174 2428
295 2213 2546
308 2259 2650
323 2305 2738
335 2346 2812
345 2374 2866
226 2082 941
229 2113 965
238 2142 997
250 2176 1051
264 2215 1144
282 2266 1305
299 2317 1494
315 2364 1720
333 2407 1975
355 2454 2229
367 2476 2427
353 2419 2520
354 2420 2627
361 2441 2722
368 2465 2799
376 2494 2868
382 2508 2916
273 2279 996
278 2305 1017
287 2331 1058
298 2361 1112
309 2390 1176
325 2434 1321
344 2487 1518
359 2535 1747
375 2579 2002
399 2631 2263
422 2680 2490
428 2684 2638
414 2624 2703
413 2621 2792
416 2632 2868
420 2646 2932
423 2650 2976
311 2435 1034
316 2459 1064
324 2480 1105
332 2504 1156
341 2529 1214
352 2561 1321
372 2613 1525
388 2662 1758
402 2706 2013
424 2757 2274
450 2812 2510
469 2852 2691
470 2839 2795
457 2783 2847
457 2780 2920
458 2786 2986
460 2780 3029
339 2560 1071
342 2581 1101
350 2600 1142
357 2620 1190
364 2641 1245
373 2666 1325
390 2713 1528
409 2766 1767
423 2810 2023
442 2859 2282
469 2913 2518
491 2959 2708
504 2986 2845
498 2951 2915
489 2909 2961
488 2903 3024
490 2895 3071
364 2675 1109
366 2696 1138
372 2712 1177
378 2728 1223
384 2746 1276
391 2767 1344
405 2808 1537
425 2860 1782
439 2903 2037
455 2947 2292
480 2997 2523
503 3043 2714
519 3078 2859
526 3088 2964
521 3049 3015
515 3015 3059
514 2996 3102
394 2823 1168
397 2832 1197
402 2843 1233
406 2855 1275
410 2868 1325
415 2886 1392
428 2923 1590
445 2967 1829
458 3006 2078
472 3045 2323
494 3089 2541
516 3130 2723
534 3165 2868
544 3186 2981
546 3184 3059
541 3142 3102
538 3110 3144
173 0 39
176 0 85
175 0 185
158 0 291
127 0 409
79 2 540
25 39 728
23 153 973
51 284 1230
88 421 1485
121 530 1698
145 605 1857
162 659 1978
177 701 2080
191 759 2188
202 825 2285
208 896 2368
106 0 42
116 0 94
109 0 189
80 2 318
51 17 458
13 52 615
1 137 806
10 280 1055
38 414 1307
77 544 1555
111 656 1770
137 739 1935
157 801 2063
172 857 2174
187 923 2284
196 992 2378
203 1044 2441
36 0 62
42 2 116
26 30 255
8 58 373
2 105 515
0 177 683
0 299 902
0 438 1146
17 566 1395
56 706 1647
94 834 1867
121 919 2033
141 972 2158
152 1026 2265
156 1152 2386
155 1233 2475
159 1285 2527
7 65 131
4 76 172
0 95 273
0 118 392
0 191 542
0 300 725
0 451 954
1 618 1211
20 773 1475
53 921 1730
81 1050 1945
98 1145 2109
111 1210 2234
121 1263 2336
133 1344 2435
146 1414 2518
163 1449 2564
0 183 195
0 200 224
0 218 299
0 250 426
0 293 574
0 409 763
0 575 995
10 748 1255
36 909 1520
65 1064 1775
92 1194 1989
112 1291 2153
127 1362 2277
140 1421 2379
154 1481 2469
169 1545 2554
186 1580 2597
0 335 259
0 354 284
0 383 341
0 429 466
0 492 640
0 568 823
4 709 1047
26 871 1299
54 1028 1559
86 1186 1814
112 1317 2026
132 1413 2187
149 1488 2313
164 1551 2418
176 1604 2504
191 1662 2585
206 1692 2628
2 535 334
0 558 361
0 600 407
0 655 520
0 731 701
9 824 915
25 903 1120
47 1014 1352
75 1157 1605
106 1309 1855
133 1439 2064
154 1537 2225
172 1614 2351
187 1676 2454
199 1727 2540
212 1778 2616
229 1810 2660
21 788 429
9 818 459
3 871 506
7 926 603
19 1002 771
40 1092 981
65 1182 1209
82 1231 1427
101 1311 1656
130 1444 1899
158 1573 2108
179 1670 2268
197 1748 2394
214 1814 2499
229 1867 2586
243 1919 2663
260 1948 2705
73 1101 558
57 1138 593
41 1199 643
48 1252 722
65 1324 870
90 1405 1064
115 1483 1282
137 1547 1529
145 1554 1735
160 1612 1949
186 1718 2154
209 1814 2317
229 1894 2447
248 1961 2554
264 2017 2642
279 2069 2719
295 2094 2760
142 1453 699
125 1494 736
111 1565 789
119 1616 854
137 1679 983
161 1752 1162
186 1819 1369
208 1875 1612
223 1913 1864
222 1891 2046
233 1922 2224
251 1989 2380
269 2056 2507
287 2118 2614
302 2169 2701
316 2217 2776
331 2239 2817
224 1804 843
206 1846 878
194 1908 921
205 1950 969
221 1999 1075
240 2059 1240
262 2120 1440
282 2171 1678
300 2216 1943
315 2248 2186
308 2207 2329
310 2210 2462
318 2242 2576
330 2283 2674
344 2326 2759
353 2362 2829
366 2376 2867
290 2083 945
267 2117 973
259 2161 1000
269 2193 1040
283 2233 1121
302 2287 1280
322 2345 1480
339 2396 1717
358 2444 1984
382 2494 2251
396 2521 2460
381 2462 2557
380 2456 2659
383 2468 2748
388 2486 2820
395 2511 2886
402 2508 2916
336 2287 1008
311 2313 1028
307 2348 1050
317 2378 1101
328 2409 1165
344 2451 1291
366 2509 1499
382 2562 1738
398 2609 2004
422 2663 2276
447 2715 2513
455 2724 2669
440 2663 2736
437 2653 2820
440 2660 2893
441 2669 2953
443 2650 2977
365 2446 1045
342 2464 1061
341 2495 1094
350 2519 1143
359 2544 1202
370 2576 1292
390 2629 1500
409 2683 1744
423 2730 2009
444 2782 2279
472 2840 2524
492 2883 2713
493 2871 2822
480 2814 2874
478 2805 2944
480 2809 3007
482 2786 3033
384 2569 1067
367 2586 1094
368 2616 1130
375 2637 1178
383 2658 1234
391 2682 1304
408 2729 1499
428 2784 1750
443 2832 2016
461 2880 2284
488 2936 2527
511 2984 2723
526 3014 2868
521 2981 2940
512 2939 2987
509 2927 3045
513 2903 3076
400 2681 1100
390 2699 1128
391 2728 1164
397 2746 1211
403 2764 1266
410 2785 1331
423 2823 1506
443 2877 1764
458 2923 2029
473 2967 2292
498 3017 2530
522 3066 2726
539 3101 2876
545 3112 2982
542 3075 3036
537 3040 3081
538 3005 3108
419 2827 1159
421 2833 1185
423 2842 1220
427 2853 1261
432 2867 1312
437 2883 1375
450 2920 1558
467 2965 1805
481 3006 2059
494 3046 2308
515 3090 2532
537 3133 2718
556 3169 2867
567 3193 2984
570 3192 3065
565 3150 3107
560 3117 3147
502 1 42
497 0 69
527 0 167
508 0 280
369 0 389
289 0 511
213 2 654
169 40 852
146 138 1106
151 248 1361
171 348 1578
192 414 1734
207 453 1849
224 484 1942
239 520 2032
245 553 2110
236 619 2196
392 1 41
393 5 84
431 1 152
418 5 275
283 1 398
195 5 530
121 33 700
84 121 938
90 249 1209
122 392 1474
152 496 1685
174 560 1837
190 606 1956
205 647 2057
218 698 2158
229 759 2252
