Postproduction/IWLTBAP - Humble/LUTs by IWLTBAP (3DL)/BONUS/Sedona/IWLTBAP Sedona - LOG.3dl
# Copyright: (C) Copyright 2016 by IWLTBAP
# Cannot be resold, shared or otherwise redistributed
# Website: http://luts.iwltbap.com
0 128 256 384 512 640 768 896 1023
0 0 57
0 0 216
0 9 472
0 256 889
0 577 1391
52 814 1831
94 944 2113
109 1159 2347
115 1251 2490
0 0 89
0 3 241
0 131 522
0 439 943
0 772 1453
44 1050 1913
75 1221 2201
101 1347 2403
123 1438 2549
0 167 180
0 211 327
0 302 586
0 603 993
12 936 1497
67 1221 1961
103 1400 2258
130 1521 2454
153 1612 2599
0 542 335
0 604 456
0 732 747
1 874 1092
42 1132 1560
99 1417 2019
139 1603 2316
169 1728 2516
192 1821 2660
5 1124 571
11 1192 669
39 1312 923
78 1435 1280
103 1492 1677
146 1674 2100
191 1860 2404
229 1997 2614
257 2099 2763
136 1818 847
157 1885 924
182 1965 1113
218 2064 1449
248 2141 1908
255 2129 2263
274 2193 2527
304 2293 2724
327 2374 2865
252 2274 988
272 2324 1067
291 2378 1186
324 2472 1528
355 2559 1999
400 2656 2476
391 2600 2682
396 2615 2852
405 2650 2976
319 2556 1074
333 2593 1151
347 2631 1252
374 2705 1545
404 2797 2027
451 2898 2514
484 2967 2832
469 2890 2945
470 2891 3067
375 2824 1178
382 2845 1244
391 2871 1336
409 2926 1611
438 3005 2091
475 3087 2547
513 3160 2866
526 3178 3055
516 3104 3138
173 0 39
175 0 185
127 0 409
25 39 728
51 284 1230
121 530 1698
162 659 1978
191 759 2188
208 896 2368
36 0 62
26 30 255
2 105 515
0 299 902
17 566 1395
94 834 1867
141 972 2158
156 1152 2386
159 1285 2527
0 183 195
0 218 299
0 293 574
0 575 995
36 909 1520
92 1194 1989
127 1362 2277
154 1481 2469
186 1580 2597
2 535 334
0 600 407
0 731 701
25 903 1120
75 1157 1605
133 1439 2064
172 1614 2351
199 1727 2540
229 1810 2660
73 1101 558
41 1199 643
65 1324 870
115 1483 1282
145 1554 1735
186 1718 2154
229 1894 2447
264 2017 2642
295 2094 2760
224 1804 843
194 1908 921
221 1999 1075
262 2120 1440
300 2216 1943
308 2207 2329
318 2242 2576
344 2326 2759
366 2376 2867
336 2287 1008
307 2348 1050
328 2409 1165
366 2509 1499
398 2609 2004
447 2715 2513
440 2663 2736
440 2660 2893
443 2650 2977
384 2569 1067
368 2616 1130
383 2658 1234
408 2729 1499
443 2832 2016
488 2936 2527
526 3014 2868
512 2939 2987
513 2903 3076
419 2827 1159
423 2842 1220
432 2867 1312
450 2920 1558
481 3006 2059
515 3090 2532
556 3169 2867
570 3192 3065
560 3117 3147
831 34 38
871 21 141
890 29 391
512 6 638
390 50 1006
354 200 1417
393 300 1681
463 351 1845
460 411 1979
602 50 37
610 100 158
644 85 376
279 54 688
162 233 1188
189 468 1679
226 569 1944
258 665 2141
272 857 2337
378 198 96
428 256 200
307 348 516
75 462 921
81 773 1498
145 1013 1993
186 1120 2270
197 1295 2488
228 1419 2582
207 609 349
170 649 431
80 676 620
71 837 1060
120 1152 1630
174 1446 2129
203 1596 2410
231 1703 2585
278 1781 2664
206 1137 574
197 1197 649
119 1299 780
161 1492 1233
209 1622 1793
241 1787 2239
277 1947 2526
307 2047 2697
354 2100 2767
361 1828 835
364 1906 921
285 2055 1029
320 2192 1385
372 2329 1979
387 2341 2442
379 2338 2674
393 2382 2823
425 2384 2874
499 2321 1003
492 2381 1086
383 2476 1135
409 2567 1400
452 2696 1991
508 2825 2581
508 2785 2843
497 2741 2969
504 2662 2985
570 2606 1065
552 2645 1133
434 2714 1194
449 2774 1396
491 2895 1982
535 3008 2555
580 3098 2933
570 3023 3062
577 2922 3090
620 2861 1158
583 2868 1219
496 2873 1293
509 2914 1497
542 3003 2003
572 3092 2502
616 3180 2861
633 3212 3077
623 3135 3160
1428 148 37
1476 109 98
1543 118 331
1491 152 634
1057 127 981
937 150 1327
973 192 1557
1048 237 1723
1081 276 1833
1314 181 34
1387 227 83
1455 153 254
1430 193 639
911 143 1001
783 190 1377
792 266 1624
870 325 1787
806 441 1939
1194 315 36
1300 327 74
1195 450 341
1197 387 633
643 368 1140
410 497 1677
425 549 1920
443 698 2142
405 931 2338
1039 655 159
1131 721 199
1098 780 413
789 870 908
348 1023 1533
273 1321 2101
296 1428 2384
319 1500 2559
363 1626 2647
884 1353 544
839 1398 627
671 1416 802
387 1391 1106
338 1579 1740
335 1800 2251
366 1950 2539
386 2032 2707
432 2089 2778
770 2005 904
697 2039 966
618 2117 1059
495 2141 1291
459 2311 1906
494 2380 2462
481 2376 2702
483 2405 2844
516 2411 2893
933 2491 1055
817 2498 1105
721 2558 1177
603 2572 1369
543 2685 1890
602 2842 2565
611 2829 2870
592 2780 2999
597 2692 3006
974 2754 1117
875 2756 1152
781 2792 1211
659 2804 1389
577 2888 1853
619 3021 2510
671 3131 2943
665 3067 3092
671 2958 3114
1017 2975 1203
960 2961 1250
896 2957 1422
710 2947 1544
630 3000 1927
659 3092 2443
701 3188 2842
725 3241 3091
715 3166 3180
2078 315 42
2083 271 92
2113 208 201
2148 242 582
2104 313 970
1698 307 1332
1528 305 1546
1524 329 1708
1546 352 1815
2069 381 36
2136 409 76
2119 280 170
2171 272 548
2121 361 990
1614 333 1360
1453 334 1579
1462 367 1737
1467 406 1835
2065 490 34
2153 508 66
2172 606 186
2139 458 485
2115 521 1011
1496 419 1415
1360 407 1650
1377 475 1810
1322 596 1915
2056 820 46
2160 823 71
2212 823 160
1973 987 651
1892 902 1079
1260 846 1610
1075 845 1905
1086 882 2064
1040 1063 2222
2007 1314 243
2099 1370 272
2158 1435 334
1987 1536 784
1520 1653 1535
932 1725 2149
754 1811 2465
694 1826 2619
767 1900 2702
2188 2371 800
2191 2425 859
2173 2522 955
1823 2425 1246
1091 2294 1802
880 2397 2450
770 2423 2731
649 2444 2879
652 2450 2933
2249 2824 1013
2203 2850 1063
2113 2910 1135
1825 2862 1390
1163 2749 1877
847 2836 2489
829 2875 2887
785 2823 3026
804 2763 3060
2190 3030 1093
2107 3042 1141
1978 3076 1207
1768 3057 1421
1312 2997 1882
872 3010 2377
809 3139 2910
820 3109 3112
875 3024 3160
1995 3163 1162
1948 3155 1212
1863 3146 1306
1671 3139 1644
1356 3115 2009
1013 3111 2377
863 3198 2798
864 3268 3100
881 3209 3209
2613 466 45
2602 417 91
2560 274 190
2605 282 479
2635 405 917
2636 465 1313
2474 494 1573
2275 482 1726
2172 482 1832
2667 557 41
2697 565 78
2659 465 160
2633 318 376
2685 450 910
2690 525 1342
2473 541 1602
2252 527 1752
2120 532 1841
2720 665 36
2772 683 71
2815 733 144
2731 540 283
2774 573 900
2787 641 1399
2490 618 1662
2231 638 1802
2025 678 1853
2817 947 34
2873 920 65
2928 921 128
2866 1105 474
2795 928 866
2812 958 1402
2357 880 1676
2072 879 1852
1921 963 1950
2890 1516 124
2965 1546 143
3067 1564 166
3031 1522 368
2775 1726 1140
2703 1617 1581
2157 1490 1921
1918 1424 2107
1869 1497 2223
2950 2097 416
3028 2159 455
3149 2282 529
3103 2292 633
2907 2452 1418
2524 2599 2241
2040 2520 2594
1757 2453 2769
1737 2451 2846
3091 2799 802
3135 2862 854
3210 2993 934
3158 3048 1072
2868 3098 1756
2215 3000 2424
1780 3014 2920
1589 2971 3102
1490 2934 3172
3088 3188 985
3079 3224 1034
3050 3290 1104
2979 3298 1219
2773 3293 1777
2315 3230 2376
1643 3217 2895
1386 3221 3182
1310 3137 3249
2855 3346 1098
2823 3346 1154
2786 3341 1224
2711 3328 1374
2532 3327 1925
2247 3317 2381
1631 3277 2765
1336 3334 3123
1315 3302 3277
2946 566 46
2924 509 94
2842 325 190
2866 312 367
2905 408 891
2943 531 1276
2943 559 1555
2899 592 1744
2806 607 1855
3007 659 42
3030 673 82
2989 599 161
2897 368 303
2949 445 867
2999 589 1293
2996 616 1586
2936 649 1768
2819 703 1861
3065 762 38
3105 783 73
3145 820 139
3071 697 268
3031 536 821
3110 711 1334
3104 729 1650
3013 779 1818
2825 840 1868
3163 1009 34
3203 986 67
3255 984 116
3225 1137 364
3104 931 741
3179 998 1328
3173 994 1653
3037 1000 1827
2805 1072 1875
3278 1646 117
3331 1611 126
3412 1549 137
3401 1479 269
3271 1763 982
3205 1572 1376
3215 1521 1677
2999 1454 1850
2748 1543 1994
3378 2174 360
3441 2226 398
3550 2333 466
3571 2370 559
3521 2429 1095
3317 2594 1929
3232 2479 2191
2911 2291 2301
2768 2279 2420
3420 2586 599
3481 2643 643
3591 2764 722
3614 2815 831
3573 2905 1282
3400 3120 2179
3171 3255 2738
2946 3206 2959
2794 3099 3016
3453 2946 784
3498 2996 828
3569 3096 896
3586 3160 1009
3558 3286 1431
3365 3459 2285
2983 3441 2766
2704 3473 3137
2488 3399 3271
3440 3339 954
3431 3372 1015
3395 3400 1106
3337 3416 1230
3252 3466 1748
3124 3506 2287
2901 3498 2651
2390 3486 3045
1645 3395 3343
3195 659 48
3176 640 108
3112 502 198
3069 372 334
3108 420 876
3159 587 1281
3164 606 1532
3168 635 1733
3169 711 1877
3255 741 42
3272 767 89
3241 745 177
3130 485 306
3152 485 835
3219 680 1290
3228 699 1557
3227 725 1759
3195 800 1882
3309 843 38
3342 866 75
3377 906 144
3314 842 272
3218 558 738
3307 800 1307
3327 833 1604
3323 865 1810
3226 933 1885
3389 1069 35
3426 1055 67
3468 1058 121
3451 1203 308
3310 1028 669
3355 1044 1283
3397 1090 1612
3382 1093 1820
3266 1162 1892
3491 1659 106
3536 1616 118
3583 1555 134
3589 1522 261
3502 1786 921
3389 1554 1283
3458 1595 1652
3435 1540 1831
3305 1589 1918
3592 2266 373
3639 2322 418
3704 2414 487
3743 2457 592
3727 2395 1016
3625 2568 1783
3498 2419 2044
3514 2331 2160
3353 2296 2236
3647 2597 562
3690 2656 615
3749 2757 694
3786 2833 814
3798 2957 1166
3771 3124 2039
3674 3237 2553
3591 3188 2767
3410 3080 2830
3665 2861 701
3707 2914 751
3758 3006 821
3785 3068 933
3799 3169 1231
3781 3342 2080
3696 3536 2654
3564 3637 3007
3459 3634 3181
3664 3130 829
3675 3158 879
3688 3197 955
3698 3261 1080
3710 3393 1584
3673 3564 2206
3580 3662 2602
3416 3687 2894
2901 3677 3304
3396 754 64
3386 779 132
3335 676 199
3238 446 324
3273 468 816
3344 685 1257
3370 734 1528
3375 750 1717
3390 807 1873
3430 813 48
3435 864 113
3420 888 202
3335 711 304
3280 524 734
3360 760 1235
3398 824 1529
3403 838 1721
3414 892 1879
3469 904 39
3475 950 98
3483 1031 186
3455 1031 303
3309 678 603
3381 894 1208
3438 974 1529
3442 984 1725
3445 1031 1884
3529 1117 35
3528 1104 82
3535 1156 169
3540 1322 381
3440 1271 715
3408 1129 1170
3483 1228 1529
3492 1239 1732
3488 1272 1891
3605 1653 98
3615 1579 113
3623 1514 164
3627 1560 320
3596 1849 939
3481 1690 1232
3537 1712 1615
3562 1734 1822
3548 1732 1964
3692 2344 396
3720 2364 431
3745 2355 466
3766 2309 544
3748 2281 1032
3721 2568 1738
3587 2430 1963
3660 2472 2201
3650 2432 2305
3740 2642 571
3767 2681 623
3798 2727 694
3824 2800 825
3839 2935 1198
3838 3033 1990
3810 3206 2468
3732 3169 2678
3756 3134 2799
3766 2871 689
3788 2902 740
3813 2948 818
3834 3023 959
3846 3169 1392
3848 3377 2172
3849 3557 2646
3830 3643 2933
3808 3626 3091
3784 3074 782
3797 3098 833
3813 3132 907
3828 3184 1021
3840 3282 1315
3845 3432 2007
3845 3566 2426
3839 3736 2831
3791 3848 3182
