Postproduction/IWLTBAP - Humble/LUTs by IWLTBAP (3DL)/BONUS/Sedona/IWLTBAP Sedona - Standard.3dl
# Copyright: (C) Copyright 2016 by IWLTBAP
# Cannot be resold, shared or otherwise redistributed
# Website: http://luts.iwltbap.com
0 256 512 768 1023
0 0 57
0 191 807
2 626 1485
84 913 2039
115 1251 2490
0 469 307
0 776 1005
47 1155 1647
122 1519 2227
184 1782 2648
18 1260 627
93 1540 1249
125 1605 1787
191 1867 2343
271 2154 2785
223 2159 957
293 2355 1451
338 2473 2081
354 2474 2571
379 2561 2938
375 2824 1178
405 2913 1540
442 3019 2187
504 3141 2782
516 3104 3138
1332 126 36
1409 131 590
887 105 1053
878 171 1500
990 280 1837
913 557 142
710 781 836
297 1049 1605
292 1425 2259
335 1588 2637
645 1422 651
338 1442 1094
328 1665 1825
379 1955 2420
436 2163 2799
715 2313 1014
568 2359 1354
523 2530 2041
566 2606 2662
553 2596 2964
897 2943 1196
643 2927 1475
618 3016 2040
671 3159 2740
698 3160 3177
2205 351 43
2262 237 511
2236 347 1041
1709 332 1493
1644 373 1815
2253 780 34
2121 1001 609
2067 893 1094
1361 862 1704
1310 898 2059
2210 1451 257
2126 1569 721
1737 1844 1683
1074 1976 2409
902 1988 2730
2462 2778 957
2143 2721 1309
1340 2637 2038
1081 2742 2751
849 2692 3041
2179 3198 1147
1920 3175 1553
1531 3154 2102
1013 3180 2670
974 3229 3223
2856 539 46
2786 301 307
2847 452 980
2864 536 1489
2649 578 1848
3058 933 34
3069 1149 449
2974 961 933
3009 1007 1521
2580 982 1871
3206 1745 160
3270 1644 301
3118 1997 1294
3057 1817 1721
2485 1644 2105
3313 2470 554
3372 2566 748
3282 2788 1617
3023 3099 2620
2535 2918 2964
3295 3381 1007
3169 3398 1244
3056 3454 1926
2725 3444 2574
1511 3357 3317
3396 754 64
3240 456 300
3283 499 915
3367 728 1458
3390 807 1873
3518 1068 35
3537 1261 292
3387 1084 727
3459 1156 1441
3479 1222 1890
3621 1815 144
3647 1630 279
3620 1990 1083
3519 1802 1552
3563 1853 2002
3729 2561 526
3812 2698 741
3834 2803 1350
3793 3028 2267
3733 2939 2660
3784 3074 782
3826 3174 998
3844 3318 1496
3844 3521 2305
3791 3848 3182
