Postproduction/IWLTBAP - Humble/LUTs by IWLTBAP (3DL)/BONUS/Sedona/IWLTBAP Sedona - V-Log.3dl
# Copyright: (C) Copyright 2010-2017 by IWLTBAP SAS for SmallHD
# Cannot be resold, shared or otherwise redistributed
# Website: https://luts.iwltbap.com
# IWLTBAP Sedona (V-Log)
0 64 128 192 256 320 384 448 512 576 640 704 768 832 896 960 1023
0  0  48
0  0  79
0  0  96
0  0 170
0  0 264
0  0 418
0  42 576
0 162 781
0 297 1003
6 376 1232
86 423 1501
191 428 1749
529 349 1850
690 337 1865
674 337 1878
674 338 1894
674 353 1911
0  0  48
0  0  79
0  0  96
0  0 173
0  0 268
0  10 423
0  58 592
0 193 797
0 328 1019
0 408 1248
77 470 1523
181 475 1781
466 381 1893
627 368 1894
624 369 1911
611 384 1927
611 384 1942
0  0  48
0  0  79
0  0 110
0  0 173
0  0 281
0  27 434
0 128 642
0 292 879
0 417 1093
0 491 1317
76 557 1583
170 564 1848
399 439 1953
549 399 1941
547 415 1957
531 415 1973
517 431 1989
0  0  77
0  0  95
0  0 125
0  0 186
0  11 294
0  56 423
0 161 602
0 341 826
0 537 1122
0 701 1461
54 697 1688
165 679 1936
328 527 2045
452 475 2017
439 478 2033
423 491 2049
407 494 2065
0  11 112
0  16 139
0  16 158
0  28 218
0  56 325
0 130 467
0 236 620
0 408 839
0 582 1071
0 787 1395
26 983 1812
147 868 2069
273 666 2167
341 598 2127
341 598 2143
325 614 2159
309 618 2175
0 129 171
0 134 187
0 134 217
0 161 281
0 193 384
0 236 514
0 337 683
0 487 857
0 661 1086
0 851 1351
38 1078 1744
80 1290 2203
244 937 2333
273 809 2286
261 814 2297
261 814 2303
256 831 2329
0 287 250
0 303 266
0 303 297
0 335 360
0 367 451
0 425 594
0 483 746
0 610 921
0 750 1118
6 924 1371
38 1136 1706
101 1411 2139
134 1517 2515
168 1289 2503
168 1292 2503
168 1293 2519
168 1308 2535
0 508 355
0 517 371
0 533 417
0 566 480
0 610 563
0 657 684
0 730 842
0 790 1015
0 894 1189
23 1027 1411
54 1221 1722
110 1474 2101
169 1739 2537
176 1761 2610
176 1763 2626
185 1770 2642
185 1777 2642
0 786 489
0 802 512
0 825 560
0 856 620
0 887 710
0 934 808
0 989 945
7 1052 1111
24 1099 1292
40 1178 1497
72 1334 1756
133 1577 2122
188 1846 2521
216 1946 2673
216 1959 2689
224 1967 2698
224 1975 2705
6 1173 702
6 1189 734
13 1219 780
23 1237 844
23 1265 907
39 1289 990
49 1336 1100
64 1377 1220
79 1431 1403
87 1439 1615
109 1517 1858
151 1706 2172
219 1977 2568
247 2088 2716
256 2101 2737
256 2108 2738
263 2117 2753
108 1708 993
114 1714 1024
122 1738 1057
124 1753 1106
130 1772 1160
140 1788 1229
150 1804 1302
156 1836 1407
172 1862 1551
188 1901 1765
188 1884 2023
219 1973 2308
266 2171 2645
295 2272 2784
295 2282 2800
305 2288 2806
311 2298 2822
272 2309 1288
272 2309 1319
283 2325 1350
283 2325 1385
288 2341 1429
288 2357 1487
299 2373 1555
299 2389 1643
315 2405 1770
322 2439 1949
352 2493 2245
352 2475 2550
368 2537 2826
384 2593 2910
395 2604 2926
395 2604 2937
395 2604 2953
389 2778 1561
389 2778 1592
389 2792 1623
389 2794 1655
389 2806 1690
405 2810 1745
405 2826 1796
405 2842 1880
417 2858 1991
421 2877 2140
439 2924 2366
486 3020 2720
485 2982 3015
485 2982 3070
485 2982 3071
485 2982 3087
485 2982 3103
401 2858 1670
401 2861 1701
401 2874 1732
417 2877 1763
417 2890 1801
417 2893 1841
417 2906 1905
417 2915 1977
433 2930 2087
433 2957 2221
455 2993 2432
486 3075 2760
509 3063 3043
497 3035 3083
497 3035 3099
497 3035 3100
497 3035 3115
401 2890 1686
416 2892 1717
417 2904 1748
417 2906 1779
417 2908 1814
417 2922 1857
417 2924 1921
433 2940 1993
433 2956 2097
433 2977 2237
455 3025 2449
497 3093 2760
513 3093 3059
497 3067 3086
497 3067 3099
497 3053 3115
497 3053 3131
417 2922 1702
417 2922 1733
417 2923 1764
417 2938 1795
417 2939 1826
417 2949 1873
433 2955 1937
433 2970 2001
433 2986 2103
440 3004 2253
465 3042 2449
498 3120 2760
513 3124 3071
513 3099 3100
513 3084 3115
513 3083 3116
513 3083 3131
417 2938 1718
417 2954 1734
417 2954 1766
417 2967 1811
417 2970 1842
433 2970 1889
433 2986 1953
433 2996 2016
433 3011 2119
449 3035 2262
465 3073 2465
502 3136 2776
525 3155 3075
513 3128 3115
513 3115 3131
513 3115 3131
513 3115 3147
0  0  48
0  0  64
0  0  96
0  0 157
0  0 264
0  0 407
0  26 566
0 130 765
0 249 987
6 329 1209
92 392 1470
212 386 1717
589 321 1823
753 309 1847
752 321 1862
752 322 1864
737 337 1879
0  0  48
0  0  64
0  0  96
0  0 171
0  0 268
0  0 418
0  57 576
0 162 781
0 281 1003
6 376 1232
92 439 1507
191 428 1749
529 353 1862
705 340 1878
689 353 1894
688 353 1911
674 369 1911
0  0  48
0  0  78
0  0  96
0  0 172
0  0 268
0  16 423
0 112 630
0 250 854
0 371 1070
6 452 1292
86 516 1561
181 516 1817
462 407 1920
613 385 1911
611 399 1927
595 400 1943
581 415 1958
0  0  77
0  0  95
0  0 125
0  0 186
0  11 294
0  56 423
0 145 592
0 314 824
0 519 1119
0 654 1436
63 665 1672
170 632 1915
379 484 1998
518 446 1976
513 449 1989
501 462 2005
485 463 2021
0  14 112
0  16 139
0  28 158
0  28 218
0  56 325
0 130 466
0 224 610
0 392 826
0 566 1059
0 782 1395
38 964 1802
157 828 2053
296 619 2132
376 554 2086
363 554 2096
360 554 2112
347 571 2128
0 129 171
0 134 187
0 134 217
0 150 279
0 178 372
0 225 514
0 331 669
0 473 857
0 645 1075
0 842 1351
38 1078 1744
85 1280 2198
253 881 2297
282 755 2250
282 767 2265
282 767 2277
278 778 2293
0 287 245
0 303 265
0 303 297
0 332 354
0 363 451
0 410 588
0 473 746
0 600 920
0 742 1110
6 924 1368
54 1136 1706
101 1411 2144
134 1517 2515
184 1245 2487
184 1255 2498
184 1261 2513
174 1271 2519
0 501 346
0 517 371
0 532 402
0 563 464
0 595 555
0 648 682
0 720 841
0 783 1015
0 886 1189
25 1027 1404
63 1221 1722
117 1474 2101
180 1739 2537
185 1755 2610
185 1761 2626
185 1770 2642
185 1777 2642
0 778 481
0 794 505
0 819 551
0 843 615
0 875 698
0 923 808
0 981 935
14 1052 1110
31 1099 1292
55 1178 1497
86 1334 1756
133 1577 2125
196 1846 2529
224 1946 2673
226 1959 2689
232 1967 2697
232 1968 2705
6 1173 702
6 1189 733
23 1205 780
23 1234 828
35 1253 907
39 1289 986
55 1333 1093
71 1377 1220
87 1431 1404
102 1439 1615
119 1523 1858
156 1711 2174
228 1980 2568
259 2088 2720
263 2101 2737
263 2108 2747
263 2117 2753
114 1699 978
123 1714 1009
124 1730 1056
130 1753 1102
140 1769 1160
146 1788 1223
156 1808 1302
165 1836 1407
178 1868 1551
188 1901 1773
194 1884 2023
220 1973 2323
283 2171 2645
310 2272 2784
311 2284 2800
311 2288 2816
311 2298 2822
283 2309 1277
283 2309 1309
288 2325 1350
288 2338 1385
298 2341 1429
299 2357 1476
304 2373 1555
308 2389 1638
315 2408 1770
331 2439 1949
353 2508 2246
368 2480 2550
383 2537 2826
395 2593 2910
395 2604 2926
395 2604 2937
395 2604 2953
389 2778 1545
389 2778 1577
399 2792 1609
405 2794 1655
405 2806 1690
405 2810 1734
405 2826 1796
417 2842 1880
421 2858 1991
424 2877 2136
453 2928 2366
486 3020 2720
497 2982 3015
497 2982 3070
497 2982 3071
497 2982 3087
497 2982 3103
416 2858 1670
417 2861 1689
417 2874 1721
417 2877 1763
417 2890 1794
417 2893 1841
427 2906 1905
433 2915 1977
433 2930 2082
440 2957 2221
464 2996 2432
502 3075 2760
513 3063 3043
512 3038 3083
512 3038 3099
512 3035 3102
512 3035 3115
417 2890 1672
417 2892 1702
417 2904 1734
417 2906 1768
417 2908 1810
432 2922 1857
433 2932 1908
433 2940 1986
433 2956 2087
449 2977 2237
465 3025 2449
502 3093 2760
513 3095 3059
513 3067 3099
513 3067 3101
513 3067 3115
513 3067 3131
417 2922 1686
417 2922 1718
417 2923 1750
430 2938 1783
433 2939 1826
433 2949 1873
433 2955 1921
433 2970 2000
441 2986 2103
449 3004 2247
465 3042 2449
502 3121 2760
525 3127 3072
513 3099 3100
513 3097 3115
513 3084 3130
513 3084 3131
417 2938 1702
417 2954 1734
432 2954 1766
433 2967 1798
433 2970 1842
433 2970 1889
433 2986 1937
442 2996 2016
449 3011 2119
449 3035 2262
471 3073 2465
502 3141 2776
529 3159 3087
513 3131 3115
513 3115 3131
513 3115 3131
513 3115 3147
0  0  48
0  0  64
13  0  94
13  0 143
0  0 238
0  0 374
0  11 531
0  70 705
0 158 911
39 228 1140
124 299 1399
275 323 1655
672 305 1802
817 305 1835
817 305 1846
817 307 1862
800 321 1864
0  0  48
0  0  64
0  0  94
0  0 157
0  0 250
0  0 379
0  28 546
0 102 721
0 197 935
37 268 1170
116 346 1439
239 370 1687
623 333 1823
784 321 1861
769 336 1864
768 337 1878
753 338 1894
0  0  48
0  0  64
0  0  94
0  0 171
0  0 309
0  16 437
0  72 592
0 167 779
0 273 987
23 360 1223
108 439 1507
207 449 1765
525 395 1882
676 383 1909
676 383 1913
660 399 1925
658 399 1941
0  0  64
0  0  93
0  0 123
0  0 186
0  12 295
0  57 437
0 159 617
0 322 854
0 476 1137
6 531 1381
93 587 1625
187 564 1858
417 478 1985
549 463 1976
548 465 1988
533 476 2004
519 478 2020
0  16 110
0  28 127
0  28 158
0  40 217
0  56 327
0 130 467
0 226 624
0 392 840
0 572 1085
0 778 1425
54 879 1806
172 722 1995
349 578 2079
441 544 2065
439 553 2079
436 553 2084
423 555 2099
0 134 171
0 134 187
0 145 217
0 150 264
0 178 372
0 225 514
0 331 671
0 473 857
0 648 1089
6 846 1368
52 1078 1768
94 1222 2204
272 772 2239
326 672 2186
313 672 2189
310 675 2206
308 677 2222
0 287 244
0 292 260
0 303 281
0 319 344
0 363 435
0 410 575
0 469 746
0 600 920
0 742 1118
16 928 1382
54 1142 1720
117 1411 2165
138 1475 2507
214 1146 2455
214 1148 2463
214 1156 2471
214 1162 2487
0 501 339
0 502 355
0 522 387
0 549 448
0 594 541
0 641 666
0 716 826
0 783 1010
8 886 1189
32 1027 1418
70 1230 1736
121 1483 2115
180 1739 2542
185 1748 2610
185 1754 2626
185 1756 2627
190 1770 2642
0 778 465
0 778 490
0 810 535
0 840 599
0 871 678
0 918 792
7 981 931
24 1052 1102
40 1099 1292
56 1187 1498
88 1342 1770
141 1577 2133
204 1846 2529
232 1946 2673
232 1951 2689
232 1960 2698
232 1967 2705
13 1157 686
23 1173 703
23 1203 757
23 1221 811
39 1251 891
46 1285 974
55 1327 1084
71 1375 1213
95 1431 1404
103 1455 1615
125 1533 1868
167 1722 2174
235 1980 2568
263 2088 2720
263 2101 2737
273 2108 2753
273 2117 2753
124 1698 977
124 1714 1008
130 1730 1041
138 1746 1089
146 1768 1150
156 1788 1220
162 1808 1302
172 1839 1407
188 1870 1551
204 1917 1780
204 1900 2039
235 1986 2323
283 2177 2649
311 2272 2784
311 2284 2800
311 2288 2816
311 2298 2822
288 2298 1272
288 2309 1303
297 2325 1336
299 2338 1382
304 2341 1429
304 2357 1476
313 2373 1544
315 2389 1638
323 2408 1765
338 2444 1949
368 2508 2246
368 2491 2566
384 2537 2826
400 2593 2910
400 2604 2926
400 2604 2937
400 2604 2953
399 2778 1545
405 2778 1576
405 2792 1607
405 2794 1641
405 2806 1686
415 2810 1733
421 2826 1792
421 2842 1871
425 2858 1977
437 2881 2136
455 2928 2366
501 3020 2720
501 2982 3019
501 2995 3071
501 2995 3085
501 2993 3087
501 2982 3103
417 2858 1654
417 2861 1686
417 2874 1718
417 2877 1750
431 2890 1794
433 2893 1841
433 2906 1891
433 2915 1971
441 2930 2071
449 2957 2221
465 2996 2432
502 3075 2760
523 3063 3043
513 3038 3083
513 3038 3099
513 3038 3102
513 3038 3115
417 2890 1670
417 2892 1701
431 2904 1732
433 2906 1765
433 2908 1800
433 2922 1848
433 2932 1905
435 2940 1984
449 2956 2087
449 2977 2237
471 3025 2434
502 3093 2760
529 3105 3059
513 3069 3099
513 3067 3101
513 3067 3115
513 3067 3131
418 2907 1686
432 2922 1717
433 2923 1748
433 2938 1779
433 2939 1814
433 2949 1857
434 2955 1921
449 2970 1995
449 2986 2103
450 3010 2239
471 3042 2449
513 3121 2760
529 3137 3075
529 3099 3102
527 3099 3115
527 3084 3131
527 3084 3132
433 2938 1688
433 2954 1719
433 2954 1750
433 2954 1795
433 2970 1828
444 2970 1873
449 2986 1937
449 2996 2009
449 3011 2105
463 3035 2253
481 3073 2459
518 3141 2776
529 3171 3087
529 3131 3115
529 3129 3131
529 3115 3131
529 3115 3147
103  0  32
103  0  48
105  0  80
106  0 141
119  0 220
119  0 327
119  0 440
90  0 595
82  43 784
116 109 1013
208 201 1298
367 259 1575
759 280 1778
896 289 1830
893 289 1835
880 305 1846
880 305 1862
74  0  32
74  0  63
87  0  81
88  0 141
90  0 220
88  0 330
90  9 456
59  18 611
51  61 808
100 154 1052
182 241 1336
320 307 1614
713 307 1792
859 320 1846
848 321 1850
845 321 1862
