Postproduction/IWLTBAP - Humble/LUTs by IWLTBAP (3DL)/BONUS/Sedona/IWLTBAP Sedona - Standard.3dl
# Copyright: (C) Copyright 2016 by IWLTBAP
# Cannot be resold, shared or otherwise redistributed
# Website: http://luts.iwltbap.com
0 64 128 192 256 320 384 448 512 576 640 704 768 832 896 960 1023
0 0 57
0 0 220
0 0 409
0 49 590
0 191 807
0 345 1007
0 452 1174
0 549 1336
2 626 1485
22 706 1635
44 785 1778
66 857 1915
84 913 2039
100 971 2158
110 1101 2290
107 1219 2410
115 1251 2490
0 0 91
0 6 246
0 89 448
0 222 655
0 385 869
0 525 1056
0 639 1229
0 741 1394
3 834 1554
22 930 1713
38 1021 1861
52 1104 1999
67 1182 2128
81 1248 2244
95 1317 2355
112 1395 2467
123 1441 2550
0 105 154
0 144 308
0 204 489
0 343 698
0 507 906
0 643 1089
0 757 1260
3 861 1427
16 954 1584
34 1051 1744
53 1145 1896
70 1232 2037
87 1313 2169
102 1385 2289
117 1450 2397
133 1521 2502
145 1569 2587
0 280 229
0 335 373
0 412 575
0 489 754
0 623 947
0 755 1128
2 867 1297
15 965 1458
32 1060 1616
51 1159 1775
71 1253 1927
88 1340 2067
105 1421 2199
121 1495 2320
138 1565 2433
153 1629 2533
165 1682 2619
0 469 307
0 534 439
0 624 646
0 714 849
0 776 1005
1 870 1170
13 971 1334
30 1062 1491
47 1155 1647
67 1254 1805
86 1349 1955
105 1437 2095
122 1519 2227
139 1595 2349
157 1666 2462
171 1728 2560
184 1782 2648
0 656 377
0 720 495
0 815 703
0 903 911
6 974 1086
14 1008 1216
29 1078 1369
45 1157 1522
62 1245 1676
81 1340 1833
101 1435 1982
121 1526 2124
139 1610 2256
156 1685 2377
173 1755 2489
189 1819 2589
205 1880 2680
0 845 452
0 911 561
0 1005 761
11 1089 965
29 1159 1145
44 1204 1298
51 1216 1414
62 1266 1556
77 1336 1703
96 1425 1858
117 1520 2010
137 1610 2152
155 1693 2283
171 1768 2404
191 1842 2519
211 1913 2624
228 1975 2716
0 1045 538
2 1115 642
18 1203 825
40 1282 1022
59 1344 1196
75 1393 1359
84 1417 1497
87 1412 1603
97 1450 1737
113 1521 1886
132 1607 2036
152 1693 2178
171 1775 2310
190 1855 2435
212 1933 2554
233 2004 2659
249 2067 2751
18 1260 627
31 1332 725
52 1415 892
76 1489 1083
93 1540 1249
108 1581 1408
118 1611 1558
126 1625 1691
125 1605 1787
134 1640 1922
151 1707 2066
170 1785 2207
191 1867 2343
212 1947 2470
234 2022 2588
254 2092 2692
271 2154 2785
59 1490 718
77 1564 810
96 1637 961
121 1709 1145
140 1757 1310
153 1791 1464
163 1819 1617
173 1843 1768
176 1846 1891
171 1816 1982
181 1847 2113
199 1907 2251
217 1975 2383
237 2047 2507
257 2119 2625
277 2184 2728
294 2246 2819
114 1731 814
135 1803 898
153 1862 1029
174 1926 1207
193 1975 1370
206 2006 1523
216 2033 1678
225 2055 1831
234 2076 1978
238 2079 2103
231 2041 2185
239 2062 2308
251 2106 2431
266 2162 2550
284 2224 2663
303 2284 2765
317 2338 2852
173 1960 898
193 2021 970
210 2072 1081
228 2128 1253
244 2174 1418
256 2207 1571
267 2234 1726
278 2260 1883
288 2283 2037
299 2307 2187
303 2309 2308
292 2262 2382
296 2271 2494
306 2305 2605
319 2349 2711
334 2396 2806
344 2438 2888
223 2159 957
242 2212 1031
258 2257 1119
277 2309 1282
293 2355 1451
303 2389 1607
314 2419 1764
325 2445 1922
338 2473 2081
352 2504 2242
366 2533 2391
369 2531 2506
354 2474 2571
356 2479 2673
363 2502 2773
372 2530 2860
379 2561 2938
268 2335 1004
287 2385 1088
301 2423 1169
315 2463 1294
333 2512 1471
345 2547 1631
354 2578 1790
364 2605 1950
375 2632 2109
392 2667 2274
409 2701 2433
423 2732 2579
424 2722 2684
410 2666 2742
411 2666 2836
417 2685 2924
419 2698 2996
305 2494 1054
321 2534 1135
332 2565 1210
341 2592 1292
358 2638 1475
373 2678 1643
382 2708 1802
390 2735 1962
400 2761 2121
416 2795 2286
434 2832 2449
452 2869 2604
466 2899 2743
465 2881 2833
454 2829 2890
454 2827 2972
455 2832 3046
337 2638 1102
350 2670 1176
359 2697 1249
366 2720 1319
379 2756 1481
393 2793 1655
405 2825 1817
413 2853 1977
421 2878 2135
435 2909 2298
453 2945 2459
471 2982 2615
488 3018 2761
500 3041 2887
497 3013 2963
488 2968 3016
487 2963 3090
375 2824 1178
383 2845 1246
389 2865 1312
394 2882 1378
405 2913 1540
417 2946 1716
427 2974 1879
435 2997 2034
442 3019 2187
454 3046 2341
469 3075 2492
486 3107 2639
504 3141 2782
518 3169 2910
525 3182 3019
521 3145 3084
516 3104 3138
189 0 39
183 0 188
154 0 354
105 1 499
47 18 654
21 76 828
29 162 1001
45 247 1166
66 328 1326
92 421 1492
115 496 1641
136 565 1779
154 619 1901
169 665 2011
185 715 2125
200 794 2253
209 885 2362
42 1 62
29 39 265
7 90 439
2 158 612
0 259 795
0 373 979
2 475 1153
14 560 1315
36 640 1473
62 726 1635
90 821 1793
116 905 1942
137 966 2072
155 1012 2187
167 1072 2300
170 1219 2443
160 1287 2527
4 126 166
0 151 296
0 192 471
0 300 661
0 438 858
1 566 1042
12 689 1225
29 798 1401
46 899 1569
66 1000 1735
85 1092 1888
103 1178 2032
117 1250 2162
131 1313 2279
144 1372 2387
161 1453 2496
176 1519 2582
1 291 242
0 322 344
0 380 534
0 436 708
0 567 903
11 705 1093
30 828 1274
48 937 1447
67 1039 1613
89 1148 1782
109 1245 1936
127 1331 2078
142 1405 2207
157 1473 2324
173 1539 2433
188 1605 2534
202 1661 2620
1 464 308
0 500 399
0 576 588
2 661 798
11 730 967
27 834 1143
46 945 1318
66 1052 1490
86 1155 1655
108 1261 1820
128 1356 1972
146 1444 2112
163 1522 2242
179 1593 2360
195 1658 2468
209 1719 2565
222 1772 2649
8 644 374
0 683 456
4 766 641
18 859 861
36 942 1055
49 989 1202
66 1068 1365
84 1159 1529
103 1254 1690
124 1356 1852
145 1452 2003
165 1542 2144
181 1621 2272
198 1693 2390
214 1757 2497
230 1819 2595
242 1869 2678
28 825 443
9 875 526
22 957 699
42 1050 917
63 1136 1117
81 1197 1288
90 1218 1418
104 1275 1567
120 1352 1721
140 1446 1881
161 1541 2033
181 1630 2173
198 1710 2301
216 1783 2420
234 1852 2529
251 1914 2628
265 1967 2712
61 1023 526
33 1080 611
47 1161 768
71 1250 977
94 1330 1172
114 1393 1351
127 1428 1504
131 1429 1619
141 1471 1759
158 1545 1911
178 1631 2061
197 1715 2200
216 1796 2331
236 1873 2453
255 1943 2564
274 2008 2664
287 2060 2747
101 1237 614
68 1299 700
82 1377 842
108 1466 1043
132 1537 1231
151 1593 1406
165 1634 1570
174 1653 1712
173 1635 1813
182 1668 1949
199 1734 2092
218 1811 2232
238 1890 2365
258 1967 2488
277 2034 2598
297 2099 2699
310 2152 2783
147 1465 703
115 1536 792
130 1611 922
155 1694 1113
181 1762 1296
198 1809 1465
213 1848 1630
224 1878 1789
229 1886 1920
224 1854 2014
232 1879 2142
248 1936 2276
264 1998 2403
283 2067 2525
302 2133 2636
320 2192 2734
333 2244 2819
204 1712 805
174 1782 889
191 1848 1000
214 1922 1180
236 1984 1359
253 2026 1523
267 2061 1686
278 2091 1848
288 2115 2000
293 2122 2133
284 2080 2216
290 2094 2334
300 2133 2453
313 2182 2567
330 2239 2676
346 2292 2771
357 2339 2854
263 1953 900
233 2011 971
249 2065 1059
270 2128 1229
290 2184 1403
303 2224 1564
316 2257 1727
329 2287 1891
340 2314 2052
353 2343 2209
357 2347 2335
345 2296 2408
346 2299 2516
353 2326 2622
363 2361 2721
376 2405 2813
383 2439 2890
313 2168 974
283 2208 1028
297 2250 1099
319 2308 1256
338 2362 1432
351 2403 1595
362 2436 1757
373 2466 1922
386 2495 2085
402 2530 2252
416 2561 2406
421 2564 2528
405 2504 2593
405 2503 2691
408 2515 2783
415 2539 2866
418 2561 2938
352 2351 1024
328 2383 1075
342 2420 1152
358 2463 1266
377 2514 1446
391 2556 1613
402 2590 1777
410 2620 1940
421 2648 2104
438 2684 2273
456 2721 2438
472 2755 2591
475 2753 2704
460 2692 2761
458 2686 2851
461 2696 2934
460 2703 3000
379 2509 1056
362 2533 1117
374 2563 1191
384 2594 1271
401 2639 1445
417 2682 1618
428 2716 1782
437 2745 1946
445 2772 2109
459 2807 2277
479 2846 2445
497 2885 2605
513 2918 2752
514 2907 2850
501 2849 2905
499 2841 2984
499 2844 3055
400 2648 1090
391 2670 1157
401 2695 1229
409 2720 1300
422 2755 1440
436 2794 1622
449 2831 1791
459 2861 1957
467 2888 2119
477 2919 2285
495 2954 2449
514 2993 2610
533 3032 2765
547 3061 2898
545 3035 2979
536 2988 3031
532 2975 3099
420 2827 1158
425 2842 1221
431 2860 1287
436 2878 1354
446 2905 1484
459 2940 1669
470 2971 1837
480 2998 2000
487 3021 2157
495 3047 2317
510 3078 2474
527 3111 2627
546 3148 2778
562 3180 2913
571 3198 3028
568 3165 3097
561 3117 3147
682 15 42
717 9 164
726 12 341
507 2 472
390 0 596
330 4 718
298 24 847
276 58 981
261 113 1128
248 180 1286
245 246 1441
255 300 1575
271 347 1696
295 380 1795
322 408 1888
348 436 1976
321 488 2074
433 27 37
418 70 177
399 70 330
253 85 502
140 120 678
86 185 860
84 268 1035
98 356 1208
115 430 1368
137 511 1531
158 580 1680
179 640 1816
198 682 1935
214 719 2042
230 768 2151
255 915 2306
255 996 2411
266 123 87
283 176 220
213 258 451
121 309 639
51 382 821
44 488 1001
53 596 1181
68 705 1364
86 802 1536
110 902 1708
132 989 1865
154 1063 2008
176 1121 2137
196 1171 2252
212 1213 2357
215 1308 2479
207 1381 2568
192 350 225
167 373 340
91 402 518
70 433 695
37 536 876
46 667 1066
62 791 1253
80 902 1434
99 1005 1606
121 1113 1780
141 1207 1938
159 1290 2082
173 1356 2209
187 1416 2325
200 1467 2430
214 1525 2532
229 1593 2617
126 513 323
104 531 425
57 564 559
42 634 764
44 695 935
59 802 1116
78 918 1298
100 1032 1479
121 1140 1652
145 1251 1825
166 1351 1982
185 1436 2124
201 1509 2253
216 1573 2369
231 1633 2474
245 1691 2570
258 1750 2652
108 677 394
91 696 482
51 739 599
51 822 812
68 906 1016
81 959 1176
98 1043 1345
119 1148 1522
142 1253 1693
165 1361 1862
187 1460 2017
206 1548 2158
224 1627 2288
240 1694 2403
254 1752 2506
268 1811 2602
280 1861 2681
123 851 461
108 877 548
64 925 654
72 1009 862
94 1100 1074
115 1174 1263
126 1205 1406
143 1274 1568
161 1361 1730
184 1461 1896
205 1557 2049
225 1645 2190
242 1724 2318
259 1793 2434
275 1854 2537
292 1913 2633
305 1964 2714
155 1043 536
143 1075 625
91 1124 721
99 1209 919
124 1298 1128
148 1376 1324
167 1428 1497
173 1438 1625
185 1486 1772
204 1565 1929
224 1653 2080
243 1737 2219
262 1817 2350
281 1891 2469
299 1952 2572
315 2009 2667
330 2063 2751
193 1251 616
185 1288 708
127 1344 800
137 1429 989
164 1513 1190
188 1582 1379
208 1641 1564
219 1670 1720
220 1660 1832
229 1694 1970
247 1762 2115
266 1837 2253
286 1915 2386
305 1988 2505
323 2047 2609
339 2105 2704
353 2157 2788
242 1479 702
237 1520 795
174 1579 883
186 1664 1063
214 1745 1259
238 1808 1442
258 1859 1622
273 1899 1795
281 1917 1940
277 1890 2040
284 1913 2169
299 1967 2301
314 2027 2426
332 2093 2545
349 2151 2650
364 2203 2742
376 2251 2825
303 1723 798
300 1769 893
239 1831 978
251 1905 1139
275 1976 1327
295 2030 1501
312 2073 1674
328 2112 1849
340 2143 2012
349 2159 2157
340 2119 2245
343 2129 2361
351 2164 2478
363 2210 2588
377 2260 2692
389 2303 2780
398 2343 2857
369 1966 891
365 2009 985
300 2057 1055
309 2116 1192
330 2177 1371
347 2227 1541
361 2267 1712
377 2305 1886
391 2339 2056
406 2374 2224
413 2385 2359
400 2335 2436
400 2334 2542
404 2356 2645
412 2386 2740
420 2416 2822
427 2448 2897
429 2183 968
418 2222 1059
352 2255 1112
360 2304 1226
381 2359 1401
396 2405 1569
409 2445 1738
421 2480 1910
434 2514 2082
451 2553 2258
468 2588 2420
476 2600 2552
460 2540 2619
456 2531 2712
458 2541 2802
460 2554 2878
461 2567 2944
481 2375 1027
464 2406 1112
395 2427 1154
399 2461 1239
419 2512 1413
435 2557 1583
448 2596 1751
457 2630 1923
468 2662 2094
484 2701 2272
503 2741 2443
521 2777 2602
526 2782 2724
511 2720 2782
507 2709 2867
508 2715 2947
503 2711 3006
518 2534 1060
498 2557 1140
427 2571 1183
428 2595 1248
444 2638 1406
460 2681 1581
473 2718 1751
483 2752 1921
492 2784 2093
505 2820 2270
524 2861 2443
544 2902 2610
562 2939 2764
564 2935 2870
552 2877 2925
548 2865 3000
545 2858 3065
547 2672 1082
523 2687 1156
453 2699 1207
453 2722 1279
464 2752 1395
480 2794 1580
493 2831 1752
504 2865 1924
513 2895 2095
522 2928 2269
538 2965 2440
558 3005 2607
579 3047 2769
594 3080 2909
593 3057 2994
583 3007 3045
578 2990 3111
574 2851 1157
509 2857 1214
476 2864 1272
480 2878 1337
488 2900 1438
502 2935 1622
513 2966 1792
523 2995 1958
531 3020 2121
539 3048 2287
551 3079 2451
568 3114 2611
588 3153 2769
606 3189 2913
616 3211 3035
614 3181 3108
607 3131 3157
1051 74 35
1106 47 114
1165 61 315
1127 73 472
914 50 597
728 31 707
651 33 823
607 39 945
592 60 1067
580 90 1189
564 125 1310
561 162 1425
579 198 1532
611 234 1631
662 265 1724
716 299 1815
712 334 1885
864 99 35
836 160 161
893 124 281
876 138 447
631 103 575
493 91 705
422 117 850
368 162 1008
309 228 1184
281 295 1357
274 360 1517
281 409 1653
297 445 1768
321 471 1862
353 501 1950
357 607 2097
