Postproduction/IWLTBAP - Humble/LUTs by IWLTBAP (3DL)/BONUS/Sedona/IWLTBAP Sedona - V-Log.3dl
# Copyright: (C) Copyright 2010-2017 by IWLTBAP SAS for SmallHD
# Cannot be resold, shared or otherwise redistributed
# Website: https://luts.iwltbap.com
# IWLTBAP Sedona (V-Log)
0 256 512 768 1023
0  0  48
0  0 264
0 297 1003
529 349 1850
674 353 1911
0  11 112
0  56 325
0 582 1071
273 666 2167
309 618 2175
0 786 489
0 887 710
24 1099 1292
188 1846 2521
224 1975 2705
389 2778 1561
389 2806 1690
417 2858 1991
485 2982 3015
485 2982 3103
417 2938 1718
417 2970 1842
433 3011 2119
525 3155 3075
513 3115 3147
377  0  32
421  0 216
289  0 690
863 264 1762
971 305 1846
212  44  64
72 116 345
24 409 1059
421 578 2039
489 614 2111
0 754 429
7 855 638
68 1095 1292
220 1858 2553
248 1951 2705
405 2766 1513
421 2806 1658
437 2858 1963
517 2999 3019
517 2995 3103
445 2938 1670
449 2970 1798
465 3011 2087
545 3171 3091
545 3115 3147
1726 208  48
1770 152 140
1806 216 674
1389 337 1637
1485 425 1814
1778 289  32
1694 349 124
1778 293 674
1272 449 1694
1381 545 1866
1846 1043 152
2095 1204 204
1083 1156 1116
594 1389 2465
618 1348 2489
421 2742 1316
437 2770 1441
578 2862 1774
678 3063 3075
598 3019 3127
465 2898 1453
465 2930 1609
578 2995 1919
666 3211 3107
634 3147 3163
3171 481 232
3139 405 293
3159 405 638
3267 666 1674
3312 778 1862
3275 718 212
3219 602 273
3171 457 501
3296 746 1690
3328 831 1862
3436 923  40
3424 907  80
3432 1417 666
3412 1108 1734
3408 1160 1878
3785 3071 1031
3797 3103 1112
3821 3235 1413
3677 3725 3063
3645 3725 3171
3717 3239 1059
3717 3271 1108
3733 3392 1609
3328 3701 3007
2513 3593 3344
3275 562 256
3243 449 305
3259 457 610
3408 843 1658
3436 931 1846
3372 766 240
3324 658 289
3259 497 477
3436 935 1658
3452 1023 1862
3508 1043 128
3516 1116 192
3508 1413 650
3500 1260 1698
3500 1300 1878
3854 3308 1738
3854 3352 1931
3854 3468 2284
3838 3725 3007
3821 3717 3127
3854 3452 2039
3854 3484 2163
3854 3565 2408
3834 3781 2962
3789 3854 3179
