Postproduction/IWLTBAP - Humble/LUTs by IWLTBAP (3DL)/BONUS/Sedona/IWLTBAP Sedona - LOG.3dl
# Copyright: (C) Copyright 2016 by IWLTBAP
# Cannot be resold, shared or otherwise redistributed
# Website: http://luts.iwltbap.com
0 256 512 768 1023
0 0 57
0 9 472
0 577 1391
94 944 2113
115 1251 2490
0 167 180
0 302 586
12 936 1497
103 1400 2258
153 1612 2599
5 1124 571
39 1312 923
103 1492 1677
191 1860 2404
257 2099 2763
252 2274 988
291 2378 1186
355 2559 1999
391 2600 2682
405 2650 2976
375 2824 1178
391 2871 1336
438 3005 2091
513 3160 2866
516 3104 3138
831 34 38
890 29 391
390 50 1006
393 300 1681
460 411 1979
378 198 96
307 348 516
81 773 1498
186 1120 2270
228 1419 2582
206 1137 574
119 1299 780
209 1622 1793
277 1947 2526
354 2100 2767
499 2321 1003
383 2476 1135
452 2696 1991
508 2785 2843
504 2662 2985
620 2861 1158
496 2873 1293
542 3003 2003
616 3180 2861
623 3135 3160
2078 315 42
2113 208 201
2104 313 970
1528 305 1546
1546 352 1815
2065 490 34
2172 606 186
2115 521 1011
1360 407 1650
1322 596 1915
2007 1314 243
2158 1435 334
1520 1653 1535
754 1811 2465
767 1900 2702
2249 2824 1013
2113 2910 1135
1163 2749 1877
829 2875 2887
804 2763 3060
1995 3163 1162
1863 3146 1306
1356 3115 2009
863 3198 2798
881 3209 3209
2946 566 46
2842 325 190
2905 408 891
2943 559 1555
2806 607 1855
3065 762 38
3145 820 139
3031 536 821
3104 729 1650
2825 840 1868
3278 1646 117
3412 1549 137
3271 1763 982
3215 1521 1677
2748 1543 1994
3420 2586 599
3591 2764 722
3573 2905 1282
3171 3255 2738
2794 3099 3016
3440 3339 954
3395 3400 1106
3252 3466 1748
2901 3498 2651
1645 3395 3343
3396 754 64
3335 676 199
3273 468 816
3370 734 1528
3390 807 1873
3469 904 39
3483 1031 186
3309 678 603
3438 974 1529
3445 1031 1884
3605 1653 98
3623 1514 164
3596 1849 939
3537 1712 1615
3548 1732 1964
3740 2642 571
3798 2727 694
3839 2935 1198
3810 3206 2468
3756 3134 2799
3784 3074 782
3813 3132 907
3840 3282 1315
3845 3566 2426
3791 3848 3182
