Postproduction/IWLTBAP - Humble/LUTs by IWLTBAP (3DL)/UTILITY/GoPro Protune to Video/U-GOPRO-PROTUNE-LTR.3dl
# Copyright: (C) Copyright 2010-2018 by IWLTBAP SAS
# Cannot be resold, shared or otherwise redistributed
# Website: https://luts.iwltbap.com
0 256 512 768 1023
0 0 0
0 0 387
0 0 1669
0 0 3153
0 0 4095
0 387 0
0 387 387
0 387 1669
0 387 3153
0 387 4095
0 1669 0
0 1669 387
0 1668 1668
0 1668 3153
0 1668 4095
0 3153 0
0 3153 387
0 3153 1668
0 3153 3153
0 3153 4095
0 4095 0
0 4095 387
0 4095 1668
0 4095 3153
0 4095 4095
387 0 0
387 0 387
387 0 1669
387 0 3153
387 0 4095
387 387 0
387 388 388
282 282 1797
192 192 3405
387 387 4095
387 1669 0
282 1797 282
274 1788 1788
183 1660 3414
387 1668 4095
387 3153 0
192 3405 192
183 3414 1660
181 3410 3410
387 3153 4095
387 4095 0
387 4095 387
387 4095 1668
387 4095 3153
387 4095 4095
1669 0 0
1669 0 387
1668 0 1668
1668 0 3153
1668 0 4095
1669 387 0
1766 307 307
1788 274 1788
1660 183 3414
1668 387 4095
1668 1668 0
1788 1788 274
1668 1669 1669
1541 1541 3304
1668 1668 4095
1668 3153 0
1660 3414 183
1541 3304 1541
1531 3294 3294
1668 3153 4095
1668 4095 0
1668 4095 387
1668 4095 1668
1668 4095 3153
1668 4095 4095
3153 0 0
3153 0 387
3153 0 1668
3153 0 3153
3153 0 4095
3153 387 0
3364 223 223
3390 201 1661
3410 181 3410
3153 387 4095
3153 1668 0
3389 1661 202
3268 1571 1571
3294 1531 3294
3153 1668 4095
3153 3153 0
3410 3410 181
3294 3294 1531
3152 3152 3152
3153 3153 4095
3153 4095 0
3153 4095 387
3153 4095 1668
3153 4095 3153
3153 4095 4095
4095 0 0
4095 0 387
4095 0 1668
4095 0 3153
4095 0 4095
4095 387 0
4095 387 387
4095 387 1668
4095 387 3153
4095 387 4095
4095 1668 0
4095 1668 387
4095 1668 1668
4095 1668 3153
4095 1668 4095
4095 3153 0
4095 3153 387
4095 3153 1668
4095 3153 3153
4095 3153 4095
4095 4095 0
4095 4095 387
4095 4095 1668
4095 4095 3153
4095 4095 4095
