Postproduction/IWLTBAP - Humble/LUTs by IWLTBAP (3DL)/UTILITY/GoPro Protune to Video/U-GOPRO-PROTUNE-LTR.3dl
# Copyright: (C) Copyright 2010-2018 by IWLTBAP SAS
# Cannot be resold, shared or otherwise redistributed
# Website: https://luts.iwltbap.com
0 128 256 384 512 640 768 896 1023
0 0 0
0 0 100
0 0 387
0 0 874
0 0 1669
0 0 2511
0 0 3153
0 0 3657
0 0 4095
0 100 0
0 100 100
0 100 387
0 100 874
0 100 1669
0 100 2511
0 100 3153
0 100 3657
0 100 4095
0 387 0
0 387 100
0 387 387
0 387 874
0 387 1669
0 387 2511
0 387 3153
0 387 3657
0 387 4095
0 874 0
0 874 100
0 874 387
0 874 874
0 874 1669
0 874 2511
0 874 3153
0 874 3657
0 874 4095
0 1669 0
0 1669 100
0 1669 387
0 1669 874
0 1668 1668
0 1668 2511
0 1668 3153
0 1668 3657
0 1668 4095
0 2511 0
0 2511 100
0 2511 387
0 2511 874
0 2511 1668
0 2511 2511
0 2511 3153
0 2511 3657
0 2511 4095
0 3153 0
0 3153 100
0 3153 387
0 3153 874
0 3153 1668
0 3153 2511
0 3153 3153
0 3153 3657
0 3153 4095
0 3657 0
0 3657 100
0 3657 387
0 3657 874
0 3657 1668
0 3657 2511
0 3657 3153
0 3657 3657
0 3658 4095
0 4095 0
0 4095 100
0 4095 387
0 4095 874
0 4095 1668
0 4095 2511
0 4095 3153
0 4095 3658
0 4095 4095
100 0 0
100 0 100
100 0 387
100 0 874
100 0 1669
100 0 2511
100 0 3153
100 0 3657
100 0 4095
100 100 0
100 100 100
83 83 408
55 55 932
51 51 1735
51 51 2581
51 51 3224
51 51 3729
100 100 4095
100 387 0
83 408 83
81 406 406
53 370 935
48 345 1740
48 338 2586
48 336 3229
48 335 3734
100 387 4095
100 874 0
55 932 55
53 935 370
51 930 930
48 870 1740
48 848 2586
48 840 3229
48 836 3734
100 874 4095
100 1669 0
51 1735 51
48 1740 345
48 1740 870
48 1734 1734
48 1690 2586
48 1672 3229
48 1663 3734
100 1669 4095
100 2511 0
51 2581 51
48 2586 338
48 2586 848
48 2586 1690
48 2583 2583
48 2557 3229
48 2543 3734
100 2511 4095
100 3153 0
51 3224 51
48 3229 336
48 3229 840
48 3229 1672
48 3229 2557
48 3227 3227
48 3211 3734
100 3153 4095
100 3657 0
51 3729 51
48 3734 335
48 3734 836
48 3734 1663
48 3734 2543
48 3734 3211
48 3734 3734
100 3657 4095
100 4095 0
100 4095 100
100 4095 387
100 4095 874
100 4095 1669
100 4095 2511
100 4095 3153
100 4095 3657
100 4095 4095
387 0 0
387 0 100
387 0 387
387 0 874
387 0 1669
387 0 2511
387 0 3153
387 0 3657
387 0 4095
387 100 0
403 87 87
406 81 406
370 53 935
345 48 1740
338 48 2586
336 48 3229
335 48 3734
387 100 4095
387 387 0
406 406 81
387 388 388
349 349 919
282 282 1797
218 218 2725
192 192 3405
201 201 3901
387 387 4095
387 874 0
370 935 53
349 919 349
343 912 912
280 842 1795
215 768 2725
183 727 3414
194 725 3908
387 874 4095
387 1669 0
345 1740 48
282 1797 282
280 1795 842
274 1788 1788
215 1714 2725
183 1660 3414
194 1632 3908
387 1668 4095
387 2511 0
338 2586 48
218 2725 218
215 2725 768
215 2725 1714
212 2719 2719
183 2660 3414
194 2604 3908
387 2511 4095
387 3153 0
336 3229 48
192 3405 192
183 3414 727
183 3414 1660
183 3414 2660
181 3410 3410
194 3337 3908
387 3153 4095
387 3657 0
335 3734 48
201 3901 201
194 3908 725
194 3908 1632
194 3908 2604
194 3908 3337
199 3899 3899
387 3657 4095
387 4095 0
387 4095 100
387 4095 387
387 4095 874
387 4095 1668
387 4095 2511
387 4095 3153
387 4095 3657
387 4095 4095
874 0 0
874 0 100
874 0 387
874 0 874
874 0 1669
874 0 2511
874 0 3153
874 0 3657
874 0 4095
874 100 0
922 63 63
925 60 372
930 51 930
870 48 1740
848 48 2586
840 48 3229
836 48 3734
874 100 4095
874 387 0
924 373 60
908 358 358
912 344 912
842 280 1795
768 215 2725
727 183 3414
725 194 3908
874 387 4095
874 874 0
930 930 51
912 912 344
874 875 875
804 804 1754
729 729 2684
679 679 3388
662 662 3917
874 874 4095
874 1669 0
870 1740 48
842 1795 280
804 1754 804
793 1742 1742
725 1668 2679
675 1613 3383
655 1582 3915
874 1668 4095
874 2511 0
848 2586 48
768 2725 215
729 2684 729
725 2679 1668
720 2674 2674
675 2622 3383
655 2578 3915
874 2511 4095
874 3153 0
840 3229 48
727 3414 183
679 3388 679
675 3383 1613
675 3383 2622
672 3380 3380
655 3330 3915
874 3153 4095
874 3657 0
836 3734 48
725 3908 194
662 3917 662
655 3915 1582
655 3915 2578
655 3915 3330
662 3905 3905
874 3658 4095
874 4095 0
874 4095 100
874 4095 387
874 4095 874
874 4095 1668
874 4095 2511
874 4095 3153
874 4095 3658
874 4095 4095
1669 0 0
1669 0 100
1669 0 387
1669 0 874
1668 0 1668
1668 0 2511
1668 0 3153
1668 0 3657
1668 0 4095
1669 100 0
1735 51 51
1740 48 345
1740 48 870
1734 48 1734
1690 48 2586
1672 48 3229
1663 48 3734
1669 100 4095
1669 387 0
1740 345 48
1766 307 307
1772 299 849
1788 274 1788
1714 215 2725
1660 183 3414
1632 194 3908
1668 387 4095
1669 874 0
1740 870 48
1771 849 300
1733 821 821
1741 793 1742
1668 725 2679
1613 675 3383
1582 655 3915
1668 874 4095
1668 1668 0
1734 1734 48
1788 1788 274
1741 1742 794
1668 1669 1669
1595 1595 2603
1541 1541 3304
1505 1505 3852
1668 1668 4095
1668 2511 0
1690 2586 48
1714 2725 215
1668 2679 725
1595 2603 1595
1583 2590 2590
1534 2539 3297
1498 2500 3844
1668 2511 4095
1668 3153 0
1672 3229 48
1660 3414 183
1613 3383 675
1541 3304 1541
1534 3297 2539
1531 3294 3294
1498 3256 3844
1668 3153 4095
1668 3657 0
1663 3734 48
1632 3908 194
1582 3915 655
1505 3852 1505
1498 3844 2500
1498 3844 3256
1497 3842 3842
1668 3658 4095
1668 4095 0
1669 4095 100
1668 4095 387
1668 4095 874
1668 4095 1668
1668 4095 2511
1668 4095 3153
1668 4095 3658
1668 4095 4095
2511 0 0
2511 0 100
2511 0 387
2511 0 874
2511 0 1668
2511 0 2511
2511 0 3153
2511 0 3657
2511 0 4095
2511 100 0
2581 51 51
2586 48 338
2586 48 848
2586 48 1690
2583 48 2583
2557 48 3229
2543 48 3734
2511 100 4095
2511 387 0
2586 338 48
2676 256 256
2676 254 793
2713 225 1712
2719 212 2719
2660 183 3414
2604 194 3908
2511 387 4095
2511 874 0
2586 848 48
2676 793 254
2642 764 764
2660 742 1669
2674 720 2674
2622 675 3383
2578 655 3915
2511 874 4095
2511 1668 0
2586 1690 48
2711 1712 226
2659 1669 743
2581 1612 1612
2590 1583 2590
2539 1534 3297
2500 1498 3844
2511 1668 4095
2511 2511 0
2583 2583 48
2719 2719 212
2674 2674 720
2590 2590 1583
2510 2511 2511
2460 2460 3216
2421 2421 3763
2511 2511 4095
2511 3153 0
2557 3229 48
2660 3414 183
2622 3383 675
2539 3297 1534
2460 3216 2460
2452 3208 3208
2415 3170 3758
2511 3153 4095
2511 3657 0
2543 3734 48
2604 3908 194
2578 3915 655
2500 3844 1498
2421 3763 2421
2415 3758 3170
2414 3756 3756
2511 3657 4095
2511 4095 0
2511 4095 100
2511 4095 387
2511 4095 874
2511 4095 1668
2511 4095 2511
2511 4095 3153
2511 4095 3657
2511 4095 4095
3153 0 0
3153 0 100
3153 0 387
3153 0 874
3153 0 1668
3153 0 2511
3153 0 3153
3153 0 3657
3153 0 4095
3153 100 0
3224 51 51
3229 48 336
3229 48 840
3229 48 1672
3229 48 2557
3227 48 3227
3211 48 3734
3153 100 4095
3153 387 0
3229 336 48
3364 223 223
3363 221 755
3390 201 1661
3414 183 2660
3410 181 3410
3337 194 3908
3153 387 4095
3153 874 0
3229 840 48
3363 755 221
3331 726 726
3343 709 1624
3381 676 2622
3380 672 3380
3330 655 3915
3153 874 4095
3153 1668 0
3229 1672 48
3389 1661 202
3341 1624 711
3268 1571 1571
3288 1543 2538
3294 1531 3294
3256 1498 3844
3153 1668 4095
3153 2511 0
3229 2557 48
3413 2660 183
3380 2621 677
3286 2538 1545
3202 2471 2471
3208 2452 3208
3170 2415 3758
3153 2511 4095
3153 3153 0
3227 3227 48
3410 3410 181
3380 3380 672
3294 3294 1531
3207 3208 2452
3152 3152 3152
3115 3115 3702
3153 3153 4095
3153 3657 0
3211 3734 48
3337 3908 194
3330 3915 655
3256 3844 1498
3170 3758 2415
3115 3702 3115
3111 3697 3697
3153 3657 4095
3153 4095 0
3153 4095 100
3153 4095 387
3153 4095 874
3153 4095 1668
3153 4095 2511
3153 4095 3153
3153 4095 3657
3153 4095 4095
3657 0 0
3657 0 100
3657 0 387
3657 0 874
3657 0 1668
3657 0 2511
3657 0 3153
3657 0 3657
3658 0 4095
3657 100 0
3729 51 51
3734 48 335
3734 48 836
3734 48 1663
3734 48 2543
3734 48 3211
3734 48 3734
3657 100 4095
3657 387 0
3734 335 48
3887 212 212
3889 208 737
3904 197 1633
3908 194 2604
3908 194 3337
3899 199 3899
3657 387 4095
3657 874 0
3734 836 48
3889 737 208
3867 702 702
3873 690 1597
3906 662 2576
3915 655 3330
3905 662 3905
3658 874 4095
3657 1668 0
3734 1663 48
3904 1633 197
3871 1597 692
3805 1544 1544
3821 1519 2502
3844 1498 3256
3842 1497 3842
3658 1668 4095
3657 2511 0
3734 2543 48
3908 2604 194
3905 2576 663
3819 2502 1520
3737 2443 2443
3750 2422 3170
3756 2414 3756
3657 2511 4095
3657 3153 0
3734 3211 48
3908 3337 194
3915 3330 655
3844 3256 1498
3749 3170 2422
3692 3124 3124
3697 3111 3697
3657 3153 4095
3657 3657 0
3734 3734 48
3899 3899 199
3905 3905 662
3842 3842 1497
3756 3756 2414
3697 3697 3111
3657 3657 3657
3657 3657 4095
3658 4095 0
3657 4095 100
3657 4095 387
3658 4095 874
3658 4095 1668
3657 4095 2511
3657 4095 3153
3657 4095 3657
3657 4095 4095
4095 0 0
4095 0 100
4095 0 387
4095 0 874
4095 0 1668
4095 0 2511
4095 0 3153
4095 0 3658
4095 0 4095
4095 100 0
4095 100 100
4095 100 387
4095 100 874
4095 100 1669
4095 100 2511
4095 100 3153
4095 100 3657
4095 100 4095
4095 387 0
4095 387 100
4095 387 387
4095 387 874
4095 387 1668
4095 387 2511
4095 387 3153
4095 387 3657
4095 387 4095
4095 874 0
4095 874 100
4095 874 387
4095 874 874
4095 874 1668
4095 874 2511
4095 874 3153
4095 874 3658
4095 874 4095
4095 1668 0
4095 1669 100
4095 1668 387
4095 1668 874
4095 1668 1668
4095 1668 2511
4095 1668 3153
4095 1668 3658
4095 1668 4095
4095 2511 0
4095 2511 100
4095 2511 387
4095 2511 874
4095 2511 1668
4095 2511 2511
4095 2511 3153
4095 2511 3657
4095 2511 4095
4095 3153 0
4095 3153 100
4095 3153 387
4095 3153 874
4095 3153 1668
4095 3153 2511
4095 3153 3153
4095 3153 3657
4095 3153 4095
4095 3658 0
4095 3657 100
4095 3657 387
4095 3658 874
4095 3658 1668
4095 3657 2511
4095 3657 3153
4095 3657 3657
4095 3657 4095
4095 4095 0
4095 4095 100
4095 4095 387
4095 4095 874
4095 4095 1668
4095 4095 2511
4095 4095 3153
4095 4095 3657
4095 4095 4095
