Postproduction/IWLTBAP - Humble/LUTs by IWLTBAP (3DL)/UTILITY/GoPro Protune to Video/U-GOPRO-PROTUNE-LTR.3dl
# Copyright: (C) Copyright 2010-2018 by IWLTBAP SAS
# Cannot be resold, shared or otherwise redistributed
# Website: https://luts.iwltbap.com
0 64 128 192 256 320 384 448 512 576 640 704 768 832 896 960 1023
0 0 0
0 0 13
0 0 100
0 0 224
0 0 387
0 0 595
0 0 874
0 0 1242
0 0 1669
0 0 2106
0 0 2511
0 0 2857
0 0 3153
0 0 3417
0 0 3657
0 0 3881
0 0 4095
0 13 0
0 13 13
0 13 100
0 13 224
0 13 387
0 13 595
0 13 874
0 13 1242
0 13 1669
0 13 2106
0 13 2511
0 14 2857
0 13 3153
0 13 3417
0 14 3657
0 13 3881
0 13 4095
0 100 0
0 100 13
0 100 100
0 100 224
0 100 387
0 100 595
0 100 874
0 100 1242
0 100 1669
0 100 2106
0 100 2511
0 100 2857
0 100 3153
0 100 3417
0 100 3657
0 100 3881
0 100 4095
0 224 0
0 224 13
0 224 100
0 224 224
0 224 387
0 224 595
0 224 874
0 224 1242
0 224 1669
0 224 2106
0 224 2511
0 224 2857
0 224 3153
0 224 3417
0 224 3657
0 224 3881
0 224 4095
0 387 0
0 387 13
0 387 100
0 387 224
0 387 387
0 387 595
0 387 874
0 387 1242
0 387 1669
0 387 2106
0 387 2511
0 387 2857
0 387 3153
0 387 3417
0 387 3657
0 387 3881
0 387 4095
0 595 0
0 595 13
0 595 100
0 595 224
0 595 387
0 595 595
0 595 874
0 595 1242
0 595 1669
0 595 2106
0 595 2511
0 595 2857
0 595 3153
0 595 3417
0 595 3657
0 595 3881
0 595 4095
0 874 0
0 874 13
0 874 100
0 874 224
0 874 387
0 874 595
0 874 874
0 874 1242
0 874 1669
0 874 2106
0 874 2511
0 874 2857
0 874 3153
0 874 3417
0 874 3657
0 874 3881
0 874 4095
0 1242 0
0 1242 13
0 1242 100
0 1242 224
0 1242 387
0 1242 595
0 1242 874
0 1242 1242
0 1242 1669
0 1242 2106
0 1242 2511
0 1242 2857
0 1242 3153
0 1242 3417
0 1242 3657
0 1241 3881
0 1242 4095
0 1669 0
0 1669 13
0 1669 100
0 1669 224
0 1669 387
0 1669 595
0 1669 874
0 1669 1242
0 1668 1668
0 1668 2106
0 1668 2511
0 1668 2857
0 1668 3153
0 1668 3417
0 1668 3657
0 1668 3881
0 1668 4095
0 2106 0
0 2106 13
0 2106 100
0 2106 224
0 2106 387
0 2106 595
0 2106 874
0 2106 1242
0 2106 1668
0 2106 2106
0 2106 2511
0 2106 2857
0 2106 3153
0 2106 3417
0 2106 3657
0 2106 3881
0 2106 4095
0 2511 0
0 2511 13
0 2511 100
0 2511 224
0 2511 387
0 2511 595
0 2511 874
0 2511 1242
0 2511 1668
0 2511 2106
0 2511 2511
0 2511 2857
0 2511 3153
0 2511 3417
0 2511 3657
0 2511 3881
0 2511 4095
0 2857 0
0 2857 14
0 2857 100
0 2857 224
0 2857 387
0 2857 595
0 2857 874
0 2857 1242
0 2857 1668
0 2857 2106
0 2857 2511
0 2857 2857
0 2857 3153
0 2857 3417
0 2857 3657
0 2857 3881
0 2857 4095
0 3153 0
0 3153 13
0 3153 100
0 3153 224
0 3153 387
0 3153 595
0 3153 874
0 3153 1242
0 3153 1668
0 3153 2106
0 3153 2511
0 3153 2857
0 3153 3153
0 3153 3417
0 3153 3657
0 3153 3881
0 3153 4095
0 3417 0
0 3417 13
0 3417 100
0 3417 224
0 3417 387
0 3417 595
0 3417 874
0 3417 1242
0 3417 1668
0 3417 2106
0 3417 2511
0 3417 2857
0 3417 3153
0 3417 3417
0 3417 3657
0 3417 3881
0 3417 4095
0 3657 0
0 3657 14
0 3657 100
0 3657 224
0 3657 387
0 3657 595
0 3657 874
0 3657 1242
0 3657 1668
0 3657 2106
0 3657 2511
0 3657 2857
0 3657 3153
0 3657 3417
0 3657 3657
0 3658 3881
0 3658 4095
0 3881 0
0 3881 13
0 3881 100
0 3881 224
0 3881 387
0 3881 595
0 3881 874
0 3881 1241
0 3881 1668
0 3881 2106
0 3881 2511
0 3881 2857
0 3881 3153
0 3881 3417
0 3881 3658
0 3881 3881
0 3880 4095
0 4095 0
0 4095 13
0 4095 100
0 4095 224
0 4095 387
0 4095 595
0 4095 874
0 4095 1242
0 4095 1668
0 4095 2106
0 4095 2511
0 4095 2857
0 4095 3153
0 4095 3417
0 4095 3658
0 4095 3880
0 4095 4095
13 0 0
13 0 13
13 0 100
13 0 224
13 0 387
13 0 595
13 0 874
13 0 1242
13 0 1669
13 0 2106
13 0 2511
14 0 2857
13 0 3153
13 0 3417
14 0 3657
13 0 3881
13 0 4095
13 13 0
13 13 13
10 10 104
5 5 236
1 1 408
0 0 617
0 0 897
0 0 1266
0 0 1693
0 0 2132
0 0 2537
0 0 2883
0 0 3179
0 0 3443
0 0 3685
0 0 3908
13 13 4095
13 100 0
10 104 10
10 103 103
5 97 236
0 88 409
0 85 618
0 83 899
0 82 1268
0 81 1695
0 81 2133
0 81 2539
0 81 2884
0 81 3181
0 81 3445
0 80 3686
0 81 3910
13 100 4095
13 224 0
5 236 5
5 236 97
5 235 235
0 225 409
0 217 618
0 212 899
0 209 1268
0 207 1695
0 207 2133
0 206 2539
0 206 2884
0 206 3181
0 205 3445
0 205 3686
0 205 3910
13 224 4095
13 387 0
1 408 1
0 409 88
0 409 225
0 407 407
0 392 618
0 382 899
0 377 1268
0 373 1695
0 371 2133
0 370 2539
0 370 2884
0 369 3181
0 369 3445
0 369 3686
0 369 3910
13 387 4095
13 595 0
0 617 0
0 618 85
0 618 217
0 618 392
0 616 616
0 602 899
0 592 1268
0 586 1695
0 583 2133
0 581 2539
0 580 2884
0 579 3181
0 579 3445
0 578 3686
0 578 3910
13 595 4095
13 874 0
0 897 0
0 899 83
0 899 212
0 899 382
0 899 602
0 896 896
0 883 1268
0 873 1695
0 868 2133
0 865 2539
0 863 2884
0 862 3181
0 861 3445
0 860 3686
0 860 3910
13 874 4095
13 1242 0
0 1266 0
0 1268 82
0 1268 209
0 1268 377
0 1268 592
0 1268 883
0 1265 1265
0 1253 1695
0 1245 2133
0 1240 2539
0 1238 2884
0 1236 3181
0 1235 3445
0 1234 3686
0 1233 3910
13 1242 4095
13 1669 0
0 1693 0
0 1695 81
0 1695 207
0 1695 373
0 1695 586
0 1695 873
0 1695 1253
0 1693 1693
0 1684 2133
0 1677 2539
0 1673 2884
0 1670 3181
0 1668 3445
0 1667 3686
0 1666 3910
13 1669 4095
13 2106 0
0 2132 0
0 2133 81
0 2133 207
0 2133 371
0 2133 583
0 2133 868
0 2133 1245
0 2133 1684
0 2132 2132
0 2124 2539
0 2119 2884
0 2116 3181
0 2113 3445
0 2111 3686
0 2110 3910
13 2106 4095
13 2511 0
0 2537 0
0 2539 81
0 2539 206
0 2539 370
0 2539 581
0 2539 865
0 2539 1240
0 2539 1677
0 2539 2124
0 2538 2538
0 2533 2884
0 2528 3181
0 2525 3445
0 2523 3686
0 2521 3910
13 2511 4095
14 2857 0
0 2883 0
0 2884 81
0 2884 206
0 2884 370
0 2884 580
0 2884 863
0 2884 1238
0 2884 1673
0 2884 2119
0 2884 2533
0 2884 2884
0 2880 3181
0 2877 3445
0 2874 3686
0 2872 3910
13 2857 4095
13 3153 0
0 3179 0
0 3181 81
0 3181 206
0 3181 369
0 3181 579
0 3181 862
0 3181 1236
0 3181 1670
0 3181 2116
0 3181 2528
0 3181 2880
0 3180 3180
0 3177 3445
0 3174 3686
0 3172 3910
13 3153 4095
13 3417 0
0 3443 0
0 3445 81
0 3445 205
0 3445 369
0 3445 579
0 3445 861
0 3445 1235
0 3445 1668
0 3445 2113
0 3445 2525
0 3445 2877
0 3445 3177
0 3444 3444
0 3442 3686
0 3439 3910
13 3417 4095
14 3657 0
0 3685 0
0 3686 80
0 3686 205
0 3686 369
0 3686 578
0 3686 860
0 3686 1234
0 3686 1667
0 3686 2111
0 3686 2523
0 3686 2874
0 3686 3174
0 3686 3442
0 3686 3686
0 3683 3910
13 3657 4095
13 3881 0
0 3908 0
0 3910 81
0 3910 205
0 3910 369
0 3910 578
0 3910 860
0 3910 1233
0 3910 1666
0 3910 2110
0 3910 2521
0 3910 2872
0 3910 3172
0 3910 3439
0 3910 3683
0 3909 3909
13 3881 4095
13 4095 0
13 4095 13
13 4095 100
13 4095 224
13 4095 387
13 4095 595
13 4095 874
13 4095 1242
13 4095 1669
13 4095 2106
13 4095 2511
13 4095 2857
13 4095 3153
13 4095 3417
13 4095 3657
13 4095 3881
13 4095 4095
100 0 0
100 0 13
100 0 100
100 0 224
100 0 387
100 0 595
100 0 874
100 0 1242
100 0 1669
100 0 2106
100 0 2511
100 0 2857
100 0 3153
100 0 3417
100 0 3657
100 0 3881
100 0 4095
100 13 0
103 11 11
103 10 103
97 5 236
88 0 409
85 0 618
83 0 899
82 0 1268
81 0 1695
81 0 2133
81 0 2539
81 0 2884
81 0 3181
81 0 3445
80 0 3686
81 0 3910
100 13 4095
100 100 0
103 103 10
100 100 100
93 93 233
83 83 408
69 69 633
55 55 932
51 51 1307
51 51 1735
51 51 2175
51 51 2581
51 51 2927
51 51 3224
51 51 3488
51 51 3729
52 52 3952
100 100 4095
100 224 0
97 236 5
93 233 93
92 231 231
82 221 408
69 206 633
53 187 935
48 177 1311
48 174 1740
48 172 2180
48 171 2586
48 171 2932
48 171 3229
48 170 3493
48 170 3734
49 171 3957
100 224 4095
100 387 0
88 409 0
83 408 83
82 408 221
81 406 406
69 391 633
53 370 935
48 353 1311
48 345 1740
48 341 2180
48 338 2586
48 337 2932
48 336 3229
48 335 3493
48 335 3734
49 335 3957
100 387 4095
100 595 0
85 618 0
69 633 69
69 633 206
69 633 391
67 630 630
53 608 935
48 582 1311
48 567 1740
48 559 2180
48 554 2586
48 551 2932
48 550 3229
48 548 3493
48 548 3734
49 548 3957
100 595 4095
100 874 0
83 899 0
55 932 55
53 935 187
53 935 370
53 935 608
51 930 930
48 896 1311
48 870 1740
48 856 2180
48 848 2586
48 843 2932
48 840 3229
48 837 3493
48 836 3734
49 835 3957
100 874 4095
100 1242 0
82 1268 0
51 1307 51
48 1311 177
48 1311 353
48 1311 582
48 1311 896
48 1304 1304
48 1272 1740
48 1250 2180
48 1237 2586
48 1229 2932
48 1225 3229
48 1221 3493
48 1218 3734
49 1217 3957
100 1242 4095
100 1669 0
81 1695 0
51 1735 51
48 1740 174
48 1740 345
48 1740 567
48 1740 870
48 1740 1272
48 1734 1734
48 1709 2180
48 1690 2586
48 1679 2932
48 1672 3229
48 1667 3493
48 1663 3734
49 1660 3957
100 1669 4095
100 2106 0
81 2133 0
51 2175 51
48 2180 172
48 2180 341
48 2180 559
48 2180 856
48 2180 1250
48 2180 1709
48 2175 2175
48 2155 2586
48 2141 2932
48 2132 3229
48 2125 3493
48 2120 3734
49 2116 3957
100 2106 4095
100 2511 0
81 2539 0
51 2581 51
48 2586 171
48 2586 338
48 2586 554
48 2586 848
48 2586 1237
48 2586 1690
48 2586 2155
48 2583 2583
48 2568 2932
48 2557 3229
48 2550 3493
48 2543 3734
49 2538 3957
100 2511 4095
100 2857 0
81 2884 0
51 2927 51
48 2932 171
48 2932 337
48 2932 551
48 2932 843
48 2932 1229
48 2932 1679
48 2932 2141
48 2932 2568
48 2930 2930
48 2920 3229
48 2911 3493
48 2904 3734
49 2897 3957
100 2857 4095
100 3153 0
81 3181 0
51 3224 51
48 3229 171
48 3229 336
48 3229 550
48 3229 840
48 3229 1225
48 3229 1672
48 3229 2132
48 3229 2557
48 3229 2920
48 3227 3227
48 3218 3493
48 3211 3734
49 3204 3957
100 3153 4095
100 3417 0
81 3445 0
51 3488 51
48 3493 170
48 3493 335
48 3493 548
48 3493 837
48 3493 1221
48 3493 1667
48 3493 2125
48 3493 2550
48 3493 2911
48 3493 3218
48 3492 3492
48 3485 3734
49 3477 3957
100 3417 4095
100 3657 0
80 3686 0
51 3729 51
48 3734 170
48 3734 335
48 3734 548
48 3734 836
48 3734 1218
48 3734 1663
48 3734 2120
48 3734 2543
48 3734 2904
48 3734 3211
48 3734 3485
48 3734 3734
49 3726 3957
100 3657 4095
100 3881 0
81 3910 0
52 3952 52
49 3957 171
49 3957 335
49 3957 548
49 3957 835
49 3957 1217
49 3957 1660
49 3957 2116
49 3957 2538
49 3957 2897
49 3957 3204
49 3957 3477
49 3957 3726
49 3956 3956
100 3881 4095
100 4095 0
100 4095 13
100 4095 100
100 4095 224
100 4095 387
100 4095 595
100 4095 874
100 4095 1242
100 4095 1669
100 4095 2106
100 4095 2511
100 4095 2857
100 4095 3153
100 4095 3417
100 4095 3657
100 4095 3881
100 4095 4095
224 0 0
224 0 13
224 0 100
224 0 224
224 0 387
224 0 595
224 0 874
224 0 1242
224 0 1669
224 0 2106
224 0 2511
224 0 2857
224 0 3153
224 0 3417
224 0 3657
224 0 3881
224 0 4095
224 13 0
233 7 7
234 7 97
235 5 235
225 0 409
217 0 618
212 0 899
209 0 1268
207 0 1695
207 0 2133
206 0 2539
206 0 2884
206 0 3181
205 0 3445
205 0 3686
205 0 3910
