Postproduction/IWLTBAP - Humble/LUTs by IWLTBAP (CUBE)/UTILITY/BMDFilm BMPCC to Rec.709/U-BMDFILM-BMPCC-V2-LTR.cube
# Copyright: (C) Copyright 2010-2018 by IWLTBAP SAS
# Cannot be resold, shared or otherwise redistributed
# Website: https://luts.iwltbap.com
TITLE "BMDFilm BMPCC Version 2 (Utility LOG to Rec.709)"
LUT_3D_SIZE 8
DOMAIN_MIN 0.000000 0.000000 0.000000
DOMAIN_MAX 0.903226 0.903226 0.903226
0.000000 0.000000 0.000000
0.178375 0.000000 0.000000
0.350800 0.000000 0.000000
0.512299 0.000000 0.000000
0.691742 0.000000 0.000000
0.848969 0.000000 0.000000
0.940796 0.000000 0.000000
0.996094 0.000000 0.000000
0.000000 0.128601 0.000000
0.155853 0.119568 0.000000
0.340790 0.103638 0.000000
0.505890 0.077087 0.000000
0.687256 0.033447 0.000000
0.847382 0.000031 0.000000
0.940094 0.000000 0.000000
0.996094 0.000000 0.000000
0.000000 0.290436 0.000000
0.108276 0.286438 0.000000
0.322571 0.279388 0.000000
0.494537 0.267334 0.000000
0.679413 0.246033 0.000000
0.844604 0.205658 0.000000
0.938904 0.111023 0.000000
0.996094 0.000000 0.000000
0.000000 0.433716 0.000000
0.026215 0.431213 0.000000
0.289703 0.426819 0.000000
0.475311 0.419556 0.000000
0.666321 0.407227 0.000000
0.839874 0.386047 0.000000
0.936951 0.348022 0.000000
0.996094 0.272064 0.000000
0.000000 0.590851 0.000000
0.000000 0.589111 0.000000
0.223602 0.586060 0.000000
0.441528 0.581055 0.000000
0.644165 0.572754 0.000000
0.831696 0.558777 0.000000
0.933624 0.534882 0.000000
0.995911 0.492767 0.000000
0.000000 0.769867 0.000000
0.000000 0.768829 0.000000
0.044464 0.766998 0.000000
0.378326 0.763947 0.000000
0.605682 0.758850 0.000000
0.816803 0.751617 0.000000
0.927948 0.735046 0.000000
0.995636 0.706787 0.000000
0.000000 0.888489 0.000000
0.000000 0.888123 0.000000
0.000000 0.887512 0.000000
0.230713 0.886505 0.000000
0.535309 0.884827 0.000000
0.786957 0.882019 0.000000
0.917999 0.877228 0.000000
0.995178 0.868866 0.000000
0.000000 0.969147 0.000000
0.000000 0.968994 0.000000
0.000000 0.968689 0.000000
0.000000 0.968201 0.000000
0.386444 0.967407 0.000000
0.713684 0.966095 0.000000
0.899261 0.963898 0.000000
0.993530 0.960175 0.000000
0.000000 0.000000 0.171417
0.132996 0.000000 0.160187
0.331848 0.000000 0.138092
0.500275 0.000000 0.098450
0.683380 0.000000 0.031830
0.846008 0.000000 0.000000
0.939514 0.000000 0.000000
0.996094 0.000000 0.000000
0.000000 0.114166 0.117249
0.104919 0.105011 0.103241
0.321167 0.088776 0.078400
0.493713 0.062195 0.037720
0.678833 0.018555 0.000458
0.844391 0.000000 0.000000
0.938812 0.000000 0.000000
0.996094 0.000000 0.000000
0.000000 0.284058 0.014618
0.054626 0.279968 0.003754
0.301575 0.272705 0.000336
0.482025 0.260315 0.000000
0.670868 0.238312 0.000000
0.841522 0.196106 0.000000
0.937622 0.096802 0.000000
0.996094 0.000000 0.000000
0.000000 0.429718 0.000000
0.000488 0.427185 0.000000
0.265717 0.422760 0.000000
0.462189 0.415405 0.000000
0.657562 0.402924 0.000000
0.836670 0.381470 0.000000
0.935608 0.342865 0.000000
0.996033 0.265137 0.000000
0.000000 0.588074 0.000000
0.000000 0.586304 0.000000
0.190002 0.583282 0.000000
0.427185 0.578217 0.000000
0.635071 0.569885 0.000000
0.828247 0.555817 0.000000
0.932251 0.531769 0.000000
0.995850 0.489319 0.000000
0.000000 0.768188 0.000000
0.000000 0.767151 0.000000
0.010529 0.765289 0.000000
0.360992 0.762238 0.000000
0.595856 0.757080 0.000000
0.812836 0.749542 0.000000
0.926514 0.732910 0.000000
0.995575 0.704559 0.000000
0.000000 0.887939 0.000000
0.000000 0.887573 0.000000
0.000000 0.886963 0.000000
0.196686 0.885925 0.000000
0.523895 0.884247 0.000000
0.781403 0.881409 0.000000
0.916412 0.876617 0.000000
0.995087 0.868195 0.000000
0.000000 0.968872 0.000000
0.000000 0.968719 0.000000
0.000000 0.968414 0.000000
0.000000 0.967926 0.000000
0.369385 0.967133 0.000000
0.705627 0.965820 0.000000
0.897400 0.963593 0.000000
0.992737 0.959900 0.000000
0.000000 0.000000 0.341919
0.040161 0.000000 0.336853
0.295685 0.000000 0.327881
0.478607 0.000000 0.312469
0.668549 0.000000 0.285065
0.840698 0.000000 0.231964
0.937286 0.000000 0.094910
0.996094 0.000000 0.000000
0.000000 0.088501 0.319763
0.013611 0.079132 0.314301
0.283417 0.062866 0.304565
0.471680 0.036285 0.287689
0.663879 0.003357 0.257263
0.838989 0.000000 0.195465
0.936584 0.000000 0.036499
0.996063 0.000000 0.000000
0.000000 0.272583 0.276489
0.000000 0.268311 0.270020
0.260590 0.260712 0.258362
0.459351 0.247589 0.237762
0.655701 0.224182 0.198639
0.835968 0.178192 0.108032
0.935333 0.071136 0.000000
0.996002 0.000000 0.000000
0.000000 0.422668 0.179688
0.000000 0.420105 0.169006
0.217010 0.415588 0.148926
0.438293 0.408081 0.111023
0.642029 0.395355 0.048096
0.830872 0.373383 0.000000
0.933289 0.333649 0.000000
0.995911 0.252594 0.000000
0.000000 0.583221 0.000000
0.000000 0.581451 0.000000
0.111908 0.578369 0.000000
0.400848 0.573273 0.000000
0.618866 0.564819 0.000000
0.821960 0.550629 0.000000
0.929871 0.526306 0.000000
0.995728 0.483276 0.000000
0.000000 0.765259 0.000000
0.000000 0.764191 0.000000
0.000000 0.762299 0.000000
0.328369 0.759186 0.000000
0.578339 0.754669 0.000000
0.805573 0.745911 0.000000
0.923981 0.729156 0.000000
0.995422 0.700623 0.000000
0.000000 0.886932 0.000000
0.000000 0.886566 0.000000
0.000000 0.885956 0.000000
0.125702 0.884918 0.000000
0.503387 0.883209 0.000000
0.771393 0.880371 0.000000
0.913635 0.875519 0.000000
0.994965 0.867035 0.000000
0.000000 0.968414 0.000000
0.000000 0.968231 0.000000
0.000000 0.967957 0.000000
0.000000 0.967468 0.000000
0.337219 0.966644 0.000000
0.691345 0.965332 0.000000
0.894104 0.963104 0.000000
0.991364 0.959381 0.000000
0.000000 0.000000 0.500610
0.000000 0.000000 0.497375
0.221344 0.000000 0.491699
0.440460 0.000000 0.482269
0.643402 0.000000 0.466217
0.831390 0.000000 0.438385
0.933502 0.000000 0.387634
0.995911 0.000000 0.280853
0.000000 0.046082 0.486694
0.000000 0.036713 0.483337
0.203918 0.020477 0.477448
0.432831 0.003418 0.467682
0.638519 0.000000 0.451019
0.829529 0.000000 0.422028
0.932770 0.000000 0.368591
0.995880 0.000000 0.252075
0.000000 0.252441 0.461304
0.000000 0.247772 0.457733
0.168823 0.239410 0.451477
0.419159 0.224884 0.441010
0.629944 0.198425 0.423126
0.826263 0.143250 0.391693
0.931488 0.029877 0.332520
0.995819 0.000000 0.189392
0.000000 0.410858 0.415833
0.000000 0.408203 0.411835
0.094055 0.403534 0.404724
0.395599 0.395752 0.392792
0.615601 0.382568 0.372192
0.820648 0.359680 0.335175
0.929382 0.317963 0.261139
0.995697 0.230408 0.048462
0.000000 0.575165 0.324646
0.000000 0.573364 0.319275
0.000000 0.570221 0.309662
0.352814 0.565063 0.293152
0.591187 0.556458 0.263000
0.810822 0.541992 0.201843
0.925812 0.517212 0.058838
0.995514 0.473206 0.000000
0.000000 0.760345 0.044830
0.000000 0.759247 0.034058
0.000000 0.757294 0.015289
0.265045 0.755188 0.000000
0.548248 0.750000 0.000000
0.793518 0.739929 0.000000
0.919708 0.722992 0.000000
0.995239 0.694183 0.000000
0.000000 0.885315 0.000000
0.000000 0.884949 0.000000
0.000000 0.884308 0.000000
0.017365 0.883270 0.000000
0.467529 0.881531 0.000000
0.753754 0.878632 0.000000
0.908966 0.873718 0.000000
0.994751 0.865051 0.000000
0.000000 0.967651 0.000000
0.000000 0.967468 0.000000
0.000000 0.967163 0.000000
0.000000 0.966675 0.000000
0.274353 0.965881 0.000000
0.667175 0.964539 0.000000
0.888458 0.962280 0.000000
0.989075 0.958527 0.000000
0.000000 0.000000 0.676727
0.000000 0.000000 0.674469
0.020294 0.000000 0.670502
0.367462 0.000000 0.663971
0.599487 0.000000 0.653107
0.814209 0.000000 0.634735
0.927032 0.000000 0.603180
0.995575 0.000000 0.546722
0.000000 0.001556 0.667023
0.000000 0.000000 0.664703
0.005249 0.000000 0.660706
0.357971 0.000000 0.654053
0.594177 0.000000 0.642975
0.812042 0.000000 0.624268
0.926239 0.000000 0.592041
0.995544 0.000000 0.534149
0.000000 0.214691 0.649750
0.000000 0.209045 0.647369
0.000000 0.198853 0.643219
0.340729 0.180542 0.636353
0.584839 0.145081 0.624908
0.808167 0.076385 0.605530
0.924896 0.000916 0.572083
0.995483 0.000000 0.511475
0.000000 0.390533 0.620270
0.000000 0.387695 0.617767
0.000000 0.382751 0.613373
0.310181 0.374451 0.606110
0.569122 0.360321 0.593964
0.801544 0.335663 0.573364
0.922638 0.289886 0.537506
0.995361 0.186523 0.471619
0.000000 0.561676 0.568024
0.000000 0.559845 0.565247
0.000000 0.556610 0.560364
0.249603 0.551300 0.552246
0.542236 0.542450 0.538696
0.790436 0.527527 0.515442
0.918854 0.501892 0.474396
0.995178 0.456146 0.396027
0.000000 0.753265 0.466827
0.000000 0.752350 0.463318
0.000000 0.750092 0.457123
0.095367 0.746338 0.446777
0.494232 0.740173 0.429230
0.767151 0.729950 0.398132
0.912354 0.712738 0.339813
0.994873 0.683411 0.199860
0.000000 0.882568 0.172089
0.000000 0.882202 0.165558
0.000000 0.881561 0.154419
0.000000 0.880493 0.133820
0.400574 0.878693 0.090790
0.720154 0.875732 0.012360
0.900818 0.870667 0.000000
0.993866 0.861786 0.000000
0.000000 0.966370 0.000000
0.000000 0.966187 0.000000
0.000000 0.965881 0.000000
0.000000 0.965393 0.000000
0.117859 0.964569 0.000000
0.625153 0.963196 0.000000
0.878540 0.960938 0.000000
0.985199 0.957123 0.000000
0.000000 0.000000 0.839508
0.000000 0.000000 0.838654
0.000000 0.000000 0.837189
0.176056 0.000000 0.834717
0.517548 0.000000 0.830566
0.778809 0.000000 0.823395
0.915527 0.000000 0.810333
0.995026 0.000000 0.785004
0.000000 0.000000 0.835876
0.000000 0.000000 0.834991
0.000000 0.000000 0.833466
0.154877 0.000000 0.830902
0.511200 0.000000 0.826599
0.775696 0.000000 0.819153
0.914642 0.000000 0.805573
0.994995 0.000000 0.778687
0.000000 0.128052 0.829254
0.000000 0.119324 0.828308
0.000000 0.103882 0.826691
0.113464 0.077545 0.823975
0.500000 0.035553 0.819366
0.770172 0.001282 0.811401
0.913147 0.000000 0.797058
0.994934 0.000000 0.767212
0.000000 0.354187 0.817474
0.000000 0.351013 0.816437
0.000000 0.345428 0.814606
0.052673 0.336090 0.811584
0.480988 0.319946 0.806396
0.760773 0.291229 0.797394
0.910645 0.235168 0.780701
0.994812 0.089874 0.747498
0.000000 0.538666 0.794952
0.000000 0.536713 0.793671
0.000000 0.533325 0.792297
0.000000 0.527710 0.788239
0.447784 0.518402 0.781403
0.745026 0.502625 0.769684
0.906403 0.475403 0.749298
0.994598 0.426239 0.707123
0.000000 0.737610 0.745667
0.000000 0.736267 0.743622
0.000000 0.733948 0.740112
0.000000 0.730133 0.734314
0.385376 0.723785 0.724670
0.713013 0.713287 0.708527
0.899109 0.695587 0.681030
0.993164 0.665344 0.632782
0.000000 0.877960 0.626709
0.000000 0.877563 0.624237
0.000000 0.876892 0.619873
0.000000 0.875763 0.612701
0.239197 0.873932 0.600708
0.656342 0.870819 0.580414
0.885986 0.865540 0.544891
0.988007 0.856171 0.479919
0.000000 0.964233 0.318420
0.000000 0.964050 0.312042
0.000000 0.963745 0.300171
0.000000 0.963226 0.279938
0.000000 0.962402 0.245758
0.548035 0.960999 0.203247
0.860077 0.958710 0.128937
0.978546 0.954803 0.000000
0.000000 0.000000 0.933899
0.000000 0.000000 0.933533
0.000000 0.000000 0.932892
0.000000 0.000000 0.931885
0.330750 0.000000 0.930176
0.688751 0.000000 0.927338
0.893616 0.000000 0.922485
0.991089 0.000000 0.914001
0.000000 0.000000 0.932343
0.000000 0.000000 0.931976
0.000000 0.000000 0.931366
0.000000 0.000000 0.930328
0.319702 0.000000 0.928589
0.684235 0.000000 0.925690
0.892578 0.000000 0.920776
0.990662 0.000000 0.912170
0.000000 0.000000 0.929657
0.000000 0.000000 0.929291
0.000000 0.000000 0.928619
0.000000 0.000000 0.927551
0.299255 0.000000 0.925781
0.676331 0.000000 0.922821
0.890747 0.000000 0.917755
0.989899 0.000000 0.908905
0.000000 0.282593 0.925079
0.000000 0.278473 0.924683
0.000000 0.271149 0.924011
0.000000 0.258636 0.922882
0.261047 0.236176 0.921051
0.663147 0.192200 0.917938
0.887665 0.094940 0.912659
0.988678 0.000000 0.903351
0.000000 0.498108 0.917114
0.000000 0.496002 0.916718
0.000000 0.492279 0.915985
0.000000 0.486115 0.914795
0.181427 0.475830 0.912781
0.640839 0.458282 0.909454
0.882416 0.427673 0.903717
0.986603 0.370941 0.893585
0.000000 0.710327 0.902740
0.000000 0.708923 0.902252
0.000000 0.706482 0.901428
0.000000 0.702454 0.900055
0.043457 0.695831 0.897766
0.602173 0.684814 0.893921
0.873230 0.666199 0.887329
0.983124 0.634277 0.875458
0.000000 0.869965 0.874176
0.000000 0.869537 0.873566
0.000000 0.868805 0.872467
0.000000 0.867615 0.870697
0.000000 0.865601 0.867706
0.530884 0.862244 0.862640
0.856384 0.856537 0.853760
0.977173 0.846344 0.837311
0.000000 0.960632 0.798889
0.000000 0.960449 0.797668
0.000000 0.960114 0.795471
0.000000 0.959595 0.791870
0.000000 0.958740 0.785889
0.378082 0.957306 0.775055
0.820984 0.954926 0.755493
0.966705 0.950897 0.716034
0.000000 0.000000 0.995697
0.000000 0.000000 0.995697
0.000000 0.000000 0.995667
0.000000 0.000000 0.995605
0.000000 0.000000 0.995514
0.478638 0.000000 0.995361
0.843536 0.000000 0.995117
0.973297 0.000000 0.994751
0.000000 0.000000 0.995636
0.000000 0.000000 0.995605
0.000000 0.000000 0.995575
0.000000 0.000000 0.995514
0.000000 0.000000 0.995422
0.471588 0.000000 0.995270
0.841858 0.000000 0.995056
0.972809 0.000000 0.994659
0.000000 0.000000 0.995483
0.000000 0.000000 0.995453
0.000000 0.000000 0.995422
0.000000 0.000000 0.995361
0.000000 0.000000 0.995270
0.459076 0.000000 0.995148
0.838928 0.000000 0.994904
0.971924 0.000000 0.994476
0.000000 0.073914 0.995239
0.000000 0.064880 0.995209
0.000000 0.054443 0.995178
0.000000 0.040619 0.995117
0.000000 0.019348 0.995026
0.437622 0.000000 0.994904
0.833893 0.000000 0.994629
0.970459 0.000000 0.992462
0.000000 0.421539 0.994843
0.000000 0.418976 0.994843
0.000000 0.414429 0.994781
0.000000 0.406860 0.994720
0.000000 0.394104 0.994629
0.399353 0.371918 0.994476
0.825134 0.331604 0.992615
0.968018 0.247162 0.988220
0.000000 0.662598 0.992157
0.000000 0.661072 0.991943
0.000000 0.658447 0.991577
0.000000 0.654083 0.990967
0.000000 0.646851 0.989990
0.323395 0.634827 0.988312
0.809113 0.614380 0.985565
0.963898 0.579010 0.980896
0.000000 0.855316 0.980347
0.000000 0.854828 0.980103
0.000000 0.853973 0.979706
0.000000 0.852600 0.979034
0.000000 0.850311 0.977936
0.164612 0.846436 0.976074
0.776855 0.839783 0.972992
0.956787 0.827759 0.967743
0.000000 0.954498 0.957764
0.000000 0.954285 0.957489
0.000000 0.953949 0.956970
0.000000 0.953400 0.956146
0.000000 0.952484 0.954773
0.000000 0.950958 0.952515
0.699738 0.948425 0.948669
0.944061 0.944183 0.942078
