Postproduction/IWLTBAP - Humble/LUTs by IWLTBAP (CUBE)/UTILITY/BMDFilm BMPCC to Rec.709/U-BMDFILM-BMPCC-V1-LTR.cube
# Copyright: (C) Copyright 2010-2018 by IWLTBAP SAS
# Cannot be resold, shared or otherwise redistributed
# Website: https://luts.iwltbap.com
TITLE "BMDFilm BMPCC Version 1 (Utility LOG to Rec.709)"
LUT_3D_SIZE 8
DOMAIN_MIN 0.000000 0.000000 0.000000
DOMAIN_MAX 0.903226 0.903226 0.903226
0.000000 0.000000 0.000000
0.116699 0.000000 0.000000
0.286041 0.000000 0.000000
0.454987 0.000000 0.000000
0.650452 0.000000 0.000000
0.826996 0.000000 0.000000
0.931763 0.000000 0.000000
0.995392 0.000000 0.000000
0.000000 0.071381 0.000000
0.096069 0.063324 0.000000
0.275970 0.049652 0.000000
0.448181 0.027405 0.000000
0.645691 0.000000 0.000000
0.825012 0.000000 0.000000
0.930969 0.000000 0.000000
0.995392 0.000000 0.000000
0.000000 0.225189 0.000000
0.053680 0.221130 0.000000
0.257385 0.214172 0.000000
0.436066 0.202240 0.000000
0.636841 0.181488 0.000000
0.821991 0.142548 0.000000
0.929657 0.055939 0.000000
0.995392 0.000000 0.000000
0.000000 0.371857 0.000000
0.000000 0.369324 0.000000
0.224487 0.364685 0.000000
0.415680 0.357147 0.000000
0.622437 0.344330 0.000000
0.816559 0.322266 0.000000
0.927246 0.283325 0.000000
0.995392 0.206970 0.000000
0.000000 0.539673 0.000000
0.000000 0.537842 0.000000
0.159698 0.534668 0.000000
0.379974 0.529205 0.000000
0.597961 0.520050 0.000000
0.807404 0.505005 0.000000
0.923553 0.479248 0.000000
0.995178 0.434235 0.000000
0.000000 0.737549 0.000000
0.000000 0.736420 0.000000
0.003021 0.734467 0.000000
0.314362 0.730896 0.000000
0.555969 0.725403 0.000000
0.790436 0.717133 0.000000
0.917053 0.698822 0.000000
0.994873 0.667267 0.000000
0.000000 0.871796 0.000000
0.000000 0.871399 0.000000
0.000000 0.870728 0.000000
0.166534 0.869629 0.000000
0.479706 0.867798 0.000000
0.756775 0.864471 0.000000
0.905548 0.858948 0.000000
0.994354 0.849518 0.000000
0.000000 0.964447 0.000000
0.000000 0.964264 0.000000
0.000000 0.963928 0.000000
0.000000 0.963379 0.000000
0.322662 0.962524 0.000000
0.674896 0.960785 0.000000
0.884155 0.958344 0.000000
0.992554 0.953949 0.000000
0.000000 0.000000 0.110291
0.075348 0.000000 0.099884
0.266815 0.000000 0.079956
0.442169 0.000000 0.045197
0.641296 0.000000 0.000000
0.823517 0.000000 0.000000
0.930328 0.000000 0.000000
0.995392 0.000000 0.000000
0.000000 0.058777 0.061371
0.050690 0.050781 0.049286
0.255981 0.036987 0.028595
0.435211 0.015778 0.000000
0.636230 0.000000 0.000000
0.821747 0.000000 0.000000
0.929535 0.000000 0.000000
0.995392 0.000000 0.000000
0.000000 0.218842 0.000000
0.010162 0.214722 0.000000
0.236328 0.207581 0.000000
0.422760 0.195404 0.000000
0.627502 0.173828 0.000000
0.818359 0.133392 0.000000
0.928253 0.043854 0.000000
0.995392 0.000000 0.000000
0.000000 0.367584 0.000000
0.000000 0.365051 0.000000
0.200714 0.360352 0.000000
0.401855 0.352753 0.000000
0.612885 0.339783 0.000000
0.813080 0.317474 0.000000
0.925751 0.278046 0.000000
0.995331 0.200165 0.000000
0.000000 0.536774 0.000000
0.000000 0.534943 0.000000
0.127625 0.531525 0.000000
0.365051 0.525970 0.000000
0.588104 0.517059 0.000000
0.803406 0.501923 0.000000
0.922058 0.476044 0.000000
0.995117 0.430450 0.000000
0.000000 0.735748 0.000000
0.000000 0.734619 0.000000
0.000000 0.732635 0.000000
0.296539 0.729065 0.000000
0.545166 0.723267 0.000000
0.786102 0.714874 0.000000
0.915466 0.696259 0.000000
0.994812 0.664642 0.000000
0.000000 0.871216 0.000000
0.000000 0.870819 0.000000
0.000000 0.870148 0.000000
0.133911 0.869019 0.000000
0.467438 0.867157 0.000000
0.750519 0.863770 0.000000
0.903809 0.858276 0.000000
0.994263 0.848785 0.000000
0.000000 0.964142 0.000000
0.000000 0.963959 0.000000
0.000000 0.963623 0.000000
0.000000 0.963074 0.000000
0.305054 0.962036 0.000000
0.666046 0.960480 0.000000
0.882111 0.958008 0.000000
0.991669 0.953674 0.000000
0.000000 0.000000 0.277130
0.000397 0.000000 0.271942
0.230438 0.000000 0.262726
0.419281 0.000000 0.247314
0.624786 0.000000 0.219818
0.817474 0.000000 0.167694
0.927643 0.000000 0.042114
0.995392 0.000000 0.000000
0.000000 0.036774 0.254608
0.000000 0.029175 0.249084
0.218231 0.016266 0.239227
0.411743 0.000000 0.222565
0.619843 0.000000 0.192444
0.815613 0.000000 0.132782
0.926819 0.000000 0.000000
0.995361 0.000000 0.000000
0.000000 0.207458 0.211426
0.000000 0.203186 0.205017
0.195648 0.195770 0.193542
0.398743 0.182953 0.173309
0.610657 0.160248 0.135895
0.812317 0.116547 0.053375
0.925446 0.022614 0.000000
0.995300 0.000000 0.000000
0.000000 0.360260 0.118103
0.000000 0.357697 0.108154
0.153381 0.352936 0.089569
0.376709 0.345184 0.055939
0.595703 0.332001 0.005341
0.806488 0.309235 0.000000
0.923187 0.268555 0.000000
0.995178 0.187866 0.000000
0.000000 0.531464 0.000000
0.000000 0.529602 0.000000
0.056702 0.526154 0.000000
0.337708 0.520599 0.000000
0.570312 0.511536 0.000000
0.796295 0.496307 0.000000
0.919159 0.470154 0.000000
0.994995 0.424042 0.000000
0.000000 0.732605 0.000000
0.000000 0.731201 0.000000
0.000000 0.729126 0.000000
0.263184 0.725800 0.000000
0.526123 0.720673 0.000000
0.777710 0.710724 0.000000
0.912415 0.692230 0.000000
0.994629 0.660431 0.000000
0.000000 0.870117 0.000000
0.000000 0.869690 0.000000
0.000000 0.869049 0.000000
0.068695 0.867889 0.000000
0.445618 0.865753 0.000000
0.739471 0.862640 0.000000
0.900757 0.857056 0.000000
0.994141 0.847504 0.000000
0.000000 0.963623 0.000000
0.000000 0.963409 0.000000
0.000000 0.963104 0.000000
0.000000 0.962585 0.000000
0.272278 0.961365 0.000000
0.650055 0.959930 0.000000
0.878235 0.957458 0.000000
0.990143 0.953094 0.000000
0.000000 0.000000 0.442505
0.000000 0.000000 0.439209
0.157532 0.000000 0.433136
0.378906 0.000000 0.423035
0.597168 0.000000 0.406189
0.807068 0.000000 0.376801
0.923431 0.000000 0.323822
0.995178 0.000000 0.215668
0.000000 0.004059 0.427795
0.000000 0.000000 0.424103
0.140961 0.000000 0.417877
0.370972 0.000000 0.407684
0.591736 0.000000 0.390045
0.804779 0.000000 0.359619
0.922638 0.000000 0.304260
0.995148 0.000000 0.187408
0.000000 0.187744 0.400970
0.000000 0.183136 0.397095
0.107971 0.175079 0.390503
0.356750 0.160889 0.379456
0.582458 0.135712 0.360718
0.801208 0.084412 0.328125
0.921204 0.000000 0.267487
0.995087 0.000000 0.127075
0.000000 0.347961 0.353180
0.000000 0.345306 0.348938
0.041443 0.340393 0.341583
0.332245 0.332397 0.329193
0.566864 0.318817 0.308075
0.794861 0.295258 0.270294
0.918640 0.252869 0.196167
0.994934 0.166229 0.005768
0.000000 0.522797 0.259583
0.000000 0.520813 0.254120
0.000000 0.517395 0.244354
0.288269 0.511780 0.228027
0.540161 0.502594 0.197998
0.783661 0.486847 0.138824
0.914673 0.460297 0.013153
0.994751 0.413544 0.000000
0.000000 0.727020 0.003235
0.000000 0.725861 0.000000
0.000000 0.723480 0.000000
0.200073 0.721222 0.000000
0.493591 0.715393 0.000000
0.764130 0.704041 0.000000
0.907684 0.685364 0.000000
0.994446 0.653320 0.000000
0.000000 0.868317 0.000000
0.000000 0.867920 0.000000
0.000000 0.867218 0.000000
0.000000 0.865814 0.000000
0.407532 0.863922 0.000000
0.719666 0.860748 0.000000
0.895355 0.855103 0.000000
0.993927 0.845093 0.000000
0.000000 0.962799 0.000000
0.000000 0.962585 0.000000
0.000000 0.962097 0.000000
0.000000 0.961426 0.000000
0.209137 0.960541 0.000000
0.623322 0.959076 0.000000
0.871765 0.956573 0.000000
0.987305 0.952118 0.000000
0.000000 0.000000 0.633972
0.000000 0.000000 0.631317
0.000000 0.000000 0.627106
0.303162 0.000000 0.619934
0.549225 0.000000 0.607910
0.787598 0.000000 0.587769
0.916016 0.000000 0.553253
0.994812 0.000000 0.492004
0.000000 0.000000 0.623169
0.000000 0.000000 0.620728
0.000000 0.000000 0.616211
0.293335 0.000000 0.608917
0.543396 0.000000 0.596710
0.785034 0.000000 0.576233
0.915161 0.000000 0.541168
0.994781 0.000000 0.478516
0.000000 0.151031 0.604126
0.000000 0.145630 0.601624
0.000000 0.136108 0.596985
0.275848 0.118896 0.589478
0.533142 0.086243 0.576904
0.780792 0.026825 0.555786
0.913391 0.000000 0.519348
0.994720 0.000000 0.454163
0.000000 0.326965 0.571777
0.000000 0.323883 0.569153
0.000000 0.319000 0.564270
0.244873 0.310303 0.556396
0.516266 0.295868 0.543182
0.773346 0.270782 0.520813
0.910919 0.224670 0.482147
0.994568 0.124481 0.411682
0.000000 0.508270 0.515106
0.000000 0.506104 0.511963
0.000000 0.502747 0.506653
0.184845 0.497009 0.497986
0.487122 0.487335 0.483459
0.760803 0.471436 0.458466
0.906494 0.444031 0.414764
0.994354 0.395477 0.332672
0.000000 0.719147 0.406799
0.000000 0.718079 0.403015
0.000000 0.715485 0.396484
0.042480 0.711182 0.385529
0.435730 0.704315 0.367096
0.734619 0.693085 0.334747
0.899078 0.673889 0.274811
0.994049 0.641327 0.136993
0.000000 0.865051 0.110870
0.000000 0.864655 0.104858
0.000000 0.863953 0.094604
0.000000 0.862793 0.076080
0.337433 0.860809 0.038788
0.682068 0.857300 0.000000
0.885864 0.851501 0.000000
0.992920 0.841522 0.000000
0.000000 0.961090 0.000000
0.000000 0.960907 0.000000
0.000000 0.960541 0.000000
0.000000 0.959991 0.000000
0.061859 0.959106 0.000000
0.577179 0.957550 0.000000
0.860657 0.954803 0.000000
0.983002 0.950562 0.000000
0.000000 0.000000 0.816162
0.000000 0.000000 0.815247
0.000000 0.000000 0.813629
0.114655 0.000000 0.810699
0.460632 0.000000 0.806183
0.747711 0.000000 0.797852
0.902832 0.000000 0.783142
0.994202 0.000000 0.754669
0.000000 0.000000 0.812164
0.000000 0.000000 0.810974
0.000000 0.000000 0.809326
0.095001 0.000000 0.806519
0.453888 0.000000 0.801605
0.744080 0.000000 0.793243
0.901855 0.000000 0.777710
0.994171 0.000000 0.747589
0.000000 0.070923 0.804474
0.000000 0.063110 0.803467
0.000000 0.049835 0.801697
0.057983 0.027740 0.798737
0.441895 0.000000 0.793457
0.737885 0.000000 0.784302
0.899933 0.000000 0.768250
0.994110 0.000000 0.734711
0.000000 0.289612 0.791138
0.000000 0.286255 0.790039
0.000000 0.280548 0.788055
0.008636 0.271179 0.784485
0.421722 0.254791 0.778870
0.727478 0.225952 0.768585
0.897186 0.170898 0.749756
0.993988 0.037903 0.712708
0.000000 0.483429 0.765961
0.000000 0.481140 0.764313
0.000000 0.477661 0.762817
0.000000 0.471619 0.758331
0.386536 0.461517 0.750519
0.709778 0.444824 0.737366
0.892273 0.415771 0.714630
0.993744 0.364105 0.667633
0.000000 0.701538 0.710449
0.000000 0.700134 0.708282
0.000000 0.697357 0.704254
0.000000 0.693298 0.697754
0.321594 0.686218 0.687164
0.674194 0.674469 0.669128
0.884003 0.654816 0.638824
0.992126 0.621399 0.585449
0.000000 0.860016 0.578796
0.000000 0.859436 0.576202
0.000000 0.858582 0.571350
0.000000 0.857330 0.563568
0.174805 0.855347 0.550507
0.611328 0.851654 0.528534
0.869080 0.845612 0.490112
0.986145 0.835144 0.420624
0.000000 0.958740 0.253296
0.000000 0.958527 0.246887
0.000000 0.958191 0.234985
0.000000 0.957581 0.214691
0.000000 0.956696 0.181244
0.493378 0.954865 0.140106
0.839661 0.952332 0.071686
0.975098 0.947754 0.000000
0.000000 0.000000 0.923859
0.000000 0.000000 0.923462
0.000000 0.000000 0.922760
0.000000 0.000000 0.921661
0.265747 0.000000 0.919495
0.647278 0.000000 0.916351
0.877686 0.000000 0.910767
0.989716 0.000000 0.901154
0.000000 0.000000 0.922150
0.000000 0.000000 0.921753
0.000000 0.000000 0.921051
0.000000 0.000000 0.919678
0.254547 0.000000 0.917755
0.642212 0.000000 0.914551
0.876556 0.000000 0.908875
0.989105 0.000000 0.898865
0.000000 0.000000 0.918915
0.000000 0.000000 0.918518
0.000000 0.000000 0.917786
0.000000 0.000000 0.916595
0.234100 0.000000 0.914642
0.633545 0.000000 0.911133
0.874573 0.000000 0.905273
0.988251 0.000000 0.895294
0.000000 0.217468 0.913605
0.000000 0.213287 0.913177
0.000000 0.206085 0.912445
0.000000 0.193817 0.911194
0.196075 0.171844 0.909180
0.619049 0.129852 0.905487
0.870911 0.042114 0.899414
0.986908 0.000000 0.888916
0.000000 0.439941 0.904602
0.000000 0.437805 0.904144
0.000000 0.433746 0.903351
0.000000 0.427185 0.902039
0.119690 0.416229 0.899536
0.594452 0.397644 0.895874
0.864868 0.365540 0.889313
0.984589 0.306824 0.877655
0.000000 0.671051 0.888245
0.000000 0.669556 0.887726
0.000000 0.666962 0.886597
0.000000 0.662384 0.885040
0.002411 0.655060 0.882507
0.552032 0.642822 0.878052
0.854584 0.622314 0.870544
0.980469 0.587280 0.856995
0.000000 0.850708 0.855621
0.000000 0.850281 0.854919
0.000000 0.849457 0.853729
0.000000 0.848175 0.851532
0.000000 0.845703 0.848267
0.474884 0.842041 0.842438
0.835358 0.835510 0.832245
0.973602 0.823883 0.813782
0.000000 0.954468 0.770203
0.000000 0.954254 0.768890
0.000000 0.953888 0.766510
0.000000 0.953339 0.762360
0.000000 0.952362 0.755615
0.314117 0.950775 0.743408
0.795227 0.947876 0.721558
0.961456 0.943451 0.677399
0.000000 0.000000 0.994934
0.000000 0.000000 0.994934
0.000000 0.000000 0.994904
0.000000 0.000000 0.994843
0.000000 0.000000 0.994751
0.419312 0.000000 0.994568
0.820831 0.000000 0.994293
0.969177 0.000000 0.993927
0.000000 0.000000 0.994873
0.000000 0.000000 0.994843
0.000000 0.000000 0.994812
0.000000 0.000000 0.994751
0.000000 0.000000 0.994629
0.411652 0.000000 0.994476
0.818787 0.000000 0.994232
0.968506 0.000000 0.993805
0.000000 0.000000 0.994720
0.000000 0.000000 0.994659
0.000000 0.000000 0.994629
0.000000 0.000000 0.994568
0.000000 0.000000 0.994476
0.398468 0.000000 0.994324
0.815521 0.000000 0.994080
0.967499 0.000000 0.993591
0.000000 0.024963 0.994446
0.000000 0.017761 0.994385
0.000000 0.010010 0.994354
0.000000 0.000641 0.994293
0.000000 0.000000 0.994202
0.376038 0.000000 0.994080
0.809784 0.000000 0.993774
0.965881 0.000000 0.991364
0.000000 0.359131 0.994019
0.000000 0.356567 0.994019
0.000000 0.351776 0.993958
0.000000 0.343964 0.993866
0.000000 0.330505 0.993774
0.335968 0.307800 0.993591
0.800018 0.266571 0.991547
0.963165 0.182556 0.986389
0.000000 0.618225 0.991028
0.000000 0.616608 0.990784
0.000000 0.613831 0.990387
0.000000 0.608948 0.989441
0.000000 0.601074 0.988342
0.258362 0.587860 0.986481
0.781830 0.565338 0.983429
0.958344 0.526825 0.977997
0.000000 0.834198 0.977386
0.000000 0.833649 0.977112
0.000000 0.832703 0.976654
0.000000 0.830963 0.975677
0.000000 0.828461 0.974457
0.104034 0.823975 0.972382
0.745605 0.816467 0.968689
0.950226 0.802856 0.962891
0.000000 0.947418 0.951294
0.000000 0.947174 0.950989
0.000000 0.946808 0.950409
0.000000 0.946198 0.949493
0.000000 0.945190 0.947723
0.000000 0.943512 0.945221
0.659485 0.940430 0.940704
0.935608 0.935730 0.933167
