Postproduction/IWLTBAP - Humble/LUTs by IWLTBAP (CUBE)/UTILITY/BMDFilm BMPCC to Rec.709/U-BMDFILM-BMPCC-V1-LTR.cube
# Copyright: (C) Copyright 2010-2018 by IWLTBAP SAS
# Cannot be resold, shared or otherwise redistributed
# Website: https://luts.iwltbap.com
TITLE "BMDFilm BMPCC Version 1 (Utility LOG to Rec.709)"
LUT_3D_SIZE 5
DOMAIN_MIN 0.000000 0.000000 0.000000
DOMAIN_MAX 0.903226 0.903226 0.903226
0.000000 0.000000 0.000000
0.245575 0.000000 0.000000
0.548523 0.000000 0.000000
0.856598 0.000000 0.000000
0.995392 0.000000 0.000000
0.000000 0.189514 0.000000
0.219269 0.179291 0.000000
0.535583 0.152496 0.000000
0.853607 0.067505 0.000000
0.995392 0.000000 0.000000
0.000000 0.452240 0.000000
0.140656 0.447266 0.000000
0.502960 0.435120 0.000000
0.845367 0.404755 0.000000
0.995300 0.323456 0.000000
0.000000 0.779358 0.000000
0.000000 0.777313 0.000000
0.416199 0.772827 0.000000
0.824127 0.761749 0.000000
0.994781 0.727173 0.000000
0.000000 0.964447 0.000000
0.000000 0.964020 0.000000
0.055511 0.963013 0.000000
0.750244 0.960266 0.000000
0.992554 0.953949 0.000000
0.000000 0.000000 0.237305
0.194397 0.000000 0.224274
0.524139 0.000000 0.189362
0.850616 0.000000 0.073212
0.995392 0.000000 0.000000
0.000000 0.173065 0.176727
0.161987 0.162109 0.160065
0.510712 0.132782 0.112610
0.847443 0.040100 0.000000
0.995361 0.000000 0.000000
0.000000 0.444458 0.000000
0.051758 0.439392 0.000000
0.476654 0.427032 0.000000
0.838867 0.396210 0.000000
0.995117 0.313049 0.000000
0.000000 0.776215 0.000000
0.000000 0.774384 0.000000
0.384766 0.769531 0.000000
0.816437 0.757904 0.000000
0.994598 0.722687 0.000000
0.000000 0.963776 0.000000
0.000000 0.963348 0.000000
0.009125 0.962311 0.000000
0.736053 0.959595 0.000000
0.990570 0.953247 0.000000
0.000000 0.000000 0.534119
0.000458 0.000000 0.527649
0.460358 0.000000 0.511414
0.834991 0.000000 0.471100
0.995026 0.000000 0.359802
0.000000 0.126831 0.505798
0.000000 0.113068 0.498962
0.445343 0.073242 0.482086
0.831146 0.000000 0.439392
0.994934 0.000000 0.319061
0.000000 0.424744 0.430573
0.000000 0.419586 0.422729
0.406525 0.406708 0.403076
0.821625 0.374359 0.352417
0.994720 0.285919 0.193390
0.000000 0.768646 0.162292
0.000000 0.766724 0.143738
0.297272 0.762360 0.095062
0.795441 0.748749 0.000000
0.994141 0.713043 0.000000
0.000000 0.961884 0.000000
0.000000 0.961456 0.000000
0.000000 0.960419 0.000000
0.696991 0.957916 0.000000
0.985443 0.951477 0.000000
0.000000 0.000000 0.847076
0.000000 0.000000 0.845215
0.260468 0.000000 0.841187
0.787445 0.000000 0.830627
0.994019 0.000000 0.801453
0.000000 0.000000 0.839844
0.000000 0.000000 0.837860
0.235107 0.000000 0.833588
0.781891 0.000000 0.822388
0.993927 0.000000 0.790771
0.000000 0.374176 0.820129
0.000000 0.368622 0.817902
0.159912 0.354034 0.812897
0.767456 0.317291 0.799713
0.993683 0.210632 0.761108
0.000000 0.748779 0.756226
0.000000 0.746399 0.752716
0.000000 0.740295 0.743439
0.724548 0.725037 0.722015
0.988617 0.682343 0.650909
0.000000 0.957916 0.419373
0.000000 0.957458 0.411041
0.000000 0.956390 0.390503
0.576569 0.953522 0.337250
0.972504 0.946869 0.166962
0.000000 0.000000 0.994934
0.000000 0.000000 0.994904
0.000000 0.000000 0.994812
0.542511 0.000000 0.994537
0.969177 0.000000 0.993927
0.000000 0.000000 0.994751
0.000000 0.000000 0.994720
0.000000 0.000000 0.994568
0.529419 0.000000 0.994293
0.967804 0.000000 0.993683
0.000000 0.219849 0.994232
0.000000 0.210785 0.994202
0.000000 0.187073 0.994080
0.496246 0.115112 0.993805
0.964722 0.000000 0.989075
0.000000 0.685974 0.988159
0.000000 0.682434 0.987610
0.000000 0.674225 0.986359
0.407959 0.654083 0.983185
0.956757 0.603699 0.974823
0.000000 0.947418 0.951294
0.000000 0.946899 0.950562
0.000000 0.945770 0.948853
0.095825 0.942932 0.944336
0.935608 0.935730 0.933167
