Postproduction/IWLTBAP - Humble/LUTs by IWLTBAP (CUBE)/UTILITY/BMDFilm BMPCC to Rec.709/U-BMDFILM-BMPCC-V3-LTR.cube
# Copyright: (C) Copyright 2010-2018 by IWLTBAP SAS
# Cannot be resold, shared or otherwise redistributed
# Website: https://luts.iwltbap.com
TITLE "BMDFilm BMPCC Version 3 (Utility LOG to Rec.709)"
LUT_3D_SIZE 8
DOMAIN_MIN 0.000000 0.000000 0.000000
DOMAIN_MAX 0.903226 0.903226 0.903226
0.000000 0.000000 0.000000
0.132355 0.000000 0.000000
0.299469 0.000000 0.000000
0.465546 0.000000 0.000000
0.657471 0.000000 0.000000
0.830444 0.000000 0.000000
0.933105 0.000000 0.000000
0.995667 0.000000 0.000000
0.000000 0.087158 0.000000
0.111664 0.079132 0.000000
0.289398 0.065338 0.000000
0.458954 0.042908 0.000000
0.652435 0.008820 0.000000
0.828735 0.000000 0.000000
0.932312 0.000000 0.000000
0.995667 0.000000 0.000000
0.000000 0.239471 0.000000
0.069275 0.235626 0.000000
0.271332 0.228638 0.000000
0.447052 0.216858 0.000000
0.644104 0.196198 0.000000
0.825439 0.157806 0.000000
0.931000 0.071594 0.000000
0.995667 0.000000 0.000000
0.000000 0.383911 0.000000
0.003998 0.381378 0.000000
0.238770 0.376709 0.000000
0.426880 0.369385 0.000000
0.629944 0.356781 0.000000
0.820282 0.335114 0.000000
0.928864 0.296753 0.000000
0.995667 0.221619 0.000000
0.000000 0.548859 0.000000
0.000000 0.546783 0.000000
0.174896 0.543610 0.000000
0.391815 0.538361 0.000000
0.605957 0.529449 0.000000
0.811127 0.514648 0.000000
0.925171 0.489349 0.000000
0.995453 0.445221 0.000000
0.000000 0.742798 0.000000
0.000000 0.741699 0.000000
0.016907 0.739716 0.000000
0.327209 0.736420 0.000000
0.564667 0.730682 0.000000
0.794678 0.722900 0.000000
0.918671 0.704559 0.000000
0.995148 0.673798 0.000000
0.000000 0.874481 0.000000
0.000000 0.874084 0.000000
0.000000 0.873413 0.000000
0.181549 0.872314 0.000000
0.489807 0.870453 0.000000
0.761780 0.867126 0.000000
0.907440 0.861877 0.000000
0.994629 0.852478 0.000000
0.000000 0.964966 0.000000
0.000000 0.964813 0.000000
0.000000 0.964478 0.000000
0.000000 0.963928 0.000000
0.335510 0.963043 0.000000
0.681427 0.961578 0.000000
0.886566 0.959167 0.000000
0.992554 0.955048 0.000000
0.000000 0.000000 0.125824
0.091003 0.000000 0.115509
0.280396 0.000000 0.095673
0.452942 0.000000 0.060760
0.648315 0.000000 0.007721
0.826965 0.000000 0.000000
0.931671 0.000000 0.000000
0.995667 0.000000 0.000000
0.000000 0.074493 0.077148
0.066406 0.066498 0.064972
0.269958 0.052673 0.043976
0.446198 0.030640 0.011841
0.643494 0.000000 0.000000
0.825226 0.000000 0.000000
0.930878 0.000000 0.000000
0.995667 0.000000 0.000000
0.000000 0.233337 0.000000
0.024750 0.229187 0.000000
0.250458 0.222229 0.000000
0.433990 0.210205 0.000000
0.634766 0.188934 0.000000
0.822083 0.148773 0.000000
0.929596 0.059387 0.000000
0.995667 0.000000 0.000000
0.000000 0.379639 0.000000
0.000000 0.377075 0.000000
0.215332 0.372620 0.000000
0.413269 0.364990 0.000000
0.620392 0.352234 0.000000
0.816803 0.330566 0.000000
0.927368 0.291443 0.000000
0.995605 0.214783 0.000000
0.000000 0.545715 0.000000
0.000000 0.543854 0.000000
0.143188 0.540680 0.000000
0.377075 0.535400 0.000000
0.596100 0.526459 0.000000
0.807373 0.511566 0.000000
0.923401 0.486145 0.000000
0.995392 0.441437 0.000000
0.000000 0.740997 0.000000
0.000000 0.739868 0.000000
0.000000 0.737885 0.000000
0.309784 0.734589 0.000000
0.554108 0.728760 0.000000
0.790344 0.720673 0.000000
0.917084 0.702271 0.000000
0.995087 0.671417 0.000000
0.000000 0.873871 0.000000
0.000000 0.873505 0.000000
0.000000 0.872803 0.000000
0.149292 0.871674 0.000000
0.477753 0.869843 0.000000
0.755524 0.866455 0.000000
0.905701 0.861206 0.000000
0.994537 0.851715 0.000000
0.000000 0.964691 0.000000
0.000000 0.964508 0.000000
0.000000 0.964172 0.000000
0.000000 0.963623 0.000000
0.318329 0.962738 0.000000
0.672546 0.961273 0.000000
0.884521 0.958832 0.000000
0.991669 0.954742 0.000000
0.000000 0.000000 0.290527
0.013763 0.000000 0.285553
0.244781 0.000000 0.276520
0.430237 0.000000 0.261261
0.632294 0.000000 0.234314
0.821198 0.000000 0.182739
0.929230 0.000000 0.057770
0.995667 0.000000 0.000000
0.000000 0.052460 0.268524
0.000000 0.044556 0.263062
0.232727 0.031342 0.253357
0.423187 0.010803 0.236847
0.627350 0.000000 0.207062
0.819336 0.000000 0.148163
0.928436 0.000000 0.010956
0.995636 0.000000 0.000000
0.000000 0.222107 0.225861
0.000000 0.217804 0.219421
0.210449 0.210571 0.208160
0.410370 0.197906 0.188385
0.618408 0.175446 0.151306
0.816040 0.132172 0.069061
0.927063 0.037903 0.000000
0.995575 0.000000 0.000000
0.000000 0.372528 0.133545
0.000000 0.369965 0.123657
0.168549 0.365173 0.105469
0.388550 0.357635 0.071594
0.603699 0.344666 0.019623
0.810211 0.322296 0.000000
0.924805 0.282410 0.000000
0.995453 0.202637 0.000000
0.000000 0.540619 0.000000
0.000000 0.538788 0.000000
0.072571 0.535553 0.000000
0.350159 0.529999 0.000000
0.578766 0.521057 0.000000
0.800262 0.505920 0.000000
0.920776 0.480225 0.000000
0.995270 0.435272 0.000000
0.000000 0.737854 0.000000
0.000000 0.736694 0.000000
0.000000 0.734650 0.000000
0.277008 0.731049 0.000000
0.535522 0.726166 0.000000
0.782227 0.716492 0.000000
0.914307 0.698242 0.000000
0.994904 0.667206 0.000000
0.000000 0.872772 0.000000
0.000000 0.872375 0.000000
0.000000 0.871704 0.000000
0.084656 0.870575 0.000000
0.456116 0.868439 0.000000
0.744476 0.865326 0.000000
0.902618 0.860016 0.000000
0.994385 0.850464 0.000000
0.000000 0.964172 0.000000
0.000000 0.963959 0.000000
0.000000 0.963654 0.000000
0.000000 0.963104 0.000000
0.285889 0.962189 0.000000
0.657074 0.960754 0.000000
0.880646 0.958282 0.000000
0.990143 0.954163 0.000000
0.000000 0.000000 0.453278
0.000000 0.000000 0.449951
0.172577 0.000000 0.444153
0.390717 0.000000 0.434235
0.605133 0.000000 0.417358
0.810791 0.000000 0.388641
0.925049 0.000000 0.336700
0.995453 0.000000 0.230042
0.000000 0.018127 0.438782
0.000000 0.011108 0.435333
0.156189 0.000458 0.429077
0.383026 0.000000 0.419098
0.599823 0.000000 0.401672
0.808777 0.000000 0.371887
0.924255 0.000000 0.317291
0.995422 0.000000 0.202148
0.000000 0.202484 0.412354
0.000000 0.198059 0.408722
0.123505 0.189941 0.402130
0.368988 0.176117 0.391296
0.590698 0.151123 0.372986
0.805206 0.100220 0.340759
0.922546 0.006378 0.281311
0.995361 0.000000 0.142609
0.000000 0.360413 0.365417
0.000000 0.357758 0.361389
0.057068 0.352844 0.354034
0.344910 0.345062 0.341858
0.575348 0.331665 0.321106
0.798828 0.308472 0.283905
0.920258 0.266602 0.210968
0.995209 0.181274 0.019897
0.000000 0.531952 0.273346
0.000000 0.530090 0.267883
0.000000 0.526825 0.258545
0.301483 0.521454 0.242096
0.549225 0.512238 0.212738
0.788177 0.496979 0.154266
0.916290 0.470856 0.028015
0.995026 0.424744 0.000000
0.000000 0.732269 0.017181
0.000000 0.731110 0.009247
0.000000 0.729004 0.000000
0.214691 0.726715 0.000000
0.503448 0.721161 0.000000
0.768890 0.710083 0.000000
0.909302 0.691376 0.000000
0.994720 0.660065 0.000000
0.000000 0.871002 0.000000
0.000000 0.870605 0.000000
0.000000 0.869904 0.000000
0.000000 0.868500 0.000000
0.418945 0.866608 0.000000
0.725189 0.863434 0.000000
0.897491 0.858032 0.000000
0.994171 0.848297 0.000000
0.000000 0.963318 0.000000
0.000000 0.963104 0.000000
0.000000 0.962799 0.000000
0.000000 0.962250 0.000000
0.223816 0.961334 0.000000
0.630859 0.959869 0.000000
0.874451 0.957367 0.000000
0.987579 0.953217 0.000000
0.000000 0.000000 0.641235
0.000000 0.000000 0.638580
0.000366 0.000000 0.634369
0.316193 0.000000 0.627441
0.557922 0.000000 0.615662
0.791840 0.000000 0.595734
0.917633 0.000000 0.562042
0.995087 0.000000 0.501862
0.000000 0.000000 0.630676
0.000000 0.000000 0.628235
0.000000 0.000000 0.623718
0.306793 0.000000 0.616669
0.552338 0.000000 0.604706
0.789490 0.000000 0.584442
0.916779 0.000000 0.550110
0.995056 0.000000 0.488586
0.000000 0.166382 0.611847
0.000000 0.160919 0.609344
0.000000 0.151520 0.604950
0.289337 0.134338 0.597443
0.542328 0.101868 0.585144
0.785034 0.042328 0.564484
0.915283 0.000000 0.528748
0.994995 0.000000 0.464691
0.000000 0.339600 0.580261
0.000000 0.336761 0.577606
0.000000 0.331848 0.572723
0.259064 0.323364 0.565125
0.525665 0.309113 0.552124
0.777832 0.284363 0.530090
0.912811 0.238953 0.492065
0.994843 0.139984 0.423126
0.000000 0.517670 0.524506
0.000000 0.515747 0.521637
0.000000 0.512390 0.516296
0.199799 0.506622 0.507599
0.497223 0.497437 0.493317
0.765564 0.481506 0.468781
0.908386 0.454590 0.425934
0.994629 0.407135 0.345337
0.000000 0.724670 0.418030
0.000000 0.723694 0.414429
0.000000 0.721252 0.408112
0.058167 0.716949 0.397369
0.446747 0.710327 0.379150
0.739868 0.699097 0.347443
0.901215 0.680420 0.288452
0.994293 0.648346 0.152435
0.000000 0.867737 0.126434
0.000000 0.867340 0.120544
0.000000 0.866638 0.110382
0.000000 0.865479 0.091736
0.349884 0.863495 0.054352
0.688354 0.860229 0.000000
0.888275 0.854431 0.000000
0.993164 0.844727 0.000000
0.000000 0.961884 0.000000
0.000000 0.961700 0.000000
0.000000 0.961334 0.000000
0.000000 0.960815 0.000000
0.077667 0.959900 0.000000
0.585388 0.958374 0.000000
0.863342 0.955872 0.000000
0.983276 0.951508 0.000000
0.000000 0.000000 0.819885
0.000000 0.000000 0.818970
0.000000 0.000000 0.817352
0.130249 0.000000 0.814667
0.471191 0.000000 0.809875
0.752716 0.000000 0.802094
0.904724 0.000000 0.787628
0.994476 0.000000 0.759399
0.000000 0.000000 0.815948
0.000000 0.000000 0.814972
0.000000 0.000000 0.813049
0.110779 0.000000 0.810242
0.464417 0.000000 0.805573
0.749359 0.000000 0.797211
0.903717 0.000000 0.782227
0.994446 0.000000 0.752594
0.000000 0.086700 0.808472
0.000000 0.078918 0.807434
0.000000 0.065552 0.805664
0.073883 0.043274 0.802734
0.452637 0.010284 0.797455
0.743134 0.000000 0.788818
0.902100 0.000000 0.772736
0.994354 0.000000 0.739960
0.000000 0.302826 0.795380
0.000000 0.299683 0.794250
0.000000 0.294189 0.792297
0.023254 0.284790 0.789001
0.432922 0.268768 0.783112
0.732758 0.240234 0.773071
0.899353 0.185974 0.754761
0.994232 0.053589 0.718201
0.000000 0.493256 0.770447
0.000000 0.491241 0.769073
0.000000 0.487732 0.767578
0.000000 0.481689 0.763184
0.398407 0.472076 0.755524
0.715546 0.455353 0.742615
0.894409 0.426971 0.720398
0.994019 0.376129 0.674133
0.000000 0.707581 0.716217
0.000000 0.705872 0.714050
0.000000 0.703369 0.710266
0.000000 0.699310 0.703796
0.334442 0.692230 0.693451
0.680725 0.681000 0.675659
0.886414 0.661591 0.645813
0.992126 0.628906 0.593689
0.000000 0.862671 0.587280
0.000000 0.862244 0.584412
0.000000 0.861511 0.579834
0.000000 0.860260 0.572021
0.189758 0.858276 0.559204
0.619080 0.854614 0.537689
0.871735 0.848816 0.499969
0.986420 0.838318 0.431854
0.000000 0.959534 0.267059
0.000000 0.959320 0.260864
0.000000 0.959015 0.249115
0.000000 0.958405 0.229156
0.000000 0.957489 0.195923
0.503235 0.955933 0.155579
0.842865 0.953430 0.087463
0.975647 0.948822 0.000000
0.000000 0.000000 0.925476
0.000000 0.000000 0.925079
0.000000 0.000000 0.924377
0.000000 0.000000 0.923004
0.279327 0.000000 0.921112
0.654297 0.000000 0.917969
0.880096 0.000000 0.912659
0.989838 0.000000 0.903046
0.000000 0.000000 0.923492
0.000000 0.000000 0.923096
0.000000 0.000000 0.922424
0.000000 0.000000 0.921295
0.268433 0.000000 0.919373
0.649231 0.000000 0.916168
0.878967 0.000000 0.910767
0.989380 0.000000 0.901001
0.000000 0.000000 0.920532
0.000000 0.000000 0.920135
0.000000 0.000000 0.919403
0.000000 0.000000 0.918213
0.248230 0.000000 0.916260
0.640808 0.000000 0.913025
0.876984 0.000000 0.907166
0.988525 0.000000 0.897430
0.000000 0.231720 0.915497
0.000000 0.227753 0.915070
0.000000 0.220734 0.914337
0.000000 0.208588 0.913086
0.210876 0.186920 0.911072
0.626556 0.145203 0.907379
0.873596 0.057800 0.901550
0.987152 0.000000 0.891052
0.000000 0.450714 0.906464
0.000000 0.448547 0.906036
0.000000 0.444733 0.905212
0.000000 0.438171 0.903900
0.135132 0.427399 0.901703
0.602448 0.409302 0.898041
0.867554 0.377563 0.891479
0.984863 0.319885 0.880066
0.000000 0.677582 0.890411
0.000000 0.676086 0.889862
0.000000 0.673462 0.888947
0.000000 0.669159 0.887451
0.016174 0.661835 0.884918
0.560974 0.649841 0.880463
0.857513 0.629822 0.873230
0.980988 0.595245 0.859955
0.000000 0.853668 0.858551
0.000000 0.853210 0.857880
0.000000 0.852417 0.856689
0.000000 0.851105 0.854462
0.000000 0.848907 0.851196
0.485229 0.845245 0.845642
0.838562 0.838715 0.835693
0.974152 0.827362 0.817505
0.000000 0.955566 0.774963
0.000000 0.955353 0.773438
0.000000 0.954987 0.770996
0.000000 0.954407 0.767120
0.000000 0.953461 0.760651
0.326965 0.951874 0.748688
0.799225 0.948944 0.727081
0.962280 0.944519 0.683929
0.000000 0.000000 0.995209
0.000000 0.000000 0.995209
0.000000 0.000000 0.995178
0.000000 0.000000 0.995117
0.000000 0.000000 0.995026
0.430267 0.000000 0.994843
0.824280 0.000000 0.994568
0.969849 0.000000 0.994171
0.000000 0.000000 0.995148
0.000000 0.000000 0.995117
0.000000 0.000000 0.995087
0.000000 0.000000 0.995026
0.000000 0.000000 0.994904
0.423096 0.000000 0.994751
0.822449 0.000000 0.994507
0.969299 0.000000 0.994080
0.000000 0.000000 0.994995
0.000000 0.000000 0.994934
0.000000 0.000000 0.994904
0.000000 0.000000 0.994843
0.000000 0.000000 0.994751
0.410095 0.000000 0.994598
0.819244 0.000000 0.994324
0.968323 0.000000 0.993866
0.000000 0.040131 0.994720
0.000000 0.032928 0.994659
0.000000 0.024597 0.994629
0.000000 0.014069 0.994568
0.000000 0.000000 0.994476
0.387848 0.000000 0.994324
0.813507 0.000000 0.994049
0.966705 0.000000 0.991364
0.000000 0.371399 0.994263
0.000000 0.368805 0.994263
0.000000 0.364014 0.994202
0.000000 0.356415 0.994141
0.000000 0.343414 0.994049
0.348663 0.320831 0.993866
0.803986 0.280151 0.991547
0.963715 0.197510 0.986664
0.000000 0.625732 0.991028
0.000000 0.624115 0.990784
0.000000 0.621338 0.990387
0.000000 0.616699 0.989685
0.000000 0.608795 0.988617
0.272125 0.595825 0.986755
0.786041 0.574066 0.983704
0.959167 0.536224 0.978271
0.000000 0.837372 0.977661
0.000000 0.836853 0.977386
0.000000 0.835938 0.976929
0.000000 0.834412 0.976196
0.000000 0.831940 0.974976
0.119720 0.827454 0.972900
0.750610 0.820190 0.969482
0.951019 0.806854 0.963409
0.000000 0.948517 0.952362
0.000000 0.948273 0.952057
0.000000 0.947876 0.951233
0.000000 0.947266 0.950317
0.000000 0.946259 0.948792
0.000000 0.944580 0.946320
0.666046 0.941803 0.942047
0.936707 0.936829 0.934509
