Postproduction/IWLTBAP - Humble/LUTs by IWLTBAP (CUBE)/UTILITY/BMDFilm BMPCC to Rec.709/U-BMDFILM-BMPCC-V3-LTR.cube
# Copyright: (C) Copyright 2010-2018 by IWLTBAP SAS
# Cannot be resold, shared or otherwise redistributed
# Website: https://luts.iwltbap.com
TITLE "BMDFilm BMPCC Version 3 (Utility LOG to Rec.709)"
LUT_3D_SIZE 5
DOMAIN_MIN 0.000000 0.000000 0.000000
DOMAIN_MAX 0.903226 0.903226 0.903226
0.000000 0.000000 0.000000
0.259705 0.000000 0.000000
0.557190 0.000000 0.000000
0.859528 0.000000 0.000000
0.995667 0.000000 0.000000
0.000000 0.204285 0.000000
0.233765 0.194214 0.000000
0.544525 0.167633 0.000000
0.856537 0.083405 0.000000
0.995667 0.000000 0.000000
0.000000 0.462769 0.000000
0.155914 0.458038 0.000000
0.512573 0.446106 0.000000
0.848541 0.416199 0.000000
0.995575 0.336304 0.000000
0.000000 0.783600 0.000000
0.000000 0.781830 0.000000
0.427368 0.777313 0.000000
0.827576 0.766510 0.000000
0.995056 0.732422 0.000000
0.000000 0.964966 0.000000
0.000000 0.964569 0.000000
0.071136 0.963531 0.000000
0.755249 0.961090 0.000000
0.992554 0.955048 0.000000
0.000000 0.000000 0.251434
0.209198 0.000000 0.238556
0.533295 0.000000 0.204102
0.853577 0.000000 0.089020
0.995667 0.000000 0.000000
0.000000 0.188141 0.191620
0.177216 0.177338 0.175262
0.520111 0.148163 0.128204
0.850403 0.055725 0.000000
0.995636 0.000000 0.000000
0.000000 0.454956 0.000000
0.067505 0.450134 0.000000
0.486725 0.438019 0.000000
0.842316 0.407837 0.000000
0.995392 0.325867 0.000000
0.000000 0.780731 0.000000
0.000000 0.778870 0.000000
0.396637 0.774292 0.000000
0.820160 0.762939 0.000000
0.994873 0.728210 0.000000
0.000000 0.964325 0.000000
0.000000 0.963898 0.000000
0.023834 0.962891 0.000000
0.741302 0.960419 0.000000
0.990570 0.954315 0.000000
0.000000 0.000000 0.543060
0.013824 0.000000 0.536804
0.470917 0.000000 0.520813
0.838196 0.000000 0.481171
0.995300 0.000000 0.372070
0.000000 0.142365 0.515442
0.000000 0.128632 0.508850
0.455841 0.089050 0.492035
0.834595 0.000000 0.450134
0.995209 0.000000 0.331909
0.000000 0.435791 0.441559
0.000000 0.430542 0.433960
0.417694 0.417908 0.414490
0.825073 0.386353 0.364655
0.994995 0.299377 0.207947
0.000000 0.773132 0.177490
0.000000 0.771210 0.158997
0.310516 0.767120 0.110840
0.799408 0.753754 0.003235
0.994385 0.718567 0.000000
0.000000 0.962677 0.000000
0.000000 0.962280 0.000000
0.000000 0.961212 0.000000
0.703003 0.958740 0.000000
0.985718 0.952545 0.000000
0.000000 0.000000 0.850006
0.000000 0.000000 0.848389
0.274261 0.000000 0.844391
0.791687 0.000000 0.834106
0.994263 0.000000 0.805450
0.000000 0.000061 0.843048
0.000000 0.000000 0.841064
0.249237 0.000000 0.836792
0.786102 0.000000 0.825836
0.994171 0.000000 0.795013
0.000000 0.386261 0.823578
0.000000 0.380676 0.821625
0.175110 0.366272 0.816620
0.771942 0.330383 0.803680
0.993958 0.225067 0.765869
0.000000 0.753784 0.761230
0.000000 0.751404 0.757477
0.000000 0.745300 0.748718
0.730042 0.730316 0.727509
0.988892 0.688599 0.657928
0.000000 0.958740 0.430328
0.000000 0.958282 0.422455
0.000000 0.957214 0.402130
0.584808 0.954590 0.349701
0.973053 0.947968 0.181976
0.000000 0.000000 0.995209
0.000000 0.000000 0.995178
0.000000 0.000000 0.995087
0.551453 0.000000 0.994812
0.969849 0.000000 0.994171
0.000000 0.000000 0.995026
0.000000 0.000000 0.994995
0.000000 0.000000 0.994843
0.538574 0.000000 0.994568
0.968628 0.000000 0.993958
0.000000 0.234344 0.994507
0.000000 0.225250 0.994476
0.000000 0.201813 0.994324
0.505859 0.130737 0.994080
0.965393 0.000000 0.989349
0.000000 0.691986 0.988434
0.000000 0.688690 0.987885
0.000000 0.680756 0.986633
0.419373 0.660858 0.983459
0.957550 0.611450 0.975372
0.000000 0.948517 0.952362
0.000000 0.947998 0.951508
0.000000 0.946838 0.949677
0.111481 0.944000 0.945404
0.936707 0.936829 0.934509
