Postproduction/IWLTBAP - Humble/LUTs by IWLTBAP (CUBE)/UTILITY/BMDFilm BMPCC to Rec.709/U-BMDFILM-BMPCC-V2-LTR.cube
# Copyright: (C) Copyright 2010-2018 by IWLTBAP SAS
# Cannot be resold, shared or otherwise redistributed
# Website: https://luts.iwltbap.com
TITLE "BMDFilm BMPCC Version 2 (Utility LOG to Rec.709)"
LUT_3D_SIZE 32
0.000000 0.000000 0.000000
0.001617 0.000000 0.000000
0.054138 0.000000 0.000000
0.119843 0.000000 0.000000
0.178375 0.000000 0.000000
0.226715 0.000000 0.000000
0.269897 0.000000 0.000000
0.310852 0.000000 0.000000
0.350800 0.000000 0.000000
0.390472 0.000000 0.000000
0.430359 0.000000 0.000000
0.470856 0.000000 0.000000
0.512299 0.000000 0.000000
0.554840 0.000000 0.000000
0.598816 0.000000 0.000000
0.644348 0.000000 0.000000
0.691742 0.000000 0.000000
0.741058 0.000000 0.000000
0.784454 0.000000 0.000000
0.819214 0.000000 0.000000
0.848969 0.000000 0.000000
0.875092 0.000000 0.000000
0.898712 0.000000 0.000000
0.920441 0.000000 0.000000
0.940796 0.000000 0.000000
0.960022 0.000000 0.000000
0.978363 0.000000 0.000000
0.994171 0.000000 0.000000
0.996094 0.000000 0.000000
0.996094 0.000000 0.000000
0.996094 0.000000 0.000000
0.996094 0.000000 0.000000
0.000000 0.000946 0.000000
0.001282 0.000854 0.000000
0.052460 0.000763 0.000000
0.118256 0.000671 0.000000
0.177185 0.000549 0.000000
0.225800 0.000458 0.000000
0.269135 0.000305 0.000000
0.310211 0.000153 0.000000
0.350250 0.000000 0.000000
0.389954 0.000000 0.000000
0.429901 0.000000 0.000000
0.470459 0.000000 0.000000
0.511902 0.000000 0.000000
0.554504 0.000000 0.000000
0.598511 0.000000 0.000000
0.644073 0.000000 0.000000
0.691498 0.000000 0.000000
0.740845 0.000000 0.000000
0.784271 0.000000 0.000000
0.819092 0.000000 0.000000
0.848877 0.000000 0.000000
0.875031 0.000000 0.000000
0.898651 0.000000 0.000000
0.920410 0.000000 0.000000
0.940735 0.000000 0.000000
0.959991 0.000000 0.000000
0.978333 0.000000 0.000000
0.994171 0.000000 0.000000
0.996094 0.000000 0.000000
0.996094 0.000000 0.000000
0.996094 0.000000 0.000000
0.996094 0.000000 0.000000
0.000000 0.032471 0.000000
0.001007 0.031921 0.000000
0.043427 0.028992 0.000000
0.109467 0.026093 0.000000
0.170441 0.023132 0.000000
0.220673 0.019745 0.000000
0.264954 0.015961 0.000000
0.306641 0.011719 0.000000
0.347137 0.006866 0.000000
0.387238 0.002686 0.000000
0.427490 0.002197 0.000000
0.468262 0.001740 0.000000
0.509918 0.001221 0.000000
0.552704 0.000610 0.000000
0.596863 0.000000 0.000000
0.642578 0.000000 0.000000
0.690094 0.000000 0.000000
0.739532 0.000000 0.000000
0.783325 0.000000 0.000000
0.818451 0.000000 0.000000
0.848389 0.000000 0.000000
0.874634 0.000000 0.000000
0.898346 0.000000 0.000000
0.920135 0.000000 0.000000
0.940521 0.000000 0.000000
0.959808 0.000000 0.000000
0.978180 0.000000 0.000000
0.994141 0.000000 0.000000
0.996094 0.000000 0.000000
0.996094 0.000000 0.000000
0.996094 0.000000 0.000000
0.996094 0.000000 0.000000
0.000000 0.080475 0.000000
0.000732 0.079926 0.000000
0.034393 0.077026 0.000000
0.100586 0.074097 0.000000
0.163361 0.071136 0.000000
0.215393 0.067780 0.000000
0.260651 0.063995 0.000000
0.303009 0.059723 0.000000
0.343994 0.054871 0.000000
0.384460 0.049408 0.000000
0.425018 0.043213 0.000000
0.466064 0.036224 0.000000
0.507935 0.028290 0.000000
0.550903 0.019287 0.000000
0.595184 0.009552 0.000000
0.641022 0.003235 0.000000
0.688690 0.001953 0.000000
0.738251 0.000488 0.000000
0.782349 0.000000 0.000000
0.817780 0.000000 0.000000
0.847900 0.000000 0.000000
0.874268 0.000000 0.000000
0.898041 0.000000 0.000000
0.919891 0.000000 0.000000
0.940308 0.000000 0.000000
0.959625 0.000000 0.000000
0.978058 0.000000 0.000000
0.994141 0.000000 0.000000
0.996094 0.000000 0.000000
0.996094 0.000000 0.000000
0.996094 0.000000 0.000000
0.996094 0.000000 0.000000
0.000000 0.128601 0.000000
0.000397 0.128082 0.000000
0.025208 0.125275 0.000000
0.091492 0.122437 0.000000
0.155853 0.119568 0.000000
0.209900 0.116302 0.000000
0.256256 0.112579 0.000000
0.299316 0.108398 0.000000
0.340790 0.103638 0.000000
0.381653 0.098236 0.000000
0.422516 0.092041 0.000000
0.463806 0.085022 0.000000
0.505890 0.077087 0.000000
0.549042 0.068115 0.000000
0.593506 0.057953 0.000000
0.639496 0.046448 0.000000
0.687256 0.033447 0.000000
0.736938 0.018738 0.000000
0.781372 0.007416 0.000000
0.817139 0.002808 0.000000
0.847382 0.000031 0.000000
0.873871 0.000000 0.000000
0.897705 0.000000 0.000000
0.919617 0.000000 0.000000
0.940094 0.000000 0.000000
0.959442 0.000000 0.000000
0.977875 0.000000 0.000000
0.994110 0.000000 0.000000
0.996094 0.000000 0.000000
0.996094 0.000000 0.000000
0.996094 0.000000 0.000000
0.996094 0.000000 0.000000
0.000000 0.176178 0.000000
0.000031 0.175781 0.000000
0.014771 0.173615 0.000000
0.081085 0.171417 0.000000
0.146729 0.169159 0.000000
0.203461 0.166534 0.000000
0.251129 0.163544 0.000000
0.295013 0.160065 0.000000
0.337097 0.156036 0.000000
0.378418 0.151337 0.000000
0.419647 0.145813 0.000000
0.461243 0.139221 0.000000
0.503571 0.131500 0.000000
0.546906 0.122864 0.000000
0.591583 0.113007 0.000000
0.637726 0.101746 0.000000
0.685669 0.088806 0.000000
0.735443 0.074097 0.000000
0.780243 0.057434 0.000000
0.816376 0.038605 0.000000
0.846802 0.017273 0.000000
0.873413 0.005615 0.000000
0.897339 0.001160 0.000000
0.919342 0.000000 0.000000
0.939880 0.000000 0.000000
0.959229 0.000000 0.000000
0.977722 0.000000 0.000000
0.994110 0.000000 0.000000
0.996094 0.000000 0.000000
0.996094 0.000000 0.000000
0.996094 0.000000 0.000000
0.996094 0.000000 0.000000
0.000000 0.216766 0.000000
0.000000 0.216461 0.000000
0.004517 0.214722 0.000000
0.069397 0.212982 0.000000
0.135590 0.211212 0.000000
0.195923 0.209167 0.000000
0.245239 0.206848 0.000000
0.290131 0.204193 0.000000
0.332916 0.201111 0.000000
0.374756 0.197571 0.000000
0.416382 0.193481 0.000000
0.458313 0.188751 0.000000
0.500946 0.183197 0.000000
0.544556 0.176697 0.000000
0.589417 0.168976 0.000000
0.635742 0.159760 0.000000
0.683838 0.148468 0.000000
0.733765 0.134766 0.000000
0.778992 0.118866 0.000000
0.815521 0.100586 0.000000
0.846191 0.079376 0.000000
0.872894 0.055237 0.000000
0.896942 0.027954 0.000000
0.919006 0.010071 0.000000
0.939575 0.001495 0.000000
0.959015 0.000000 0.000000
0.977509 0.000000 0.000000
0.994080 0.000000 0.000000
0.996094 0.000000 0.000000
0.996094 0.000000 0.000000
0.996094 0.000000 0.000000
0.996094 0.000000 0.000000
0.000000 0.254333 0.000000
0.000000 0.254059 0.000000
0.002533 0.252625 0.000000
0.056152 0.251190 0.000000
0.122833 0.249695 0.000000
0.186981 0.248016 0.000000
0.238342 0.246094 0.000000
0.284485 0.243927 0.000000
0.328094 0.241394 0.000000
0.370544 0.238525 0.000000
0.412689 0.235229 0.000000
0.455017 0.231415 0.000000
0.497955 0.227051 0.000000
0.541840 0.221954 0.000000
0.586945 0.216034 0.000000
0.633484 0.209106 0.000000
0.681763 0.200897 0.000000
0.731873 0.191193 0.000000
0.777588 0.179443 0.000000
0.814545 0.165009 0.000000
0.845428 0.146698 0.000000
0.872345 0.124268 0.000000
0.896484 0.098083 0.000000
0.918640 0.067352 0.000000
0.939270 0.032410 0.000000
0.958740 0.011230 0.000000
0.977295 0.000000 0.000000
0.994049 0.000000 0.000000
0.996094 0.000000 0.000000
0.996094 0.000000 0.000000
0.996094 0.000000 0.000000
0.996094 0.000000 0.000000
0.000000 0.290436 0.000000
0.000000 0.290192 0.000000
0.001495 0.288971 0.000000
0.041199 0.287720 0.000000
0.108276 0.286438 0.000000
0.176208 0.285004 0.000000
0.230255 0.283356 0.000000
0.277924 0.281494 0.000000
0.322571 0.279388 0.000000
0.365753 0.276947 0.000000
0.408447 0.274170 0.000000
0.451233 0.270966 0.000000
0.494537 0.267334 0.000000
0.538757 0.263092 0.000000
0.584137 0.258240 0.000000
0.630920 0.252594 0.000000
0.679413 0.246033 0.000000
0.729706 0.238373 0.000000
0.775940 0.229340 0.000000
0.813446 0.218597 0.000000
0.844604 0.205658 0.000000
0.871674 0.189789 0.000000
0.895966 0.169739 0.000000
0.918182 0.143433 0.000000
0.938904 0.111023 0.000000
0.958435 0.072418 0.000000
0.977051 0.028351 0.000000
0.994019 0.008545 0.000000
0.996094 0.000000 0.000000
0.996094 0.000000 0.000000
0.996094 0.000000 0.000000
0.996094 0.000000 0.000000
0.000000 0.325928 0.000000
0.000000 0.325745 0.000000
0.000336 0.324646 0.000000
0.024231 0.323547 0.000000
0.091614 0.322449 0.000000
0.163086 0.321167 0.000000
0.220703 0.319763 0.000000
0.270264 0.318146 0.000000
0.316132 0.316284 0.000000
0.360199 0.314209 0.000000
0.403564 0.311768 0.000000
0.446899 0.309021 0.000000
0.490662 0.305878 0.000000
0.535248 0.302277 0.000000
0.580933 0.298126 0.000000
0.628021 0.293365 0.000000
0.676758 0.287842 0.000000
0.727264 0.281464 0.000000
0.774078 0.274048 0.000000
0.812164 0.265350 0.000000
0.843658 0.255096 0.000000
0.870941 0.242859 0.000000
0.895355 0.228119 0.000000
0.917694 0.209991 0.000000
0.938507 0.186981 0.000000
0.958099 0.155975 0.000000
0.976776 0.115936 0.000000
0.993988 0.067108 0.000000
0.996094 0.024017 0.000000
0.996094 0.002441 0.000000
0.996094 0.000000 0.000000
0.996094 0.000000 0.000000
0.000000 0.361389 0.000000
0.000000 0.361206 0.000000
0.000000 0.360260 0.000000
0.008423 0.359283 0.000000
0.072479 0.358307 0.000000
0.146606 0.357178 0.000000
0.209290 0.355927 0.000000
0.261261 0.354492 0.000000
0.308655 0.352875 0.000000
0.353821 0.351013 0.000000
0.397980 0.348907 0.000000
0.441925 0.346497 0.000000
0.486206 0.343719 0.000000
0.531250 0.340576 0.000000
0.577301 0.336975 0.000000
0.624695 0.332855 0.000000
0.673706 0.328094 0.000000
0.724487 0.322601 0.000000
0.771973 0.316284 0.000000
0.810699 0.308929 0.000000
0.842560 0.300354 0.000000
0.870087 0.290314 0.000000
0.894684 0.278442 0.000000
0.917145 0.264221 0.000000
0.938049 0.247009 0.000000
0.957733 0.225677 0.000000
0.976440 0.198242 0.000000
0.993958 0.160187 0.000000
0.996094 0.109650 0.000000
0.996094 0.046936 0.000000
0.996094 0.014404 0.000000
0.996094 0.000000 0.000000
0.000000 0.397217 0.000000
0.000000 0.397064 0.000000
0.000000 0.396179 0.000000
0.002594 0.395325 0.000000
0.050751 0.394440 0.000000
0.126099 0.393433 0.000000
0.195435 0.392334 0.000000
0.250641 0.391052 0.000000
0.299927 0.389587 0.000000
0.346405 0.387939 0.000000
0.391541 0.386047 0.000000
0.436249 0.383911 0.000000
0.481140 0.381470 0.000000
0.526672 0.378693 0.000000
0.573151 0.375488 0.000000
0.620911 0.371857 0.000000
0.670258 0.367676 0.000000
0.721313 0.362885 0.000000
0.769531 0.357361 0.000000
0.809052 0.351013 0.000000
0.841309 0.343628 0.000000
0.869110 0.335083 0.000000
0.893890 0.325073 0.000000
0.916534 0.313293 0.000000
0.937531 0.299316 0.000000
0.957306 0.282501 0.000000
0.976074 0.261963 0.000000
0.993896 0.236145 0.000000
0.996094 0.202179 0.000000
0.996094 0.152893 0.000000
0.996094 0.087799 0.000000
0.996094 0.029724 0.000000
0.000000 0.433716 0.000000
0.000000 0.433563 0.000000
0.000000 0.432770 0.000000
0.000122 0.432007 0.000000
0.026215 0.431213 0.000000
0.102386 0.430298 0.000000
0.178253 0.429291 0.000000
0.237976 0.428131 0.000000
0.289703 0.426819 0.000000
0.337769 0.425323 0.000000
0.384064 0.423645 0.000000
0.429688 0.421722 0.000000
0.475311 0.419556 0.000000
0.521423 0.417053 0.000000
0.568420 0.414215 0.000000
0.616608 0.410950 0.000000
0.666321 0.407227 0.000000
0.717712 0.402985 0.000000
0.766754 0.398102 0.000000
0.807129 0.392517 0.000000
0.839874 0.386047 0.000000
0.868011 0.378601 0.000000
0.893005 0.369934 0.000000
0.915802 0.359863 0.000000
0.936951 0.348022 0.000000
0.956787 0.334045 0.000000
0.975647 0.317352 0.000000
0.993713 0.297119 0.000000
0.996094 0.272064 0.000000
0.996094 0.239960 0.000000
0.996094 0.195831 0.000000
0.996094 0.129120 0.000000
0.000000 0.471100 0.000000
0.000000 0.470978 0.000000
0.000000 0.470276 0.000000
0.000000 0.469543 0.000000
0.006470 0.468842 0.000000
0.074860 0.468018 0.000000
0.156158 0.467102 0.000000
0.222626 0.466034 0.000000
0.277588 0.464844 0.000000
0.327698 0.463531 0.000000
0.375427 0.461975 0.000000
0.422119 0.460236 0.000000
0.468597 0.458282 0.000000
0.515442 0.456055 0.000000
0.563019 0.453491 0.000000
0.611694 0.450562 0.000000
0.661835 0.447205 0.000000
0.713593 0.443420 0.000000
0.763580 0.439056 0.000000
0.804901 0.434052 0.000000
0.838257 0.428345 0.000000
0.866730 0.421722 0.000000
0.891998 0.414124 0.000000
0.914978 0.405304 0.000000
0.936279 0.395050 0.000000
0.956238 0.383057 0.000000
0.975159 0.368927 0.000000
0.993286 0.352112 0.000000
0.996063 0.331909 0.000000
0.996094 0.307098 0.000000
0.996094 0.275848 0.000000
0.996094 0.234344 0.000000
0.000000 0.509613 0.000000
0.000000 0.509521 0.000000
0.000000 0.508850 0.000000
0.000000 0.508209 0.000000
0.001617 0.507538 0.000000
0.043427 0.506805 0.000000
0.127625 0.505981 0.000000
0.203613 0.505005 0.000000
0.263092 0.503937 0.000000
0.315826 0.502716 0.000000
0.365356 0.501312 0.000000
0.413361 0.499756 0.000000
0.460876 0.497955 0.000000
0.508514 0.495911 0.000000
0.556793 0.493622 0.000000
0.606079 0.490967 0.000000
0.656708 0.487946 0.000000
0.708923 0.484497 0.000000
0.759888 0.480591 0.000000
0.802368 0.476105 0.000000
0.836365 0.470978 0.000000
0.865295 0.465057 0.000000
0.890869 0.458282 0.000000
0.914062 0.450470 0.000000
0.935486 0.441437 0.000000
0.955597 0.430939 0.000000
0.974640 0.418671 0.000000
0.992828 0.404266 0.000000
0.996002 0.387238 0.000000
0.996094 0.366791 0.000000
0.996094 0.341919 0.000000
0.996094 0.310883 0.000000
0.000000 0.549469 0.000000
0.000000 0.549347 0.000000
0.000000 0.548767 0.000000
0.000000 0.548157 0.000000
0.000000 0.547577 0.000000
0.015625 0.546875 0.000000
0.093445 0.546112 0.000000
0.179230 0.545258 0.000000
0.245514 0.544250 0.000000
0.301758 0.543152 0.000000
0.353516 0.541870 0.000000
0.403168 0.540436 0.000000
0.451904 0.538788 0.000000
0.500580 0.536926 0.000000
0.549652 0.534821 0.000000
0.599640 0.532440 0.000000
0.650879 0.529694 0.000000
0.703583 0.526581 0.000000
0.755646 0.523010 0.000000
0.799408 0.518982 0.000000
0.834198 0.514313 0.000000
0.863617 0.509003 0.000000
0.889557 0.502930 0.000000
0.912994 0.495941 0.000000
0.934601 0.487885 0.000000
0.954865 0.478546 0.000000
0.974030 0.467773 0.000000
0.992310 0.455170 0.000000
0.995972 0.440399 0.000000
0.996094 0.422974 0.000000
0.996094 0.402130 0.000000
0.996094 0.376923 0.000000
0.000000 0.590851 0.000000
0.000000 0.590729 0.000000
0.000000 0.590179 0.000000
0.000000 0.589661 0.000000
0.000000 0.589111 0.000000
0.002502 0.588470 0.000000
0.053284 0.587769 0.000000
0.146423 0.586975 0.000000
0.223602 0.586060 0.000000
0.284790 0.585052 0.000000
0.339569 0.583893 0.000000
0.391235 0.582550 0.000000
0.441528 0.581055 0.000000
0.491364 0.579376 0.000000
0.541443 0.577423 0.000000
0.592224 0.575256 0.000000
0.644165 0.572754 0.000000
0.697479 0.569916 0.000000
0.750732 0.566681 0.000000
0.795929 0.562988 0.000000
0.831696 0.558777 0.000000
0.861725 0.553955 0.000000
0.888031 0.548462 0.000000
0.911774 0.542145 0.000000
0.933624 0.534882 0.000000
0.954010 0.526550 0.000000
0.973328 0.516937 0.000000
0.991730 0.505768 0.000000
0.995911 0.492767 0.000000
0.996094 0.477570 0.000000
0.996094 0.459625 0.000000
0.996094 0.438293 0.000000
0.000000 0.633850 0.000000
0.000000 0.633759 0.000000
0.000000 0.633240 0.000000
0.000000 0.632751 0.000000
0.000000 0.632233 0.000000
0.000000 0.631653 0.000000
0.018738 0.631012 0.000000
0.104065 0.630280 0.000000
0.195312 0.629456 0.000000
0.264099 0.628510 0.000000
0.322906 0.627441 0.000000
0.377228 0.626221 0.000000
0.429413 0.624847 0.000000
0.480713 0.623291 0.000000
0.531982 0.621521 0.000000
0.583740 0.619507 0.000000
0.636475 0.617249 0.000000
0.690491 0.614624 0.000000
0.746033 0.611694 0.000000
0.791901 0.608307 0.000000
0.828796 0.604462 0.000000
0.859528 0.600098 0.000000
0.886292 0.595093 0.000000
0.910370 0.589355 0.000000
0.932465 0.582794 0.000000
0.953064 0.575287 0.000000
0.972534 0.566620 0.000000
0.991058 0.556610 0.000000
0.995850 0.545044 0.000000
0.996094 0.531586 0.000000
0.996094 0.515869 0.000000
0.996094 0.497345 0.000000
0.000000 0.678680 0.000000
0.000000 0.678619 0.000000
0.000000 0.678131 0.000000
0.000000 0.677673 0.000000
0.000000 0.677216 0.000000
0.000000 0.676666 0.000000
0.001526 0.676086 0.000000
0.053192 0.675415 0.000000
0.156128 0.674652 0.000000
0.238098 0.673767 0.000000
0.302765 0.672791 0.000000
0.360596 0.671661 0.000000
0.415192 0.670410 0.000000
0.468323 0.668976 0.000000
0.520996 0.667358 0.000000
0.573914 0.665497 0.000000
0.627655 0.663391 0.000000
0.682495 0.661011 0.000000
0.738861 0.658295 0.000000
0.787872 0.655212 0.000000
0.825409 0.651703 0.000000
0.856964 0.647705 0.000000
0.884308 0.643127 0.000000
0.908783 0.637909 0.000000
0.931183 0.631958 0.000000
0.951996 0.625122 0.000000
0.971619 0.617279 0.000000
0.990295 0.608246 0.000000
0.995789 0.597870 0.000000
0.996094 0.585846 0.000000
0.996094 0.571838 0.000000
0.996094 0.555511 0.000000
0.000000 0.725525 0.000000
0.000000 0.725464 0.000000
0.000000 0.725037 0.000000
0.000000 0.724609 0.000000
0.000000 0.724182 0.000000
0.000000 0.723663 0.000000
0.000000 0.723145 0.000000
0.014740 0.722504 0.000000
0.103668 0.721802 0.000000
0.203857 0.721008 0.000000
0.277863 0.720093 0.000000
0.340607 0.719055 0.000000
0.398407 0.717896 0.000000
0.453827 0.716583 0.000000
0.508240 0.715057 0.000000
0.562561 0.713348 0.000000
0.617462 0.711426 0.000000
0.673279 0.709229 0.000000
0.730469 0.706757 0.000000
0.781860 0.703918 0.000000
0.821472 0.700684 0.000000
0.854004 0.697021 0.000000
0.882019 0.692841 0.000000
0.906952 0.688049 0.000000
0.929688 0.682617 0.000000
0.950745 0.676392 0.000000
0.970581 0.669250 0.000000
0.989410 0.661072 0.000000
0.995728 0.651642 0.000000
0.996094 0.640808 0.000000
0.996094 0.628265 0.000000
0.996094 0.613708 0.000000
0.000000 0.769867 0.000000
0.000000 0.769806 0.000000
0.000000 0.769501 0.000000
0.000000 0.769165 0.000000
0.000000 0.768829 0.000000
0.000000 0.768433 0.000000
0.000000 0.768005 0.000000
0.000000 0.767548 0.000000
0.044464 0.766998 0.000000
0.154694 0.766357 0.000000
0.246033 0.765656 0.000000
0.316193 0.764862 0.000000
0.378326 0.763947 0.000000
0.436707 0.762909 0.000000
0.493317 0.761749 0.000000
0.549377 0.760406 0.000000
0.605682 0.758850 0.000000
0.662659 0.757111 0.000000
0.720856 0.755127 0.000000
0.774750 0.754486 0.000000
0.816803 0.751617 0.000000
0.850586 0.748260 0.000000
0.879364 0.744415 0.000000
0.904816 0.740021 0.000000
0.927948 0.735046 0.000000
0.949341 0.729340 0.000000
0.969391 0.722809 0.000000
0.988403 0.715363 0.000000
0.995636 0.706787 0.000000
0.996094 0.696960 0.000000
0.996094 0.685638 0.000000
0.996094 0.672546 0.000000
0.000000 0.806854 0.000000
0.000000 0.806824 0.000000
0.000000 0.806580 0.000000
0.000000 0.806366 0.000000
0.000000 0.806122 0.000000
0.000000 0.805847 0.000000
0.000000 0.805542 0.000000
0.000000 0.805206 0.000000
0.006714 0.804810 0.000000
0.087708 0.804382 0.000000
0.202545 0.803864 0.000000
0.285492 0.803284 0.000000
0.353943 0.802643 0.000000
0.416321 0.801910 0.000000
0.475800 0.801056 0.000000
0.533997 0.800110 0.000000
0.592010 0.799011 0.000000
0.650421 0.797760 0.000000
0.709778 0.796326 0.000000
0.766357 0.794678 0.000000
0.811249 0.793640 0.000000
0.846558 0.791321 0.000000
0.876282 0.788574 0.000000
0.902374 0.785431 0.000000
0.925964 0.781799 0.000000
0.947723 0.777618 0.000000
0.968048 0.772766 0.000000
0.987274 0.767090 0.000000
0.995544 0.760468 0.000000
0.996094 0.754639 0.000000
0.996094 0.744354 0.000000
0.996094 0.732513 0.000000
0.000000 0.837616 0.000000
0.000000 0.837585 0.000000
0.000000 0.837402 0.000000
0.000000 0.837219 0.000000
0.000000 0.837036 0.000000
0.000000 0.836853 0.000000
0.000000 0.836609 0.000000
0.000000 0.836365 0.000000
0.000000 0.836060 0.000000
0.028473 0.835754 0.000000
0.137726 0.835358 0.000000
0.245117 0.834930 0.000000
0.323700 0.834442 0.000000
0.391724 0.833893 0.000000
0.454956 0.833252 0.000000
0.515930 0.832550 0.000000
0.576080 0.831726 0.000000
0.636200 0.830811 0.000000
0.697021 0.829742 0.000000
0.756409 0.828522 0.000000
0.804565 0.827148 0.000000
0.841766 0.825531 0.000000
0.872681 0.823730 0.000000
0.899567 0.821594 0.000000
0.923706 0.819122 0.000000
0.945831 0.816284 0.000000
0.966492 0.812958 0.000000
0.985962 0.809052 0.000000
0.995422 0.804443 0.000000
0.996094 0.799652 0.000000
0.996094 0.792938 0.000000
0.996094 0.784668 0.000000
0.000000 0.864410 0.000000
0.000000 0.864380 0.000000
0.000000 0.864258 0.000000
0.000000 0.864105 0.000000
0.000000 0.863953 0.000000
0.000000 0.863800 0.000000
0.000000 0.863647 0.000000
0.000000 0.863434 0.000000
0.000000 0.863220 0.000000
0.000000 0.862946 0.000000
0.058655 0.862640 0.000000
0.185577 0.862305 0.000000
0.284790 0.861938 0.000000
0.361481 0.861511 0.000000
0.429932 0.861023 0.000000
0.494537 0.860443 0.000000
0.557404 0.859833 0.000000
0.619659 0.859100 0.000000
0.682220 0.858276 0.000000
0.745636 0.857361 0.000000
0.796661 0.856293 0.000000
0.836090 0.855072 0.000000
0.868408 0.853668 0.000000
0.896271 0.852081 0.000000
0.921051 0.850220 0.000000
0.943695 0.848083 0.000000
0.964691 0.845612 0.000000
0.984497 0.842743 0.000000
0.995300 0.839386 0.000000
0.996094 0.835449 0.000000
0.996094 0.830841 0.000000
0.996094 0.825378 0.000000
0.000000 0.888489 0.000000
0.000000 0.888458 0.000000
0.000000 0.888336 0.000000
0.000000 0.888245 0.000000
0.000000 0.888123 0.000000
0.000000 0.888000 0.000000
0.000000 0.887848 0.000000
0.000000 0.887695 0.000000
0.000000 0.887512 0.000000
0.000000 0.887299 0.000000
0.005310 0.887085 0.000000
0.097168 0.886810 0.000000
0.230713 0.886505 0.000000
0.323090 0.886169 0.000000
0.399353 0.885773 0.000000
0.468903 0.885315 0.000000
0.535309 0.884827 0.000000
0.600281 0.884247 0.000000
0.664978 0.883606 0.000000
0.730194 0.882843 0.000000
0.786957 0.882019 0.000000
0.829285 0.881042 0.000000
0.863403 0.879944 0.000000
0.892365 0.878662 0.000000
0.917999 0.877228 0.000000
0.941193 0.875549 0.000000
0.962646 0.873657 0.000000
0.982758 0.871429 0.000000
0.995178 0.868866 0.000000
0.996094 0.865875 0.000000
0.996094 0.862427 0.000000
0.996094 0.858368 0.000000
0.000000 0.910583 0.000000
0.000000 0.910583 0.000000
0.000000 0.910461 0.000000
0.000000 0.910400 0.000000
0.000000 0.910278 0.000000
0.000000 0.910187 0.000000
0.000000 0.910065 0.000000
0.000000 0.909943 0.000000
0.000000 0.909790 0.000000
0.000000 0.909607 0.000000
0.000000 0.909424 0.000000
0.024933 0.909210 0.000000
0.144287 0.908966 0.000000
0.271515 0.908691 0.000000
0.360931 0.908356 0.000000
0.437714 0.907990 0.000000
0.508911 0.907593 0.000000
0.577393 0.907135 0.000000
0.644806 0.906616 0.000000
0.712189 0.906006 0.000000
0.774017 0.905304 0.000000
0.820984 0.904510 0.000000
0.857391 0.903625 0.000000
0.887817 0.902618 0.000000
0.914398 0.901459 0.000000
0.938293 0.900146 0.000000
0.960297 0.898590 0.000000
0.980804 0.896851 0.000000
0.994995 0.894806 0.000000
0.996094 0.892487 0.000000
0.996094 0.889771 0.000000
0.996094 0.886597 0.000000
0.000000 0.931183 0.000000
0.000000 0.931183 0.000000
0.000000 0.931091 0.000000
0.000000 0.931030 0.000000
0.000000 0.930939 0.000000
0.000000 0.930878 0.000000
0.000000 0.930756 0.000000
0.000000 0.930664 0.000000
0.000000 0.930542 0.000000
0.000000 0.930389 0.000000
0.000000 0.930237 0.000000
0.000000 0.930054 0.000000
0.053223 0.929840 0.000000
0.190399 0.929596 0.000000
0.310364 0.929352 0.000000
0.398834 0.929047 0.000000
0.476929 0.928711 0.000000
0.550110 0.928314 0.000000
0.621002 0.927887 0.000000
0.691162 0.927399 0.000000
0.758270 0.926819 0.000000
0.810760 0.926178 0.000000
0.850189 0.925446 0.000000
0.882416 0.924622 0.000000
0.910187 0.923676 0.000000
0.934937 0.922577 0.000000
0.957550 0.921356 0.000000
0.978516 0.919922 0.000000
0.994812 0.918274 0.000000
0.996094 0.916382 0.000000
0.996094 0.914215 0.000000
0.996094 0.911713 0.000000
0.000000 0.950623 0.000000
0.000000 0.950623 0.000000
0.000000 0.950562 0.000000
0.000000 0.950500 0.000000
0.000000 0.950439 0.000000
0.000000 0.950348 0.000000
0.000000 0.950287 0.000000
0.000000 0.950195 0.000000
0.000000 0.950073 0.000000
0.000000 0.949951 0.000000
0.000000 0.949829 0.000000
0.000000 0.949677 0.000000
0.000000 0.949493 0.000000
0.083618 0.949310 0.000000
0.235931 0.949097 0.000000
0.348419 0.948853 0.000000
