Postproduction/IWLTBAP - Humble/LUTs by IWLTBAP (CUBE)/UTILITY/BMDFilm BMPCC to Rec.709/U-BMDFILM-BMPCC-V3-LTR.cube
# Copyright: (C) Copyright 2010-2018 by IWLTBAP SAS
# Cannot be resold, shared or otherwise redistributed
# Website: https://luts.iwltbap.com
TITLE "BMDFilm BMPCC Version 3 (Utility LOG to Rec.709)"
LUT_3D_SIZE 32
0.000000 0.000000 0.000000
0.000000 0.000000 0.000000
0.024384 0.000000 0.000000
0.079376 0.000000 0.000000
0.132355 0.000000 0.000000
0.177795 0.000000 0.000000
0.219330 0.000000 0.000000
0.259705 0.000000 0.000000
0.299469 0.000000 0.000000
0.339539 0.000000 0.000000
0.380524 0.000000 0.000000
0.422333 0.000000 0.000000
0.465546 0.000000 0.000000
0.510559 0.000000 0.000000
0.557190 0.000000 0.000000
0.606140 0.000000 0.000000
0.657471 0.000000 0.000000
0.711273 0.000000 0.000000
0.758820 0.000000 0.000000
0.797302 0.000000 0.000000
0.830444 0.000000 0.000000
0.859528 0.000000 0.000000
0.885956 0.000000 0.000000
0.910400 0.000000 0.000000
0.933105 0.000000 0.000000
0.954865 0.000000 0.000000
0.975433 0.000000 0.000000
0.993530 0.000000 0.000000
0.995667 0.000000 0.000000
0.995667 0.000000 0.000000
0.995667 0.000000 0.000000
0.995667 0.000000 0.000000
0.000000 0.000000 0.000000
0.000000 0.000000 0.000000
0.023071 0.000000 0.000000
0.078033 0.000000 0.000000
0.131256 0.000000 0.000000
0.176971 0.000000 0.000000
0.218597 0.000000 0.000000
0.259064 0.000000 0.000000
0.298950 0.000000 0.000000
0.339020 0.000000 0.000000
0.379822 0.000000 0.000000
0.421936 0.000000 0.000000
0.465149 0.000000 0.000000
0.510193 0.000000 0.000000
0.556885 0.000000 0.000000
0.605865 0.000000 0.000000
0.657227 0.000000 0.000000
0.711060 0.000000 0.000000
0.758606 0.000000 0.000000
0.797150 0.000000 0.000000
0.830353 0.000000 0.000000
0.859467 0.000000 0.000000
0.885895 0.000000 0.000000
0.910370 0.000000 0.000000
0.933014 0.000000 0.000000
0.954834 0.000000 0.000000
0.975403 0.000000 0.000000
0.993530 0.000000 0.000000
0.995667 0.000000 0.000000
0.995667 0.000000 0.000000
0.995667 0.000000 0.000000
0.995667 0.000000 0.000000
0.000000 0.008148 0.000000
0.000000 0.007782 0.000000
0.016144 0.005798 0.000000
0.070282 0.003906 0.000000
0.124969 0.001923 0.000000
0.171936 0.000092 0.000000
0.214600 0.000000 0.000000
0.255371 0.000000 0.000000
0.295868 0.000000 0.000000
0.336304 0.000000 0.000000
0.377380 0.000000 0.000000
0.419708 0.000000 0.000000
0.463104 0.000000 0.000000
0.508301 0.000000 0.000000
0.555145 0.000000 0.000000
0.604279 0.000000 0.000000
0.655731 0.000000 0.000000
0.709656 0.000000 0.000000
0.757629 0.000000 0.000000
0.796448 0.000000 0.000000
0.829834 0.000000 0.000000
0.859039 0.000000 0.000000
0.885559 0.000000 0.000000
0.909790 0.000000 0.000000
0.932770 0.000000 0.000000
0.954620 0.000000 0.000000
0.975250 0.000000 0.000000
0.993500 0.000000 0.000000
0.995667 0.000000 0.000000
0.995667 0.000000 0.000000
0.995667 0.000000 0.000000
0.995667 0.000000 0.000000
0.000000 0.045654 0.000000
0.000000 0.045197 0.000000
0.009460 0.042847 0.000000
0.062744 0.040283 0.000000
0.118591 0.037903 0.000000
0.167053 0.035217 0.000000
0.210510 0.032227 0.000000
0.251862 0.028687 0.000000
0.292542 0.024963 0.000000
0.333557 0.020599 0.000000
0.374908 0.015991 0.000000
0.417206 0.010773 0.000000
0.461060 0.005310 0.000000
0.506226 0.000000 0.000000
0.553406 0.000000 0.000000
0.602631 0.000000 0.000000
0.654236 0.000000 0.000000
0.708282 0.000000 0.000000
0.756561 0.000000 0.000000
0.795746 0.000000 0.000000
0.829315 0.000000 0.000000
0.858643 0.000000 0.000000
0.885223 0.000000 0.000000
0.909515 0.000000 0.000000
0.932556 0.000000 0.000000
0.954437 0.000000 0.000000
0.975098 0.000000 0.000000
0.993500 0.000000 0.000000
0.995667 0.000000 0.000000
0.995667 0.000000 0.000000
0.995667 0.000000 0.000000
0.995667 0.000000 0.000000
0.000000 0.087158 0.000000
0.000000 0.086731 0.000000
0.003174 0.084290 0.000000
0.054932 0.081635 0.000000
0.111664 0.079132 0.000000
0.161926 0.076324 0.000000
0.206085 0.073151 0.000000
0.248291 0.069366 0.000000
0.289398 0.065338 0.000000
0.330750 0.060577 0.000000
0.372375 0.055389 0.000000
0.414917 0.049377 0.000000
0.458954 0.042908 0.000000
0.504272 0.035492 0.000000
0.551636 0.027313 0.000000
0.601013 0.018402 0.000000
0.652435 0.008820 0.000000
0.706879 0.000000 0.000000
0.755493 0.000000 0.000000
0.795044 0.000000 0.000000
0.828735 0.000000 0.000000
0.858185 0.000000 0.000000
0.884857 0.000000 0.000000
0.909210 0.000000 0.000000
0.932312 0.000000 0.000000
0.954224 0.000000 0.000000
0.974884 0.000000 0.000000
0.993469 0.000000 0.000000
0.995667 0.000000 0.000000
0.995667 0.000000 0.000000
0.995667 0.000000 0.000000
0.995667 0.000000 0.000000
0.000000 0.130341 0.000000
0.000000 0.130005 0.000000
0.000000 0.128052 0.000000
0.046173 0.125824 0.000000
0.103302 0.123779 0.000000
0.155762 0.121429 0.000000
0.201233 0.118744 0.000000
0.243896 0.115387 0.000000
0.285767 0.111816 0.000000
0.327301 0.107605 0.000000
0.369476 0.102509 0.000000
0.412292 0.096680 0.000000
0.456482 0.089691 0.000000
0.502045 0.082001 0.000000
0.549622 0.073486 0.000000
0.598907 0.063721 0.000000
0.650757 0.052704 0.000000
0.704987 0.040283 0.000000
0.754272 0.026917 0.000000
0.794189 0.012634 0.000000
0.827972 0.000000 0.000000
0.857727 0.000000 0.000000
0.884460 0.000000 0.000000
0.908905 0.000000 0.000000
0.932098 0.000000 0.000000
0.953979 0.000000 0.000000
0.974731 0.000000 0.000000
0.993469 0.000000 0.000000
0.995667 0.000000 0.000000
0.995667 0.000000 0.000000
0.995667 0.000000 0.000000
0.995667 0.000000 0.000000
0.000000 0.168304 0.000000
0.000000 0.168030 0.000000
0.000000 0.166412 0.000000
0.036530 0.164795 0.000000
0.093292 0.163147 0.000000
0.148621 0.161041 0.000000
0.195465 0.158905 0.000000
0.239197 0.156433 0.000000
0.281677 0.153595 0.000000
0.323669 0.150330 0.000000
0.365967 0.146362 0.000000
0.409332 0.142029 0.000000
0.453613 0.136749 0.000000
0.499634 0.130829 0.000000
0.547150 0.123627 0.000000
0.596802 0.115143 0.000000
0.648804 0.105072 0.000000
0.703186 0.092560 0.000000
0.752930 0.078522 0.000000
0.793274 0.062744 0.000000
0.827179 0.044769 0.000000
0.857117 0.025238 0.000000
0.884033 0.005127 0.000000
0.908539 0.000000 0.000000
0.931763 0.000000 0.000000
0.953766 0.000000 0.000000
0.974518 0.000000 0.000000
0.993439 0.000000 0.000000
0.995667 0.000000 0.000000
0.995667 0.000000 0.000000
0.995667 0.000000 0.000000
0.995667 0.000000 0.000000
0.000000 0.204285 0.000000
0.000000 0.204010 0.000000
0.000000 0.202667 0.000000
0.025909 0.201294 0.000000
0.081970 0.199890 0.000000
0.140411 0.198303 0.000000
0.188965 0.196259 0.000000
0.233765 0.194214 0.000000
0.276733 0.191803 0.000000
0.319489 0.189117 0.000000
0.362244 0.186035 0.000000
0.405975 0.182220 0.000000
0.450562 0.178131 0.000000
0.496796 0.173370 0.000000
0.544525 0.167633 0.000000
0.594421 0.160980 0.000000
0.646606 0.153381 0.000000
0.701172 0.144257 0.000000
0.751404 0.133331 0.000000
0.792206 0.120056 0.000000
0.826355 0.103271 0.000000
0.856537 0.083405 0.000000
0.883514 0.060425 0.000000
0.908142 0.034882 0.000000
0.931396 0.008118 0.000000
0.953461 0.000000 0.000000
0.974274 0.000000 0.000000
0.993408 0.000000 0.000000
0.995667 0.000000 0.000000
0.995667 0.000000 0.000000
0.995667 0.000000 0.000000
0.995667 0.000000 0.000000
0.000000 0.239471 0.000000
0.000000 0.239227 0.000000
0.000000 0.238068 0.000000
0.014526 0.236877 0.000000
0.069275 0.235626 0.000000
0.130371 0.234253 0.000000
0.181122 0.232666 0.000000
0.227234 0.230652 0.000000
0.271332 0.228638 0.000000
0.314484 0.226288 0.000000
0.358002 0.223633 0.000000
0.401886 0.220551 0.000000
0.447052 0.216858 0.000000
0.493378 0.212830 0.000000
0.541595 0.207977 0.000000
0.591705 0.202637 0.000000
0.644104 0.196198 0.000000
0.698853 0.188995 0.000000
0.749634 0.180267 0.000000
0.791016 0.170013 0.000000
0.825439 0.157806 0.000000
0.855804 0.142975 0.000000
0.882935 0.124329 0.000000
0.907623 0.100403 0.000000
0.931000 0.071594 0.000000
0.953125 0.038940 0.000000
0.973999 0.005371 0.000000
0.993378 0.000000 0.000000
0.995667 0.000000 0.000000
0.995667 0.000000 0.000000
0.995667 0.000000 0.000000
0.995667 0.000000 0.000000
0.000000 0.274628 0.000000
0.000000 0.274445 0.000000
0.000000 0.273346 0.000000
0.002594 0.272278 0.000000
0.055054 0.271210 0.000000
0.118317 0.269958 0.000000
0.171967 0.268524 0.000000
0.219666 0.266785 0.000000
0.264832 0.264984 0.000000
0.308990 0.262970 0.000000
0.352875 0.260590 0.000000
0.397491 0.257904 0.000000
0.442841 0.254639 0.000000
0.489716 0.251160 0.000000
0.538239 0.247131 0.000000
0.588654 0.242310 0.000000
0.641266 0.236969 0.000000
0.696228 0.230621 0.000000
0.747620 0.223511 0.000000
0.789642 0.214966 0.000000
0.824432 0.204987 0.000000
0.854736 0.193207 0.000000
0.882019 0.179138 0.000000
0.907104 0.162018 0.000000
0.930573 0.140411 0.000000
0.952728 0.111755 0.000000
0.973694 0.076019 0.000000
0.993317 0.034698 0.000000
0.995667 0.002472 0.000000
0.995667 0.000000 0.000000
0.995667 0.000000 0.000000
0.995667 0.000000 0.000000
0.000000 0.310181 0.000000
0.000000 0.309998 0.000000
0.000000 0.309052 0.000000
0.000000 0.308105 0.000000
0.038971 0.307129 0.000000
0.103210 0.306000 0.000000
0.161163 0.304535 0.000000
0.211090 0.303131 0.000000
0.257568 0.301544 0.000000
0.302460 0.299683 0.000000
0.347290 0.297607 0.000000
0.392212 0.295258 0.000000
0.438263 0.292267 0.000000
0.485596 0.289185 0.000000
0.534363 0.285675 0.000000
0.584900 0.281616 0.000000
0.637787 0.276733 0.000000
0.693268 0.271362 0.000000
0.745087 0.264984 0.000000
0.788055 0.257843 0.000000
0.823212 0.249298 0.000000
0.853790 0.239349 0.000000
0.881287 0.227722 0.000000
0.906494 0.213898 0.000000
0.930054 0.197357 0.000000
0.952332 0.176849 0.000000
0.973328 0.150940 0.000000
0.993286 0.115509 0.000000
0.995667 0.070435 0.000000
0.995667 0.018768 0.000000
0.995667 0.000000 0.000000
0.995667 0.000000 0.000000
0.000000 0.346527 0.000000
0.000000 0.346375 0.000000
0.000000 0.345490 0.000000
0.000000 0.344635 0.000000
0.021790 0.343750 0.000000
0.085022 0.342621 0.000000
0.148163 0.341400 0.000000
0.200775 0.340118 0.000000
0.248871 0.338654 0.000000
0.295166 0.337006 0.000000
0.340607 0.335114 0.000000
0.386475 0.333008 0.000000
0.433075 0.330566 0.000000
0.480621 0.327576 0.000000
0.529877 0.324371 0.000000
0.580902 0.320770 0.000000
0.634094 0.316406 0.000000
0.689606 0.311646 0.000000
0.742462 0.306183 0.000000
0.785980 0.299683 0.000000
0.821838 0.292206 0.000000
0.852722 0.283813 0.000000
0.880402 0.273773 0.000000
0.905823 0.262085 0.000000
0.929474 0.248291 0.000000
0.951874 0.231628 0.000000
0.972900 0.211761 0.000000
0.993225 0.186890 0.000000
0.995667 0.154572 0.000000
0.995667 0.109009 0.000000
0.995667 0.051880 0.000000
0.995667 0.006287 0.000000
0.000000 0.383911 0.000000
0.000000 0.383759 0.000000
0.000000 0.382965 0.000000
0.000000 0.382202 0.000000
0.003998 0.381378 0.000000
0.064270 0.380463 0.000000
0.132233 0.379211 0.000000
0.188599 0.378021 0.000000
0.238770 0.376709 0.000000
0.286438 0.375214 0.000000
0.333160 0.373505 0.000000
0.379608 0.371582 0.000000
0.426880 0.369385 0.000000
0.475189 0.366638 0.000000
0.524933 0.363800 0.000000
0.576385 0.360504 0.000000
0.629944 0.356781 0.000000
0.685730 0.352295 0.000000
0.739471 0.347412 0.000000
0.783905 0.341583 0.000000
0.820282 0.335114 0.000000
0.851532 0.327484 0.000000
0.879456 0.318878 0.000000
0.904999 0.308655 0.000000
0.928864 0.296753 0.000000
0.951019 0.282806 0.000000
0.972443 0.266022 0.000000
0.992828 0.246155 0.000000
0.995667 0.221619 0.000000
0.995667 0.190460 0.000000
0.995667 0.148529 0.000000
0.995667 0.087616 0.000000
0.000000 0.422577 0.000000
0.000000 0.422455 0.000000
0.000000 0.421753 0.000000
0.000000 0.420990 0.000000
0.000000 0.420288 0.000000
0.041107 0.419434 0.000000
0.111908 0.418518 0.000000
0.173981 0.417175 0.000000
0.226898 0.415955 0.000000
0.276337 0.414642 0.000000
0.324310 0.413055 0.000000
0.371979 0.411285 0.000000
0.420044 0.409302 0.000000
0.468781 0.407043 0.000000
0.519043 0.404175 0.000000
0.570984 0.401215 0.000000
0.624908 0.397797 0.000000
0.681335 0.393982 0.000000
0.736053 0.389313 0.000000
0.781494 0.384247 0.000000
0.818542 0.378265 0.000000
0.850128 0.371582 0.000000
0.878326 0.363708 0.000000
0.904114 0.354614 0.000000
0.928101 0.344360 0.000000
0.950409 0.332153 0.000000
0.971893 0.317871 0.000000
0.992279 0.300781 0.000000
0.995636 0.280457 0.000000
0.995667 0.255829 0.000000
0.995667 0.225250 0.000000
0.995667 0.185181 0.000000
0.000000 0.462769 0.000000
0.000000 0.462677 0.000000
0.000000 0.462006 0.000000
0.000000 0.461334 0.000000
0.000000 0.460632 0.000000
0.016144 0.459900 0.000000
0.086334 0.459045 0.000000
0.155914 0.458038 0.000000
0.212830 0.456940 0.000000
0.264526 0.455444 0.000000
0.314087 0.454010 0.000000
0.362915 0.452393 0.000000
0.411926 0.450562 0.000000
0.461639 0.448456 0.000000
0.512573 0.446106 0.000000
0.565094 0.443146 0.000000
0.619476 0.440033 0.000000
0.676086 0.436523 0.000000
0.731812 0.432526 0.000000
0.778748 0.427704 0.000000
0.816467 0.422455 0.000000
0.848541 0.416199 0.000000
0.877106 0.409302 0.000000
0.903107 0.401123 0.000000
0.927246 0.391724 0.000000
0.949707 0.381104 0.000000
0.971313 0.368500 0.000000
0.991760 0.353577 0.000000
0.995575 0.336304 0.000000
0.995667 0.315521 0.000000
0.995667 0.290527 0.000000
0.995667 0.259735 0.000000
0.000000 0.504730 0.000000
0.000000 0.504578 0.000000
0.000000 0.503998 0.000000
0.000000 0.503357 0.000000
0.000000 0.502747 0.000000
0.000000 0.502014 0.000000
0.056549 0.501251 0.000000
0.133118 0.500336 0.000000
0.195709 0.499298 0.000000
0.250641 0.498169 0.000000
0.302155 0.496857 0.000000
0.352478 0.495270 0.000000
0.402557 0.493408 0.000000
0.453247 0.491455 0.000000
0.504913 0.489288 0.000000
0.558075 0.486816 0.000000
0.613312 0.483978 0.000000
0.670380 0.480530 0.000000
0.727234 0.476837 0.000000
0.775513 0.472687 0.000000
0.813843 0.467621 0.000000
0.846710 0.462158 0.000000
0.875671 0.455658 0.000000
0.901947 0.448486 0.000000
0.926270 0.439972 0.000000
0.948883 0.430176 0.000000
0.970642 0.419189 0.000000
0.991211 0.406128 0.000000
0.995544 0.390656 0.000000
0.995667 0.372833 0.000000
0.995667 0.351440 0.000000
0.995667 0.325806 0.000000
0.000000 0.548859 0.000000
0.000000 0.548737 0.000000
0.000000 0.548157 0.000000
0.000000 0.547607 0.000000
0.000000 0.546783 0.000000
0.000000 0.546112 0.000000
0.023743 0.545380 0.000000
0.103027 0.544556 0.000000
0.174896 0.543610 0.000000
0.234039 0.542542 0.000000
0.288208 0.541321 0.000000
0.340302 0.539917 0.000000
0.391815 0.538361 0.000000
0.443695 0.536621 0.000000
0.496399 0.534576 0.000000
0.550293 0.532043 0.000000
0.605957 0.529449 0.000000
0.663605 0.526489 0.000000
0.721954 0.523132 0.000000
0.771515 0.519012 0.000000
0.811127 0.514648 0.000000
0.844666 0.509644 0.000000
0.873962 0.503693 0.000000
0.900604 0.497131 0.000000
0.925171 0.489349 0.000000
0.947968 0.480499 0.000000
0.969879 0.470581 0.000000
0.990540 0.458832 0.000000
0.995453 0.445221 0.000000
0.995667 0.429199 0.000000
0.995667 0.410675 0.000000
0.995667 0.388550 0.000000
0.000000 0.594818 0.000000
0.000000 0.594727 0.000000
0.000000 0.594177 0.000000
0.000000 0.593658 0.000000
0.000000 0.593109 0.000000
0.000000 0.592499 0.000000
0.000000 0.591827 0.000000
0.065704 0.591034 0.000000
0.148041 0.590179 0.000000
0.213776 0.589172 0.000000
0.271667 0.588043 0.000000
0.326111 0.586761 0.000000
0.379333 0.585052 0.000000
0.432648 0.583435 0.000000
0.486359 0.581573 0.000000
0.541168 0.579437 0.000000
0.597565 0.577057 0.000000
0.656158 0.574310 0.000000
0.716644 0.570984 0.000000
0.767151 0.567413 0.000000
0.807983 0.563385 0.000000
0.842255 0.558533 0.000000
0.872070 0.553314 0.000000
0.899048 0.547028 0.000000
0.923737 0.540192 0.000000
0.946899 0.532074 0.000000
0.968994 0.523071 0.000000
0.989777 0.512390 0.000000
0.995392 0.500122 0.000000
0.995667 0.485931 0.000000
0.995667 0.469208 0.000000
0.995667 0.449921 0.000000
0.000000 0.643311 0.000000
0.000000 0.643250 0.000000
0.000000 0.642731 0.000000
0.000000 0.642242 0.000000
0.000000 0.641754 0.000000
0.000000 0.641174 0.000000
0.000000 0.640564 0.000000
0.023651 0.639862 0.000000
0.111908 0.638763 0.000000
0.188721 0.637848 0.000000
0.251617 0.636810 0.000000
0.309387 0.635590 0.000000
0.364777 0.634277 0.000000
0.419769 0.632751 0.000000
0.474762 0.631042 0.000000
0.530670 0.629059 0.000000
0.588287 0.626831 0.000000
0.647369 0.624054 0.000000
0.708923 0.621155 0.000000
0.762787 0.617920 0.000000
0.804291 0.614166 0.000000
0.839203 0.609711 0.000000
0.869904 0.604858 0.000000
0.897278 0.599091 0.000000
0.922211 0.592804 0.000000
0.945709 0.585358 0.000000
0.967987 0.577087 0.000000
0.988953 0.567352 0.000000
0.995331 0.556213 0.000000
0.995667 0.543365 0.000000
0.995667 0.528503 0.000000
0.995667 0.511230 0.000000
0.000000 0.694366 0.000000
0.000000 0.694305 0.000000
0.000000 0.693848 0.000000
0.000000 0.693390 0.000000
0.000000 0.692719 0.000000
0.000000 0.692108 0.000000
0.000000 0.691559 0.000000
0.000000 0.690857 0.000000
0.065338 0.690125 0.000000
0.156128 0.689270 0.000000
0.227173 0.688293 0.000000
0.289215 0.687164 0.000000
0.347717 0.685944 0.000000
0.404510 0.684509 0.000000
0.461365 0.682892 0.000000
0.518585 0.681061 0.000000
0.577301 0.678741 0.000000
0.637329 0.676392 0.000000
0.699646 0.673767 0.000000
0.756042 0.670715 0.000000
0.799744 0.667267 0.000000
0.835968 0.663116 0.000000
0.867126 0.658661 0.000000
0.895020 0.653534 0.000000
0.920563 0.647491 0.000000
0.944336 0.640900 0.000000
0.966827 0.633026 0.000000
0.987976 0.624115 0.000000
0.995270 0.614105 0.000000
0.995667 0.602417 0.000000
0.995667 0.588928 0.000000
0.995667 0.573090 0.000000
0.000000 0.742798 0.000000
0.000000 0.742737 0.000000
0.000000 0.742432 0.000000
0.000000 0.742065 0.000000
0.000000 0.741699 0.000000
0.000000 0.741272 0.000000
0.000000 0.740814 0.000000
0.000000 0.740326 0.000000
0.016907 0.739716 0.000000
0.110596 0.739014 0.000000
0.196198 0.738281 0.000000
0.264893 0.737427 0.000000
0.327209 0.736420 0.000000
0.386932 0.735321 0.000000
0.445801 0.734070 0.000000
0.504608 0.732361 0.000000
0.564667 0.730682 0.000000
0.625793 0.728790 0.000000
0.689117 0.726654 0.000000
0.748322 0.725983 0.000000
0.794678 0.722900 0.000000
0.832245 0.719025 0.000000
0.864227 0.714874 0.000000
0.892670 0.710175 0.000000
0.918671 0.704559 0.000000
0.942810 0.698425 0.000000
0.965393 0.691193 0.000000
0.986877 0.683228 0.000000
0.995148 0.673798 0.000000
0.995667 0.663055 0.000000
0.995667 0.650726 0.000000
0.995667 0.636536 0.000000
0.000000 0.783600 0.000000
0.000000 0.783569 0.000000
0.000000 0.783325 0.000000
0.000000 0.783081 0.000000
0.000000 0.782806 0.000000
0.000000 0.782532 0.000000
0.000000 0.782196 0.000000
0.000000 0.781830 0.000000
0.000000 0.781403 0.000000
0.051819 0.780945 0.000000
0.154907 0.780365 0.000000
0.234741 0.779724 0.000000
0.302582 0.779053 0.000000
0.365906 0.778259 0.000000
0.427368 0.777313 0.000000
0.488434 0.776276 0.000000
0.550079 0.775116 0.000000
0.612579 0.773651 0.000000
0.676971 0.771942 0.000000
0.739014 0.770142 0.000000
0.788635 0.769043 0.000000
0.827576 0.766510 0.000000
0.860840 0.763550 0.000000
0.889984 0.759918 0.000000
0.916473 0.755951 0.000000
0.941010 0.751434 0.000000
0.963745 0.745941 0.000000
0.985596 0.739807 0.000000
0.995056 0.732422 0.000000
0.995667 0.726135 0.000000
0.995667 0.714813 0.000000
0.995667 0.701843 0.000000
0.000000 0.817841 0.000000
0.000000 0.817810 0.000000
0.000000 0.817596 0.000000
0.000000 0.817383 0.000000
0.000000 0.817200 0.000000
0.000000 0.817017 0.000000
0.000000 0.816742 0.000000
0.000000 0.816467 0.000000
0.000000 0.816132 0.000000
0.005463 0.815796 0.000000
0.095367 0.815369 0.000000
0.195343 0.814911 0.000000
0.272430 0.814117 0.000000
0.340790 0.813507 0.000000
0.405914 0.812805 0.000000
0.469330 0.812042 0.000000
0.532928 0.811157 0.000000
0.597290 0.810150 0.000000
0.663116 0.808990 0.000000
0.728058 0.807678 0.000000
0.781128 0.806183 0.000000
0.822357 0.804413 0.000000
0.856903 0.802460 0.000000
0.886902 0.799866 0.000000
0.914001 0.797180 0.000000
0.938904 0.794098 0.000000
0.962036 0.790497 0.000000
0.984161 0.785980 0.000000
0.994904 0.781006 0.000000
0.995667 0.775787 0.000000
0.995667 0.768280 0.000000
0.995667 0.759064 0.000000
0.000000 0.847595 0.000000
0.000000 0.847565 0.000000
0.000000 0.847412 0.000000
0.000000 0.847260 0.000000
0.000000 0.847107 0.000000
0.000000 0.846924 0.000000
0.000000 0.846771 0.000000
0.000000 0.846527 0.000000
0.000000 0.846283 0.000000
0.000000 0.846008 0.000000
0.027863 0.845642 0.000000
0.139130 0.845306 0.000000
0.234039 0.844910 0.000000
0.310272 0.844421 0.000000
0.379852 0.843903 0.000000
0.447052 0.843262 0.000000
0.513214 0.842590 0.000000
0.579590 0.841766 0.000000
0.647064 0.840637 0.000000
0.716187 0.839630 0.000000
0.772308 0.838440 0.000000
0.816162 0.837128 0.000000
0.851959 0.835602 0.000000
0.883270 0.833862 0.000000
0.911072 0.831848 0.000000
0.936279 0.829498 0.000000
0.960022 0.826538 0.000000
0.982544 0.823425 0.000000
0.994781 0.819763 0.000000
0.995667 0.815460 0.000000
0.995667 0.810181 0.000000
0.995667 0.804260 0.000000
0.000000 0.874481 0.000000
0.000000 0.874451 0.000000
0.000000 0.874329 0.000000
0.000000 0.874207 0.000000
0.000000 0.874084 0.000000
0.000000 0.873932 0.000000
0.000000 0.873779 0.000000
0.000000 0.873627 0.000000
0.000000 0.873413 0.000000
0.000000 0.873169 0.000000
0.000000 0.872955 0.000000
0.059662 0.872650 0.000000
0.181549 0.872314 0.000000
0.271851 0.871948 0.000000
0.348663 0.871490 0.000000
0.420349 0.871002 0.000000
0.489807 0.870453 0.000000
0.558746 0.869843 0.000000
0.628510 0.868927 0.000000
0.699371 0.868011 0.000000
0.761780 0.867126 0.000000
0.808502 0.866058 0.000000
0.846497 0.864838 0.000000
0.878723 0.863464 0.000000
0.907440 0.861877 0.000000
0.933533 0.860046 0.000000
0.957764 0.857971 0.000000
0.980591 0.855530 0.000000
0.994629 0.852478 0.000000
0.995667 0.849213 0.000000
0.995667 0.845428 0.000000
0.995667 0.840729 0.000000
0.000000 0.899292 0.000000
0.000000 0.899292 0.000000
0.000000 0.899139 0.000000
0.000000 0.899078 0.000000
0.000000 0.898956 0.000000
0.000000 0.898834 0.000000
0.000000 0.898712 0.000000
0.000000 0.898560 0.000000
0.000000 0.898407 0.000000
0.000000 0.898224 0.000000
0.000000 0.898010 0.000000
0.003021 0.897766 0.000000
0.101166 0.897491 0.000000
0.221100 0.897186 0.000000
0.309723 0.896851 0.000000
0.387939 0.896179 0.000000
0.462067 0.895721 0.000000
0.534546 0.895233 0.000000
0.606628 0.894653 0.000000
0.679810 0.893982 0.000000
0.747559 0.893188 0.000000
0.799225 0.892334 0.000000
0.839661 0.891357 0.000000
0.873749 0.890259 0.000000
0.903473 0.888977 0.000000
0.930328 0.887543 0.000000
0.955170 0.885834 0.000000
0.978149 0.883942 0.000000
0.994446 0.881409 0.000000
0.995667 0.878876 0.000000
0.995667 0.875916 0.000000
0.995667 0.872437 0.000000
0.000000 0.922211 0.000000
0.000000 0.922211 0.000000
0.000000 0.922119 0.000000
0.000000 0.922058 0.000000
0.000000 0.921936 0.000000
0.000000 0.921875 0.000000
0.000000 0.921753 0.000000
0.000000 0.921661 0.000000
0.000000 0.921539 0.000000
0.000000 0.921356 0.000000
0.000000 0.921173 0.000000
0.000000 0.920990 0.000000
0.023682 0.920746 0.000000
0.143524 0.920471 0.000000
0.259216 0.920227 0.000000
0.348145 0.919861 0.000000
0.428528 0.919495 0.000000
0.505371 0.919037 0.000000
0.581024 0.918610 0.000000
0.656860 0.918060 0.000000
0.730042 0.917419 0.000000
0.788116 0.916718 0.000000
0.831787 0.915894 0.000000
0.867554 0.914978 0.000000
0.898834 0.913940 0.000000
0.926636 0.912750 0.000000
0.952118 0.911407 0.000000
0.975616 0.909546 0.000000
0.994232 0.907715 0.000000
0.995667 0.905670 0.000000
0.995667 0.903290 0.000000
0.995667 0.900513 0.000000
0.000000 0.944214 0.000000
0.000000 0.944214 0.000000
0.000000 0.944153 0.000000
0.000000 0.944061 0.000000
0.000000 0.944000 0.000000
0.000000 0.943909 0.000000
0.000000 0.943817 0.000000
0.000000 0.943726 0.000000
0.000000 0.943604 0.000000
0.000000 0.943481 0.000000
0.000000 0.943359 0.000000
0.000000 0.943176 0.000000
0.000000 0.942963 0.000000
0.048248 0.942749 0.000000
0.186676 0.942535 0.000000
0.297150 0.942261 0.000000
