Postproduction/IWLTBAP - Humble/LUTs by IWLTBAP (CUBE)/UTILITY/BMDFilm BMPCC to Rec.709/U-BMDFILM-BMPCC-V1-LTR.cube
# Copyright: (C) Copyright 2010-2018 by IWLTBAP SAS
# Cannot be resold, shared or otherwise redistributed
# Website: https://luts.iwltbap.com
TITLE "BMDFilm BMPCC Version 1 (Utility LOG to Rec.709)"
LUT_3D_SIZE 32
0.000000 0.000000 0.000000
0.000000 0.000000 0.000000
0.009644 0.000000 0.000000
0.063721 0.000000 0.000000
0.116699 0.000000 0.000000
0.162598 0.000000 0.000000
0.204926 0.000000 0.000000
0.245575 0.000000 0.000000
0.286041 0.000000 0.000000
0.326904 0.000000 0.000000
0.368469 0.000000 0.000000
0.410919 0.000000 0.000000
0.454987 0.000000 0.000000
0.500671 0.000000 0.000000
0.548523 0.000000 0.000000
0.598145 0.000000 0.000000
0.650452 0.000000 0.000000
0.705505 0.000000 0.000000
0.754089 0.000000 0.000000
0.793304 0.000000 0.000000
0.826996 0.000000 0.000000
0.856598 0.000000 0.000000
0.883545 0.000000 0.000000
0.908508 0.000000 0.000000
0.931763 0.000000 0.000000
0.953796 0.000000 0.000000
0.974884 0.000000 0.000000
0.993256 0.000000 0.000000
0.995392 0.000000 0.000000
0.995392 0.000000 0.000000
0.995392 0.000000 0.000000
0.995392 0.000000 0.000000
0.000000 0.000000 0.000000
0.000000 0.000000 0.000000
0.008453 0.000000 0.000000
0.062225 0.000000 0.000000
0.115631 0.000000 0.000000
0.161743 0.000000 0.000000
0.204193 0.000000 0.000000
0.244904 0.000000 0.000000
0.285522 0.000000 0.000000
0.326385 0.000000 0.000000
0.367767 0.000000 0.000000
0.410492 0.000000 0.000000
0.454590 0.000000 0.000000
0.500305 0.000000 0.000000
0.548187 0.000000 0.000000
0.597870 0.000000 0.000000
0.650208 0.000000 0.000000
0.705292 0.000000 0.000000
0.753876 0.000000 0.000000
0.793182 0.000000 0.000000
0.826904 0.000000 0.000000
0.856537 0.000000 0.000000
0.883484 0.000000 0.000000
0.908478 0.000000 0.000000
0.931671 0.000000 0.000000
0.953766 0.000000 0.000000
0.974854 0.000000 0.000000
0.993256 0.000000 0.000000
0.995392 0.000000 0.000000
0.995392 0.000000 0.000000
0.995392 0.000000 0.000000
0.995392 0.000000 0.000000
0.000000 0.000000 0.000000
0.000000 0.000000 0.000000
0.002380 0.000000 0.000000
0.054657 0.000000 0.000000
0.109406 0.000000 0.000000
0.156769 0.000000 0.000000
0.200012 0.000000 0.000000
0.241455 0.000000 0.000000
0.282471 0.000000 0.000000
0.323456 0.000000 0.000000
0.365356 0.000000 0.000000
0.408264 0.000000 0.000000
0.452545 0.000000 0.000000
0.498444 0.000000 0.000000
0.546204 0.000000 0.000000
0.596283 0.000000 0.000000
0.648712 0.000000 0.000000
0.703613 0.000000 0.000000
0.752869 0.000000 0.000000
0.792480 0.000000 0.000000
0.826385 0.000000 0.000000
0.856110 0.000000 0.000000
0.883148 0.000000 0.000000
0.908173 0.000000 0.000000
0.931427 0.000000 0.000000
0.953552 0.000000 0.000000
0.974701 0.000000 0.000000
0.993225 0.000000 0.000000
0.995392 0.000000 0.000000
0.995392 0.000000 0.000000
0.995392 0.000000 0.000000
0.995392 0.000000 0.000000
0.000000 0.030212 0.000000
0.000000 0.029785 0.000000
0.000000 0.027344 0.000000
0.046936 0.025085 0.000000
0.102905 0.022614 0.000000
0.151764 0.020111 0.000000
0.195709 0.017090 0.000000
0.237732 0.013794 0.000000
0.279144 0.010315 0.000000
0.320679 0.006378 0.000000
0.362854 0.002258 0.000000
0.406036 0.000000 0.000000
0.450531 0.000000 0.000000
0.496582 0.000000 0.000000
0.544464 0.000000 0.000000
0.594666 0.000000 0.000000
0.647217 0.000000 0.000000
0.702240 0.000000 0.000000
0.751801 0.000000 0.000000
0.791504 0.000000 0.000000
0.825836 0.000000 0.000000
0.855713 0.000000 0.000000
0.882812 0.000000 0.000000
0.907898 0.000000 0.000000
0.931213 0.000000 0.000000
0.953369 0.000000 0.000000
0.974579 0.000000 0.000000
0.993225 0.000000 0.000000
0.995392 0.000000 0.000000
0.995392 0.000000 0.000000
0.995392 0.000000 0.000000
0.995392 0.000000 0.000000
0.000000 0.071381 0.000000
0.000000 0.070953 0.000000
0.000000 0.068359 0.000000
0.039368 0.065948 0.000000
0.096069 0.063324 0.000000
0.146637 0.060577 0.000000
0.191315 0.057251 0.000000
0.234161 0.053772 0.000000
0.275970 0.049652 0.000000
0.317657 0.045013 0.000000
0.360107 0.039795 0.000000
0.403503 0.033997 0.000000
0.448181 0.027405 0.000000
0.494415 0.020355 0.000000
0.542694 0.012512 0.000000
0.593018 0.004272 0.000000
0.645691 0.000000 0.000000
0.700836 0.000000 0.000000
0.750488 0.000000 0.000000
0.790802 0.000000 0.000000
0.825012 0.000000 0.000000
0.855255 0.000000 0.000000
0.882446 0.000000 0.000000
0.907532 0.000000 0.000000
0.930969 0.000000 0.000000
0.953156 0.000000 0.000000
0.974365 0.000000 0.000000
0.993195 0.000000 0.000000
0.995392 0.000000 0.000000
0.995392 0.000000 0.000000
0.995392 0.000000 0.000000
0.995392 0.000000 0.000000
0.000000 0.114746 0.000000
0.000000 0.114380 0.000000
0.000000 0.112457 0.000000
0.030701 0.110291 0.000000
0.087646 0.108276 0.000000
0.140381 0.105713 0.000000
0.186401 0.103058 0.000000
0.229797 0.099762 0.000000
0.272156 0.096222 0.000000
0.314453 0.091888 0.000000
0.357239 0.086853 0.000000
0.400909 0.080933 0.000000
0.445801 0.073853 0.000000
0.492188 0.066315 0.000000
0.540680 0.057587 0.000000
0.590912 0.047882 0.000000
0.643738 0.037018 0.000000
0.699219 0.025085 0.000000
0.749268 0.012146 0.000000
0.789978 0.000000 0.000000
0.824402 0.000000 0.000000
0.854767 0.000000 0.000000
0.882050 0.000000 0.000000
0.907043 0.000000 0.000000
0.930725 0.000000 0.000000
0.952911 0.000000 0.000000
0.974213 0.000000 0.000000
0.993195 0.000000 0.000000
0.995392 0.000000 0.000000
0.995392 0.000000 0.000000
0.995392 0.000000 0.000000
0.995392 0.000000 0.000000
0.000000 0.153168 0.000000
0.000000 0.152893 0.000000
0.000000 0.151062 0.000000
0.021332 0.149475 0.000000
0.077606 0.147858 0.000000
0.133209 0.145752 0.000000
0.180664 0.143616 0.000000
0.224884 0.141205 0.000000
0.267853 0.138153 0.000000
0.310608 0.134949 0.000000
0.353729 0.131012 0.000000
0.397675 0.126495 0.000000
0.442871 0.121277 0.000000
0.489777 0.115204 0.000000
0.538177 0.108124 0.000000
0.588837 0.099518 0.000000
0.641785 0.089172 0.000000
0.697174 0.076874 0.000000
0.747925 0.062714 0.000000
0.789032 0.046936 0.000000
0.823700 0.029358 0.000000
0.854187 0.010590 0.000000
0.881622 0.000000 0.000000
0.906647 0.000000 0.000000
0.930420 0.000000 0.000000
0.952667 0.000000 0.000000
0.973969 0.000000 0.000000
0.993164 0.000000 0.000000
0.995392 0.000000 0.000000
0.995392 0.000000 0.000000
0.995392 0.000000 0.000000
0.995392 0.000000 0.000000
0.000000 0.189514 0.000000
0.000000 0.189270 0.000000
0.000000 0.187897 0.000000
0.011230 0.186523 0.000000
0.066284 0.184937 0.000000
0.124908 0.183350 0.000000
0.173859 0.181549 0.000000
0.219269 0.179291 0.000000
0.262939 0.176941 0.000000
0.306366 0.174011 0.000000
0.350037 0.170959 0.000000
0.394348 0.167175 0.000000
0.439789 0.162903 0.000000
0.486694 0.158173 0.000000
0.535583 0.152496 0.000000
0.586456 0.145691 0.000000
0.639587 0.137970 0.000000
0.695160 0.128693 0.000000
0.746399 0.117676 0.000000
0.787964 0.104370 0.000000
0.822876 0.087616 0.000000
0.853607 0.067505 0.000000
0.881104 0.044891 0.000000
0.906250 0.019775 0.000000
0.930054 0.000000 0.000000
0.952362 0.000000 0.000000
0.973724 0.000000 0.000000
0.993134 0.000000 0.000000
0.995392 0.000000 0.000000
0.995392 0.000000 0.000000
0.995392 0.000000 0.000000
0.995392 0.000000 0.000000
0.000000 0.225189 0.000000
0.000000 0.224945 0.000000
0.000000 0.223785 0.000000
0.000946 0.222595 0.000000
0.053680 0.221130 0.000000
0.114777 0.219757 0.000000
0.166107 0.218170 0.000000
0.212769 0.216400 0.000000
0.257385 0.214172 0.000000
0.301483 0.211853 0.000000
0.345551 0.208984 0.000000
0.390259 0.205933 0.000000
0.436066 0.202240 0.000000
0.483521 0.198151 0.000000
0.532410 0.193420 0.000000
0.583496 0.187866 0.000000
0.636841 0.181488 0.000000
0.692810 0.173889 0.000000
0.744354 0.165253 0.000000
0.786774 0.154877 0.000000
0.821991 0.142548 0.000000
0.852692 0.127441 0.000000
0.880554 0.108795 0.000000
0.905762 0.084595 0.000000
0.929657 0.055939 0.000000
0.952026 0.023804 0.000000
0.973450 0.000000 0.000000
0.993103 0.000000 0.000000
0.995392 0.000000 0.000000
0.995392 0.000000 0.000000
0.995392 0.000000 0.000000
0.995392 0.000000 0.000000
0.000000 0.260834 0.000000
0.000000 0.260651 0.000000
0.000000 0.259583 0.000000
0.000000 0.258514 0.000000
0.039459 0.257202 0.000000
0.102661 0.255981 0.000000
0.156799 0.254608 0.000000
0.205261 0.253052 0.000000
0.250854 0.251007 0.000000
0.295776 0.248993 0.000000
0.340424 0.246643 0.000000
0.385651 0.243744 0.000000
0.432098 0.240723 0.000000
0.479645 0.237000 0.000000
0.529083 0.232788 0.000000
0.580444 0.228210 0.000000
0.634003 0.222687 0.000000
0.689941 0.216370 0.000000
0.742371 0.208862 0.000000
0.785309 0.200378 0.000000
0.820953 0.190247 0.000000
0.851776 0.178284 0.000000
0.879608 0.164124 0.000000
0.905212 0.146729 0.000000
0.929230 0.124908 0.000000
0.951660 0.096161 0.000000
0.973145 0.060242 0.000000
0.993042 0.019592 0.000000
0.995392 0.000000 0.000000
0.995392 0.000000 0.000000
0.995392 0.000000 0.000000
0.995392 0.000000 0.000000
0.000000 0.296936 0.000000
0.000000 0.296753 0.000000
0.000000 0.295807 0.000000
0.000000 0.294861 0.000000
0.023834 0.293671 0.000000
0.087555 0.292542 0.000000
0.145935 0.291321 0.000000
0.196289 0.289917 0.000000
0.243408 0.288330 0.000000
0.289246 0.286255 0.000000
0.334595 0.284210 0.000000
0.380402 0.281647 0.000000
0.427277 0.278870 0.000000
0.475250 0.275574 0.000000
0.525024 0.272064 0.000000
0.576691 0.267792 0.000000
0.630524 0.262939 0.000000
0.686981 0.257446 0.000000
0.740082 0.251007 0.000000
0.783539 0.243652 0.000000
0.819763 0.235168 0.000000
0.850861 0.225067 0.000000
0.878876 0.213257 0.000000
0.904633 0.199310 0.000000
0.928711 0.182404 0.000000
0.951263 0.161621 0.000000
0.972778 0.135529 0.000000
0.993011 0.099884 0.000000
0.995392 0.054810 0.000000
0.995392 0.004608 0.000000
0.995392 0.000000 0.000000
0.995392 0.000000 0.000000
0.000000 0.333862 0.000000
0.000000 0.333710 0.000000
0.000000 0.332825 0.000000
0.000000 0.331970 0.000000
0.007294 0.330994 0.000000
0.069275 0.329834 0.000000
0.132782 0.328735 0.000000
0.185822 0.327484 0.000000
0.234772 0.326019 0.000000
0.281494 0.324127 0.000000
0.327972 0.322266 0.000000
0.374634 0.320129 0.000000
0.421875 0.317474 0.000000
0.470551 0.314728 0.000000
0.520447 0.311310 0.000000
0.572510 0.307739 0.000000
0.626862 0.303375 0.000000
0.683319 0.298401 0.000000
0.737183 0.292725 0.000000
0.781769 0.286255 0.000000
0.818115 0.278778 0.000000
0.849792 0.270203 0.000000
0.877991 0.260010 0.000000
0.903931 0.248108 0.000000
0.928131 0.234161 0.000000
0.950775 0.217377 0.000000
0.972382 0.196930 0.000000
0.992950 0.171814 0.000000
0.995392 0.139130 0.000000
0.995392 0.093262 0.000000
0.995392 0.036194 0.000000
0.995392 0.000000 0.000000
0.000000 0.371857 0.000000
0.000000 0.371704 0.000000
0.000000 0.370911 0.000000
0.000000 0.370148 0.000000
0.000000 0.369324 0.000000
0.048615 0.368408 0.000000
0.116608 0.367157 0.000000
0.173492 0.365997 0.000000
0.224487 0.364685 0.000000
0.272827 0.363159 0.000000
0.320282 0.361237 0.000000
0.367554 0.359314 0.000000
0.415680 0.357147 0.000000
0.464874 0.354401 0.000000
0.515533 0.351562 0.000000
0.567932 0.348053 0.000000
0.622437 0.344330 0.000000
0.679474 0.339844 0.000000
0.734192 0.334717 0.000000
0.779663 0.328918 0.000000
0.816559 0.322266 0.000000
0.848572 0.314636 0.000000
0.877045 0.305603 0.000000
0.903137 0.295441 0.000000
0.927246 0.283325 0.000000
0.950226 0.268951 0.000000
0.971893 0.252258 0.000000
0.992737 0.231812 0.000000
0.995392 0.206970 0.000000
0.995392 0.175598 0.000000
0.995392 0.133118 0.000000
0.995392 0.071838 0.000000
0.000000 0.411163 0.000000
0.000000 0.411041 0.000000
0.000000 0.410309 0.000000
0.000000 0.409576 0.000000
0.000000 0.408844 0.000000
0.025665 0.408020 0.000000
0.096313 0.407104 0.000000
0.158813 0.405975 0.000000
0.212463 0.404541 0.000000
0.262543 0.403229 0.000000
0.311249 0.401642 0.000000
0.359711 0.399872 0.000000
0.408600 0.397644 0.000000
0.458466 0.395386 0.000000
0.509674 0.392548 0.000000
0.562531 0.389587 0.000000
0.617432 0.385956 0.000000
0.674805 0.382141 0.000000
0.730530 0.377472 0.000000
0.776978 0.372192 0.000000
0.814819 0.366211 0.000000
0.847198 0.359314 0.000000
0.875946 0.351471 0.000000
0.902222 0.342163 0.000000
0.926483 0.331696 0.000000
0.949615 0.319305 0.000000
0.971344 0.304596 0.000000
0.992279 0.287323 0.000000
0.995361 0.266876 0.000000
0.995392 0.241882 0.000000
0.995392 0.210785 0.000000
0.995392 0.170135 0.000000
0.000000 0.452240 0.000000
0.000000 0.452148 0.000000
0.000000 0.451447 0.000000
0.000000 0.450806 0.000000
0.000000 0.449860 0.000000
0.002380 0.449127 0.000000
0.070557 0.448273 0.000000
0.140656 0.447266 0.000000
0.198151 0.446167 0.000000
0.250549 0.444916 0.000000
0.301086 0.443237 0.000000
0.350708 0.441650 0.000000
0.400543 0.439789 0.000000
0.451111 0.437714 0.000000
0.502960 0.435120 0.000000
0.556366 0.432404 0.000000
0.611725 0.429077 0.000000
0.669556 0.425537 0.000000
0.726532 0.421326 0.000000
0.774261 0.416504 0.000000
0.812744 0.411041 0.000000
0.845367 0.404755 0.000000
0.874695 0.397644 0.000000
0.901215 0.389496 0.000000
0.925629 0.379883 0.000000
0.948883 0.369049 0.000000
0.970764 0.356262 0.000000
0.991760 0.341125 0.000000
0.995300 0.323456 0.000000
0.995392 0.302490 0.000000
0.995392 0.277130 0.000000
0.995392 0.245636 0.000000
0.000000 0.495026 0.000000
0.000000 0.494751 0.000000
0.000000 0.494110 0.000000
0.000000 0.493500 0.000000
0.000000 0.492889 0.000000
0.000000 0.492157 0.000000
0.040924 0.491364 0.000000
0.117493 0.490479 0.000000
0.181000 0.489441 0.000000
0.236511 0.488068 0.000000
0.288940 0.486725 0.000000
0.340027 0.485260 0.000000
0.390961 0.483551 0.000000
0.442474 0.481354 0.000000
0.495300 0.479187 0.000000
0.549377 0.476746 0.000000
0.605316 0.473663 0.000000
0.663605 0.470459 0.000000
0.721710 0.466522 0.000000
0.770782 0.462128 0.000000
0.810120 0.457336 0.000000
0.843506 0.451630 0.000000
0.873138 0.445129 0.000000
0.899780 0.437744 0.000000
0.924652 0.428986 0.000000
0.947815 0.419220 0.000000
0.970123 0.407776 0.000000
0.991211 0.394501 0.000000
0.995270 0.378845 0.000000
0.995392 0.360565 0.000000
0.995392 0.338989 0.000000
0.995392 0.312988 0.000000
0.000000 0.539673 0.000000
0.000000 0.539551 0.000000
0.000000 0.538971 0.000000
0.000000 0.538422 0.000000
0.000000 0.537842 0.000000
0.000000 0.537170 0.000000
0.009033 0.536469 0.000000
0.087372 0.535614 0.000000
0.159698 0.534668 0.000000
0.219543 0.533356 0.000000
0.274597 0.532166 0.000000
0.327667 0.530762 0.000000
0.379974 0.529205 0.000000
0.432800 0.527435 0.000000
0.486298 0.525146 0.000000
0.541351 0.522888 0.000000
0.597961 0.520050 0.000000
0.656830 0.517090 0.000000
0.716156 0.513458 0.000000
0.766998 0.509644 0.000000
0.807404 0.505005 0.000000
0.841461 0.499756 0.000000
0.871307 0.493805 0.000000
0.898438 0.487030 0.000000
0.923553 0.479248 0.000000
0.946869 0.470428 0.000000
0.969269 0.460022 0.000000
0.990540 0.448059 0.000000
0.995178 0.434235 0.000000
0.995392 0.417999 0.000000
0.995392 0.399017 0.000000
0.995392 0.376709 0.000000
0.000000 0.586823 0.000000
0.000000 0.586731 0.000000
0.000000 0.586182 0.000000
0.000000 0.585419 0.000000
0.000000 0.584869 0.000000
0.000000 0.584259 0.000000
0.000000 0.583588 0.000000
0.049988 0.582825 0.000000
0.132660 0.581940 0.000000
0.199188 0.580933 0.000000
0.257874 0.579834 0.000000
0.313293 0.578278 0.000000
0.367279 0.576843 0.000000
0.421448 0.575195 0.000000
0.476257 0.573334 0.000000
0.531982 0.570984 0.000000
0.589600 0.568604 0.000000
0.649139 0.565582 0.000000
0.710846 0.562531 0.000000
0.762390 0.558716 0.000000
0.803986 0.554688 0.000000
0.838806 0.549835 0.000000
0.869385 0.544373 0.000000
0.896912 0.538116 0.000000
0.922272 0.531006 0.000000
0.945831 0.522919 0.000000
0.968201 0.513397 0.000000
0.989624 0.502747 0.000000
0.995117 0.490265 0.000000
0.995392 0.475708 0.000000
0.995392 0.458923 0.000000
0.995392 0.439178 0.000000
0.000000 0.636047 0.000000
0.000000 0.635986 0.000000
0.000000 0.635468 0.000000
0.000000 0.634979 0.000000
0.000000 0.634491 0.000000
0.000000 0.633911 0.000000
0.000000 0.633301 0.000000
0.008972 0.632599 0.000000
0.096313 0.631592 0.000000
0.173615 0.630585 0.000000
0.237488 0.629547 0.000000
0.296143 0.628357 0.000000
0.352539 0.627014 0.000000
0.408325 0.625488 0.000000
0.464447 0.623535 0.000000
0.521515 0.621552 0.000000
0.580048 0.619324 0.000000
0.640381 0.616547 0.000000
0.702881 0.613678 0.000000
0.757782 0.610168 0.000000
0.800293 0.606445 0.000000
0.835999 0.601959 0.000000
0.867218 0.596863 0.000000
0.895142 0.591095 0.000000
0.920624 0.584595 0.000000
0.944641 0.577148 0.000000
0.967163 0.568634 0.000000
0.988678 0.558624 0.000000
0.995056 0.547516 0.000000
0.995392 0.534454 0.000000
0.995392 0.519073 0.000000
0.995392 0.501465 0.000000
0.000000 0.688080 0.000000
0.000000 0.688019 0.000000
0.000000 0.687561 0.000000
0.000000 0.687103 0.000000
0.000000 0.686646 0.000000
0.000000 0.686096 0.000000
0.000000 0.685547 0.000000
0.000000 0.684692 0.000000
0.049652 0.683838 0.000000
0.140900 0.682983 0.000000
0.212708 0.682007 0.000000
0.275635 0.680908 0.000000
0.335022 0.679657 0.000000
0.392883 0.678040 0.000000
0.450836 0.676361 0.000000
0.509186 0.674530 0.000000
0.568817 0.672485 0.000000
0.630066 0.669891 0.000000
0.693634 0.667236 0.000000
0.751007 0.663940 0.000000
0.795776 0.660492 0.000000
0.832764 0.656342 0.000000
0.864471 0.651855 0.000000
0.892883 0.646515 0.000000
0.918945 0.640503 0.000000
0.943268 0.633636 0.000000
0.966034 0.625793 0.000000
0.987701 0.616608 0.000000
0.994995 0.606384 0.000000
0.995392 0.594421 0.000000
0.995392 0.580688 0.000000
0.995392 0.564636 0.000000
0.000000 0.737549 0.000000
0.000000 0.737488 0.000000
0.000000 0.737152 0.000000
0.000000 0.736786 0.000000
0.000000 0.736420 0.000000
0.000000 0.736023 0.000000
0.000000 0.735535 0.000000
0.000000 0.735046 0.000000
0.003021 0.734467 0.000000
0.094818 0.733765 0.000000
0.181488 0.733002 0.000000
0.250916 0.732147 0.000000
0.314362 0.730896 0.000000
0.375122 0.729797 0.000000
0.434814 0.728546 0.000000
0.494812 0.727112 0.000000
0.555969 0.725403 0.000000
0.618286 0.723297 0.000000
0.682831 0.721161 0.000000
0.743073 0.720459 0.000000
0.790436 0.717133 0.000000
0.828766 0.713501 0.000000
0.861542 0.709106 0.000000
0.890533 0.704132 0.000000
0.917053 0.698822 0.000000
0.941589 0.692413 0.000000
0.964722 0.685181 0.000000
0.986603 0.676697 0.000000
0.994873 0.667267 0.000000
0.995392 0.656281 0.000000
0.995392 0.643707 0.000000
0.995392 0.629303 0.000000
0.000000 0.779358 0.000000
0.000000 0.779327 0.000000
0.000000 0.779083 0.000000
0.000000 0.778839 0.000000
0.000000 0.778534 0.000000
0.000000 0.778015 0.000000
0.000000 0.777679 0.000000
0.000000 0.777313 0.000000
0.000000 0.776886 0.000000
0.036133 0.776428 0.000000
0.139465 0.775879 0.000000
0.220215 0.775238 0.000000
0.289368 0.774536 0.000000
0.353668 0.773743 0.000000
0.416199 0.772827 0.000000
0.478333 0.771606 0.000000
0.541138 0.770355 0.000000
0.604828 0.769012 0.000000
0.670471 0.767456 0.000000
0.733765 0.765656 0.000000
0.784149 0.764282 0.000000
0.824127 0.761749 0.000000
0.857910 0.758789 0.000000
0.887848 0.755127 0.000000
0.914856 0.750946 0.000000
0.939667 0.746429 0.000000
0.963196 0.740936 0.000000
0.985321 0.734558 0.000000
0.994781 0.727173 0.000000
0.995392 0.720642 0.000000
0.995392 0.709045 0.000000
0.995392 0.695831 0.000000
0.000000 0.814117 0.000000
0.000000 0.814087 0.000000
0.000000 0.813873 0.000000
0.000000 0.813660 0.000000
0.000000 0.813477 0.000000
0.000000 0.813293 0.000000
0.000000 0.813019 0.000000
0.000000 0.812744 0.000000
0.000000 0.812439 0.000000
0.000000 0.811890 0.000000
0.079468 0.811401 0.000000
0.180420 0.810913 0.000000
0.258667 0.810394 0.000000
0.328156 0.809784 0.000000
0.394287 0.809082 0.000000
0.458984 0.808319 0.000000
0.523743 0.807434 0.000000
0.589294 0.806427 0.000000
0.656342 0.805023 0.000000
0.722534 0.803680 0.000000
0.776642 0.802185 0.000000
0.818634 0.800415 0.000000
0.853973 0.798218 0.000000
0.884491 0.795898 0.000000
0.912109 0.793213 0.000000
0.937561 0.789886 0.000000
0.961212 0.786255 0.000000
0.983887 0.781769 0.000000
0.994629 0.776489 0.000000
0.995392 0.771027 0.000000
0.995392 0.763519 0.000000
0.995392 0.754303 0.000000
0.000000 0.844391 0.000000
0.000000 0.844360 0.000000
0.000000 0.844238 0.000000
0.000000 0.844055 0.000000
0.000000 0.843903 0.000000
0.000000 0.843719 0.000000
0.000000 0.843567 0.000000
0.000000 0.843323 0.000000
0.000000 0.843109 0.000000
0.000000 0.842804 0.000000
0.013031 0.842438 0.000000
0.123627 0.842102 0.000000
0.219543 0.841705 0.000000
0.297028 0.841217 0.000000
0.367798 0.840698 0.000000
0.436066 0.840057 0.000000
0.503571 0.839355 0.000000
0.571136 0.838318 0.000000
0.640076 0.837433 0.000000
0.710419 0.836426 0.000000
0.767792 0.835266 0.000000
0.812469 0.833923 0.000000
0.849030 0.832153 0.000000
0.880859 0.830383 0.000000
0.909180 0.828369 0.000000
0.935211 0.826050 0.000000
0.959229 0.823090 0.000000
0.981995 0.819946 0.000000
0.994507 0.816040 0.000000
0.995392 0.811493 0.000000
0.995392 0.806458 0.000000
0.995392 0.800262 0.000000
0.000000 0.871796 0.000000
0.000000 0.871765 0.000000
0.000000 0.871643 0.000000
0.000000 0.871521 0.000000
0.000000 0.871399 0.000000
0.000000 0.871277 0.000000
0.000000 0.871124 0.000000
0.000000 0.870941 0.000000
0.000000 0.870728 0.000000
0.000000 0.870483 0.000000
0.000000 0.870270 0.000000
0.044128 0.869965 0.000000
0.166534 0.869629 0.000000
0.258057 0.869263 0.000000
0.335968 0.868835 0.000000
0.408936 0.868317 0.000000
0.479706 0.867798 0.000000
0.550049 0.867157 0.000000
0.621002 0.866272 0.000000
0.693359 0.865356 0.000000
0.756775 0.864471 0.000000
0.804504 0.863403 0.000000
0.843292 0.862183 0.000000
0.876312 0.860779 0.000000
0.905548 0.858948 0.000000
0.932190 0.857086 0.000000
0.956970 0.855042 0.000000
0.980042 0.852325 0.000000
0.994354 0.849518 0.000000
0.995392 0.846161 0.000000
0.995392 0.842224 0.000000
0.995392 0.837524 0.000000
0.000000 0.897125 0.000000
0.000000 0.897125 0.000000
0.000000 0.897003 0.000000
0.000000 0.896942 0.000000
0.000000 0.896820 0.000000
0.000000 0.896698 0.000000
0.000000 0.896576 0.000000
0.000000 0.896423 0.000000
0.000000 0.896271 0.000000
0.000000 0.896057 0.000000
0.000000 0.895844 0.000000
0.000000 0.895630 0.000000
0.085541 0.895355 0.000000
0.206451 0.895050 0.000000
0.296478 0.894684 0.000000
0.376129 0.894287 0.000000
0.451538 0.893707 0.000000
0.525116 0.893066 0.000000
0.598663 0.892517 0.000000
0.673309 0.891846 0.000000
0.742279 0.891052 0.000000
0.795227 0.890198 0.000000
0.836456 0.889221 0.000000
0.871094 0.888123 0.000000
0.901581 0.886658 0.000000
0.928986 0.885132 0.000000
0.954071 0.883423 0.000000
0.977875 0.881531 0.000000
0.994171 0.878998 0.000000
0.995392 0.876465 0.000000
0.995392 0.873505 0.000000
0.995392 0.869751 0.000000
0.000000 0.920624 0.000000
0.000000 0.920624 0.000000
0.000000 0.920502 0.000000
0.000000 0.920441 0.000000
0.000000 0.920349 0.000000
0.000000 0.920288 0.000000
0.000000 0.920135 0.000000
0.000000 0.920044 0.000000
0.000000 0.919922 0.000000
0.000000 0.919739 0.000000
0.000000 0.919556 0.000000
0.000000 0.919373 0.000000
0.009003 0.919128 0.000000
0.127991 0.918854 0.000000
0.245056 0.918610 0.000000
0.335449 0.918243 0.000000
0.417328 0.917877 0.000000
0.495758 0.917450 0.000000
0.572723 0.916992 0.000000
0.649841 0.916443 0.000000
0.724548 0.915802 0.000000
0.783600 0.915100 0.000000
0.828339 0.914185 0.000000
0.864868 0.913116 0.000000
0.896698 0.912048 0.000000
0.925018 0.910858 0.000000
0.951050 0.909515 0.000000
0.975067 0.907928 0.000000
0.993988 0.905853 0.000000
0.995392 0.903778 0.000000
0.995392 0.901398 0.000000
0.995392 0.898376 0.000000
0.000000 0.943146 0.000000
0.000000 0.943146 0.000000
0.000000 0.943085 0.000000
0.000000 0.942993 0.000000
0.000000 0.942932 0.000000
0.000000 0.942841 0.000000
0.000000 0.942749 0.000000
0.000000 0.942657 0.000000
0.000000 0.942535 0.000000
0.000000 0.942383 0.000000
0.000000 0.942261 0.000000
0.000000 0.942078 0.000000
0.000000 0.941895 0.000000
0.032684 0.941528 0.000000
0.171600 0.941193 0.000000
0.283722 0.940918 0.000000
