Postproduction/IWLTBAP - Humble/LUTs by IWLTBAP (CUBE)/UTILITY/BMDFilm BMPCC to Rec.709/U-BMDFILM-BMPCC-V2-LTR.cube
# Copyright: (C) Copyright 2010-2018 by IWLTBAP SAS
# Cannot be resold, shared or otherwise redistributed
# Website: https://luts.iwltbap.com
TITLE "BMDFilm BMPCC Version 2 (Utility LOG to Rec.709)"
LUT_3D_SIZE 5
DOMAIN_MIN 0.000000 0.000000 0.000000
DOMAIN_MAX 0.903226 0.903226 0.903226
0.000000 0.000000 0.000000
0.310852 0.000000 0.000000
0.598816 0.000000 0.000000
0.875092 0.000000 0.000000
0.996094 0.000000 0.000000
0.000000 0.254333 0.000000
0.284485 0.243927 0.000000
0.586945 0.216034 0.000000
0.872345 0.124268 0.000000
0.996094 0.000000 0.000000
0.000000 0.509613 0.000000
0.203613 0.505005 0.000000
0.556793 0.493622 0.000000
0.865295 0.465057 0.000000
0.996002 0.387238 0.000000
0.000000 0.806854 0.000000
0.000000 0.805206 0.000000
0.475800 0.801056 0.000000
0.846558 0.791321 0.000000
0.995544 0.760468 0.000000
0.000000 0.969147 0.000000
0.000000 0.968781 0.000000
0.110474 0.967865 0.000000
0.781128 0.965637 0.000000
0.993530 0.960175 0.000000
0.000000 0.000000 0.302582
0.259277 0.000000 0.289490
0.576447 0.000000 0.254150
0.869873 0.000000 0.130707
0.996094 0.000000 0.000000
0.000000 0.237488 0.241180
0.226074 0.226196 0.223969
0.564026 0.195465 0.173798
0.866974 0.092438 0.011414
0.996063 0.000000 0.000000
0.000000 0.502258 0.000122
0.106201 0.497559 0.000000
0.532349 0.485962 0.000000
0.859589 0.456848 0.000000
0.995850 0.376984 0.000000
0.000000 0.804199 0.000000
0.000000 0.802490 0.000000
0.446045 0.798248 0.000000
0.839752 0.787994 0.000000
0.995392 0.756561 0.000000
0.000000 0.968567 0.000000
0.000000 0.968170 0.000000
0.053436 0.967255 0.000000
0.768463 0.965027 0.000000
0.991760 0.959534 0.000000
0.000000 0.000000 0.585541
0.040253 0.000000 0.579559
0.517273 0.000000 0.564697
0.856049 0.000000 0.527222
0.995758 0.000000 0.422211
0.000000 0.189117 0.559540
0.001556 0.174286 0.553192
0.503113 0.130737 0.537476
0.852753 0.017975 0.497559
0.995697 0.000000 0.382812
0.000000 0.483795 0.489410
0.000000 0.478882 0.481995
0.466553 0.466736 0.463379
0.844269 0.436127 0.415070
0.995483 0.350677 0.258179
0.000000 0.797455 0.226379
0.000000 0.795654 0.206970
0.361725 0.791870 0.154968
0.821167 0.779755 0.025269
0.994965 0.747833 0.000000
0.000000 0.967072 0.000000
0.000000 0.966705 0.000000
0.000000 0.965759 0.000000
0.733582 0.963501 0.000000
0.987396 0.957916 0.000000
0.000000 0.000000 0.866608
0.000000 0.000000 0.865143
0.325562 0.000000 0.861481
0.814056 0.000000 0.852295
0.994843 0.000000 0.826477
0.000000 0.019714 0.860229
0.000000 0.007874 0.858673
0.300293 0.000000 0.854767
0.809174 0.000000 0.844971
0.994751 0.000000 0.817108
0.000000 0.436035 0.842896
0.000000 0.430511 0.841095
0.223816 0.416687 0.836517
0.796326 0.381287 0.824860
0.994537 0.275665 0.790710
0.000000 0.779785 0.786438
0.000000 0.777588 0.783203
0.000000 0.772156 0.775085
0.758270 0.758514 0.755920
0.990234 0.720398 0.692169
0.000000 0.963501 0.478699
0.000000 0.963104 0.470978
0.000000 0.962128 0.451477
0.624603 0.959778 0.400391
0.976196 0.954010 0.231171
0.000000 0.000000 0.995697
0.000000 0.000000 0.995667
0.000000 0.000000 0.995575
0.593323 0.000000 0.995331
0.973297 0.000000 0.994751
0.000000 0.000000 0.995514
0.000000 0.000000 0.995483
0.000000 0.000000 0.995361
0.581268 0.000000 0.995117
0.972198 0.000000 0.994537
0.000000 0.285095 0.995056
0.000000 0.275848 0.995026
0.000000 0.251740 0.994904
0.550568 0.176575 0.994659
0.969391 0.000000 0.990631
0.000000 0.723541 0.989838
0.000000 0.720490 0.989349
0.000000 0.713043 0.988190
0.467957 0.694916 0.985352
0.962463 0.649353 0.978302
0.000000 0.954498 0.957764
0.000000 0.954041 0.957123
0.000000 0.953003 0.955566
0.155670 0.950439 0.951721
0.944061 0.944183 0.942078
