Postproduction/IWLTBAP - Humble/LUTs by IWLTBAP (CUBE)/UTILITY/BMDFilm BMPC to Rec.709/U-BMDFILM-BMPC-V1-LTR.cube
# Copyright: (C) Copyright 2010-2018 by IWLTBAP SAS
# Cannot be resold, shared or otherwise redistributed
# Website: https://luts.iwltbap.com
TITLE "BMDFilm BMPC Version 1 (Utility LOG to Rec.709)"
LUT_3D_SIZE 8
DOMAIN_MIN 0.000000 0.000000 0.000000
DOMAIN_MAX 0.903226 0.903226 0.903226
0.000000 0.000000 0.000000
0.164215 0.000000 0.000000
0.328400 0.000000 0.000000
0.488342 0.000000 0.000000
0.668030 0.000000 0.000000
0.810486 0.000000 0.000000
0.905304 0.000000 0.000000
0.971100 0.000000 0.000000
0.000122 0.124878 0.000183
0.145325 0.118561 0.000305
0.317993 0.106293 0.000000
0.479340 0.084259 0.000000
0.662476 0.048004 0.000000
0.809601 0.035950 0.000000
0.904877 0.035950 0.000000
0.971100 0.035950 0.000000
0.000000 0.276031 0.000336
0.106537 0.273285 0.000427
0.303223 0.268646 0.000000
0.468323 0.259857 0.000000
0.646881 0.241425 0.000000
0.798553 0.202576 0.000000
0.896210 0.114838 0.000000
0.971100 0.071259 0.000000
0.000000 0.413055 0.000427
0.049469 0.411041 0.000427
0.277496 0.408722 0.000000
0.453857 0.404266 0.000000
0.637878 0.394623 0.000000
0.796661 0.376221 0.000000
0.894897 0.344177 0.000000
0.966888 0.283783 0.000000
0.000000 0.560150 0.000000
0.035950 0.558594 0.000061
0.220856 0.556519 0.000000
0.428162 0.555206 0.000000
0.623199 0.550049 0.000000
0.794006 0.538239 0.000000
0.895386 0.517731 0.000000
0.968292 0.485138 0.000000
0.000000 0.722412 0.000000
0.035950 0.721619 0.000000
0.083435 0.719208 0.000000
0.376190 0.720947 0.000000
0.595856 0.720947 0.000000
0.789246 0.716461 0.000000
0.896149 0.702087 0.000000
0.970612 0.677338 0.000000
0.000000 0.840820 0.000000
0.035950 0.840576 0.000000
0.071259 0.840149 0.000000
0.233337 0.840271 0.000000
0.541504 0.844330 0.000000
0.774200 0.844879 0.000000
0.893188 0.841187 0.000000
0.971313 0.834686 0.000000
0.000000 0.928711 0.000000
0.035950 0.928619 0.000000
0.071259 0.928406 0.000000
0.106384 0.928070 0.000000
0.421692 0.932098 0.000000
0.732422 0.936188 0.000000
0.883606 0.936035 0.000000
0.971130 0.934052 0.000000
0.000000 0.000000 0.158844
0.128082 0.000000 0.149506
0.313293 0.000000 0.131744
0.478912 0.000000 0.097198
0.661285 0.000000 0.043457
0.808624 0.000000 0.035950
0.904541 0.000000 0.035950
0.971100 0.000000 0.035950
0.000000 0.114349 0.117126
0.105927 0.107605 0.106445
0.303558 0.095520 0.086578
0.470673 0.073517 0.054443
0.657074 0.039703 0.035980
0.807770 0.035950 0.035950
0.904114 0.035950 0.035950
0.971100 0.035950 0.035950
0.000000 0.271362 0.043091
0.068756 0.268280 0.036346
0.287415 0.263947 0.035950
0.458710 0.254669 0.035950
0.640076 0.235748 0.035950
0.796631 0.194244 0.035950
0.895935 0.104736 0.035950
0.971100 0.071259 0.035950
0.000000 0.410004 0.036285
0.035950 0.408325 0.036285
0.259583 0.405640 0.035950
0.443970 0.401154 0.035950
0.631134 0.391632 0.035950
0.794464 0.372803 0.035950
0.893921 0.339996 0.035950
0.966766 0.277893 0.035950
0.000000 0.557922 0.036011
0.035950 0.556763 0.036011
0.190643 0.554016 0.035950
0.416992 0.552979 0.035950
0.616058 0.547821 0.035950
0.791840 0.536255 0.035950
0.894440 0.515442 0.035950
0.968201 0.482574 0.035950
0.000000 0.720947 0.035950
0.035950 0.720032 0.035950
0.071411 0.718445 0.035950
0.361755 0.719330 0.035950
0.588104 0.719391 0.035950
0.786713 0.714691 0.035950
0.895233 0.700317 0.035950
0.970581 0.675293 0.035950
0.000000 0.840424 0.035950
0.035950 0.840149 0.035950
0.071259 0.839722 0.035950
0.197968 0.839447 0.035950
0.532349 0.843842 0.035950
0.770905 0.844421 0.035950
0.892273 0.840759 0.035950
0.971313 0.834229 0.035950
0.000000 0.928528 0.035950
0.035950 0.928406 0.035950
0.071259 0.928192 0.035950
0.106384 0.927856 0.035950
0.405548 0.931458 0.035950
0.726562 0.935791 0.035950
0.882599 0.935852 0.035950
0.970978 0.933838 0.035950
0.000000 0.000000 0.321167
0.053894 0.000000 0.317383
0.282654 0.000000 0.309753
0.460388 0.000000 0.296234
0.648773 0.000000 0.270752
0.805176 0.000000 0.217834
0.903259 0.000000 0.087585
0.971100 0.000000 0.071259
0.000000 0.094543 0.302765
0.040985 0.088043 0.298767
0.271301 0.076080 0.291504
0.453003 0.054932 0.277252
0.644714 0.036011 0.249023
0.804260 0.035950 0.184143
0.902893 0.035950 0.071838
0.971100 0.035950 0.071259
0.000000 0.263428 0.269562
0.035950 0.260254 0.264526
0.250183 0.256653 0.257050
0.441254 0.247406 0.238953
0.630219 0.227173 0.201172
0.793671 0.178650 0.108185
0.895874 0.090851 0.071259
0.971100 0.071259 0.071259
0.000000 0.405090 0.192535
0.035950 0.403381 0.183441
0.216949 0.401031 0.165192
0.427948 0.397156 0.121826
0.621887 0.386780 0.080017
0.790802 0.366882 0.071259
0.892426 0.333130 0.071259
0.966583 0.266571 0.071259
0.000000 0.554474 0.071320
0.035950 0.553314 0.071320
0.129517 0.550049 0.071259
0.396637 0.549194 0.071259
0.603760 0.544342 0.071259
0.788086 0.532349 0.071259
0.893005 0.511444 0.071259
0.968079 0.477966 0.071259
0.000000 0.718811 0.071259
0.035950 0.718048 0.071259
0.071259 0.716644 0.071259
0.334747 0.716583 0.071259
0.574524 0.717010 0.071259
0.782166 0.712189 0.071259
0.893646 0.697784 0.071259
0.970520 0.672394 0.071259
0.000000 0.839752 0.071259
0.035950 0.839508 0.071259
0.071259 0.839081 0.071259
0.142273 0.838043 0.071259
0.516083 0.842834 0.071259
0.765259 0.843750 0.071259
0.890808 0.840027 0.071259
0.971313 0.833405 0.071259
0.000000 0.928192 0.071259
0.035950 0.928070 0.071259
0.071259 0.927826 0.071259
0.106384 0.927521 0.071259
0.372162 0.930542 0.071259
0.715576 0.935333 0.071259
0.880951 0.935516 0.071259
0.970642 0.933502 0.071259
0.000000 0.000000 0.478363
0.035950 0.000000 0.475922
0.213623 0.000000 0.471130
0.426056 0.000000 0.462830
0.626343 0.000000 0.447906
0.798676 0.000000 0.421600
0.900482 0.000000 0.375092
0.970886 0.000000 0.273956
0.000000 0.060364 0.465790
0.035950 0.054047 0.464111
0.198944 0.043732 0.459656
0.420349 0.036011 0.451508
0.622620 0.035950 0.436188
0.797699 0.035950 0.408508
0.900116 0.035950 0.358887
0.971008 0.035950 0.242279
0.000000 0.248474 0.442200
0.035950 0.244904 0.439789
0.155914 0.240540 0.436371
0.402771 0.231476 0.429169
0.606323 0.208313 0.414215
0.784912 0.147522 0.387512
0.894623 0.073029 0.331818
0.971008 0.071259 0.172363
0.000000 0.396942 0.406982
0.035950 0.395081 0.403931
0.101837 0.392181 0.400604
0.384003 0.390656 0.393402
0.599426 0.381104 0.375153
0.786102 0.361267 0.340851
0.890381 0.325684 0.270477
0.966003 0.246704 0.106384
0.000000 0.549103 0.335541
0.035950 0.547943 0.331238
0.071259 0.545593 0.323883
0.349335 0.547089 0.311310
0.586426 0.542633 0.274292
0.786041 0.530609 0.176422
0.892212 0.506775 0.107635
0.967865 0.470978 0.106384
0.000000 0.714813 0.111359
0.035950 0.714081 0.109253
0.071259 0.712830 0.106750
0.278503 0.711914 0.106384
0.552155 0.713928 0.106384
0.774780 0.708069 0.106384
0.891052 0.693512 0.106384
0.970490 0.668030 0.106384
0.000000 0.838684 0.106384
0.035950 0.838440 0.106384
0.071259 0.837982 0.106384
0.108032 0.836914 0.106384
0.487579 0.841156 0.106384
0.755035 0.842438 0.106384
0.888153 0.838928 0.106384
0.971313 0.832092 0.106384
0.000000 0.927673 0.106384
0.035950 0.927551 0.106384
0.071259 0.927338 0.106384
0.106384 0.926971 0.106384
0.306976 0.928833 0.106384
0.697021 0.934540 0.106384
0.878113 0.934998 0.106384
0.969666 0.932892 0.106384
0.000000 0.000000 0.654388
0.035950 0.000000 0.652771
0.071686 0.000000 0.649475
0.353699 0.000000 0.643890
0.584747 0.000000 0.633911
0.785889 0.000000 0.616089
0.895386 0.000000 0.588226
0.970398 0.000000 0.538666
0.000000 0.035980 0.646698
0.035950 0.035950 0.645050
0.071442 0.035950 0.641968
0.346436 0.035950 0.636292
0.581207 0.035950 0.626129
0.784668 0.035950 0.608032
0.894928 0.035950 0.579102
0.970490 0.035950 0.528015
0.000000 0.217316 0.619751
0.035950 0.212952 0.617981
0.071259 0.205261 0.615204
0.313171 0.196289 0.610870
0.562897 0.162018 0.601562
0.770172 0.091522 0.584930
0.893860 0.071289 0.563049
0.970490 0.071259 0.509613
0.000000 0.381592 0.596313
0.035950 0.379547 0.594238
0.071259 0.376068 0.591187
0.273254 0.375366 0.589722
0.552277 0.366455 0.580902
0.769806 0.345978 0.563416
0.883728 0.307404 0.534973
0.964142 0.210052 0.485504
0.000000 0.539825 0.556671
0.035950 0.538605 0.554657
0.071259 0.536255 0.551117
0.208130 0.537140 0.550323
0.532623 0.536072 0.540375
0.768372 0.525360 0.519073
0.887268 0.504028 0.483887
0.968994 0.466644 0.418182
0.000000 0.711365 0.478607
0.035950 0.710419 0.476013
0.071259 0.709045 0.470917
0.108887 0.707031 0.467682
0.493500 0.716095 0.451416
0.762695 0.712891 0.411560
0.889282 0.698669 0.340302
0.971252 0.671021 0.151001
0.000000 0.837250 0.198303
0.035950 0.837006 0.193146
0.071259 0.836334 0.186523
0.106384 0.835510 0.174316
0.436523 0.839722 0.141510
0.739685 0.840881 0.141388
0.883972 0.837158 0.141388
0.971313 0.829926 0.141388
0.000000 0.926819 0.141388
0.035950 0.926697 0.141388
0.071259 0.926483 0.141388
0.106384 0.926270 0.141388
0.167511 0.926270 0.141388
0.665192 0.933197 0.141388
0.873260 0.933960 0.141388
0.968109 0.931793 0.141388
0.000000 0.000000 0.803497
0.035950 0.000000 0.803040
0.071259 0.000000 0.802216
0.124786 0.000000 0.800598
0.500916 0.000000 0.797638
0.757507 0.000000 0.791931
0.885864 0.000000 0.781708
0.956146 0.000000 0.737213
0.000000 0.035950 0.801422
0.035950 0.035950 0.800873
0.071259 0.035950 0.799927
0.117737 0.035950 0.798462
0.495453 0.035950 0.795288
0.755554 0.035950 0.789337
0.885376 0.035950 0.778687
0.956177 0.035950 0.732849
0.000000 0.137299 0.784912
0.035950 0.129730 0.784882
0.071259 0.116974 0.784882
0.108551 0.101898 0.783203
0.481903 0.074341 0.783539
0.751770 0.071320 0.783936
0.884644 0.071259 0.773438
0.956635 0.071259 0.725616
0.000000 0.353027 0.773041
0.035950 0.350586 0.772400
0.071259 0.346619 0.771271
0.106537 0.341248 0.768524
0.453308 0.338165 0.766968
0.734985 0.312836 0.760864
0.872345 0.261444 0.748474
0.958771 0.121002 0.718750
0.000000 0.522278 0.757782
0.035950 0.520874 0.756744
0.071259 0.518433 0.755859
0.106384 0.514709 0.753387
0.401978 0.519958 0.753937
0.730530 0.509094 0.746826
0.875824 0.486969 0.732452
0.967255 0.447815 0.701233
0.000000 0.700531 0.724335
0.035950 0.699341 0.723206
0.071259 0.697754 0.720673
0.106384 0.695526 0.716919
0.293060 0.705139 0.719391
0.709747 0.705078 0.704834
0.876343 0.692261 0.681122
0.969849 0.667297 0.642639
0.000000 0.835480 0.639313
0.035950 0.835205 0.637573
0.071259 0.834747 0.634277
0.106384 0.833984 0.629089
0.160339 0.838287 0.628326
0.664368 0.847778 0.602448
0.872498 0.846283 0.563446
0.968018 0.839539 0.500214
0.000000 0.926849 0.403168
0.035950 0.926727 0.395599
0.071259 0.926453 0.383087
0.106384 0.926056 0.358093
0.141388 0.925323 0.315643
0.595856 0.935730 0.195496
0.865173 0.937195 0.176270
0.965424 0.930298 0.176270
0.000000 0.000000 0.900299
0.035950 0.000000 0.900085
0.071259 0.000000 0.899719
0.106384 0.000000 0.899200
0.254791 0.000000 0.897980
0.677551 0.000000 0.895294
0.868958 0.000000 0.890442
0.949219 0.000000 0.861328
0.000000 0.035950 0.899414
0.035950 0.035950 0.899200
0.071259 0.035950 0.898865
0.106384 0.035950 0.898254
0.235962 0.035950 0.897095
0.673706 0.035950 0.894318
0.868378 0.035950 0.889679
0.948914 0.035950 0.860046
0.000000 0.071259 0.897888
0.035950 0.071259 0.897644
0.071259 0.071259 0.897278
0.106384 0.071259 0.896576
0.204498 0.071259 0.895477
0.667267 0.071259 0.892914
0.867279 0.071259 0.887939
0.948395 0.071259 0.857819
0.000000 0.296753 0.879303
0.035950 0.293823 0.879059
0.071259 0.287842 0.878662
0.106384 0.278168 0.878143
0.185150 0.272491 0.875580
0.642670 0.233337 0.873932
0.849609 0.123688 0.867188
0.947632 0.106384 0.854034
0.000000 0.491547 0.873779
0.035950 0.490143 0.873474
0.071259 0.487274 0.873047
0.106384 0.483154 0.872253
0.141418 0.481995 0.871704
0.626495 0.476868 0.873962
0.856659 0.451202 0.870514
0.959259 0.405792 0.862915
0.000000 0.679474 0.865051
0.035950 0.678619 0.864563
0.071259 0.676727 0.864014
0.106384 0.674164 0.863220
0.141388 0.669647 0.861908
0.582733 0.684479 0.866180
0.855103 0.672546 0.862122
0.961792 0.646606 0.853821
0.000000 0.829559 0.846954
0.035950 0.829254 0.846558
0.071259 0.828705 0.845856
0.106384 0.827911 0.844849
0.141388 0.826691 0.842957
0.471954 0.842255 0.846497
0.846008 0.842773 0.840088
0.960907 0.835754 0.828369
0.000000 0.925537 0.802734
0.035950 0.925415 0.802063
0.071259 0.925171 0.800781
0.106384 0.924835 0.798462
0.141388 0.924316 0.795380
0.180084 0.935638 0.795685
0.824768 0.942444 0.775391
0.955078 0.940277 0.740906
0.000000 0.000000 0.971100
0.035950 0.000000 0.971100
0.071259 0.000000 0.971100
0.106384 0.000000 0.971100
0.141388 0.000000 0.971100
0.452972 0.000000 0.970551
0.811005 0.000000 0.955688
0.936615 0.000000 0.953979
0.000000 0.035950 0.971100
0.035950 0.035950 0.971100
0.071259 0.035950 0.971100
0.106384 0.035950 0.971100
0.141388 0.035950 0.971100
0.444305 0.035950 0.970551
0.809845 0.035950 0.955170
0.936218 0.035950 0.953491
0.000000 0.071259 0.971100
0.035950 0.071259 0.971100
0.071259 0.071259 0.971100
0.106384 0.071259 0.971100
0.141388 0.071259 0.971100
0.426910 0.071259 0.970612
0.807556 0.071259 0.954163
0.935638 0.071259 0.952637
0.000000 0.113770 0.966919
0.035950 0.109680 0.967255
0.071259 0.107758 0.967407
0.106384 0.107452 0.967896
0.141388 0.106934 0.969482
0.394928 0.106384 0.970581
0.804321 0.106384 0.953033
0.934692 0.106384 0.951050
0.000000 0.437500 0.959015
0.035950 0.435577 0.958954
0.071259 0.432434 0.958710
0.106384 0.427032 0.958496
0.141388 0.418488 0.958160
0.222382 0.416870 0.962250
0.812012 0.377960 0.963898
0.943115 0.301361 0.959686
0.000000 0.641998 0.957489
0.035950 0.640991 0.957336
0.071259 0.639130 0.957123
0.106384 0.636261 0.956757
0.141388 0.631836 0.956177
0.184662 0.641632 0.961182
0.805695 0.635437 0.962830
0.947205 0.607819 0.959686
0.000000 0.817352 0.951416
0.035950 0.816986 0.951263
0.071259 0.816406 0.951019
0.106384 0.815460 0.950500
0.141388 0.814026 0.949768
0.176270 0.818665 0.952209
0.778625 0.831970 0.955505
0.945648 0.825348 0.952026
0.000000 0.921112 0.937653
0.035950 0.920959 0.937469
0.071259 0.920715 0.937164
0.106384 0.920380 0.936340
0.141388 0.919586 0.935608
0.176270 0.918640 0.934387
0.695007 0.937836 0.939392
0.938232 0.936859 0.934692
