Postproduction/IWLTBAP - Humble/LUTs by IWLTBAP (CUBE)/UTILITY/BMDFilm BMPC to Rec.709/U-BMDFILM-BMPC-V2-LTR.cube
# Copyright: (C) Copyright 2010-2018 by IWLTBAP SAS
# Cannot be resold, shared or otherwise redistributed
# Website: https://luts.iwltbap.com
TITLE "BMDFilm BMPC Version 2 (Utility LOG to Rec.709)"
LUT_3D_SIZE 32
0.000000 0.000000 0.000000
0.000000 0.000000 0.000000
0.000000 0.000000 0.000000
0.000000 0.000000 0.000000
0.000000 0.000000 0.000000
0.013306 0.000000 0.000000
0.049683 0.000000 0.000000
0.094910 0.000000 0.000000
0.151245 0.000000 0.000000
0.220245 0.000000 0.016205
0.293701 0.000000 0.026245
0.361938 0.000000 0.031525
0.424927 0.000000 0.033539
0.481812 0.000000 0.030334
0.532227 0.000000 0.019012
0.583038 0.000000 0.004578
0.632660 0.000000 0.002716
0.674561 0.000000 0.014313
0.712067 0.000000 0.029877
0.746277 0.000000 0.046417
0.776978 0.002930 0.062653
0.803864 0.019501 0.078064
0.827332 0.033752 0.093048
0.848389 0.046875 0.106903
0.867310 0.058838 0.120056
0.884705 0.070282 0.132355
0.899933 0.080048 0.143280
0.912262 0.088013 0.151947
0.922211 0.094116 0.158905
0.930817 0.099213 0.164581
0.939270 0.104126 0.170227
0.940369 0.105042 0.170959
0.000000 0.000000 0.000000
0.000000 0.000000 0.000000
0.000000 0.000000 0.000000
0.000000 0.000000 0.000000
0.000000 0.000000 0.000000
0.010315 0.000000 0.000000
0.045715 0.000000 0.000000
0.092438 0.000000 0.000000
0.153107 0.000000 0.000000
0.221924 0.000000 0.014771
0.293121 0.000000 0.024841
0.359497 0.000000 0.030121
0.421295 0.000000 0.032501
0.478607 0.000000 0.030273
0.528320 0.000000 0.020233
0.577454 0.000000 0.005768
0.627625 0.000000 0.001892
0.670288 0.000000 0.013092
0.708435 0.000000 0.028412
0.743134 0.000000 0.044830
0.773987 0.000946 0.061157
0.801239 0.018097 0.076630
0.825226 0.032471 0.091492
0.846436 0.045319 0.105621
0.865601 0.057709 0.118835
0.882965 0.068878 0.131195
0.898529 0.079193 0.142273
0.911133 0.086975 0.151093
0.921234 0.093536 0.158264
0.930084 0.098785 0.164032
0.938446 0.103638 0.169708
0.940369 0.105042 0.170959
0.000000 0.000000 0.000000
0.000000 0.000000 0.000000
0.000000 0.000000 0.000000
0.000000 0.000000 0.000000
0.000000 0.000000 0.000000
0.021484 0.000000 0.000000
0.063263 0.000000 0.000000
0.118805 0.000000 0.000000
0.183411 0.000824 0.000488
0.253387 0.012177 0.013000
0.319702 0.018341 0.020111
0.381348 0.020355 0.024261
0.439911 0.018066 0.025208
0.495636 0.009460 0.022430
0.545807 0.000000 0.011810
0.586029 0.000000 0.000000
0.626343 0.000000 0.002411
0.669250 0.000000 0.012756
0.707245 0.000000 0.027893
0.741791 0.000000 0.044159
0.772583 0.000000 0.060059
0.799561 0.017242 0.075714
0.823639 0.031250 0.090485
0.845093 0.044586 0.104797
0.864075 0.056885 0.117920
0.881531 0.067993 0.130219
0.897156 0.078125 0.141205
0.909943 0.086365 0.150452
0.920441 0.093048 0.157684
0.929260 0.098297 0.163544
0.937408 0.103149 0.168884
0.940369 0.105042 0.170959
0.000000 0.000000 0.000000
0.000000 0.000000 0.000000
0.000000 0.000000 0.000000
0.000000 0.000000 0.000000
0.027527 0.000000 0.000000
0.062469 0.003052 0.000000
0.102570 0.013367 0.000000
0.153320 0.023987 0.000000
0.212555 0.033386 0.000000
0.275360 0.039886 0.008270
0.337006 0.043854 0.013519
0.394440 0.044403 0.016693
0.449707 0.041595 0.017242
0.504669 0.035004 0.013245
0.555664 0.023651 0.000061
0.599365 0.001221 0.000000
0.634888 0.000000 0.000610
0.668945 0.000000 0.013611
0.706116 0.000000 0.027405
0.740753 0.000000 0.043640
0.771149 0.000000 0.059387
0.798584 0.016632 0.075165
0.822540 0.030579 0.089752
0.843933 0.043854 0.103760
0.863007 0.055969 0.117126
0.880524 0.067322 0.129333
0.896332 0.077576 0.140564
0.909302 0.085999 0.149994
0.919830 0.092651 0.157043
0.928619 0.098022 0.163208
0.936951 0.102844 0.168610
0.940369 0.105042 0.170959
0.000000 0.000000 0.000000
0.000000 0.000000 0.000000
0.000000 0.005951 0.000000
0.000732 0.026520 0.000000
0.050690 0.045837 0.000000
0.100098 0.056549 0.000000
0.144714 0.059387 0.000000
0.192413 0.062653 0.000000
0.245178 0.067932 0.000000
0.299835 0.072327 0.000000
0.351685 0.073730 0.000000
0.402496 0.073120 0.004822
0.454681 0.070496 0.006226
0.507263 0.064667 0.000000
0.558868 0.055359 0.000000
0.607605 0.039764 0.000000
0.649475 0.013458 0.008270
0.682068 0.000000 0.020172
0.712830 0.000000 0.032318
0.743622 0.000000 0.045502
0.772400 0.005585 0.060425
0.797791 0.017334 0.075012
0.820068 0.029938 0.088623
0.841583 0.042877 0.102600
0.861176 0.054932 0.115845
0.878815 0.066376 0.128174
0.895233 0.076965 0.139893
0.908386 0.085419 0.149078
0.919098 0.092316 0.156647
0.928101 0.097717 0.162903
0.936707 0.102722 0.168427
0.940338 0.105011 0.170959
0.000000 0.049225 0.000000
0.000000 0.047638 0.000000
0.000000 0.055725 0.000000
0.013214 0.071228 0.000000
0.052734 0.089691 0.000000
0.108887 0.104065 0.000000
0.167725 0.110748 0.000000
0.220215 0.110291 0.000000
0.270844 0.107697 0.000000
0.319702 0.106140 0.000000
0.367401 0.105865 0.000000
0.414307 0.104828 0.000000
0.461639 0.101685 0.000000
0.510620 0.096680 0.000000
0.560303 0.088837 0.000000
0.608673 0.076508 0.000000
0.653290 0.059784 0.015717
0.692078 0.045105 0.028656
0.724274 0.042938 0.041779
0.752655 0.043762 0.054626
0.777863 0.045776 0.067261
0.800232 0.042877 0.079407
0.820129 0.044861 0.091064
0.838806 0.049347 0.102844
0.856171 0.057892 0.113739
0.872101 0.065918 0.123962
0.890411 0.077087 0.136810
0.904022 0.085754 0.146729
0.915649 0.092896 0.154877
0.925354 0.098969 0.161591
0.934937 0.104034 0.167816
0.938660 0.103699 0.169800
0.000000 0.102356 0.000000
0.000000 0.101318 0.000000
0.000000 0.106293 0.000000
0.016113 0.118500 0.000000
0.053711 0.132843 0.000000
0.096954 0.148315 0.000000
0.159363 0.156311 0.000000
0.225189 0.156982 0.000000
0.279327 0.154633 0.000000
0.329376 0.148865 0.000000
0.375977 0.143280 0.000000
0.421509 0.139435 0.000000
0.467773 0.136322 0.000000
0.515381 0.131592 0.000000
0.562836 0.124359 0.000000
0.608063 0.114655 0.000000
0.648712 0.104828 0.018494
0.685516 0.097076 0.032898
0.719543 0.093079 0.045929
0.749298 0.093872 0.058685
0.777557 0.093384 0.071625
0.802094 0.095490 0.084198
0.824097 0.099945 0.096558
0.844696 0.094543 0.108185
0.862915 0.096802 0.120056
0.878845 0.100922 0.131195
0.893311 0.107025 0.141449
0.904968 0.107880 0.149597
0.914001 0.111328 0.156097
0.921875 0.116821 0.162018
0.928467 0.118225 0.166595
0.931152 0.107452 0.165894
0.000000 0.156616 0.000000
0.000000 0.155243 0.000000
0.000000 0.158569 0.000000
0.010529 0.166351 0.000000
0.047424 0.175537 0.000000
0.086243 0.186768 0.000000
0.134766 0.198822 0.000000
0.203369 0.201996 0.000000
0.271912 0.199036 0.000000
0.323303 0.195984 0.000000
0.372589 0.190369 0.000000
0.419128 0.183502 0.000000
0.466583 0.176514 0.000000
0.515503 0.170349 0.000000
0.563995 0.163330 0.000000
0.608093 0.155151 0.000000
0.646149 0.148254 0.015717
0.680023 0.144165 0.031830
0.712769 0.140808 0.046967
0.743103 0.140533 0.061157
0.771301 0.141937 0.074127
0.798584 0.142548 0.087860
0.821808 0.147949 0.100006
0.845367 0.144501 0.113007
0.865356 0.148163 0.124725
0.882385 0.156647 0.136200
0.898315 0.161102 0.147003
0.910034 0.150513 0.154694
0.919006 0.149963 0.160858
0.926697 0.152374 0.166473
0.933411 0.154510 0.171326
0.936066 0.148895 0.172699
0.000000 0.206329 0.000000
0.000000 0.204895 0.000000
0.000000 0.206238 0.000000
0.000000 0.210693 0.000000
0.036163 0.217194 0.000000
0.075775 0.225250 0.000000
0.118988 0.234833 0.000000
0.172516 0.243073 0.000000
0.243988 0.244049 0.000000
0.310516 0.239716 0.000000
0.360229 0.236725 0.000000
0.408295 0.231628 0.000000
0.457672 0.224426 0.000000
0.509064 0.215881 0.000000
0.560913 0.206818 0.000000
0.606567 0.198975 0.000000
0.644775 0.193573 0.006592
0.678162 0.190735 0.026306
0.709442 0.189026 0.042938
0.739441 0.187531 0.058289
0.766846 0.189819 0.072388
0.793335 0.190979 0.086517
0.817963 0.193573 0.100464
0.841125 0.194977 0.113556
0.862610 0.197510 0.126495
0.880463 0.205505 0.137878
0.898132 0.202209 0.149017
0.911163 0.205444 0.157837
0.920807 0.209229 0.164459
0.929077 0.208099 0.170349
0.936279 0.209442 0.175507
0.938629 0.189423 0.175964
0.000000 0.251801 0.000000
0.000000 0.250244 0.000000
0.000000 0.250366 0.000000
0.000000 0.253693 0.000000
0.023987 0.257172 0.000000
0.064270 0.262817 0.000000
0.106812 0.269684 0.000000
0.154694 0.278076 0.000000
0.212646 0.284729 0.000000
0.283173 0.284912 0.000000
0.346710 0.280334 0.000000
0.398621 0.276367 0.000000
0.445618 0.272644 0.000000
0.498718 0.265503 0.000000
0.550323 0.256378 0.000000
0.597382 0.247711 0.000000
0.636932 0.242096 0.000000
0.672821 0.238342 0.009125
0.704865 0.237152 0.030914
0.735168 0.236969 0.049469
0.763092 0.238007 0.065826
0.789490 0.238831 0.081024
0.814789 0.238770 0.096100
0.837402 0.242493 0.109406
0.858795 0.245544 0.122467
0.877838 0.249908 0.134552
0.895050 0.251129 0.146149
0.908539 0.254150 0.155090
0.918823 0.255463 0.162384
0.927643 0.251862 0.168732
0.935272 0.251373 0.174255
0.938660 0.248260 0.177185
0.000000 0.293182 0.000000
0.000000 0.291718 0.000000
0.000000 0.291107 0.000000
0.000000 0.293182 0.000000
0.013763 0.295258 0.000000
0.054626 0.299042 0.000000
0.097839 0.305237 0.000000
0.143463 0.312073 0.000000
0.194641 0.319946 0.000000
0.253937 0.326172 0.000000
0.321075 0.325958 0.000000
0.384125 0.321350 0.000000
0.440399 0.316559 0.000000
0.486053 0.313507 0.000000
0.536591 0.307404 0.000000
0.582550 0.299591 0.000000
0.622772 0.293427 0.000000
0.659790 0.288300 0.000000
0.695038 0.285492 0.003296
0.727478 0.284485 0.029846
0.757812 0.283539 0.051361
0.784332 0.284424 0.068756
0.809601 0.285004 0.085449
0.833374 0.285278 0.101227
0.855194 0.287201 0.115295
0.874329 0.291077 0.127441
0.891846 0.292999 0.139404
0.905701 0.295135 0.148590
0.916718 0.295380 0.156494
0.925293 0.295685 0.162872
0.932495 0.300751 0.167358
0.937408 0.285217 0.172974
0.000000 0.331238 0.000000
0.000000 0.330109 0.000000
0.000000 0.329224 0.000000
0.000000 0.330383 0.000000
0.007568 0.332306 0.000000
0.048889 0.335205 0.000000
0.091125 0.340515 0.000000
0.136536 0.347229 0.000000
0.184174 0.354492 0.000000
0.236237 0.362122 0.000000
0.294098 0.368195 0.000000
0.359222 0.366913 0.000000
0.423889 0.362701 0.000000
0.481384 0.357605 0.000000
0.523438 0.354309 0.000000
0.565491 0.350372 0.000000
0.605377 0.344818 0.000000
0.643646 0.339355 0.000000
0.679352 0.335266 0.000000
0.713531 0.332184 0.000000
0.745850 0.330200 0.026886
0.775391 0.329468 0.051208
0.801666 0.329651 0.071960
0.826691 0.329224 0.090881
0.849792 0.328918 0.107452
0.869110 0.332031 0.121429
0.887695 0.332977 0.134613
0.902405 0.334290 0.144379
0.913971 0.334839 0.153534
0.923218 0.334381 0.159576
0.930389 0.339600 0.164307
0.936554 0.328674 0.170105
0.000000 0.368683 0.000000
0.000000 0.367706 0.000000
0.000000 0.366974 0.000000
0.000000 0.367371 0.000000
0.002777 0.369415 0.000000
0.045319 0.372467 0.000000
0.086853 0.376465 0.000000
0.131653 0.382690 0.000000
0.178345 0.389557 0.000000
0.226440 0.397278 0.000000
0.277161 0.404327 0.000000
0.333862 0.408966 0.000000
0.398895 0.406647 0.000000
0.462585 0.401947 0.001801
0.516449 0.396881 0.000275
0.555054 0.393524 0.000000
0.590851 0.391296 0.000000
0.627991 0.387177 0.000000
0.664368 0.382568 0.000000
0.698517 0.378937 0.000000
0.731293 0.375793 0.006104
0.762054 0.373505 0.035858
0.791687 0.371979 0.063171
0.817963 0.371338 0.086212
0.842743 0.370270 0.106812
0.865570 0.369629 0.124725
0.884430 0.370514 0.139343
0.900208 0.370483 0.150726
0.912079 0.372772 0.159790
0.922150 0.371094 0.166748
0.930756 0.370605 0.172516
0.937134 0.368805 0.176514
0.000000 0.406494 0.000000
0.000000 0.405487 0.000000
0.000000 0.404999 0.000000
0.000000 0.405243 0.000000
0.000000 0.406769 0.000000
0.042938 0.409851 0.000000
0.084229 0.413177 0.000000
0.128174 0.418152 0.000000
0.174805 0.425079 0.000000
0.221222 0.431793 0.000000
0.268524 0.438843 0.000000
0.317413 0.443359 0.000000
0.373932 0.445312 0.000214
0.438538 0.442474 0.021088
0.498199 0.438721 0.040833
0.547760 0.434235 0.044312
0.584229 0.430298 0.024963
0.616852 0.428375 0.001678
0.652161 0.425262 0.000000
0.686462 0.421326 0.000000
0.719147 0.417511 0.012787
0.750397 0.414368 0.034058
0.779755 0.411774 0.057556
0.807983 0.410248 0.081635
0.833008 0.410309 0.103638
0.858795 0.407745 0.125702
0.880341 0.406555 0.143311
0.896942 0.406921 0.156738
0.910095 0.406494 0.166962
0.921204 0.405457 0.175323
0.930176 0.405182 0.181824
0.938202 0.404449 0.187347
0.000000 0.444244 0.000000
0.000000 0.443481 0.000000
0.000000 0.443207 0.000000
0.000000 0.443207 0.000000
0.000000 0.444183 0.000000
0.039856 0.446533 0.000000
0.082001 0.449768 0.000000
0.125946 0.453918 0.000000
0.172363 0.459839 0.000000
0.218719 0.465485 0.000885
0.263306 0.470032 0.010193
0.308716 0.474945 0.018311
0.357666 0.477844 0.027252
0.414978 0.478943 0.040070
0.475800 0.476227 0.057465
0.529480 0.472687 0.074585
0.575958 0.468414 0.080017
0.611969 0.464355 0.066864
0.643005 0.462402 0.048187
0.675354 0.460236 0.037903
0.707733 0.456604 0.037628
0.739166 0.452759 0.045959
0.768250 0.449799 0.060913
0.796814 0.447723 0.079865
0.823730 0.446381 0.101135
0.849457 0.445312 0.122620
0.872375 0.444092 0.142548
0.891144 0.443451 0.158752
0.906036 0.442902 0.171082
0.918518 0.440430 0.180969
0.928070 0.442017 0.189362
0.937103 0.439392 0.195709
0.000000 0.482239 0.000000
0.000000 0.481903 0.000000
0.000000 0.481476 0.000000
0.000000 0.480652 0.000000
0.000000 0.480988 0.000000
0.036041 0.482788 0.000000
0.079742 0.485718 0.003174
0.123962 0.488861 0.012482
0.170471 0.492676 0.021484
0.217499 0.496857 0.030487
0.261658 0.499603 0.037598
0.303284 0.502808 0.044037
0.347931 0.506775 0.052002
0.396912 0.509552 0.061340
0.452942 0.510193 0.074127
0.508514 0.507874 0.089966
0.557922 0.504608 0.105530
0.602600 0.500427 0.112366
0.638733 0.496277 0.102936
0.668213 0.494568 0.086517
0.698181 0.493011 0.075378
0.728973 0.490204 0.072723
0.758240 0.486938 0.077393
0.786774 0.484589 0.088745
0.814270 0.482666 0.104431
0.840332 0.481689 0.122772
0.863647 0.481567 0.141724
0.884064 0.481567 0.158813
0.900177 0.480652 0.172485
0.913239 0.479340 0.183685
0.924622 0.477783 0.193390
0.933746 0.477020 0.200989
0.000000 0.519379 0.014252
0.000000 0.518768 0.013763
0.000000 0.518341 0.013458
0.000000 0.517609 0.015594
0.000000 0.516937 0.020752
0.031464 0.517700 0.026031
0.078796 0.518646 0.032410
0.125366 0.519928 0.039185
0.171326 0.522034 0.046875
0.217224 0.525085 0.054932
0.260956 0.527405 0.062195
0.300812 0.530090 0.068726
0.341431 0.533539 0.075775
0.386108 0.536407 0.083313
0.434479 0.539093 0.093018
0.487091 0.539551 0.105621
0.538513 0.537842 0.120300
0.585388 0.534943 0.135010
0.629395 0.531555 0.143250
0.664520 0.527405 0.136719
0.693329 0.525757 0.122772
0.721436 0.525482 0.112000
0.750092 0.523712 0.107880
0.779175 0.521545 0.110657
0.806183 0.519684 0.119141
0.832306 0.518555 0.131653
0.856293 0.518463 0.146606
0.877655 0.518494 0.162201
0.893860 0.518616 0.174835
0.907928 0.517151 0.186096
0.919464 0.515686 0.195587
0.929749 0.514618 0.203918
0.000000 0.551361 0.044281
0.000000 0.550385 0.043488
0.000000 0.549683 0.042786
0.000000 0.549316 0.043152
0.000000 0.549042 0.047760
0.033356 0.547791 0.052185
0.080902 0.547760 0.057220
0.129547 0.547607 0.063049
0.174896 0.548431 0.070007
0.219055 0.549805 0.076935
0.260742 0.552979 0.084869
0.299469 0.555817 0.091980
0.337524 0.558502 0.098175
0.379059 0.562164 0.105621
0.423828 0.565002 0.113556
0.469971 0.567841 0.123474
0.519043 0.567963 0.135132
0.567780 0.566589 0.149445
0.613770 0.564819 0.164368
0.656403 0.562439 0.173950
0.691223 0.559082 0.170563
0.719086 0.557678 0.159119
0.745636 0.558167 0.148987
0.772644 0.557556 0.143921
0.799957 0.556396 0.145020
0.826385 0.555298 0.151276
0.850525 0.554596 0.160614
0.871887 0.554169 0.171814
0.888733 0.554199 0.182281
0.902588 0.554108 0.191803
0.914978 0.552521 0.200714
0.925659 0.551514 0.208649
0.005066 0.578033 0.071106
0.004700 0.577271 0.070343
0.004211 0.576080 0.069092
0.003296 0.575165 0.068420
0.008759 0.575317 0.072235
0.044098 0.573944 0.076324
0.087372 0.573792 0.080780
0.132538 0.573792 0.086304
0.177734 0.574432 0.093018
0.220886 0.575073 0.099213
0.261810 0.576843 0.106262
0.299927 0.580200 0.113983
0.336853 0.583130 0.120575
0.375244 0.586060 0.127167
0.417450 0.590302 0.135071
0.460999 0.593689 0.143494
0.504883 0.597076 0.154144
0.551361 0.597565 0.165833
0.598602 0.597107 0.180206
0.643372 0.595917 0.195343
0.684326 0.594391 0.205444
0.718628 0.591644 0.204803
0.745636 0.590179 0.195312
0.770844 0.590912 0.186157
0.795715 0.591278 0.180481
0.822144 0.590881 0.179871
0.846558 0.589783 0.183228
0.867584 0.589020 0.189758
0.884918 0.588257 0.196350
0.898712 0.588379 0.203430
0.911133 0.587738 0.210419
0.922028 0.587341 0.217041
0.015259 0.602997 0.097412
0.014801 0.601837 0.096344
0.014374 0.600677 0.094818
0.014374 0.599091 0.093842
0.021576 0.598907 0.096710
0.055267 0.598633 0.099854
0.097260 0.598419 0.104065
0.138947 0.598450 0.109436
0.183685 0.598297 0.115021
0.225800 0.599152 0.121582
0.265320 0.601044 0.128204
0.302490 0.604370 0.135803
0.339020 0.608490 0.143799
0.376129 0.611908 0.150970
0.415375 0.615356 0.157898
0.456665 0.619995 0.166168
0.497833 0.623718 0.174896
0.539398 0.627380 0.185669
0.584961 0.628723 0.197998
0.630768 0.628815 0.212616
0.673248 0.627899 0.227112
0.712372 0.626770 0.237030
0.745667 0.624512 0.238770
0.772125 0.622803 0.231323
0.796356 0.623718 0.222992
0.820129 0.624695 0.216888
0.843842 0.624451 0.214081
0.864655 0.624023 0.215363
0.882050 0.623138 0.218262
0.896332 0.622101 0.222046
0.908081 0.621948 0.226440
0.919617 0.621124 0.231171
0.028015 0.627136 0.123383
0.026398 0.625763 0.121887
0.025146 0.624176 0.120270
0.025940 0.622955 0.119202
0.041443 0.622803 0.121063
0.069336 0.623474 0.124207
0.111237 0.622559 0.127594
0.147675 0.623383 0.132660
0.190033 0.623596 0.138489
0.233032 0.624390 0.144775
0.272125 0.626465 0.151733
0.308197 0.629639 0.159119
0.343872 0.633545 0.166809
0.379883 0.637543 0.174377
0.417480 0.641541 0.181854
0.456360 0.645905 0.189484
0.495239 0.650116 0.197449
0.533783 0.654480 0.206787
0.574463 0.658325 0.217590
0.618652 0.659821 0.229950
0.662506 0.660065 0.244049
0.703278 0.659882 0.258026
0.740540 0.659180 0.268402
0.772797 0.657013 0.270905
0.798615 0.655365 0.265839
0.822479 0.656281 0.258545
0.844330 0.657562 0.252228
0.863861 0.658142 0.248596
0.880463 0.657440 0.247498
0.894470 0.656738 0.247925
0.907043 0.655792 0.248993
0.918030 0.655212 0.251312
0.049805 0.650940 0.148529
0.048218 0.649536 0.147034
0.047058 0.648346 0.145996
0.047302 0.646942 0.144562
0.065277 0.646698 0.145782
0.088135 0.647949 0.148895
0.125214 0.647491 0.152252
0.161987 0.648315 0.156982
0.199829 0.649506 0.163116
0.241333 0.650909 0.169769
0.280334 0.653229 0.176453
0.316376 0.655029 0.182526
0.350708 0.658600 0.189850
0.385925 0.663605 0.198425
0.421936 0.667847 0.205750
0.458893 0.672089 0.213318
0.495789 0.676361 0.220978
0.532104 0.680847 0.228943
0.569305 0.685089 0.238068
0.609650 0.689362 0.249695
0.652283 0.690979 0.261353
0.694092 0.691559 0.274628
0.732513 0.691498 0.287689
0.768738 0.691223 0.298126
0.800171 0.689392 0.301910
0.825409 0.687897 0.298676
0.848145 0.688538 0.292542
0.867035 0.689972 0.286957
0.882202 0.690308 0.282501
0.895355 0.690125 0.279755
0.907043 0.689667 0.278473
0.918396 0.688965 0.277832
0.075928 0.675171 0.173950
0.074677 0.674011 0.172485
0.073364 0.672821 0.171539
0.073273 0.671753 0.170441
0.088135 0.671570 0.171356
0.111053 0.672363 0.174255
0.140320 0.673248 0.177979
0.177612 0.673981 0.182404
0.214478 0.675018 0.187622
0.253479 0.676331 0.193726
0.291443 0.678802 0.200714
0.325836 0.682037 0.207581
0.359558 0.683960 0.213348
0.393188 0.688141 0.221008
0.428253 0.693329 0.229248
0.463562 0.697479 0.236603
0.498657 0.702454 0.244232
0.532898 0.706818 0.251648
0.568298 0.712006 0.260193
0.604736 0.716034 0.269104
0.644043 0.720367 0.280151
0.685120 0.721924 0.291321
0.725159 0.722931 0.303802
0.761810 0.722992 0.316162
0.797058 0.723175 0.326294
0.827606 0.722015 0.331055
0.851624 0.720276 0.329529
0.872040 0.720276 0.324768
0.887817 0.721283 0.320251
0.900085 0.721832 0.316223
0.910553 0.721619 0.312286
0.921082 0.721588 0.309601
0.102264 0.699799 0.199493
0.101166 0.698578 0.198456
0.099792 0.697601 0.197357
0.099335 0.696655 0.196106
0.110168 0.696655 0.197174
0.135376 0.697266 0.199585
0.158936 0.698792 0.203369
0.195953 0.698853 0.207123
0.231567 0.699982 0.211975
0.266144 0.701996 0.217834
0.303284 0.703888 0.223999
0.337372 0.707123 0.231171
0.369415 0.710327 0.237701
0.401825 0.713409 0.244263
0.435394 0.718262 0.252136
0.469940 0.723694 0.260681
0.503723 0.728180 0.267426
0.536377 0.732910 0.274536
0.569458 0.737488 0.281647
0.604187 0.742279 0.290009
0.640045 0.747009 0.298706
0.678101 0.751282 0.309113
0.717834 0.753601 0.320129
0.756042 0.754547 0.331512
0.791931 0.754944 0.343079
0.825348 0.755157 0.352570
0.854218 0.754272 0.358154
0.875763 0.752106 0.357635
0.892761 0.751617 0.354980
0.906250 0.751923 0.351807
0.917236 0.751709 0.347748
0.926636 0.751495 0.343750
0.128906 0.724884 0.225403
0.127777 0.723633 0.224396
0.126678 0.722656 0.223206
0.125946 0.721680 0.222015
0.133789 0.721619 0.222534
0.160706 0.722198 0.225067
0.180298 0.723907 0.228668
0.213654 0.724365 0.232178
0.246124 0.725769 0.236633
0.280975 0.727112 0.241669
0.315277 0.729889 0.248230
0.348816 0.732727 0.254730
0.380737 0.735260 0.260834
0.411591 0.738495 0.267059
0.444122 0.742432 0.274200
0.477661 0.748413 0.282928
0.510376 0.753815 0.290436
0.542084 0.758759 0.297394
0.573364 0.764038 0.304382
0.605896 0.768585 0.310730
0.640076 0.773499 0.318634
0.675262 0.778625 0.327118
0.712128 0.782593 0.336578
0.750519 0.785248 0.347168
0.786987 0.786194 0.357758
0.821167 0.786530 0.368286
0.852692 0.786743 0.376923
0.878326 0.785858 0.382233
0.896484 0.783539 0.382965
0.910278 0.782043 0.381470
0.922241 0.781433 0.379456
0.933350 0.780945 0.376648
0.155518 0.749725 0.250793
0.154449 0.748596 0.249725
0.153076 0.747589 0.248444
0.152374 0.746368 0.247345
0.159821 0.746338 0.247864
0.186646 0.747009 0.250397
0.203308 0.748688 0.253418
0.231689 0.749969 0.257050
0.262878 0.751343 0.261536
0.297638 0.752441 0.266235
0.330566 0.754852 0.272064
0.361450 0.758514 0.278564
0.392242 0.761444 0.284668
0.422577 0.764008 0.290283
0.453735 0.768066 0.297058
0.486267 0.773529 0.304901
0.518433 0.779388 0.312653
0.548920 0.784637 0.319214
0.578888 0.789581 0.325226
0.610138 0.795319 0.332062
0.642426 0.800262 0.338318
0.675720 0.805511 0.345734
0.709778 0.810669 0.353790
0.745026 0.814423 0.362274
0.781799 0.816345 0.371399
0.817078 0.817474 0.381256
0.849243 0.817749 0.391052
0.877594 0.817902 0.399292
0.898682 0.816498 0.403656
0.913513 0.813995 0.404938
0.925812 0.811615 0.404816
0.937653 0.810883 0.404510
0.182404 0.775269 0.276611
0.180969 0.773956 0.275452
0.179901 0.773010 0.274200
0.179077 0.771942 0.273102
0.184509 0.771576 0.273224
0.206512 0.772491 0.275635
0.225708 0.773743 0.278107
0.248474 0.775757 0.281738
0.281128 0.777100 0.286285
0.308929 0.780151 0.291595
0.343018 0.782135 0.296997
0.374786 0.784576 0.302338
0.405151 0.787109 0.307983
0.435089 0.790466 0.313629
0.465210 0.794067 0.319580
0.496094 0.798859 0.326385
0.527039 0.805634 0.334381
0.556763 0.811676 0.341339
0.585754 0.817322 0.347473
0.615295 0.822235 0.352692
0.646149 0.827942 0.358765
0.677673 0.832977 0.364807
0.709991 0.838318 0.371399
0.742554 0.843140 0.378693
0.776459 0.846405 0.386322
0.812408 0.848450 0.395172
0.845825 0.849762 0.404785
0.875153 0.849792 0.413757
0.898651 0.849487 0.420807
0.915497 0.847229 0.424347
0.928925 0.845184 0.426605
0.940491 0.842926 0.427795
0.212830 0.802002 0.303406
0.211426 0.800964 0.302338
0.210297 0.799744 0.301239
0.209106 0.798523 0.299805
0.211273 0.797943 0.299377
0.228546 0.799103 0.301819
0.250793 0.800232 0.304047
0.270569 0.802338 0.307678
0.301636 0.803864 0.311646
0.327271 0.807281 0.316772
0.360413 0.809052 0.321350
0.390991 0.811401 0.326508
0.419891 0.814423 0.331635
0.448029 0.818420 0.337677
0.477386 0.821777 0.342743
0.507050 0.825287 0.347992
0.536591 0.830994 0.354614
