Postproduction/IWLTBAP - Humble/LUTs by IWLTBAP (CUBE)/UTILITY/BMDFilm BMPC to Rec.709/U-BMDFILM-BMPC-V2-LTR.cube
# Copyright: (C) Copyright 2010-2018 by IWLTBAP SAS
# Cannot be resold, shared or otherwise redistributed
# Website: https://luts.iwltbap.com
TITLE "BMDFilm BMPC Version 2 (Utility LOG to Rec.709)"
LUT_3D_SIZE 8
DOMAIN_MIN 0.000000 0.000000 0.000000
DOMAIN_MAX 0.903226 0.903226 0.903226
0.000000 0.000000 0.000000
0.000000 0.000000 0.000000
0.151245 0.000000 0.000000
0.424927 0.000000 0.033539
0.632660 0.000000 0.002716
0.776978 0.002930 0.062653
0.867310 0.058838 0.120056
0.922211 0.094116 0.158905
0.000000 0.000000 0.000000
0.050690 0.045837 0.000000
0.245178 0.067932 0.000000
0.454681 0.070496 0.006226
0.649475 0.013458 0.008270
0.772400 0.005585 0.060425
0.861176 0.054932 0.115845
0.919098 0.092316 0.156647
0.000000 0.206329 0.000000
0.036163 0.217194 0.000000
0.243988 0.244049 0.000000
0.457672 0.224426 0.000000
0.644775 0.193573 0.006592
0.766846 0.189819 0.072388
0.862610 0.197510 0.126495
0.920807 0.209229 0.164459
0.000000 0.368683 0.000000
0.002777 0.369415 0.000000
0.178345 0.389557 0.000000
0.398895 0.406647 0.000000
0.590851 0.391296 0.000000
0.731293 0.375793 0.006104
0.842743 0.370270 0.106812
0.912079 0.372772 0.159790
0.000000 0.519379 0.014252
0.000000 0.516937 0.020752
0.171326 0.522034 0.046875
0.341431 0.533539 0.075775
0.538513 0.537842 0.120300
0.693329 0.525757 0.122772
0.806183 0.519684 0.119141
0.893860 0.518616 0.174835
0.028015 0.627136 0.123383
0.041443 0.622803 0.121063
0.190033 0.623596 0.138489
0.343872 0.633545 0.166809
0.495239 0.650116 0.197449
0.662506 0.660065 0.244049
0.798615 0.655365 0.265839
0.880463 0.657440 0.247498
0.128906 0.724884 0.225403
0.133789 0.721619 0.222534
0.246124 0.725769 0.236633
0.380737 0.735260 0.260834
0.510376 0.753815 0.290436
0.640076 0.773499 0.318634
0.786987 0.786194 0.357758
0.896484 0.783539 0.382965
0.242920 0.829498 0.330231
0.239471 0.825165 0.326172
0.317932 0.832214 0.337250
0.433014 0.843506 0.355774
0.546631 0.857758 0.375092
0.656403 0.881836 0.397064
0.775055 0.901642 0.420349
0.896851 0.912170 0.461334
0.000000 0.000000 0.000000
0.022430 0.000000 0.027527
0.216400 0.000000 0.096802
0.447632 0.000000 0.127991
0.649933 0.000000 0.102356
0.788574 0.006348 0.109985
0.871979 0.061157 0.128998
0.923706 0.094604 0.161743
0.000000 0.051361 0.066376
0.089966 0.083405 0.097168
0.288116 0.081329 0.096893
0.479645 0.066162 0.102814
0.656036 0.000000 0.065857
0.778839 0.004517 0.063599
0.865814 0.057861 0.118988
0.920837 0.093262 0.157990
0.000000 0.228394 0.054169
0.043060 0.234497 0.049805
0.255219 0.254730 0.045929
0.468842 0.224579 0.018097
0.652161 0.187653 0.012787
0.778717 0.167511 0.079163
0.869690 0.170959 0.129333
0.922607 0.182434 0.164673
0.000000 0.376709 0.043579
0.003052 0.377106 0.042480
0.185272 0.395142 0.039368
0.406647 0.413940 0.002411
0.601959 0.392792 0.000000
0.739777 0.370575 0.014069
0.847778 0.362152 0.109680
0.913300 0.361755 0.157990
0.000000 0.524109 0.052612
0.000000 0.521332 0.049469
0.164032 0.528534 0.051605
0.341034 0.540131 0.081635
0.540283 0.540192 0.122742
0.695892 0.525818 0.121643
0.808350 0.517761 0.118774
0.895020 0.515320 0.175171
0.030457 0.630219 0.126770
0.027618 0.626801 0.123047
0.178253 0.628265 0.141052
0.341858 0.636536 0.169281
0.494812 0.652039 0.199036
0.662750 0.660339 0.244293
0.799194 0.654816 0.265045
0.880341 0.655975 0.246124
0.130249 0.725861 0.226349
0.126404 0.722412 0.222809
0.236053 0.727112 0.236786
0.378418 0.735413 0.260681
0.508759 0.753632 0.290161
0.639069 0.773010 0.317841
0.785919 0.785034 0.356567
0.895233 0.781799 0.381348
0.236359 0.828766 0.329041
0.233704 0.824280 0.325012
0.313538 0.831635 0.336578
0.430450 0.842560 0.355042
0.544495 0.856598 0.373932
0.654205 0.880005 0.395782
0.773285 0.899933 0.418793
0.895935 0.910950 0.459595
0.000000 0.000000 0.087616
0.068909 0.000000 0.178833
0.274841 0.000000 0.287720
0.493256 0.000000 0.320282
0.683594 0.000000 0.317627
0.813812 0.014313 0.317780
0.898529 0.062195 0.319580
0.946838 0.095276 0.324402
0.000000 0.085602 0.257782
0.101471 0.092194 0.296631
0.328827 0.076080 0.345978
0.518616 0.052795 0.320953
0.677856 0.000000 0.284729
0.809265 0.011932 0.264740
0.890991 0.059937 0.268951
0.940063 0.094177 0.277222
0.000000 0.269684 0.298065
0.018463 0.274597 0.303192
0.272217 0.268768 0.293793
0.500549 0.231995 0.267212
0.685577 0.172729 0.229095
0.814697 0.049469 0.114624
0.884888 0.070374 0.132446
0.928131 0.097717 0.162903
0.000000 0.407867 0.228485
0.000000 0.407684 0.223816
0.199066 0.422363 0.224884
0.427917 0.434021 0.220978
0.643158 0.392822 0.124634
0.787201 0.339935 0.058990
0.872742 0.319824 0.124420
0.921387 0.311096 0.158875
0.000000 0.541199 0.218567
0.000000 0.541290 0.211121
0.163086 0.545197 0.212555
0.350891 0.562347 0.183838
0.561554 0.563293 0.145111
0.719391 0.533112 0.123108
0.828735 0.511322 0.126190
0.905731 0.499084 0.180542
0.037628 0.640076 0.248047
0.036072 0.639069 0.228485
0.089386 0.656738 0.170197
0.332367 0.666931 0.195129
0.501526 0.674774 0.220032
0.675659 0.674286 0.257629
0.811584 0.660583 0.268738
0.886780 0.653900 0.244568
0.141113 0.736908 0.297485
0.138153 0.733917 0.286469
0.151978 0.744568 0.245697
0.362946 0.756561 0.277039
0.509766 0.770325 0.304413
0.644196 0.786163 0.328247
0.793213 0.792908 0.362671
0.899658 0.783905 0.383392
0.246185 0.839600 0.363251
0.242004 0.835297 0.355194
0.249878 0.839142 0.339111
0.411255 0.856262 0.363861
0.539825 0.869812 0.383270
0.655487 0.889526 0.402252
0.776489 0.907318 0.424988
0.898529 0.914551 0.463928
0.000000 0.000000 0.248169
0.084839 0.000000 0.332428
0.294373 0.000000 0.473694
0.519928 0.000000 0.535095
0.703094 0.000000 0.527039
0.828735 0.030060 0.495850
0.912811 0.070953 0.481323
0.960449 0.099945 0.475677
0.000000 0.095459 0.448059
0.099854 0.089508 0.478912
0.311798 0.043030 0.528778
0.511902 0.000000 0.530518
0.700104 0.000000 0.509949
0.825165 0.026794 0.473358
0.909180 0.067902 0.457977
0.958038 0.098389 0.454041
0.000000 0.269806 0.512756
0.000000 0.265594 0.515198
0.251038 0.246368 0.538025
0.524963 0.177826 0.552002
0.713989 0.103241 0.486664
0.851562 0.036194 0.429291
0.921417 0.074829 0.406860
0.959534 0.100159 0.400116
0.000000 0.430908 0.463501
0.000000 0.436279 0.470154
0.142731 0.451630 0.487946
0.426331 0.432831 0.458893
0.674377 0.381256 0.428070
0.835510 0.307739 0.364929
0.923431 0.187805 0.259369
0.936523 0.102631 0.168335
0.000000 0.557800 0.418976
0.000000 0.560577 0.414764
0.098511 0.575684 0.408752
0.362671 0.587799 0.403534
0.591064 0.584778 0.379547
0.772919 0.535278 0.274292
0.878265 0.479706 0.172577
0.928711 0.441559 0.189636
0.055359 0.653351 0.401459
0.053619 0.652039 0.391785
0.077911 0.675690 0.376678
0.325714 0.696899 0.377594
0.518158 0.717316 0.336029
0.707764 0.709229 0.290253
0.842072 0.672607 0.273376
0.902496 0.646088 0.240875
0.156128 0.749512 0.431702
0.152130 0.745850 0.424438
0.167511 0.761230 0.407532
0.257935 0.799072 0.330811
0.504395 0.818085 0.342133
0.656921 0.823090 0.356018
0.813751 0.815826 0.379639
0.912628 0.792908 0.390411
0.256012 0.851807 0.485992
0.251465 0.846924 0.479736
0.261658 0.858032 0.458221
0.294159 0.881653 0.378540
0.520386 0.905273 0.406952
0.659454 0.918243 0.423218
0.787384 0.929413 0.445282
0.908447 0.928619 0.483307
0.000000 0.000000 0.366608
0.064026 0.000000 0.467346
0.296021 0.000000 0.636292
0.509430 0.000000 0.696045
0.693939 0.011108 0.700226
0.826355 0.048859 0.667389
0.916626 0.084686 0.628265
0.963928 0.109222 0.607758
0.000000 0.060608 0.555603
0.000000 0.000000 0.428101
0.244965 0.000000 0.616058
0.488861 0.000000 0.690857
0.684265 0.006470 0.693298
0.820709 0.044708 0.655151
0.913269 0.081390 0.614868
0.962646 0.107147 0.595062
0.000000 0.261444 0.677826
0.000000 0.240356 0.690735
0.188416 0.188995 0.728058
0.483337 0.054382 0.745392
0.698151 0.014801 0.712891
0.838135 0.050812 0.649902
0.925659 0.086304 0.598724
0.966827 0.108032 0.573792
0.000000 0.424835 0.632446
0.000000 0.424713 0.640289
0.001129 0.425629 0.677917
0.382751 0.388336 0.706146
0.682068 0.287689 0.701080
0.847412 0.214203 0.617767
0.936523 0.110992 0.543427
0.972351 0.108307 0.503357
0.012848 0.562164 0.590454
0.012634 0.561676 0.590332
0.020355 0.577271 0.608459
0.273926 0.598877 0.632477
0.568481 0.568146 0.590851
0.791351 0.514954 0.563049
0.913330 0.461456 0.506744
0.969879 0.392670 0.454468
0.083923 0.667999 0.561432
0.080139 0.664948 0.555817
0.095154 0.680634 0.557404
0.233826 0.716034 0.559143
0.528503 0.734406 0.564850
0.738068 0.727112 0.544342
0.884888 0.678528 0.478302
0.942383 0.630829 0.453064
0.174774 0.763092 0.555481
0.171326 0.759888 0.549408
0.183533 0.772858 0.545135
0.225555 0.816895 0.536499
0.505402 0.847687 0.550934
0.682678 0.865845 0.534393
0.849121 0.849823 0.504700
0.936554 0.805786 0.483734
0.270203 0.866699 0.589142
0.266235 0.862122 0.583099
0.273193 0.870453 0.576508
0.297272 0.900238 0.561462
0.474487 0.943207 0.539124
0.668854 0.962433 0.523102
0.809753 0.967346 0.518982
0.928162 0.951874 0.577393
0.000000 0.000000 0.530457
0.071014 0.000000 0.620667
0.286163 0.000000 0.765076
0.491974 0.004578 0.823242
0.668457 0.037720 0.827972
0.806702 0.069885 0.802338
0.906433 0.102448 0.768646
0.956421 0.121643 0.737305
0.000000 0.063293 0.688324
0.000000 0.000000 0.526703
0.229553 0.000000 0.739777
0.465179 0.000000 0.815796
0.655182 0.033356 0.823395
0.798859 0.065521 0.795959
0.902893 0.098969 0.760406
0.955566 0.119568 0.728119
0.016357 0.252472 0.799377
0.014923 0.226562 0.805054
0.000000 0.019836 0.653687
0.405060 0.000000 0.830566
0.647003 0.037323 0.841095
0.803741 0.069153 0.804565
0.909607 0.101807 0.758148
0.959015 0.119934 0.718872
0.027344 0.420410 0.766785
0.028870 0.416779 0.773743
0.039703 0.393860 0.815308
0.295563 0.306305 0.881561
0.626465 0.148132 0.883240
0.814545 0.078033 0.823151
0.921478 0.105255 0.745972
0.966034 0.119720 0.691223
0.039948 0.558380 0.719543
0.039307 0.554993 0.720062
0.044189 0.555450 0.738129
0.096436 0.555420 0.785950
0.519958 0.516205 0.807251
0.777405 0.441010 0.783295
0.907959 0.407043 0.713806
0.966248 0.382874 0.668152
0.110809 0.671387 0.691284
0.106598 0.667542 0.688049
0.114594 0.674683 0.696045
0.143158 0.700470 0.725098
0.450043 0.730194 0.752319
0.707184 0.701141 0.717194
0.887360 0.661072 0.698547
0.949768 0.632935 0.663269
0.201477 0.777191 0.686127
0.197235 0.773102 0.681458
0.203644 0.780518 0.682587
0.229218 0.809418 0.691895
0.448883 0.853241 0.706879
0.685486 0.869934 0.713745
0.865906 0.855194 0.701416
0.955322 0.811615 0.664337
0.285065 0.879425 0.694794
0.281250 0.874908 0.689331
0.285492 0.880829 0.686737
0.303406 0.905121 0.687012
0.439240 0.952698 0.691925
0.687408 0.970337 0.718475
0.845795 0.973541 0.752075
0.947571 0.958344 0.780396
0.000000 0.000000 0.682892
0.076447 0.005707 0.750580
0.273987 0.011810 0.860840
0.472198 0.040771 0.917664
0.639374 0.066772 0.924469
0.778351 0.093414 0.906250
0.884399 0.121002 0.876892
0.937653 0.138092 0.854858
0.007629 0.068298 0.791046
0.000000 0.000000 0.675232
0.220398 0.011597 0.837036
0.441162 0.034363 0.908844
0.623352 0.062317 0.920898
0.768646 0.088928 0.902008
0.880066 0.117920 0.872375
0.937012 0.136230 0.849945
0.052856 0.248840 0.888123
0.049774 0.222870 0.887573
0.000000 0.019562 0.737610
0.366058 0.028778 0.906067
0.603943 0.064575 0.934021
0.765839 0.091553 0.911377
0.881409 0.119537 0.876160
0.938568 0.136200 0.847137
0.065521 0.418335 0.873322
0.066650 0.411530 0.878418
0.074707 0.370789 0.907227
0.125366 0.162720 0.924561
0.541168 0.071106 0.965240
0.753082 0.095886 0.931335
0.880890 0.120544 0.880585
0.941559 0.135406 0.838257
0.071869 0.554413 0.828613
0.070679 0.548859 0.829102
0.074707 0.540222 0.845398
0.086975 0.509766 0.892029
0.446625 0.451660 0.949219
0.726715 0.370087 0.940247
0.885071 0.326904 0.889771
0.950439 0.370758 0.833282
0.137665 0.669220 0.798584
0.133575 0.664886 0.796295
0.136444 0.665497 0.804443
0.149384 0.671814 0.830231
0.365265 0.685150 0.881134
0.669647 0.659821 0.887146
0.865173 0.626129 0.862427
0.936676 0.629517 0.820099
0.224030 0.781036 0.793884
0.219330 0.776428 0.789429
0.222656 0.779694 0.793030
0.237701 0.795013 0.808716
0.338654 0.830170 0.846924
0.644836 0.855743 0.867493
0.841339 0.829224 0.839722
0.952148 0.808716 0.828979
0.305817 0.891998 0.807556
0.301971 0.887451 0.802307
0.303406 0.889862 0.801727
0.314331 0.905334 0.808044
0.380737 0.941803 0.824280
0.670990 0.963898 0.842499
0.856903 0.967438 0.866608
0.957123 0.961487 0.884247
0.013092 0.019104 0.797668
0.085480 0.027618 0.844849
0.268219 0.040100 0.930634
0.450073 0.072693 0.982666
0.612762 0.094238 0.992401
0.751801 0.115997 0.979492
0.861420 0.138611 0.953766
0.917572 0.152557 0.934296
0.031647 0.078217 0.867004
0.012909 0.018982 0.796814
0.214539 0.035187 0.909058
0.415894 0.067291 0.975830
0.593750 0.091400 0.992310
0.739044 0.113647 0.981110
0.854614 0.136749 0.955383
0.915344 0.152008 0.934998
0.089111 0.252045 0.956665
0.083557 0.223938 0.951874
0.017151 0.029297 0.812683
0.342468 0.055145 0.957611
0.570190 0.088837 0.993225
0.732056 0.112457 0.982605
0.852509 0.136353 0.956421
0.914581 0.151764 0.935364
0.105530 0.413574 0.958801
0.106415 0.404266 0.962463
0.106903 0.356964 0.971344
0.047089 0.083466 0.878906
0.491882 0.079071 0.989044
0.709015 0.108948 0.985870
0.844055 0.134674 0.958923
0.911316 0.169556 0.935333
0.110657 0.551361 0.923492
0.107727 0.544067 0.923645
0.109406 0.528229 0.935272
0.110229 0.477722 0.952820
0.379181 0.390747 1.000000
0.677307 0.341919 1.000000
0.844391 0.355042 0.972778
0.924011 0.445984 0.951263
0.169434 0.666687 0.897308
0.164856 0.661713 0.894836
0.164978 0.657318 0.902924
0.165863 0.650116 0.916840
0.317230 0.639343 0.942108
0.637329 0.627197 0.960388
0.833435 0.619598 0.957703
0.925598 0.650818 0.949158
0.247467 0.780731 0.889343
0.242889 0.775940 0.885193
0.243256 0.775146 0.888580
0.251404 0.779907 0.905304
0.332672 0.794312 0.926636
0.631134 0.819458 0.961761
0.827332 0.811768 0.970245
0.942902 0.812805 0.955200
0.323120 0.894440 0.899780
0.319336 0.889832 0.894653
0.319336 0.889679 0.894928
0.326294 0.897827 0.905273
0.401642 0.921265 0.932037
0.673431 0.946747 0.960083
0.856415 0.957520 0.963196
0.956818 0.954498 0.955811
