Postproduction/IWLTBAP - Humble/LUTs by IWLTBAP (CUBE)/UTILITY/BMDFilm BMPC to Rec.709/U-BMDFILM-BMPC-V2-LTR.cube
# Copyright: (C) Copyright 2010-2018 by IWLTBAP SAS
# Cannot be resold, shared or otherwise redistributed
# Website: https://luts.iwltbap.com
TITLE "BMDFilm BMPC Version 2 (Utility LOG to Rec.709)"
LUT_3D_SIZE 5
DOMAIN_MIN 0.000000 0.000000 0.000000
DOMAIN_MAX 0.903226 0.903226 0.903226
0.000000 0.000000 0.000000
0.094910 0.000000 0.000000
0.532227 0.000000 0.019012
0.803864 0.019501 0.078064
0.922211 0.094116 0.158905
0.000000 0.156616 0.000000
0.203369 0.201996 0.000000
0.563995 0.163330 0.000000
0.798584 0.142548 0.087860
0.919006 0.149963 0.160858
0.000000 0.444244 0.000000
0.125946 0.453918 0.000000
0.475800 0.476227 0.057465
0.739166 0.452759 0.045959
0.906036 0.442902 0.171082
0.049805 0.650940 0.148529
0.161987 0.648315 0.156982
0.421936 0.667847 0.205750
0.694092 0.691559 0.274628
0.882202 0.690308 0.282501
0.242920 0.829498 0.330231
0.292175 0.830139 0.333679
0.488770 0.850189 0.365479
0.685181 0.887268 0.401947
0.896851 0.912170 0.461334
0.000000 0.000000 0.046173
0.206757 0.000000 0.220673
0.584717 0.000000 0.265991
0.833405 0.024963 0.263794
0.940674 0.094879 0.274384
0.000000 0.222809 0.247009
0.233978 0.228302 0.251892
0.595642 0.158234 0.204895
0.824280 0.031830 0.090912
0.925568 0.096344 0.161072
0.000000 0.467712 0.165283
0.131287 0.473938 0.170044
0.498779 0.499176 0.117340
0.764008 0.443298 0.055084
0.914001 0.420166 0.172913
0.059296 0.660400 0.221375
0.071320 0.669922 0.168549
0.420593 0.683716 0.220001
0.700775 0.698792 0.281342
0.885406 0.688904 0.280151
0.242859 0.835632 0.339050
0.243805 0.833252 0.333740
0.480560 0.857147 0.369904
0.684174 0.890808 0.404541
0.897186 0.912720 0.461945
0.000000 0.000000 0.281219
0.236603 0.000000 0.528900
0.617462 0.000000 0.628265
0.853851 0.048401 0.575256
0.963135 0.103912 0.544769
0.000000 0.219055 0.607269
0.186432 0.180695 0.638885
0.620758 0.000000 0.639343
0.862823 0.049347 0.543121
0.964233 0.103180 0.506470
0.000000 0.499542 0.531738
0.000000 0.520477 0.556061
0.503571 0.505005 0.530457
0.848328 0.400269 0.446472
0.960052 0.218536 0.297668
0.090729 0.683746 0.478333
0.099701 0.693390 0.466736
0.421692 0.745514 0.466370
0.753876 0.752106 0.404541
0.911072 0.682281 0.274078
0.262817 0.859100 0.537994
0.262970 0.859406 0.525085
0.340576 0.913025 0.417236
0.695679 0.944275 0.447540
0.916199 0.940155 0.502350
0.000000 0.000000 0.571808
0.229828 0.000000 0.767487
0.580872 0.030640 0.858734
0.829071 0.083557 0.823151
0.952423 0.125366 0.768951
0.018799 0.205780 0.821167
0.000000 0.000000 0.621826
0.542328 0.027069 0.864349
0.823853 0.081024 0.821106
0.954132 0.123749 0.756409
0.040680 0.492218 0.771851
0.046753 0.485077 0.794250
0.388275 0.397949 0.886017
0.829712 0.180511 0.838806
0.960785 0.162201 0.713379
0.139709 0.698517 0.716583
0.139526 0.698212 0.717194
0.206512 0.740814 0.764954
0.742615 0.734711 0.749390
0.949860 0.682281 0.707489
0.290192 0.883240 0.723236
0.287537 0.880554 0.715881
0.319794 0.925385 0.719269
0.734711 0.971497 0.757690
0.950195 0.958893 0.809906
0.013092 0.019104 0.797668
0.220703 0.035767 0.912201
0.536285 0.084412 0.991821
0.782501 0.121887 0.973785
0.917572 0.152557 0.934296
0.080139 0.210144 0.948608
0.013824 0.021301 0.800964
0.483185 0.077423 0.987640
0.767395 0.118927 0.976624
0.915009 0.151917 0.935272
0.106812 0.487183 0.943390
0.109467 0.463409 0.954987
0.217285 0.242676 0.988403
0.731415 0.127838 0.981812
0.922180 0.308929 0.948853
0.188934 0.696350 0.893982
0.184021 0.688873 0.894989
0.185272 0.679749 0.915009
0.691467 0.678436 0.958038
0.929688 0.693604 0.951324
0.323120 0.894440 0.899780
0.318817 0.888885 0.894196
0.332672 0.905609 0.914520
0.724213 0.949402 0.962616
0.956818 0.954498 0.955811
