Postproduction/IWLTBAP - Humble/LUTs by IWLTBAP (CUBE)/UTILITY/BMDFilm BMPC to Rec.709/U-BMDFILM-BMPC-V1-LTR.cube
# Copyright: (C) Copyright 2010-2018 by IWLTBAP SAS
# Cannot be resold, shared or otherwise redistributed
# Website: https://luts.iwltbap.com
TITLE "BMDFilm BMPC Version 1 (Utility LOG to Rec.709)"
LUT_3D_SIZE 5
DOMAIN_MIN 0.000000 0.000000 0.000000
DOMAIN_MAX 0.903226 0.903226 0.903226
0.000000 0.000000 0.000000
0.289459 0.000000 0.000000
0.575439 0.000000 0.000000
0.836273 0.000000 0.000000
0.971100 0.000000 0.000000
0.000000 0.241882 0.000305
0.266418 0.234558 0.000000
0.556915 0.212494 0.000000
0.826294 0.123352 0.000000
0.971100 0.062469 0.000000
0.000000 0.484375 0.000305
0.200592 0.480896 0.000000
0.535278 0.475189 0.000000
0.823425 0.451111 0.000000
0.967529 0.390228 0.000000
0.000000 0.758026 0.000000
0.062469 0.756744 0.000000
0.473724 0.758820 0.000000
0.818542 0.754211 0.000000
0.971069 0.726837 0.000000
0.000000 0.928711 0.000000
0.062469 0.928467 0.000000
0.164307 0.928253 0.000000
0.785309 0.936432 0.000000
0.971130 0.934052 0.000000
0.000000 0.000000 0.282745
0.247314 0.000000 0.272003
0.556763 0.000000 0.241058
0.832947 0.000000 0.114410
0.971100 0.000000 0.062469
0.000000 0.229675 0.234650
0.217407 0.222900 0.222717
0.540771 0.198700 0.176361
0.823853 0.100372 0.062622
0.971100 0.062469 0.062469
0.000000 0.479218 0.062775
0.122162 0.474945 0.062531
0.516632 0.469635 0.062469
0.819855 0.445251 0.062469
0.967255 0.382385 0.062469
0.000000 0.756042 0.062469
0.062469 0.754791 0.062469
0.449402 0.756165 0.062469
0.814270 0.751923 0.062469
0.971069 0.723541 0.062469
0.000000 0.928284 0.062469
0.062469 0.928009 0.062469
0.137146 0.927124 0.062469
0.777924 0.935974 0.062469
0.970764 0.933594 0.062469
0.000000 0.000000 0.563660
0.063110 0.000000 0.559174
0.502197 0.000000 0.545776
0.823242 0.000000 0.509857
0.970764 0.000000 0.416656
0.000000 0.191467 0.534332
0.062561 0.180115 0.530060
0.483612 0.146423 0.518738
0.817719 0.062653 0.485046
0.970886 0.062469 0.382812
0.000000 0.466492 0.479706
0.062469 0.463013 0.474121
0.455933 0.460968 0.464661
0.811554 0.436646 0.421539
0.967407 0.366150 0.275238
0.000000 0.751373 0.249268
0.062469 0.749786 0.227509
0.377167 0.753357 0.147919
0.806091 0.746918 0.123901
0.970947 0.716766 0.123901
0.000000 0.927307 0.123901
0.062469 0.927002 0.123901
0.123901 0.926483 0.123901
0.758057 0.934570 0.123901
0.968994 0.932373 0.123901
0.000000 0.000000 0.830048
0.062469 0.000000 0.829071
0.284058 0.000000 0.826904
0.790253 0.000000 0.819244
0.954224 0.000000 0.773926
0.000000 0.062836 0.824554
0.062469 0.062653 0.824402
0.247375 0.062469 0.822906
0.787018 0.062469 0.814697
0.953857 0.062469 0.767487
0.000000 0.430237 0.798401
0.062469 0.426025 0.797363
0.156128 0.421814 0.794922
0.771698 0.398621 0.790344
0.963470 0.310425 0.766205
0.000000 0.739655 0.761169
0.062469 0.738037 0.759216
0.123901 0.734131 0.754089
0.753296 0.748505 0.748566
0.968201 0.719635 0.696930
0.000000 0.927307 0.549011
0.062469 0.927032 0.542236
0.123901 0.926208 0.527924
0.656952 0.940063 0.439148
0.963226 0.936523 0.192047
0.000000 0.000000 0.971100
0.062469 0.000000 0.971100
0.123901 0.000000 0.971100
0.586182 0.000000 0.970367
0.936615 0.000000 0.953979
0.000000 0.062469 0.971100
0.062469 0.062469 0.971100
0.123901 0.062469 0.971100
0.573547 0.062469 0.970276
0.935822 0.062469 0.952911
0.000000 0.319672 0.959717
0.062469 0.312286 0.959564
0.123901 0.294189 0.959229
0.522369 0.246674 0.960083
0.934052 0.123901 0.949738
0.000000 0.693451 0.956482
0.062469 0.691101 0.955994
0.123901 0.686188 0.955322
0.273773 0.701111 0.961639
0.947266 0.671265 0.958435
0.000000 0.921112 0.937653
0.062469 0.920807 0.937225
0.123901 0.920105 0.936005
0.184998 0.924103 0.937347
0.938232 0.936859 0.934692
