Postproduction/IWLTBAP - Humble/LUTs by IWLTBAP (CUBE)/UTILITY/BMDFilm BMPC to Rec.709/U-BMDFILM-BMPC-V1-LTR.cube
# Copyright: (C) Copyright 2010-2018 by IWLTBAP SAS
# Cannot be resold, shared or otherwise redistributed
# Website: https://luts.iwltbap.com
TITLE "BMDFilm BMPC Version 1 (Utility LOG to Rec.709)"
LUT_3D_SIZE 32
0.000000 0.000000 0.000000
0.009186 0.000000 0.000000
0.055267 0.000000 0.000000
0.111938 0.000000 0.000000
0.164215 0.000000 0.000000
0.209167 0.000000 0.000000
0.249969 0.000000 0.000000
0.289459 0.000000 0.000000
0.328400 0.000000 0.000000
0.367615 0.000000 0.000000
0.406921 0.000000 0.000000
0.447174 0.000000 0.000000
0.488342 0.000000 0.000000
0.531403 0.000000 0.000000
0.575439 0.000000 0.000000
0.620575 0.000000 0.000000
0.668030 0.000000 0.000000
0.714050 0.000000 0.000000
0.750580 0.000000 0.000000
0.782288 0.000000 0.000000
0.810486 0.000000 0.000000
0.836273 0.000000 0.000000
0.860443 0.000000 0.000000
0.883545 0.000000 0.000000
0.905304 0.000000 0.000000
0.926483 0.000000 0.000000
0.946594 0.000000 0.000000
0.962463 0.000000 0.000000
0.971100 0.000000 0.000000
0.979767 0.000000 0.000000
0.988403 0.000000 0.000000
0.997070 0.000000 0.000000
0.000000 0.009186 0.000000
0.009186 0.009186 0.000000
0.054291 0.009186 0.000000
0.110931 0.009186 0.000000
0.163513 0.009186 0.000000
0.208618 0.009155 0.000000
0.249512 0.009155 0.000000
0.289093 0.009155 0.000000
0.327972 0.009155 0.000000
0.367004 0.009155 0.000000
0.406586 0.009155 0.000000
0.446686 0.009155 0.000000
0.488098 0.009155 0.000000
0.531219 0.009155 0.000000
0.575073 0.009155 0.000000
0.620178 0.009155 0.000000
0.667633 0.009155 0.000000
0.713776 0.009155 0.000000
0.750488 0.009155 0.000000
0.782227 0.009155 0.000000
0.810425 0.009155 0.000000
0.836243 0.009155 0.000000
0.860413 0.009155 0.000000
0.883514 0.009155 0.000000
0.905273 0.009155 0.000000
0.926483 0.009155 0.000000
0.946564 0.009155 0.000000
0.962463 0.009155 0.000000
0.971100 0.009155 0.000000
0.979767 0.009155 0.000000
0.988403 0.009155 0.000000
0.997070 0.009155 0.000000
0.000000 0.039337 0.000000
0.009186 0.039062 0.000000
0.047455 0.037018 0.000000
0.104126 0.034943 0.000000
0.158264 0.032806 0.000000
0.204590 0.030273 0.000000
0.246185 0.027344 0.000000
0.286224 0.024231 0.000000
0.325531 0.020508 0.000000
0.365112 0.018188 0.000000
0.404663 0.018158 0.000000
0.445251 0.018158 0.000000
0.486664 0.018158 0.000000
0.529602 0.018158 0.000000
0.573822 0.018127 0.000000
0.619019 0.018127 0.000000
0.666534 0.018127 0.000000
0.713043 0.018127 0.000000
0.750061 0.018127 0.000000
0.781891 0.018127 0.000000
0.810150 0.018127 0.000000
0.836029 0.018127 0.000000
0.860229 0.018127 0.000000
0.883362 0.018127 0.000000
0.905151 0.018127 0.000000
0.926392 0.018127 0.000000
0.946503 0.018127 0.000000
0.962463 0.018127 0.000000
0.971100 0.018127 0.000000
0.979767 0.018127 0.000000
0.988403 0.018127 0.000000
0.997070 0.018127 0.000000
0.000031 0.081726 0.000031
0.009186 0.081421 0.000031
0.040497 0.079437 0.000031
0.097260 0.077332 0.000153
0.151703 0.075195 0.000153
0.199554 0.072723 0.000153
0.242218 0.069550 0.000122
0.282349 0.066467 0.000000
0.322021 0.062775 0.000000
0.361877 0.058167 0.000000
0.401886 0.053192 0.000000
0.442627 0.047852 0.000000
0.484283 0.041656 0.000000
0.527618 0.034637 0.000000
0.572205 0.027313 0.000000
0.617889 0.027100 0.000000
0.665649 0.027100 0.000000
0.712128 0.027069 0.000000
0.749451 0.027069 0.000000
0.781555 0.027069 0.000000
0.809906 0.027069 0.000000
0.835785 0.027069 0.000000
0.860046 0.027069 0.000000
0.883209 0.027069 0.000000
0.905029 0.027069 0.000000
0.926270 0.027069 0.000000
0.946442 0.027069 0.000000
0.962463 0.027069 0.000000
0.971100 0.027069 0.000000
0.979767 0.027069 0.000000
0.988403 0.027069 0.000000
0.997070 0.027069 0.000000
0.000122 0.124878 0.000183
0.009277 0.124603 0.000183
0.033936 0.122620 0.000183
0.089630 0.120605 0.000183
0.145325 0.118561 0.000305
0.194794 0.115631 0.000183
0.237823 0.112885 0.000153
0.278442 0.109863 0.000122
0.317993 0.106293 0.000000
0.357758 0.101685 0.000000
0.397491 0.096619 0.000000
0.437775 0.090851 0.000000
0.479340 0.084259 0.000000
0.522400 0.076599 0.000000
0.567139 0.067627 0.000000
0.613586 0.058136 0.000000
0.662476 0.048004 0.000000
0.710388 0.038635 0.000000
0.748505 0.036102 0.000000
0.781219 0.036011 0.000000
0.809601 0.035950 0.000000
0.835388 0.035950 0.000000
0.859802 0.035950 0.000000
0.882904 0.035950 0.000000
0.904877 0.035950 0.000000
0.926178 0.035950 0.000000
0.946381 0.035950 0.000000
0.962463 0.035950 0.000000
0.971100 0.035950 0.000000
0.979767 0.035950 0.000000
0.988403 0.035950 0.000000
0.997070 0.035950 0.000000
0.000000 0.168121 0.000305
0.009155 0.167877 0.000305
0.026306 0.166412 0.000305
0.081024 0.164856 0.000305
0.138245 0.163177 0.000305
0.189697 0.161255 0.000305
0.233734 0.158997 0.000275
0.274628 0.156097 0.000122
0.314575 0.153107 0.000000
0.354248 0.149536 0.000000
0.394257 0.144836 0.000000
0.434631 0.139587 0.000000
0.475891 0.132904 0.000000
0.518219 0.125214 0.000000
0.562256 0.116364 0.000000
0.607208 0.105652 0.000000
0.654510 0.093628 0.000000
0.703217 0.080872 0.000000
0.743286 0.067810 0.000000
0.778381 0.053223 0.000000
0.808289 0.045105 0.000000
0.834625 0.044891 0.000000
0.859619 0.044830 0.000000
0.882751 0.044800 0.000000
0.904724 0.044800 0.000000
0.926056 0.044800 0.000000
0.946289 0.044800 0.000000
0.962463 0.044800 0.000000
0.971100 0.044800 0.000000
0.979767 0.044800 0.000000
0.988403 0.044800 0.000000
0.997070 0.044800 0.000000
0.000000 0.206390 0.000305
0.009155 0.206085 0.000305
0.018982 0.204956 0.000305
0.071625 0.203705 0.000305
0.129028 0.202484 0.000305
0.183502 0.201019 0.000305
0.228790 0.199341 0.000244
0.270752 0.197388 0.000122
0.311188 0.195160 0.000000
0.351227 0.192535 0.000000
0.391205 0.189423 0.000000
0.431824 0.185425 0.000000
0.473236 0.180664 0.000000
0.515533 0.175079 0.000000
0.559204 0.168243 0.000000
0.604248 0.159485 0.000000
0.651001 0.147888 0.000000
0.699188 0.133698 0.000000
0.738617 0.118378 0.000000
0.772217 0.102448 0.000000
0.802185 0.085266 0.000000
0.830322 0.068756 0.000000
0.857269 0.056213 0.000000
0.881744 0.053802 0.000000
0.904572 0.053680 0.000000
0.925903 0.053650 0.000000
0.946228 0.053650 0.000000
0.962463 0.053650 0.000000
0.971100 0.053650 0.000000
0.979767 0.053650 0.000000
0.988403 0.053650 0.000000
0.997070 0.053650 0.000000
0.000000 0.241882 0.000305
0.009155 0.241394 0.000305
0.018158 0.240448 0.000305
0.062225 0.239380 0.000305
0.118652 0.238403 0.000427
0.176239 0.237518 0.000397
0.223602 0.236145 0.000244
0.266418 0.234558 0.000000
0.307434 0.232727 0.000000
0.347900 0.230682 0.000000
0.388306 0.228210 0.000000
0.429169 0.225372 0.000000
0.470703 0.221863 0.000000
0.513214 0.217560 0.000000
0.556915 0.212494 0.000000
0.601837 0.206238 0.000000
0.648468 0.198669 0.000000
0.696686 0.189240 0.000000
0.736694 0.176544 0.000000
0.770142 0.160492 0.000000
0.799530 0.142578 0.000000
0.826294 0.123352 0.000000
0.851654 0.101898 0.000000
0.876617 0.081696 0.000000
0.901855 0.065369 0.000000
0.924683 0.062592 0.000000
0.946136 0.062469 0.000000
0.962463 0.062469 0.000000
0.971100 0.062469 0.000000
0.979767 0.062469 0.000000
0.988403 0.062469 0.000000
0.997070 0.062469 0.000000
0.000000 0.276031 0.000336
0.009155 0.275879 0.000336
0.018158 0.275085 0.000336
0.052063 0.273895 0.000336
0.106537 0.273285 0.000427
0.167633 0.272339 0.000397
0.217438 0.271454 0.000214
0.261444 0.270203 0.000000
0.303223 0.268646 0.000000
0.344177 0.266846 0.000000
0.384979 0.265106 0.000000
0.426514 0.262695 0.000000
0.468323 0.259857 0.000000
0.510773 0.256378 0.000000
0.554657 0.252411 0.000000
0.599854 0.247406 0.000000
0.646881 0.241425 0.000000
0.695160 0.234436 0.000000
0.735535 0.226044 0.000000
0.769073 0.215576 0.000000
0.798553 0.202576 0.000000
0.825226 0.186035 0.000000
0.850037 0.165344 0.000000
0.873474 0.141083 0.000000
0.896210 0.114838 0.000000
0.919312 0.091034 0.000000
0.943268 0.071472 0.000000
0.961853 0.071381 0.000000
0.971100 0.071259 0.000000
0.979767 0.071259 0.000000
0.988403 0.071259 0.000000
0.997070 0.071259 0.000000
0.000000 0.310089 0.000427
0.009155 0.309967 0.000427
0.018158 0.309235 0.000427
0.040741 0.308350 0.000427
0.093628 0.307281 0.000427
0.156616 0.306763 0.000397
0.209930 0.306030 0.000122
0.255310 0.304962 0.000000
0.298309 0.303894 0.000000
0.339905 0.302490 0.000000
0.381226 0.300720 0.000000
0.423126 0.298645 0.000000
0.465302 0.296265 0.000000
0.508270 0.293488 0.000000
0.552521 0.290192 0.000000
0.597900 0.285980 0.000000
0.645081 0.281128 0.000000
0.693665 0.275421 0.000000
0.734619 0.268555 0.000000
0.768402 0.260620 0.000000
0.798035 0.251099 0.000000
0.824829 0.239777 0.000000
0.849548 0.225861 0.000000
0.872772 0.207123 0.000000
0.895020 0.183319 0.000000
0.916565 0.154633 0.000000
0.937378 0.122589 0.000000
0.958679 0.095734 0.000000
0.969788 0.080231 0.000000
0.979767 0.080139 0.000000
0.988403 0.080078 0.000000
0.997070 0.080078 0.000000
0.000000 0.344177 0.000427
0.009155 0.344086 0.000427
0.018127 0.343445 0.000427
0.030060 0.342499 0.000427
0.079315 0.341461 0.000427
0.142365 0.341003 0.000397
0.200867 0.340424 0.000122
0.248657 0.339478 0.000000
0.292328 0.338654 0.000000
0.335114 0.337311 0.000000
0.376953 0.336121 0.000000
0.419312 0.334290 0.000000
0.461975 0.332184 0.000000
0.505219 0.329803 0.000000
0.549652 0.326996 0.000000
0.595490 0.323669 0.000000
0.643036 0.319427 0.000000
0.691803 0.314575 0.000000
0.733551 0.309021 0.000000
0.767761 0.302368 0.000000
0.797577 0.294739 0.000000
0.824585 0.285583 0.000000
0.849335 0.275360 0.000000
0.872559 0.262848 0.000000
0.894867 0.246765 0.000000
0.916107 0.225372 0.000000
0.936371 0.198364 0.000000
0.955627 0.165405 0.000000
0.967010 0.125854 0.000000
0.978088 0.092560 0.000000
0.987518 0.088989 0.000000
0.997070 0.088867 0.000000
0.000000 0.378296 0.000427
0.009155 0.378174 0.000427
0.018127 0.377625 0.000427
0.027069 0.377014 0.000427
0.064880 0.376007 0.000427
0.125061 0.375305 0.000397
0.189423 0.374847 0.000122
0.240143 0.374298 0.000000
0.285889 0.373413 0.000000
0.329285 0.372498 0.000000
0.372162 0.371216 0.000000
0.414978 0.369873 0.000000
0.458130 0.368164 0.000000
0.501984 0.366028 0.000000
0.546783 0.363556 0.000000
0.592651 0.360596 0.000000
0.640503 0.357147 0.000000
0.689697 0.352814 0.000000
0.732300 0.348053 0.000000
0.767090 0.342529 0.000000
0.797119 0.335999 0.000000
0.824158 0.328491 0.000000
0.849213 0.320007 0.000000
0.872528 0.309937 0.000000
0.894836 0.297943 0.000000
0.916168 0.283752 0.000000
0.936462 0.265900 0.000000
0.955719 0.244171 0.000000
0.966583 0.211212 0.000000
0.975311 0.165863 0.000000
0.984985 0.116699 0.000000
0.995636 0.097809 0.000000
0.000000 0.413055 0.000427
0.009155 0.412964 0.000427
0.018127 0.412445 0.000427
0.027069 0.411926 0.000427
0.049469 0.411041 0.000427
0.106323 0.410034 0.000366
0.173950 0.409760 0.000092
0.229950 0.409271 0.000000
0.277496 0.408722 0.000000
0.322754 0.408051 0.000000
0.366455 0.406799 0.000000
0.410187 0.405762 0.000000
0.453857 0.404266 0.000000
0.498108 0.402618 0.000000
0.543335 0.400391 0.000000
0.589935 0.397797 0.000000
0.637878 0.394623 0.000000
0.687500 0.390961 0.000000
0.730988 0.386658 0.000000
0.766205 0.381836 0.000000
0.796661 0.376221 0.000000
0.823975 0.369720 0.000000
0.849060 0.362488 0.000000
0.872437 0.353973 0.000000
0.894897 0.344177 0.000000
0.916321 0.332611 0.000000
0.936676 0.318787 0.000000
0.956329 0.304352 0.000000
0.966888 0.283783 0.000000
0.975403 0.254425 0.000000
0.983948 0.211212 0.000000
0.992889 0.152740 0.000000
0.000000 0.448364 0.000366
0.009155 0.448303 0.000366
0.018127 0.447815 0.000366
0.027069 0.447357 0.000366
0.036591 0.446777 0.000366
0.086182 0.445526 0.000336
0.153290 0.445221 0.000000
0.217346 0.444885 0.000000
0.267914 0.444489 0.000000
0.314880 0.443817 0.000000
0.359558 0.443054 0.000000
0.404297 0.441925 0.000000
0.449097 0.440826 0.000000
0.494049 0.439514 0.000000
0.539673 0.437531 0.000000
0.586670 0.435242 0.000000
0.635284 0.432556 0.000000
0.684998 0.429474 0.000000
0.729645 0.425537 0.000000
0.765533 0.421234 0.000000
0.796143 0.416138 0.000000
0.823700 0.410492 0.000000
0.848969 0.403992 0.000000
0.872528 0.396393 0.000000
0.894989 0.388062 0.000000
0.916565 0.378265 0.000000
0.936951 0.366730 0.000000
0.956726 0.355103 0.000000
0.967194 0.339966 0.000000
0.975769 0.320679 0.000000
0.984192 0.294220 0.000000
0.992706 0.255341 0.000000
0.000000 0.484375 0.000305
0.009155 0.484314 0.000305
0.018127 0.483917 0.000305
0.027069 0.483459 0.000305
0.035980 0.482971 0.000275
0.067047 0.481842 0.000214
0.130035 0.481232 0.000000
0.200592 0.480896 0.000000
0.256226 0.480896 0.000000
0.305389 0.480469 0.000000
0.351807 0.479645 0.000000
0.397400 0.478882 0.000000
0.443390 0.477936 0.000000
0.488983 0.476624 0.000000
0.535278 0.475189 0.000000
0.582703 0.473114 0.000000
0.631927 0.470703 0.000000
0.682190 0.467926 0.000000
0.727966 0.464752 0.000000
0.764435 0.460815 0.000000
0.795624 0.456360 0.000000
0.823425 0.451111 0.000000
0.848938 0.445404 0.000000
0.872528 0.438751 0.000000
0.895172 0.431274 0.000000
0.916840 0.422791 0.000000
0.937317 0.412598 0.000000
0.957245 0.402405 0.000000
0.967529 0.390228 0.000000
0.976135 0.374878 0.000000
0.984619 0.355682 0.000000
0.993073 0.331635 0.000000
0.000000 0.521637 0.000153
0.009155 0.521576 0.000153
0.018127 0.521149 0.000214
0.027069 0.520569 0.000214
0.035950 0.520203 0.000214
0.050110 0.519318 0.000122
0.103638 0.518280 0.000000
0.176971 0.518188 0.000000
0.241516 0.518005 0.000000
0.293976 0.517914 0.000000
0.342621 0.517487 0.000000
0.389343 0.516846 0.000000
0.436310 0.515991 0.000000
0.482849 0.515015 0.000000
0.529999 0.513397 0.000000
0.578094 0.511902 0.000000
0.627747 0.509705 0.000000
0.678894 0.507172 0.000000
0.725952 0.504303 0.000000
0.763245 0.500854 0.000000
0.794861 0.496857 0.000000
0.823120 0.492340 0.000000
0.848755 0.486938 0.000000
0.872620 0.480988 0.000000
0.895203 0.474335 0.000000
0.917114 0.466644 0.000000
0.937775 0.457733 0.000000
0.957733 0.448822 0.000000
0.967865 0.437927 0.000000
0.976501 0.424866 0.000000
0.985046 0.409271 0.000000
0.993469 0.390503 0.000000
0.000000 0.560150 0.000000
0.009155 0.560059 0.000000
0.018127 0.559540 0.000061
0.027069 0.558929 0.000061
0.035950 0.558594 0.000061
0.044830 0.558105 0.000061
0.078339 0.556732 0.000000
0.146912 0.556305 0.000000
0.220856 0.556519 0.000000
0.279724 0.556396 0.000000
0.331329 0.556274 0.000000
0.380127 0.555756 0.000000
0.428162 0.555206 0.000000
0.475891 0.554382 0.000000
0.523865 0.553314 0.000000
0.572845 0.551819 0.000000
0.623199 0.550049 0.000000
0.674774 0.547760 0.000000
0.723511 0.545135 0.000000
0.761932 0.541901 0.000000
0.794006 0.538239 0.000000
0.822601 0.534149 0.000000
0.848602 0.529510 0.000000
0.872559 0.523804 0.000000
0.895386 0.517731 0.000000
0.917267 0.510742 0.000000
0.938263 0.502686 0.000000
0.958344 0.494720 0.000000
0.968292 0.485138 0.000000
0.976898 0.473755 0.000000
0.985474 0.460388 0.000000
0.993896 0.444489 0.000000
0.000000 0.599304 0.000000
0.009155 0.599243 0.000000
0.018127 0.598724 0.000000
0.027069 0.598389 0.000000
0.035950 0.598053 0.000000
0.044800 0.597687 0.000000
0.059021 0.596802 0.000000
0.113800 0.595581 0.000000
0.192139 0.595734 0.000000
0.261292 0.596039 0.000000
0.317322 0.596130 0.000000
0.368805 0.595825 0.000000
0.418854 0.595459 0.000000
0.468048 0.594971 0.000000
0.516937 0.594055 0.000000
0.567017 0.592896 0.000000
0.617981 0.591553 0.000000
0.670410 0.589447 0.000000
0.721222 0.587250 0.000000
0.760406 0.584290 0.000000
0.793274 0.580841 0.000000
0.822174 0.577087 0.000000
0.848419 0.572876 0.000000
0.872681 0.567841 0.000000
0.895630 0.562103 0.000000
0.917725 0.555511 0.000000
0.938690 0.548218 0.000000
0.958618 0.540833 0.000000
0.968903 0.532227 0.000000
0.977417 0.522034 0.000000
0.985931 0.510376 0.000000
0.994385 0.496918 0.000000
0.000000 0.639954 0.000000
0.009155 0.639893 0.000000
0.018127 0.639587 0.000000
0.027069 0.639282 0.000000
0.035950 0.638977 0.000000
0.044800 0.638550 0.000000
0.053650 0.637909 0.000000
0.082611 0.636505 0.000000
0.156128 0.636200 0.000000
0.235931 0.636658 0.000000
0.299591 0.636993 0.000000
0.354797 0.636902 0.000000
0.407318 0.637024 0.000000
0.458710 0.636780 0.000000
0.508942 0.636169 0.000000
0.559814 0.635223 0.000000
0.611969 0.634003 0.000000
0.665253 0.632538 0.000000
0.718170 0.630310 0.000000
0.758545 0.628021 0.000000
0.792297 0.625031 0.000000
0.821869 0.621460 0.000000
0.848358 0.617645 0.000000
0.872711 0.613007 0.000000
0.895813 0.607819 0.000000
0.918243 0.601807 0.000000
0.939240 0.594360 0.000000
0.958710 0.587341 0.000000
0.969452 0.579742 0.000000
0.977997 0.570435 0.000000
0.986450 0.560181 0.000000
0.994965 0.548279 0.000000
0.000000 0.681732 0.000000
0.009155 0.681702 0.000000
0.018127 0.681396 0.000000
0.027069 0.681122 0.000000
0.035950 0.680847 0.000000
0.044800 0.680542 0.000000
0.053650 0.679932 0.000000
0.064606 0.678864 0.000000
0.114685 0.677704 0.000000
0.200073 0.678467 0.000000
0.276123 0.679016 0.000000
0.337769 0.679321 0.000000
0.393097 0.679413 0.000000
0.447083 0.679718 0.000000
0.499329 0.679382 0.000000
0.551300 0.678772 0.000000
0.604767 0.677673 0.000000
0.659027 0.676636 0.000000
0.713531 0.674774 0.000000
0.756226 0.672760 0.000000
0.790863 0.670227 0.000000
0.821014 0.667084 0.000000
0.848053 0.663422 0.000000
0.872803 0.659119 0.000000
0.896088 0.654572 0.000000
0.918640 0.649048 0.000000
0.939636 0.641876 0.000000
0.958984 0.634705 0.000000
0.970001 0.627899 0.000000
0.978546 0.619629 0.000000
0.987061 0.610138 0.000000
0.995605 0.599243 0.000000
0.000000 0.722412 0.000000
0.009155 0.722351 0.000000
0.018127 0.722137 0.000000
0.027069 0.721893 0.000000
0.035950 0.721619 0.000000
0.044800 0.721130 0.000000
0.053650 0.720856 0.000000
0.062469 0.720367 0.000000
0.083435 0.719208 0.000000
0.155060 0.718964 0.000000
0.243561 0.719849 0.000000
0.316010 0.720642 0.000000
0.376190 0.720947 0.000000
0.432922 0.721375 0.000000
0.487701 0.721680 0.000000
0.541321 0.721466 0.000000
0.595856 0.720947 0.000000
0.651550 0.719971 0.000000
0.707367 0.719513 0.000000
0.753021 0.718628 0.000000
0.789246 0.716461 0.000000
0.819885 0.713867 0.000000
0.847534 0.710419 0.000000
0.872650 0.706360 0.000000
0.896149 0.702087 0.000000
0.919037 0.697052 0.000000
0.940216 0.690552 0.000000
0.959167 0.683716 0.000000
0.970612 0.677338 0.000000
0.979156 0.669525 0.000000
0.987701 0.660889 0.000000
0.996216 0.650879 0.000000
0.000000 0.758026 0.000000
0.009155 0.757996 0.000000
0.018127 0.757812 0.000000
0.027069 0.757660 0.000000
0.035950 0.757477 0.000000
0.044800 0.757202 0.000000
0.053650 0.756989 0.000000
0.062469 0.756744 0.000000
0.071320 0.756195 0.000000
0.108459 0.755188 0.000000
0.197540 0.755798 0.000000
0.285278 0.756805 0.000000
0.355255 0.757507 0.000000
0.415863 0.758118 0.000000
0.473724 0.758820 0.000000
0.529480 0.758850 0.000000
0.585449 0.758667 0.000000
0.642639 0.758362 0.000000
0.700012 0.757812 0.000000
0.748871 0.757660 0.000000
0.786499 0.756104 0.000000
0.818542 0.754211 0.000000
0.846588 0.752106 0.000000
0.872101 0.749298 0.000000
0.895966 0.746033 0.000000
0.919067 0.742035 0.000000
0.940643 0.737091 0.000000
0.959229 0.731812 0.000000
0.971069 0.726837 0.000000
0.979706 0.721100 0.000000
0.988251 0.713318 0.000000
0.996796 0.704010 0.000000
0.000000 0.788483 0.000000
0.009155 0.788452 0.000000
0.018127 0.788330 0.000000
0.027069 0.788177 0.000000
0.035950 0.788055 0.000000
0.044800 0.787933 0.000000
0.053650 0.787750 0.000000
0.062469 0.787598 0.000000
0.071259 0.787415 0.000000
0.085754 0.786530 0.000000
0.143738 0.786224 0.000000
0.243683 0.787384 0.000000
0.327820 0.788422 0.000000
0.395020 0.789215 0.000000
0.456787 0.790039 0.000000
0.515503 0.790558 0.000000
0.573425 0.790619 0.000000
0.631927 0.790497 0.000000
0.691071 0.790436 0.000000
0.743561 0.789978 0.000000
0.783295 0.789124 0.000000
0.816467 0.787872 0.000000
0.845459 0.786438 0.000000
0.871246 0.784515 0.000000
0.895447 0.782318 0.000000
0.918396 0.779785 0.000000
0.940155 0.776245 0.000000
0.958954 0.772888 0.000000
0.971283 0.769409 0.000000
0.979919 0.766113 0.000000
0.988556 0.760223 0.000000
0.997162 0.753632 0.000000
0.000000 0.815765 0.000000
0.009155 0.815735 0.000000
0.018127 0.815643 0.000000
0.027069 0.815552 0.000000
0.035950 0.815430 0.000000
0.044800 0.815338 0.000000
0.053650 0.815186 0.000000
0.062469 0.815063 0.000000
0.071259 0.814911 0.000000
0.080078 0.814758 0.000000
0.103882 0.814026 0.000000
0.184479 0.814423 0.000000
0.288147 0.815643 0.000000
0.368530 0.816620 0.000000
0.435913 0.817719 0.000000
0.498596 0.818542 0.000000
0.558655 0.818756 0.000000
0.619202 0.818939 0.000000
0.680389 0.819092 0.000000
0.737427 0.819031 0.000000
0.779144 0.818481 0.000000
0.813721 0.817596 0.000000
0.843506 0.816467 0.000000
0.870239 0.815216 0.000000
0.894501 0.813507 0.000000
0.917480 0.811554 0.000000
0.939148 0.809143 0.000000
0.958313 0.806641 0.000000
0.971313 0.804504 0.000000
0.979980 0.801453 0.000000
0.988617 0.797791 0.000000
0.997253 0.793701 0.000000
0.000000 0.840820 0.000000
0.009155 0.840790 0.000000
0.018127 0.840729 0.000000
0.027069 0.840668 0.000000
0.035950 0.840576 0.000000
0.044800 0.840485 0.000000
0.053650 0.840363 0.000000
0.062469 0.840271 0.000000
0.071259 0.840149 0.000000
0.080078 0.839996 0.000000
0.088867 0.839752 0.000000
0.125946 0.839417 0.000000
0.233337 0.840271 0.000000
0.333527 0.841553 0.000000
0.409973 0.842743 0.000000
0.478088 0.843842 0.000000
0.541504 0.844330 0.000000
0.603851 0.844818 0.000000
0.667206 0.845184 0.000000
0.728546 0.845215 0.000000
0.774200 0.844879 0.000000
0.810242 0.844391 0.000000
0.841125 0.843536 0.000000
0.868408 0.842529 0.000000
0.893188 0.841187 0.000000
0.916107 0.839874 0.000000
0.937927 0.838196 0.000000
0.957520 0.836243 0.000000
0.971313 0.834686 0.000000
0.979980 0.832611 0.000000
0.988617 0.829895 0.000000
0.997253 0.826843 0.000000
0.000000 0.864441 0.000000
0.009155 0.864441 0.000000
0.018127 0.864349 0.000000
0.027069 0.864288 0.000000
0.035950 0.864197 0.000000
0.044800 0.864136 0.000000
0.053650 0.864075 0.000000
0.062469 0.863983 0.000000
0.071259 0.863861 0.000000
0.080078 0.863770 0.000000
0.088867 0.863647 0.000000
0.101562 0.863037 0.000000
0.157684 0.863159 0.000000
0.281372 0.864746 0.000000
0.376251 0.865936 0.000000
0.452087 0.867157 0.000000
0.520966 0.868103 0.000000
0.586090 0.868744 0.000000
0.651428 0.869232 0.000000
0.716339 0.869507 0.000000
0.767395 0.869507 0.000000
0.805847 0.869171 0.000000
0.838226 0.868713 0.000000
0.866516 0.867706 0.000000
0.891479 0.866791 0.000000
0.914520 0.865784 0.000000
0.936493 0.864685 0.000000
0.956635 0.863159 0.000000
0.971313 0.861938 0.000000
0.979980 0.860321 0.000000
0.988617 0.858429 0.000000
0.997253 0.856018 0.000000
0.000000 0.886780 0.000000
0.009155 0.886780 0.000000
0.018127 0.886719 0.000000
0.027069 0.886658 0.000000
0.035950 0.886597 0.000000
0.044800 0.886536 0.000000
0.053650 0.886475 0.000000
0.062469 0.886383 0.000000
0.071259 0.886322 0.000000
0.080078 0.886230 0.000000
0.088867 0.886108 0.000000
0.097626 0.885986 0.000000
0.121338 0.885498 0.000000
0.200684 0.886261 0.000000
0.326630 0.887939 0.000000
0.419189 0.889313 0.000000
0.495453 0.890625 0.000000
0.564972 0.891479 0.000000
0.632996 0.892181 0.000000
0.701324 0.892578 0.000000
0.758972 0.892700 0.000000
0.800476 0.892670 0.000000
0.834595 0.892181 0.000000
0.863770 0.891541 0.000000
0.889313 0.890778 0.000000
0.912689 0.889954 0.000000
0.934906 0.889313 0.000000
0.955627 0.888275 0.000000
0.971313 0.887085 0.000000
0.979980 0.885590 0.000000
0.988617 0.884064 0.000000
0.997253 0.882324 0.000000
0.000000 0.908295 0.000000
0.009155 0.908295 0.000000
0.018127 0.908234 0.000000
0.027069 0.908203 0.000000
0.035950 0.908142 0.000000
0.044800 0.908112 0.000000
0.053650 0.908051 0.000000
0.062469 0.907990 0.000000
0.071259 0.907928 0.000000
0.080078 0.907837 0.000000
0.088867 0.907745 0.000000
0.097626 0.907623 0.000000
0.106384 0.907501 0.000000
0.142731 0.907318 0.000000
0.252014 0.908539 0.000000
0.372650 0.910431 0.000000
0.463318 0.912048 0.000000
