Postproduction/IWLTBAP - Humble/LUTs by IWLTBAP (3DL)/UTILITY/BMDFilm BMPC to Rec.709/U-BMDFILM-BMPC-V1-LTR.3dl
# Copyright: (C) Copyright 2010-2018 by IWLTBAP SAS
# Cannot be resold, shared or otherwise redistributed
# Website: https://luts.iwltbap.com
0 128 256 384 512 640 768 896 1023
0 0 0
0 0 624
0 0 1276
0 0 1897
0 0 2585
0 0 3216
0 0 3619
0 0 3938
0 0 4083
0 489 1
0 448 459
0 371 1201
0 245 1846
0 143 2553
0 143 3206
0 143 3615
0 143 3937
0 143 4083
0 1095 1
0 1076 185
0 1044 1066
0 984 1752
0 859 2450
0 566 3137
0 284 3603
0 283 3935
0 283 4083
0 1638 2
0 1626 144
0 1606 752
0 1573 1612
0 1513 2355
0 1402 3081
0 1186 3531
0 608 3894
0 422 4083
0 2215 0
0 2206 143
0 2192 284
0 2170 1326
0 2134 2198
0 2066 3007
0 1949 3506
0 1745 3862
0 1241 4055
0 2854 0
0 2848 143
0 2839 283
0 2821 521
0 2802 1891
0 2761 2851
0 2681 3466
0 2544 3848
0 2319 4056
0 3366 0
0 3364 143
0 3361 283
0 3356 422
0 3350 947
0 3341 2521
0 3315 3388
0 3262 3820
0 3170 4061
0 3730 0
0 3729 143
0 3727 283
0 3725 422
0 3722 561
0 3721 1594
0 3714 3182
0 3694 3762
0 3662 4062
0 4025 0
0 4025 143
0 4025 283
0 4024 422
0 4023 561
0 4022 700
0 4033 2407
0 4037 3642
0 4024 4060
646 0 0
502 0 587
226 0 1260
143 0 1887
143 0 2578
143 0 3214
143 0 3618
143 0 3938
143 0 4083
570 464 1
416 422 417
176 346 1185
143 222 1838
143 143 2546
143 143 3203
143 143 3614
143 143 3936
143 143 4083
421 1084 2
275 1064 160
143 1031 1045
143 969 1742
143 841 2442
143 539 3137
143 283 3603
143 283 3934
143 283 4083
212 1630 2
144 1619 144
143 1599 718
143 1565 1599
143 1505 2347
143 1392 3077
143 1173 3530
143 589 3894
143 422 4083
143 2209 1
143 2201 143
143 2187 284
143 2165 1308
143 2129 2189
143 2060 3002
143 1943 3504
143 1737 3861
143 1220 4055
143 2851 0
143 2844 143
143 2835 283
143 2818 503
143 2799 1879
143 2757 2846
143 2676 3465
143 2539 3847
143 2313 4056
143 3365 0
143 3363 143
143 3360 283
143 3355 422
143 3349 928
143 3340 2513
143 3314 3386
143 3260 3819
143 3168 4061
143 3729 0
143 3728 143
143 3727 283
143 3725 422
143 3721 561
143 3720 1568
143 3714 3178
143 3693 3761
143 3662 4062
143 4025 0
143 4025 143
143 4024 283
143 4024 422
143 4023 561
143 4022 700
143 4033 2396
143 4037 3641
143 4023 4060
1305 0 0
1243 0 517
1120 0 1230
838 0 1868
297 0 2565
283 0 3210
283 0 3616
283 0 3937
283 0 4083
1264 417 0
1204 375 341
1073 300 1155
776 186 1820
284 143 2534
283 143 3199
283 143 3612
283 143 3936
283 143 4083
1203 1065 0
1139 1046 146
985 1016 1013
621 951 1728
283 810 2431
283 494 3136
283 283 3604
283 283 3934
283 283 4083
1101 1620 0
1026 1608 143
847 1589 653
437 1554 1584
283 1490 2334
283 1376 3072
283 1149 3528
283 559 3896
283 422 4083
876 2200 0
759 2190 143
537 2175 283
296 2155 1279
283 2119 2175
283 2050 2997
283 1932 3502
283 1723 3860
283 1187 4055
382 2840 0
314 2836 143
283 2828 283
283 2812 478
283 2793 1859
283 2750 2836
283 2670 3462
283 2531 3846
283 2303 4056
283 3363 0
283 3361 143
283 3358 283
283 3353 422
283 3346 899
283 3338 2500
283 3311 3382
283 3257 3818
283 3167 4060
283 3729 0
283 3728 143
283 3726 283
283 3724 422
283 3720 561
283 3719 1519
283 3713 3172
283 3692 3759
283 3660 4062
283 4025 0
283 4025 143
283 4024 283
283 4024 422
283 4023 561
283 4022 700
283 4032 2376
283 4037 3639
283 4023 4060
1937 0 0
1898 0 387
1823 0 1177
1687 0 1835
1403 0 2543
599 0 3203
422 0 3614
422 0 3936
422 0 4083
1902 333 0
1866 292 228
1794 224 1098
1663 148 1788
1372 143 2512
557 143 3192
422 143 3609
422 143 3935
422 143 4083
1856 1030 0
1817 1009 143
1746 978 940
1592 913 1699
1247 771 2414
521 442 3127
422 283 3602
422 283 3933
422 283 4083
1798 1602 0
1757 1590 143
1691 1573 516
1515 1547 1555
1090 1486 2328
451 1357 3060
422 1110 3525
422 509 3899
422 422 4083
1697 2194 0
1651 2185 143
1570 2170 283
1371 2160 1221
835 2121 2170
422 2036 2986
422 1915 3499
422 1702 3859
422 1130 4055
1496 2846 0
1437 2838 143
1324 2826 283
1091 2808 439
493 2788 1843
422 2740 2821
422 2659 3459
422 2520 3845
422 2290 4056
963 3364 0
853 3360 143
670 3355 283
472 3349 422
422 3342 847
422 3334 2479
422 3307 3377
422 3252 3816
422 3160 4060
422 3727 0
422 3726 143
422 3725 283
422 3722 422
422 3719 561
422 3717 1439
422 3711 3161
422 3690 3756
422 3659 4062
422 4024 0
422 4024 143
422 4024 283
422 4023 422
422 4023 561
422 4021 700
422 4032 2343
422 4036 3635
422 4022 4059
2638 0 0
2611 0 196
2560 0 1077
2471 0 1776
2307 0 2504
1980 0 3189
1080 0 3608
561 0 3935
561 0 4083
2615 204 0
2593 174 143
2544 144 988
2457 143 1729
2291 143 2472
1957 143 3177
1029 143 3604
561 143 3934
561 143 4083
2555 958 0
2528 935 143
2487 898 784
2392 820 1640
2221 646 2378
1898 346 3120
958 283 3597
561 283 3931
561 283 4083
2518 1565 0
2490 1553 143
2452 1534 350
2362 1509 1482
2175 1452 2292
1768 1341 3051
819 1082 3515
561 453 3911
561 422 4083
2459 2174 0
2430 2165 143
2380 2150 283
2308 2143 1063
2095 2115 2131
1572 2053 2985
632 1911 3496
561 1668 3856
561 1025 4057
2353 2843 0
2320 2837 143
2266 2826 283
2181 2812 422
1937 2816 1780
1199 2772 2826
565 2651 3456
561 2501 3842
561 2268 4056
2145 3378 0
2107 3376 143
2040 3371 283
1925 3364 422
1674 3359 705
713 3350 2474
561 3301 3369
561 3245 3813
561 3150 4060
1684 3742 0
1616 3739 143
1484 3736 283
1236 3729 422
857 3719 561
565 3715 1358
561 3709 3144
561 3688 3753
561 3656 4062
602 4025 0
571 4024 143
561 4023 283
561 4023 422
561 4022 561
561 4021 700
561 4031 2288
561 4035 3630
561 4020 4058
3247 0 0
3238 0 143
3222 0 869
3192 0 1674
3133 0 2435
2996 0 3163
2665 0 3597
1798 0 3929
700 0 4083
3243 143 0
3234 143 143
3218 143 736
3187 143 1621
3127 143 2402
2986 143 3151
2650 143 3592
1761 143 3928
700 143 4083
3196 805 0
3187 772 143
3172 714 473
3135 604 1535
3070 407 2316
2955 283 3113
2622 283 3585
1691 283 3926
700 283 4083
3185 1494 0
3175 1480 143
3159 1457 283
3135 1432 1346
3059 1372 2224
2891 1245 3021
2526 933 3506
1543 425 3904
700 422 4083
3172 2129 0
3161 2121 143
3143 2105 283
3128 2096 769
3048 2074 2049
2860 2012 2948
2451 1890 3502
1150 1660 3867
700 889 4062
3146 2822 0
3134 2815 143
3112 2804 283
3077 2787 422
3011 2802 1619
2779 2771 2772
2264 2694 3468
824 2531 3858
700 2232 4055
3076 3380 0
3061 3377 143
3031 3374 283
2979 3368 422
2899 3365 565
2603 3387 2374
1786 3362 3382
700 3268 3823
700 3132 4060
2886 3757 0
2861 3756 143
2818 3753 283
2744 3750 422
2618 3744 561
2323 3754 1039
959 3752 3141
700 3689 3751
700 3651 4062
2437 4049 0
2399 4048 143
2332 4048 283
2218 4046 422
1992 4042 561
1410 4033 700
700 4036 2185
700 4033 3621
700 4018 4057
3640 0 0
3637 0 143
3631 0 419
3619 0 1497
3597 0 2327
3556 0 3118
3483 0 3578
3242 0 3854
2590 0 4073
3638 143 0
3635 143 143
3629 143 318
3617 143 1431
3594 143 2289
3554 143 3104
3480 143 3574
3236 143 3852
2570 143 4073
3604 493 0
3603 455 143
3600 399 283
3587 331 1326
3581 283 2220
3550 283 3078
3476 283 3566
3228 283 3850
2535 283 4073
3596 1371 0
3592 1354 143
3585 1326 283
3576 1296 1052
3547 1224 2114
3498 1036 2964
3417 605 3494
3219 422 3852
2475 422 4073
3596 2051 0
3592 2042 143
3586 2025 283
3582 2008 464
3560 1993 1911
3512 1927 2880
3427 1792 3488
3220 1517 3870
2336 778 4060
3598 2767 0
3593 2761 143
3586 2749 283
3575 2733 422
3568 2747 1304
3512 2723 2679
3418 2648 3450
3182 2506 3865
1892 2242 4070
3587 3365 0
3582 3363 143
3575 3359 283
3563 3353 422
3547 3349 561
3496 3381 2218
3378 3366 3352
3046 3319 3835
1197 3201 4074
3548 3756 0
3544 3755 143
3536 3753 283
3523 3751 422
3499 3747 561
3461 3760 792
3277 3780 3039
2691 3760 3767
842 3689 4072
3463 4057 0
3456 4057 143
3444 4057 283
3425 4057 422
3391 4056 561
3324 4056 700
3045 4068 1471
1536 4068 3623
838 4021 4057
3946 0 0
3946 0 143
3946 0 283
3942 0 1116
3933 0 2140
3878 0 2968
3816 0 3459
3760 0 3832
3656 0 4045
3946 143 0
3946 143 143
3945 143 283
3941 143 999
3932 143 2097
3885 143 2959
3816 143 3454
3758 143 3830
3654 143 4045
3944 283 0
3945 283 143
3945 283 283
3941 283 777
3932 283 2023
3893 283 2940
3815 283 3445
3755 283 3825
3650 283 4045
3921 1141 0
3919 1115 143
3916 1068 283
3909 998 521
3892 868 1925
3867 590 2851
3813 422 3432
3751 422 3817
3644 422 4045
3928 1927 0
3926 1916 143
3923 1897 283
3918 1868 422
3915 1852 1656
3891 1780 2762
3854 1619 3456
3787 1211 3853
3641 578 4048
3933 2671 0
3931 2663 143
3929 2651 283
3924 2634 422
3924 2642 810
3904 2628 2531
3864 2551 3414
3801 2401 3852
3679 2104 4073
3930 3332 0
3929 3330 143
3927 3326 283
3924 3319 422
3919 3309 561
3899 3350 1964
3861 3336 3298
3795 3289 3820
3665 3184 4080
3917 3745 0
3915 3744 143
3913 3742 283
3908 3740 422
3899 3736 561
3884 3739 706
3838 3771 2904
3764 3758 3748
3608 3726 4082
3885 4059 0
3883 4059 143
3879 4059 283
3873 4059 422
3864 4059 561
3848 4059 700
3807 4070 1164
3698 4080 3581
3443 4079 4082
4083 0 0
4083 0 143
4083 0 283
4083 0 424
4081 0 1792
4056 0 2786
4045 0 3412
4045 0 3813
4046 0 4046
4083 143 0
4083 143 143
4083 143 283
4083 143 423
4082 143 1732
4055 143 2756
4045 143 3405
4045 143 3810
4046 143 4046
4083 283 0
4083 283 143
4083 283 283
4083 283 422
4082 283 1625
4060 283 2722
4045 283 3392
4045 283 3804
4046 283 4046
4070 541 0
4070 514 143
4072 475 283
4078 432 422
4075 422 1441
4068 422 2669
4045 422 3373
4045 422 3796
4046 422 4046
4069 1710 0
4069 1696 143
4069 1674 283
4069 1637 422
4070 1588 957
4068 1492 2552
4064 1211 3395
4053 677 3807
4046 561 4046
4078 2533 0
4078 2526 143
4077 2513 283
4077 2493 422
4078 2465 561
4080 2471 2263
4076 2391 3351
4073 2217 3827
4069 1859 4072
4084 3284 0
4084 3281 143
4084 3276 283
4084 3269 422
4084 3256 561
4084 3291 1314
4083 3279 3195
4081 3220 3794
4078 3079 4080
4084 3726 0
4084 3725 143
4084 3724 283
4084 3721 422
4084 3717 561
4084 3710 700
4084 3751 2669
4084 3737 3714
4082 3705 4083
4084 4058 0
4084 4057 143
4084 4057 283
4084 4056 422
4084 4055 561
4084 4053 700
4084 4054 898
4084 4080 3520
4082 4082 4083
