Postproduction/IWLTBAP - Humble/LUTs by IWLTBAP (3DL)/UTILITY/BMDFilm BMPC to Rec.709/U-BMDFILM-BMPC-V2-LTR.3dl
# Copyright: (C) Copyright 2010-2018 by IWLTBAP SAS
# Cannot be resold, shared or otherwise redistributed
# Website: https://luts.iwltbap.com
0 256 512 768 1023
0 0 0
0 0 316
0 0 1418
0 0 2688
986 928 4068
0 794 0
0 1056 1165
0 1026 2705
182 978 3572
394 1058 3941
0 2051 29
0 2146 839
26 2241 2362
263 2209 3339
505 2196 3840
446 2891 843
491 2936 1146
632 3043 2197
834 3114 3172
979 3106 3741
1292 3720 1642
1277 3743 1691
1326 3829 2493
1389 3874 3235
1498 3889 3877
562 0 0
1059 0 1110
1152 0 2497
1081 29 3441
1437 838 4095
955 953 0
1078 1062 1167
768 766 2882
62 132 3038
993 978 4073
652 2075 131
638 2163 833
60 2309 2442
279 2157 3414
670 2115 3894
928 2892 888
574 2974 934
668 3083 2153
830 3110 3171
956 3072 3740
1487 3727 1651
1297 3724 1646
1324 3825 2431
1386 3873 3203
1498 3889 3877
2489 0 15
2707 0 1243
2768 16 2799
2561 238 3725
2573 1187 4095
2564 758 18
2712 696 916
2784 27 2848
2413 228 3761
2407 1200 4095
2142 2140 431
2233 2241 559
2270 2264 2374
1756 1782 3822
2156 2106 4015
2001 2998 1104
1997 3065 1162
1980 3363 2165
1249 3302 3379
1920 3147 3866
2296 3830 1762
2259 3855 1778
1568 3819 1877
1514 3890 3158
2465 4004 3997
3494 204 451
3618 218 1251
3695 311 2521
3572 460 3539
3492 1682 3965
3470 750 477
3565 251 512
3734 319 2396
3559 453 3535
3441 1607 3980
3234 2058 421
3330 2020 454
3675 1819 2012
3563 1135 3582
3324 2111 3947
3127 3122 1385
3154 3151 1409
3379 3378 1942
3354 3306 3361
3268 3196 3964
3168 3978 2014
3173 3991 2034
3149 3998 2100
3442 4029 3476
3830 4073 4073
3851 430 700
3924 430 1248
3941 435 2386
3934 1146 3394
3876 2270 3889
3841 734 717
3838 421 709
3935 441 2248
3931 987 3324
3874 2168 3887
3816 2030 829
3833 1928 825
3974 1713 1977
3931 1787 3211
3891 2583 3908
3801 3108 1441
3806 3097 1427
3866 3085 1713
3988 3172 3247
3973 3435 4015
3910 4037 2560
3919 4037 2569
4018 4069 3478
4095 4095 4070
4095 4095 4095
