Postproduction/IWLTBAP - Humble/LUTs by IWLTBAP (3DL)/UTILITY/BMDFilm BMPC to Rec.709/U-BMDFILM-BMPC-V2-LTR.3dl
# Copyright: (C) Copyright 2010-2018 by IWLTBAP SAS
# Cannot be resold, shared or otherwise redistributed
# Website: https://luts.iwltbap.com
0 64 128 192 256 320 384 448 512 576 640 704 768 832 896 960 1023
0 0 0
0 0 0
0 0 0
0 0 57
0 0 316
0 0 738
0 0 997
0 0 1097
0 0 1418
0 0 1743
0 0 2068
0 0 2392
0 0 2688
1 15 2957
37 63 3200
61 85 3281
986 928 4068
0 0 0
0 0 0
0 0 0
0 0 202
0 26 608
22 100 1036
23 113 1363
0 25 1377
0 0 1399
0 0 1711
0 0 2035
0 0 2358
0 0 2655
0 11 2927
32 61 3179
55 80 3272
761 764 3987
0 0 0
0 59 0
0 178 233
0 245 556
0 320 977
8 370 1387
4 376 1748
0 308 1981
0 225 2150
0 223 2419
0 226 2675
0 236 2917
11 249 3124
53 269 3304
99 280 3455
124 291 3528
603 755 3947
0 378 0
0 423 15
0 546 291
0 654 725
0 690 1178
0 713 1595
0 713 1984
0 673 2330
0 630 2617
0 619 2873
0 615 3100
28 614 3298
96 626 3468
162 635 3610
229 650 3743
263 649 3814
498 869 3941
0 794 0
0 818 1
0 888 217
0 996 626
0 1056 1165
0 1064 1608
0 1063 2025
0 1042 2399
0 1026 2705
0 1009 2970
34 992 3202
110 982 3403
182 978 3572
252 981 3717
323 984 3849
368 989 3933
394 1058 3941
0 1148 0
0 1158 0
0 1197 154
0 1264 489
0 1358 1032
0 1399 1528
0 1393 1943
0 1380 2312
0 1367 2630
2 1356 2911
66 1347 3162
144 1333 3382
219 1323 3572
293 1314 3732
370 1312 3881
423 1308 3975
427 1342 3976
0 1452 0
0 1456 0
0 1485 157
0 1534 453
0 1611 893
0 1697 1413
0 1709 1844
0 1695 2207
0 1683 2531
12 1673 2819
84 1664 3079
159 1661 3310
236 1654 3517
311 1644 3696
391 1633 3862
446 1627 3965
440 1650 3948
0 1752 0
0 1754 0
0 1777 188
0 1818 466
0 1880 838
0 1950 1290
0 1989 1749
0 1986 2120
0 1975 2435
35 1966 2721
105 1959 2982
174 1951 3218
247 1946 3432
320 1942 3621
399 1935 3800
451 1925 3908
495 1941 3899
0 2051 29
0 2052 30
0 2071 202
0 2102 489
0 2146 839
0 2189 1236
0 2221 1655
0 2246 2053
26 2241 2362
78 2231 2636
136 2224 2890
198 2217 3125
263 2209 3339
332 2203 3531
409 2198 3719
461 2190 3835
505 2196 3840
9 2306 229
9 2306 230
13 2326 271
6 2346 534
0 2370 884
1 2397 1242
14 2422 1596
50 2451 1969
112 2471 2305
162 2466 2572
216 2458 2816
278 2453 3047
342 2447 3262
408 2439 3456
486 2432 3651
543 2426 3786
548 2424 3790
82 2506 439
81 2504 436
90 2521 455
89 2539 634
94 2559 953
120 2583 1282
156 2611 1584
203 2637 1908
271 2667 2238
334 2684 2530
381 2681 2769
432 2675 2993
491 2671 3206
552 2667 3405
616 2660 3598
674 2653 3756
677 2651 3760
237 2697 641
234 2694 637
246 2704 649
266 2724 751
287 2745 1034
318 2770 1338
353 2797 1616
395 2826 1895
443 2851 2192
507 2881 2486
565 2897 2749
610 2896 2968
657 2893 3175
709 2891 3371
769 2890 3566
824 2884 3737
822 2879 3742
446 2891 843
443 2889 841
450 2895 848
472 2916 892
491 2936 1146
521 2961 1428
554 2989 1688
591 3017 1936
632 3043 2197
682 3071 2466
741 3099 2733
793 3114 2970
834 3114 3172
878 3114 3362
927 3112 3552
981 3111 3734
979 3106 3741
657 3090 1047
655 3087 1044
660 3092 1049
677 3109 1071
701 3134 1265
722 3155 1537
754 3182 1782
788 3211 2010
826 3242 2240
862 3266 2480
913 3297 2731
965 3323 2975
1009 3336 3189
1047 3337 3375
1089 3338 3560
1136 3339 3742
1139 3335 3761
887 3298 1256
884 3296 1254
874 3297 1255
886 3311 1268
914 3342 1391
932 3365 1655
958 3391 1894
985 3416 2110
1016 3447 2320
1050 3476 2532
1083 3501 2755
1129 3532 2989
1172 3553 3214
1208 3562 3406
1244 3565 3584
1287 3568 3774
1291 3566 3799
1105 3512 1460
1102 3509 1458
1087 3508 1456
1085 3518 1465
1106 3544 1547
1124 3571 1782
1142 3595 2012
1162 3620 2215
1189 3650 2410
1215 3678 2605
1243 3706 2804
1272 3729 3016
1310 3755 3236
1347 3772 3442
1378 3776 3620
1414 3777 3802
1424 3777 3848
1292 3720 1642
1289 3718 1640
1281 3715 1638
1261 3720 1643
1277 3743 1691
1292 3771 1899
1305 3796 2115
1316 3814 2311
1326 3829 2493
1339 3844 2670
1352 3856 2844
1368 3866 3033
1389 3874 3235
1416 3881 3438
1447 3885 3627
1483 3888 3810
1498 3889 3877
0 0 0
0 0 0
0 0 0
0 0 150
14 0 451
108 0 865
113 0 1123
23 0 1233
0 0 1443
0 0 1757
0 0 2079
0 0 2394
0 0 2690
2 14 2954
44 62 3200
59 81 3275
966 860 4053
0 0 0
0 0 0
0 0 24
0 0 279
66 37 683
141 105 1096
145 110 1420
35 23 1424
0 0 1391
0 0 1708
0 0 2030
0 0 2353
0 0 2653
0 9 2924
31 57 3173
55 80 3272
773 732 3983
0 20 0
0 93 0
0 224 285
19 278 618
83 330 1020
129 366 1413
119 370 1777
20 299 1992
0 162 2015
0 137 2230
0 144 2507
0 152 2763
2 163 2991
32 172 3178
80 212 3377
101 215 3446
598 714 3937
0 395 0
0 441 16
0 562 290
0 667 737
5 692 1188
9 709 1602
3 702 1987
0 655 2322
0 594 2598
0 579 2846
0 575 3072
15 578 3272
83 587 3442
146 592 3582
211 609 3717
250 619 3796
454 816 3921
0 795 0
0 816 0
0 882 208
0 990 612
0 1049 1156
0 1055 1599
0 1052 2017
0 1029 2396
0 1007 2704
0 988 2967
30 971 3199
105 963 3397
177 959 3567
246 962 3710
317 968 3843
365 974 3929
380 1025 3937
0 1140 0
0 1149 0
0 1188 147
0 1255 478
0 1347 1018
0 1389 1518
0 1384 1936
0 1371 2309
0 1357 2626
1 1346 2907
63 1338 3158
141 1323 3379
217 1313 3569
290 1305 3730
367 1304 3878
422 1300 3974
425 1329 3976
0 1445 0
0 1449 0
0 1477 152
0 1526 445
0 1604 884
0 1690 1405
0 1704 1839
0 1689 2204
0 1678 2528
12 1668 2817
82 1659 3077
158 1655 3309
235 1649 3515
310 1639 3694
390 1628 3860
446 1623 3965
440 1643 3950
0 1747 0
0 1749 0
0 1772 184
0 1813 462
0 1875 832
0 1947 1285
0 1985 1745
0 1983 2118
0 1972 2433
34 1963 2720
104 1955 2981
174 1948 3217
246 1942 3431
319 1937 3619
397 1930 3799
451 1919 3910
467 1930 3896
0 2047 28
0 2048 29
0 2066 197
0 2097 483
0 2142 832
0 2185 1228
0 2216 1648
0 2240 2046
24 2235 2357
75 2225 2631
133 2217 2885
195 2210 3122
259 2201 3335
328 2195 3528
404 2188 3715
459 2180 3838
468 2178 3839
8 2298 223
7 2298 222
11 2318 259
5 2338 517
0 2361 866
0 2389 1227
9 2413 1582
42 2442 1956
101 2460 2294
151 2455 2561
206 2447 2807
266 2440 3038
333 2435 3255
398 2426 3450
473 2419 3643
535 2413 3788
536 2410 3791
76 2496 428
74 2494 425
84 2509 442
83 2528 607
84 2547 928
108 2571 1261
143 2598 1566
189 2624 1890
257 2655 2223
321 2672 2518
368 2668 2758
421 2663 2984
478 2659 3197
540 2655 3397
605 2648 3590
666 2642 3755
666 2639 3760
227 2687 631
223 2683 627
233 2693 637
255 2714 727
275 2734 1013
306 2760 1321
342 2787 1601
384 2816 1881
432 2841 2180
496 2871 2474
555 2888 2739
599 2886 2959
648 2884 3168
700 2881 3363
761 2881 3559
817 2874 3736
815 2869 3742
437 2883 835
434 2880 831
442 2887 840
462 2907 878
482 2927 1131
511 2953 1411
544 2980 1674
582 3008 1923
621 3034 2184
673 3062 2456
732 3090 2723
783 3104 2961
824 3105 3164
869 3104 3355
918 3103 3544
972 3102 3729
973 3097 3741
648 3081 1037
645 3079 1035
650 3083 1039
668 3100 1061
690 3124 1251
712 3145 1521
743 3172 1769
778 3202 1997
816 3232 2228
852 3256 2469
904 3288 2720
956 3313 2964
1001 3326 3180
1038 3327 3366
1080 3329 3551
1128 3328 3737
1132 3326 3759
877 3289 1247
873 3286 1244
864 3288 1245
876 3302 1259
903 3331 1378
922 3354 1640
948 3380 1881
976 3407 2097
1008 3438 2307
1042 3467 2520
1075 3492 2744
1121 3524 2979
1164 3545 3204
1202 3553 3398
1236 3556 3575
1279 3559 3765
1286 3558 3798
1096 3503 1452
1094 3501 1450
1081 3500 1448
1077 3510 1457
1098 3535 1536
1117 3563 1766
1135 3587 1999
1154 3610 2203
1181 3642 2398
1206 3668 2593
1235 3696 2793
1264 3719 3005
1303 3746 3225
1340 3763 3432
1371 3766 3609
1407 3768 3794
1418 3767 3846
1284 3712 1636
1281 3709 1633
1274 3707 1631
1253 3711 1635
1269 3732 1680
1284 3760 1883
1297 3785 2102
1310 3805 2299
1322 3823 2481
1337 3841 2661
1352 3855 2838
1367 3865 3026
1388 3874 3227
1415 3880 3429
1445 3884 3620
1481 3887 3803
1498 3889 3877
0 0 0
0 0 0
76 0 90
149 0 333
250 0 669
340 0 1051
339 0 1312
279 0 1540
237 0 1810
249 0 2117
260 0 2419
274 0 2707
283 6 2963
307 48 3192
317 94 3385
325 112 3449
1051 825 4063
0 0 0
44 0 0
152 0 178
239 3 481
325 67 864
386 111 1248
387 100 1560
273 14 1616
115 0 1651
91 0 1920
99 0 2227
116 0 2532
126 1 2805
149 28 3053
162 73 3264
169 94 3346
871 686 3996
172 156 0
243 221 39
333 310 366
365 338 766
389 354 1142
410 369 1515
398 356 1872
305 278 2109
66 67 1876
0 0 1773
0 1 2080
0 2 2386
0 4 2674
2 15 2933
34 61 3178
57 82 3276
718 690 3961
200 503 0
226 540 17
282 633 296
271 730 801
267 729 1268
273 713 1664
248 684 2043
142 625 2375
8 500 2563
0 403 2705
0 394 2918
1 389 3113
34 395 3285
80 403 3433
135 418 3575
167 425 3645
480 741 3913
141 843 0
151 860 0
170 917 198
155 1010 600
95 1075 1183
64 1065 1625
23 1046 2038
2 1012 2422
0 947 2746
0 907 3000
28 883 3217
97 869 3404
165 863 3563
231 864 3699
299 871 3827
338 873 3903
380 984 3929
61 1159 0
63 1166 0
72 1202 145
74 1268 474
12 1356 1003
0 1396 1521
0 1389 1952
0 1370 2349
0 1342 2675
5 1318 2949
70 1297 3193
146 1277 3407
220 1261 3588
291 1252 3742
367 1249 3885
415 1249 3970
422 1303 3962
16 1455 0
18 1460 0
19 1486 153
14 1535 447
1 1609 873
0 1695 1398
0 1726 1865
0 1705 2242
0 1682 2564
16 1663 2850
90 1648 3107
165 1636 3336
241 1625 3538
315 1609 3713
395 1597 3876
445 1588 3969
466 1622 3950
0 1751 0
0 1754 0
0 1778 189
0 1815 467
0 1875 831
0 1955 1280
0 2013 1758
0 2003 2141
0 1982 2456
40 1966 2742
109 1952 3002
179 1940 3238
250 1930 3447
322 1922 3634
401 1910 3812
451 1897 3915
476 1910 3905
0 2043 41
0 2044 41
0 2062 196
0 2094 482
0 2142 822
0 2202 1214
0 2237 1642
0 2254 2050
26 2243 2366
77 2227 2641
135 2214 2896
196 2202 3131
261 2190 3344
328 2180 3537
403 2171 3722
456 2161 3843
460 2158 3844
14 2295 237
12 2294 235
12 2319 255
11 2344 464
2 2374 820
1 2402 1198
12 2423 1563
44 2448 1946
102 2463 2291
149 2453 2561
202 2441 2808
261 2432 3040
326 2423 3255
390 2413 3451
464 2404 3643
527 2397 3790
536 2391 3796
114 2489 432
106 2486 428
83 2508 441
93 2534 532
93 2555 873
113 2577 1227
147 2604 1544
189 2625 1875
254 2654 2213
317 2668 2512
363 2663 2754
414 2656 2981
472 2651 3196
533 2647 3395
597 2638 3589
659 2631 3756
659 2627 3763
288 2680 629
280 2678 626
234 2691 635
256 2715 679
278 2736 972
306 2761 1293
341 2787 1583
382 2815 1867
429 2839 2169
493 2868 2468
550 2883 2733
594 2881 2955
641 2877 3163
693 2873 3360
752 2872 3555
810 2865 3736
809 2860 3743
470 2878 833
466 2876 830
440 2883 835
458 2903 860
483 2928 1088
507 2949 1388
540 2976 1658
576 3004 1909
618 3031 2172
666 3056 2445
725 3084 2714
776 3098 2953
817 3097 3156
861 3096 3348
910 3093 3537
966 3093 3725
968 3088 3741
670 3076 1034
667 3073 1032
645 3076 1033
660 3093 1050
684 3117 1224
706 3140 1498
736 3165 1753
769 3193 1983
807 3224 2215
844 3248 2457
894 3278 2709
948 3305 2955
992 3317 3172
1029 3318 3357
1072 3319 3542
1120 3318 3731
1126 3317 3759
879 3282 1240
875 3280 1238
859 3280 1237
867 3293 1250
895 3322 1361
914 3345 1622
938 3370 1867
967 3398 2083
1000 3429 2295
1034 3458 2509
1067 3482 2733
1113 3515 2969
1157 3536 3194
1194 3545 3389
1228 3547 3566
1272 3550 3757
1279 3548 3796
1094 3496 1446
1092 3494 1444
1078 3492 1442
1069 3501 1449
1091 3526 1519
1110 3555 1748
1129 3579 1983
1147 3601 2190
1174 3632 2386
1199 3659 2581
1227 3686 2781
1256 3708 2994
1295 3736 3214
1332 3752 3421
1363 3756 3599
1399 3757 3783
1412 3758 3844
1279 3702 1628
1277 3700 1626
1270 3698 1624
1246 3701 1626
1261 3721 1666
1276 3749 1864
1290 3776 2088
1302 3796 2284
1317 3816 2469
1334 3838 2651
1350 3854 2830
1367 3865 3018
1387 3873 3218
1414 3880 3422
1444 3884 3612
1480 3887 3795
1498 3889 3877
176 0 0
248 0 1
380 0 227
503 0 547
614 0 915
677 0 1256
691 0 1568
676 0 1894
667 0 2194
667 0 2488
669 0 2766
676 0 3022
680 29 3245
682 72 3429
687 121 3593
682 138 3643
1226 833 4093
223 0 0
324 0 25
492 18 293
628 49 671
703 78 1057
750 85 1422
722 29 1694
619 0 1848
553 0 2096
551 0 2385
556 0 2667
562 0 2930
568 21 3162
577 64 3358
583 112 3530
588 134 3597
