Postproduction/IWLTBAP - Humble/LUTs by IWLTBAP (3DL)/UTILITY/BMDFilm BMPC to Rec.709/U-BMDFILM-BMPC-V2-LTR.3dl
# Copyright: (C) Copyright 2010-2018 by IWLTBAP SAS
# Cannot be resold, shared or otherwise redistributed
# Website: https://luts.iwltbap.com
0 128 256 384 512 640 768 896 1023
0 0 0
0 0 0
0 0 316
0 0 997
0 0 1418
0 0 2068
0 0 2688
37 63 3200
986 928 4068
0 0 0
0 178 233
0 320 977
4 376 1748
0 225 2150
0 226 2675
11 249 3124
99 280 3455
603 755 3947
0 794 0
0 888 217
0 1056 1165
0 1063 2025
0 1026 2705
34 992 3202
182 978 3572
323 984 3849
394 1058 3941
0 1452 0
0 1485 157
0 1611 893
0 1709 1844
0 1683 2531
84 1664 3079
236 1654 3517
391 1633 3862
440 1650 3948
0 2051 29
0 2071 202
0 2146 839
0 2221 1655
26 2241 2362
136 2224 2890
263 2209 3339
409 2198 3719
505 2196 3840
82 2506 439
90 2521 455
94 2559 953
156 2611 1584
271 2667 2238
381 2681 2769
491 2671 3206
616 2660 3598
677 2651 3760
446 2891 843
450 2895 848
491 2936 1146
554 2989 1688
632 3043 2197
741 3099 2733
834 3114 3172
927 3112 3552
979 3106 3741
887 3298 1256
874 3297 1255
914 3342 1391
958 3391 1894
1016 3447 2320
1083 3501 2755
1172 3553 3214
1244 3565 3584
1291 3566 3799
1292 3720 1642
1281 3715 1638
1277 3743 1691
1305 3796 2115
1326 3829 2493
1352 3856 2844
1389 3874 3235
1447 3885 3627
1498 3889 3877
0 0 0
76 0 90
250 0 669
339 0 1312
237 0 1810
260 0 2419
283 6 2963
317 94 3385
1051 825 4063
172 156 0
333 310 366
389 354 1142
398 356 1872
66 67 1876
0 1 2080
0 4 2674
34 61 3178
718 690 3961
141 843 0
170 917 198
95 1075 1183
23 1046 2038
0 947 2746
28 883 3217
165 863 3563
299 871 3827
380 984 3929
16 1455 0
19 1486 153
1 1609 873
0 1726 1865
0 1682 2564
90 1648 3107
241 1625 3538
395 1597 3876
466 1622 3950
0 2043 41
0 2062 196
0 2142 822
0 2237 1642
26 2243 2366
135 2214 2896
261 2190 3344
403 2171 3722
460 2158 3844
114 2489 432
83 2508 441
93 2555 873
147 2604 1544
254 2654 2213
363 2663 2754
472 2651 3196
597 2638 3589
659 2627 3763
470 2878 833
440 2883 835
483 2928 1088
540 2976 1658
618 3031 2172
725 3084 2714
817 3097 3156
910 3093 3537
968 3088 3741
879 3282 1240
859 3280 1237
895 3322 1361
938 3370 1867
1000 3429 2295
1067 3482 2733
1157 3536 3194
1228 3547 3566
1279 3548 3796
1279 3702 1628
1270 3698 1624
1261 3721 1666
1290 3776 2088
1317 3816 2469
1350 3854 2830
1387 3873 3218
1444 3884 3612
1498 3889 3877
562 0 0
807 0 360
1059 0 1110
1141 0 1835
1152 0 2497
1122 0 3030
1081 29 3441
1057 140 3749
1437 838 4095
932 255 0
1112 315 378
1280 305 1342
1225 193 2079
963 0 2421
886 0 2914
854 29 3332
835 123 3648
1194 629 4046
955 953 0
1002 997 162
1078 1062 1167
993 976 2129
768 766 2882
132 215 2839
62 132 3038
120 175 3376
993 978 4073
691 1534 0
718 1558 140
772 1665 876
571 1779 1915
124 1684 2703
133 1549 3277
271 1456 3654
413 1403 3943
951 1610 4054
652 2075 131
637 2095 188
638 2163 833
404 2289 1625
60 2309 2442
157 2219 2974
279 2157 3414
417 2108 3782
670 2115 3894
717 2489 501
666 2508 512
383 2611 697
262 2693 1477
314 2716 2215
397 2694 2789
484 2653 3230
598 2620 3622
661 2597 3769
928 2892 888
888 2897 889
574 2974 934
606 3041 1578
668 3083 2153
753 3115 2719
830 3110 3171
911 3090 3552
956 3072 3740
1212 3305 1285
1194 3302 1281
951 3341 1300
980 3414 1779
1032 3465 2270
1088 3509 2724
1166 3549 3194
1230 3549 3570
1275 3539 3794
1487 3727 1651
1478 3720 1645
1297 3724 1646
1298 3783 1981
1324 3825 2431
1349 3854 2803
1386 3873 3203
1443 3884 3605
1498 3889 3877
1643 0 134
1744 0 502
1932 0 1258
2044 0 2109
2008 0 2759
1947 4 3283
1873 128 3680
1779 268 3976
2008 978 4095
1779 278 29
1878 265 406
2038 222 1262
2025 0 2104
1928 0 2740
1839 0 3251
1746 101 3641
1650 240 3933
1821 742 4095
1808 881 0
1849 886 85
1968 916 1057
2063 724 2172
1910 298 2956
1594 0 3308
1438 80 3625
1341 203 3880
1710 1044 4095
1572 1602 0
1599 1629 33
1680 1709 853
1696 1718 1835
1522 1543 2810
1170 1218 3519
585 685 3741
299 402 3648
1650 1631 4095
1346 2124 250
1344 2154 276
1390 2234 734
1429 2336 1599
1088 2383 2520
468 2215 3163
329 2026 3606
448 1896 3909
1430 2104 3996
1340 2524 612
1330 2536 622
1287 2655 728
1269 2766 1480
915 2851 2223
510 2795 2901
538 2678 3337
618 2590 3720
1242 2614 3853
1475 2930 987
1464 2931 987
1395 3015 1052
1031 3179 1324
870 3247 2117
853 3224 2752
893 3171 3236
945 3110 3619
1028 3068 3753
1682 3345 1363
1671 3343 1360
1593 3402 1400
1165 3521 1493
1139 3592 2207
1169 3613 2727
1215 3614 3223
1260 3584 3610
1277 3545 3795
1886 3771 1700
1875 3766 1695
1794 3793 1711
1365 3778 1702
1321 3820 2283
1346 3851 2744
1384 3872 3183
1445 3884 3614
1607 3908 3897
2489 0 15
2560 0 421
2707 0 1243
2795 0 2092
2768 16 2799
2673 120 3323
2561 238 3725
2443 364 4040
2573 1187 4095
2568 96 15
2609 51 294
2697 0 1133
2783 0 2023
2729 7 2770
2619 102 3304
2496 220 3709
2371 346 4024
2456 933 4095
2564 758 18
2581 745 49
2712 696 916
2831 444 1937
2784 27 2848
2583 118 3375
2413 228 3761
2263 347 4050
2407 1200 4095
2365 1538 0
2411 1545 0
2556 1550 536
2671 1514 1704
2707 1158 2788
2493 623 3534
2157 293 3886
1929 311 4034
2321 1660 4095
2142 2140 431
2151 2151 443
2233 2241 559
2341 2323 1491
2270 2264 2374
2058 2052 3241
1756 1782 3822
1439 1500 4087
2156 2106 4015
1952 2587 734
1950 2594 739
1977 2687 825
2045 2847 1326
2072 2919 2229
1761 2903 3001
1365 2718 3534
1100 2521 3851
2044 2647 3909
2001 2998 1104
1994 2998 1103
1997 3065 1162
1973 3249 1325
1980 3363 2165
1728 3392 2807
1249 3302 3379
1175 3157 3751
1920 3147 3866
2142 3405 1449
2135 3400 1446
2118 3458 1487
2042 3606 1590
1848 3765 2107
1672 3806 2743
1428 3756 3280
1422 3667 3707
1809 3622 3885
2296 3830 1762
2288 3824 1757
2259 3855 1778
2122 3879 1789
1568 3819 1877
1509 3867 2632
1514 3890 3158
1761 3931 3668
2465 4004 3997
3103 4 215
3152 10 407
3258 21 1241
3322 89 1979
3316 166 2677
3241 250 3228
3128 345 3654
3003 455 4007
3075 1418 4065
3088 8 208
3114 6 221
3237 17 1029
3308 77 1888
3293 150 2627
3208 232 3202
3088 327 3636
2957 438 3994
3010 1201 4087
3074 723 263
3124 631 287
3270 259 536
3399 119 1710
3363 174 2604
3227 247 3236
3075 337 3675
2920 442 4020
2982 1397 4082
2934 1476 21
2972 1456 42
3154 1343 228
3333 1225 1458
3393 840 2478
3266 292 3304
3031 358 3762
2828 433 4044
2906 1692 4051
2774 2090 438
2786 2090 433
2887 2116 443
3089 2122 1100
3157 2044 2239
3107 1737 3142
2903 1413 3794
2670 1203 4095
2795 2106 3990
2630 2622 919
2632 2623 921
2685 2680 976
2810 2814 1152
2922 2886 2136
2815 2788 2871
2646 2613 3566
2490 2458 3946
2714 2648 3926
2530 3074 1222
2526 3073 1220
2547 3126 1264
2598 3272 1379
2698 3438 2082
2706 3460 2828
2527 3406 3466
2431 3255 3900
2643 3200 3929
2594 3503 1547
2586 3495 1540
2590 3535 1568
2607 3657 1655
2627 3841 2018
2678 3889 2817
2578 3869 3349
2533 3797 3851
2693 3703 3986
2719 3905 1853
2714 3901 1849
2712 3923 1870
2674 3948 1889
2525 3933 1937
2580 3972 2760
2657 3999 3277
2844 4021 3762
3213 4040 4037
3494 204 451
3514 214 488
3618 218 1251
3678 255 1916
3695 311 2521
3659 384 3092
3572 460 3539
3461 546 3910
3492 1682 3965
3467 188 434
3488 200 448
3587 210 1041
3661 242 1821
3680 297 2464
3642 369 3058
3551 446 3520
3434 535 3905
3463 1494 3984
3470 750 477
3497 658 488
3565 251 512
3714 271 1607
3734 319 2396
3672 382 3049
3559 453 3535
3423 537 3918
3441 1607 3980
3388 1455 380
3412 1421 398
3522 1246 481
3716 756 1044
3795 493 2188
3730 400 3004
3562 463 3559
3390 534 3937
3381 1713 3980
3234 2058 421
3243 2049 420
3330 2020 454
3536 1901 726
3675 1819 2012
3670 1565 2865
3563 1135 3582
3369 1136 3980
3324 2111 3947
3188 2603 1001
3190 2600 997
3243 2625 1014
3371 2670 1034
3546 2692 1884
3553 2619 2777
3463 2449 3459
3320 2382 3922
3297 2631 3924
3127 3122 1385
3123 3118 1382
3154 3151 1409
3239 3244 1482
3379 3378 1942
3449 3407 2767
3354 3306 3361
3273 3215 3909
3268 3196 3964
3074 3584 1637
3067 3576 1630
3078 3606 1651
3120 3700 1722
3195 3866 1950
3326 3913 2888
3356 3889 3414
3321 3840 3863
3370 3768 4023
3168 3978 2014
3164 3976 2009
3173 3991 2034
3173 3999 2046
3149 3998 2100
3309 4017 2983
3442 4029 3476
3592 4052 3859
3830 4073 4073
3741 364 626
3749 367 642
3841 369 1272
3899 388 1897
3917 424 2434
3892 475 2957
3821 541 3440
3726 611 3822
3761 1935 3905
3726 354 615
3734 358 621
3812 363 1089
3888 380 1809
3911 416 2379
3888 466 2919
3818 533 3418
3718 606 3815
3754 1789 3911
3735 786 646
3740 689 646
3764 378 645
3895 390 1580
3931 422 2292
3904 470 2884
3825 534 3409
3718 606 3815
3745 1760 3914
3696 1462 612
3703 1425 612
3746 1209 638
3813 451 740
3954 426 2011
3933 471 2775
3838 532 3376
3710 603 3811
3724 1730 3919
3615 2047 664
3619 2035 664
3670 1969 694
3768 1737 729
3935 1519 1775
3939 1415 2660
3867 1237 3341
3757 1458 3855
3700 2093 3908
3548 2607 934
3547 2601 928
3579 2594 927
3653 2563 921
3809 2494 1701
3849 2485 2622
3803 2432 3278
3745 2462 3817
3709 2693 3923
3598 3114 1489
3593 3108 1483
3616 3120 1493
3676 3158 1522
3773 3209 1805
3864 3232 2620
3848 3206 3301
3802 3187 3827
3774 3267 3992
3585 3625 1776
3580 3619 1770
3593 3635 1785
3638 3695 1844
3720 3799 2071
3810 3840 2970
3847 3848 3455
3826 3798 3811
3846 3815 4037
3623 4024 2297
3623 4024 2298
3632 4025 2304
3651 4026 2319
3699 4034 2542
3826 4060 3370
3937 4072 3801
4042 4095 4041
4095 4095 4095
3851 430 700
3851 429 707
3924 430 1248
3981 442 1901
3941 435 2386
3943 711 2895
3934 1146 3394
3876 1387 3831
3876 2270 3889
3851 430 700
3851 430 700
3907 429 1117
3976 439 1806
3989 463 2368
3925 592 2837
3918 919 3352
3862 1165 3804
3875 2210 3888
3841 734 717
3833 634 709
3838 421 709
3941 421 1611
3935 441 2248
3959 745 2809
3931 987 3324
3851 1055 3774
3874 2168 3887
3837 1449 713
3837 1422 710
3839 1161 710
3928 851 1195
4001 897 2110
3993 1084 2727
3949 1118 3264
3878 1269 3755
3876 2256 3888
3816 2030 829
3820 2013 830
3833 1928 825
3855 1723 921
3974 1713 1977
3958 1784 2661
3931 1787 3211
3888 2025 3716
3891 2583 3908
3763 2596 978
3763 2590 974
3777 2562 965
3785 2479 931
3887 2430 1878
3927 2450 2614
3910 2520 3194
3915 2696 3699
3932 3004 3963
3801 3108 1441
3797 3101 1434
3806 3097 1427
3818 3089 1413
3866 3085 1713
3967 3108 2648
3988 3172 3247
3980 3263 3724
3973 3435 4015
3862 3607 1863
3859 3602 1857
3868 3608 1865
3895 3635 1897
3949 3679 2340
4005 3715 2990
4026 3758 3413
4023 3817 3826
4031 3916 4057
3910 4037 2560
3911 4037 2562
3919 4037 2569
3942 4042 2677
4018 4069 3478
4070 4092 3873
4095 4095 4070
4095 4095 4095
4095 4095 4095
