Postproduction/IWLTBAP - Humble/LUTs by IWLTBAP (3DL)/UTILITY/BMDFilm BMPC to Rec.709/U-BMDFILM-BMPC-V1-LTR.3dl
# Copyright: (C) Copyright 2010-2018 by IWLTBAP SAS
# Cannot be resold, shared or otherwise redistributed
# Website: https://luts.iwltbap.com
0 256 512 768 1023
0 0 0
0 0 1276
0 0 2585
0 0 3619
0 0 4083
0 1095 1
0 1044 1066
0 859 2450
0 284 3603
0 283 4083
0 2215 0
0 2192 284
0 2134 2198
0 1949 3506
0 1241 4055
0 3366 0
0 3361 283
0 3350 947
0 3315 3388
0 3170 4061
0 4025 0
0 4025 283
0 4023 561
0 4033 2407
0 4024 4060
1305 0 0
1120 0 1230
297 0 2565
283 0 3616
283 0 4083
1203 1065 0
985 1016 1013
283 810 2431
283 283 3604
283 283 4083
876 2200 0
537 2175 283
283 2119 2175
283 1932 3502
283 1187 4055
283 3363 0
283 3358 283
283 3346 899
283 3311 3382
283 3167 4060
283 4025 0
283 4024 283
283 4023 561
283 4032 2376
283 4023 4060
2638 0 0
2560 0 1077
2307 0 2504
1080 0 3608
561 0 4083
2555 958 0
2487 898 784
2221 646 2378
958 283 3597
561 283 4083
2459 2174 0
2380 2150 283
2095 2115 2131
632 1911 3496
561 1025 4057
2145 3378 0
2040 3371 283
1674 3359 705
561 3301 3369
561 3150 4060
602 4025 0
561 4023 283
561 4022 561
561 4031 2288
561 4020 4058
3640 0 0
3631 0 419
3597 0 2327
3483 0 3578
2590 0 4073
3604 493 0
3600 399 283
3581 283 2220
3476 283 3566
2535 283 4073
3596 2051 0
3586 2025 283
3560 1993 1911
3427 1792 3488
2336 778 4060
3587 3365 0
3575 3359 283
3547 3349 561
3378 3366 3352
1197 3201 4074
3463 4057 0
3444 4057 283
3391 4056 561
3045 4068 1471
838 4021 4057
4083 0 0
4083 0 283
4081 0 1792
4045 0 3412
4046 0 4046
4083 283 0
4083 283 283
4082 283 1625
4045 283 3392
4046 283 4046
4069 1710 0
4069 1674 283
4070 1588 957
4064 1211 3395
4046 561 4046
4084 3284 0
4084 3276 283
4084 3256 561
4083 3279 3195
4078 3079 4080
4084 4058 0
4084 4057 283
4084 4055 561
4084 4054 898
4082 4082 4083
