Postproduction/IWLTBAP - Humble/LUTs by IWLTBAP (3DL)/UTILITY/BMDFilm BMPC to Rec.709/U-BMDFILM-BMPC-V1-LTR.3dl
# Copyright: (C) Copyright 2010-2018 by IWLTBAP SAS
# Cannot be resold, shared or otherwise redistributed
# Website: https://luts.iwltbap.com
0 64 128 192 256 320 384 448 512 576 640 704 768 832 896 960 1023
0 0 0
0 0 205
0 0 624
0 0 968
0 0 1276
0 0 1581
0 0 1897
0 0 2230
0 0 2585
0 0 2943
0 0 3216
0 0 3431
0 0 3619
0 0 3791
0 0 3938
0 0 4014
0 0 4083
0 153 0
0 140 146
0 115 567
0 85 934
0 72 1252
0 72 1563
0 72 1881
0 72 2217
0 72 2573
0 72 2936
0 72 3213
0 72 3428
0 72 3617
0 72 3790
0 72 3938
0 72 4014
0 72 4083
0 489 1
0 474 75
0 448 459
0 414 868
0 371 1201
0 315 1520
0 245 1846
0 166 2190
0 143 2553
0 143 2922
0 143 3206
0 143 3424
0 143 3615
0 143 3788
0 143 3937
0 143 4014
0 143 4083
0 816 1
0 807 73
0 789 324
0 767 780
0 738 1144
0 695 1472
0 636 1798
0 547 2136
0 424 2496
0 285 2883
0 214 3195
0 213 3419
0 213 3611
0 213 3786
0 213 3936
0 213 4014
0 213 4083
0 1095 1
0 1089 73
0 1076 185
0 1063 647
0 1044 1066
0 1018 1416
0 984 1752
0 933 2094
0 859 2450
0 745 2821
0 566 3137
0 361 3387
0 284 3603
0 283 3783
0 283 3935
0 283 4014
0 283 4083
0 1366 2
0 1361 73
0 1351 144
0 1339 438
0 1326 950
0 1308 1338
0 1283 1692
0 1249 2044
0 1202 2407
0 1135 2784
0 1041 3106
0 892 3345
0 641 3553
0 385 3759
0 353 3933
0 353 4014
0 353 4083
0 1638 2
0 1634 73
0 1626 144
0 1617 244
0 1606 752
0 1592 1227
0 1573 1612
0 1548 1981
0 1513 2355
0 1466 2740
0 1402 3081
0 1315 3328
0 1186 3531
0 968 3713
0 608 3894
0 423 4010
0 422 4083
0 1919 1
0 1916 73
0 1910 144
0 1902 214
0 1892 447
0 1881 1048
0 1867 1499
0 1847 1896
0 1821 2288
0 1784 2685
0 1736 3049
0 1672 3310
0 1585 3518
0 1465 3701
0 1285 3868
0 901 3989
0 495 4076
0 2215 0
0 2211 72
0 2206 143
0 2200 213
0 2192 284
0 2181 711
0 2170 1326
0 2156 1780
0 2134 2198
0 2105 2613
0 2066 3007
0 2016 3289
0 1949 3506
0 1862 3693
0 1745 3862
0 1572 3985
0 1241 4055
0 2527 0
0 2524 72
0 2520 143
0 2515 213
0 2508 283
0 2499 387
0 2488 992
0 2478 1603
0 2462 2074
0 2438 2517
0 2406 2946
0 2365 3260
0 2311 3489
0 2240 3683
0 2149 3856
0 2027 3986
0 1851 4054
0 2854 0
0 2852 72
0 2848 143
0 2843 213
0 2839 283
0 2832 353
0 2821 521
0 2813 1285
0 2802 1891
0 2786 2385
0 2761 2851
0 2726 3217
0 2681 3466
0 2621 3669
0 2544 3848
0 2446 3987
0 2319 4056
0 3143 0
0 3142 72
0 3140 143
0 3137 213
0 3135 283
0 3131 353
0 3126 422
0 3119 722
0 3116 1587
0 3110 2197
0 3094 2717
0 3071 3154
0 3040 3434
0 2998 3650
0 2938 3836
0 2860 3985
0 2758 4058
0 3366 0
0 3365 72
0 3364 143
0 3363 213
0 3361 283
0 3359 353
0 3356 422
0 3353 492
0 3350 947
0 3348 1900
0 3341 2521
0 3330 3046
0 3315 3388
0 3292 3622
0 3262 3820
0 3224 3981
0 3170 4061
0 3557 0
0 3557 72
0 3556 143
0 3555 213
0 3554 283
0 3552 353
0 3550 422
0 3548 492
0 3545 561
0 3544 1217
0 3543 2225
0 3538 2862
0 3529 3314
0 3514 3583
0 3495 3796
0 3475 3975
0 3446 4062
0 3730 0
0 3730 72
0 3729 143
0 3728 213
0 3727 283
0 3727 353
0 3725 422
0 3724 492
0 3722 561
0 3719 649
0 3721 1594
0 3721 2567
0 3714 3182
0 3705 3526
0 3694 3762
0 3681 3960
0 3662 4062
0 3887 0
0 3886 72
0 3886 143
0 3885 213
0 3885 283
0 3884 353
0 3883 422
0 3882 492
0 3880 561
0 3878 630
0 3878 785
0 3884 2025
0 3883 2933
0 3879 3437
0 3873 3713
0 3863 3929
0 3852 4063
0 4025 0
0 4025 72
0 4025 143
0 4025 213
0 4025 283
0 4024 353
0 4024 422
0 4024 492
0 4023 561
0 4023 630
0 4022 700
0 4023 929
0 4033 2407
0 4037 3258
0 4037 3642
0 4032 3887
0 4024 4060
215 0 0
163 0 190
77 0 611
72 0 960
72 0 1270
72 0 1577
72 0 1893
72 0 2227
72 0 2582
72 0 2942
72 0 3215
72 0 3430
72 0 3618
72 0 3791
72 0 3938
72 0 4014
72 0 4083
186 145 0
135 132 133
74 106 556
72 78 927
72 72 1247
72 72 1558
72 72 1877
72 72 2214
72 72 2571
72 72 2934
72 72 3211
72 72 3428
72 72 3617
72 72 3790
72 72 3938
72 72 4014
72 72 4083
136 481 1
88 465 73
72 439 444
72 405 859
72 361 1196
72 305 1516
72 236 1844
72 161 2188
72 143 2551
72 143 2920
72 143 3205
72 143 3424
72 143 3614
72 143 3787
72 143 3937
72 143 4014
72 143 4083
80 810 1
72 800 73
72 783 309
72 761 770
72 731 1137
72 688 1468
72 626 1795
72 537 2134
72 415 2495
72 279 2882
72 214 3194
72 213 3419
72 213 3611
72 213 3785
72 213 3936
72 213 4014
72 213 4083
72 1091 1
72 1084 73
72 1072 175
72 1058 635
72 1040 1058
72 1014 1411
72 978 1749
72 928 2090
72 853 2447
72 737 2819
72 556 3137
72 355 3387
72 284 3603
72 283 3783
72 283 3934
72 283 4014
72 283 4083
72 1363 2
72 1357 73
72 1348 144
72 1336 425
72 1323 942
72 1304 1333
72 1280 1688
72 1245 2041
72 1198 2404
72 1131 2782
72 1035 3106
72 884 3345
72 633 3553
72 380 3760
72 353 3933
72 353 4014
72 353 4083
72 1636 2
72 1632 73
72 1623 144
72 1614 241
72 1603 741
72 1590 1220
72 1570 1608
72 1545 1977
72 1510 2352
72 1462 2737
72 1399 3079
72 1311 3327
72 1182 3530
72 960 3713
72 602 3894
72 423 4011
72 422 4083
72 1917 1
72 1914 73
72 1907 144
72 1900 214
72 1889 437
72 1879 1039
72 1865 1495
72 1845 1893
72 1818 2285
72 1781 2682
72 1733 3048
72 1669 3309
72 1582 3518
72 1461 3701
72 1281 3867
72 893 3989
72 495 4076
72 2213 1
72 2209 72
72 2204 143
72 2198 213
72 2190 284
72 2179 699
72 2168 1320
72 2153 1776
72 2132 2195
72 2103 2611
72 2064 3005
72 2014 3288
72 1947 3505
72 1859 3692
72 1742 3862
72 1568 3985
72 1231 4055
72 2525 0
72 2523 72
72 2518 143
72 2513 213
72 2506 283
72 2497 384
72 2487 982
72 2476 1598
72 2460 2071
72 2436 2515
72 2404 2943
72 2363 3259
72 2309 3488
72 2238 3682
72 2147 3856
72 2025 3986
72 1848 4054
72 2853 0
72 2851 72
72 2846 143
72 2842 213
72 2837 283
72 2831 353
72 2820 514
72 2812 1276
72 2801 1887
72 2784 2382
72 2759 2850
72 2724 3216
72 2679 3466
72 2620 3669
72 2542 3848
72 2444 3987
72 2317 4056
72 3142 0
72 3141 72
72 3139 143
72 3137 213
72 3134 283
72 3130 353
72 3125 422
72 3118 713
72 3115 1581
72 3109 2195
72 3093 2715
72 3070 3153
72 3039 3433
72 2997 3650
72 2937 3836
72 2859 3985
72 2757 4058
72 3366 0
72 3365 72
72 3364 143
72 3362 213
72 3361 283
72 3359 353
72 3356 422
72 3353 492
72 3349 942
72 3348 1895
72 3340 2519
72 3330 3045
72 3315 3387
72 3292 3622
72 3261 3819
72 3223 3981
72 3169 4061
72 3557 0
72 3556 72
72 3555 143
72 3555 213
72 3553 283
72 3552 353
72 3550 422
72 3548 492
72 3545 561
72 3544 1207
72 3543 2220
72 3537 2858
72 3528 3313
72 3514 3583
72 3495 3795
72 3474 3975
72 3446 4062
72 3730 0
72 3729 72
72 3729 143
72 3728 213
72 3727 283
72 3726 353
72 3725 422
72 3723 492
72 3721 561
72 3719 647
72 3721 1586
72 3720 2564
72 3714 3180
72 3705 3525
72 3693 3761
72 3681 3960
72 3662 4062
72 3886 0
72 3886 72
72 3886 143
72 3885 213
72 3885 283
72 3884 353
72 3883 422
72 3882 492
72 3880 561
72 3878 630
72 3878 783
72 3884 2021
72 3883 2931
72 3879 3437
72 3873 3713
72 3863 3929
72 3851 4063
72 4025 0
72 4025 72
72 4025 143
72 4025 213
72 4024 283
72 4024 353
72 4024 422
72 4024 492
72 4023 561
72 4023 630
72 4022 700
72 4023 926
72 4033 2404
72 4037 3256
72 4037 3642
72 4032 3887
72 4023 4060
646 0 0
598 0 166
502 0 587
372 0 946
226 0 1260
146 0 1570
143 0 1887
143 0 2222
143 0 2578
143 0 2939
143 0 3214
143 0 3429
143 0 3618
143 0 3791
143 0 3938
143 0 4014
143 0 4083
622 129 0
573 115 108
473 91 530
346 73 912
204 72 1236
143 72 1550
143 72 1871
143 72 2208
143 72 2567
143 72 2931
143 72 3210
143 72 3427
143 72 3616
143 72 3789
143 72 3937
143 72 4014
143 72 4083
570 464 1
521 448 73
416 422 417
291 388 844
176 346 1185
143 290 1509
143 222 1838
143 155 2183
143 143 2546
143 143 2917
143 143 3203
143 143 3423
143 143 3614
143 143 3787
143 143 3936
143 143 4014
143 143 4083
506 800 1
451 789 73
349 772 286
239 750 752
151 718 1126
143 674 1459
143 612 1789
143 521 2129
143 398 2492
143 267 2881
143 214 3192
143 213 3418
143 213 3610
143 213 3785
143 213 3935
143 213 4014
143 213 4083
421 1084 2
366 1076 73
275 1064 160
185 1050 610
143 1031 1045
143 1005 1402
143 969 1742
143 917 2085
143 841 2442
143 722 2816
143 539 3137
143 344 3387
143 283 3603
143 283 3782
143 283 3934
143 283 4014
143 283 4083
317 1355 2
271 1350 73
195 1341 144
145 1330 400
143 1317 926
143 1298 1323
143 1273 1681
143 1239 2035
143 1191 2399
143 1123 2778
143 1026 3104
143 870 3344
143 616 3553
143 373 3762
143 353 3932
143 353 4014
143 353 4083
212 1630 2
177 1626 73
144 1619 144
143 1609 235
143 1599 718
143 1584 1209
143 1565 1599
143 1540 1971
143 1505 2347
143 1457 2733
143 1392 3077
143 1304 3326
143 1173 3530
143 948 3713
143 589 3894
143 423 4011
143 422 4083
144 1913 1
143 1910 73
143 1903 144
143 1896 214
143 1886 419
143 1875 1023
143 1861 1485
143 1841 1886
143 1813 2280
143 1777 2678
143 1728 3045
143 1664 3308
143 1577 3517
143 1455 3701
143 1272 3867
143 874 3989
143 495 4076
143 2209 1
143 2206 72
143 2201 143
143 2194 213
143 2187 284
143 2175 678
143 2165 1308
143 2150 1769
143 2129 2189
143 2100 2606
143 2060 3002
143 2010 3286
143 1943 3504
143 1854 3692
143 1737 3861
143 1561 3985
143 1220 4055
143 2523 0
143 2520 72
143 2516 143
143 2510 213
143 2504 283
143 2494 380
143 2484 965
143 2473 1589
143 2457 2064
143 2433 2509
143 2401 2940
143 2360 3257
143 2306 3487
143 2235 3682
143 2144 3855
143 2021 3986
143 1843 4054
143 2851 0
143 2849 72
143 2844 143
143 2840 213
143 2835 283
143 2828 353
143 2818 503
143 2809 1261
143 2799 1879
143 2782 2378
143 2757 2846
143 2720 3215
143 2676 3465
143 2617 3668
143 2539 3847
143 2441 3987
143 2313 4056
143 3141 0
143 3140 72
143 3138 143
143 3135 213
143 3133 283
143 3128 353
143 3124 422
143 3117 698
143 3114 1570
143 3107 2189
143 3091 2710
143 3068 3150
143 3037 3432
143 2995 3649
143 2935 3836
143 2855 3985
143 2755 4058
143 3365 0
143 3364 72
143 3363 143
143 3362 213
143 3360 283
143 3358 353
143 3355 422
143 3352 492
143 3349 928
143 3346 1886
143 3340 2513
143 3329 3042
143 3314 3386
143 3291 3621
143 3260 3819
143 3222 3981
143 3168 4061
143 3556 0
143 3556 72
143 3555 143
143 3554 213
143 3553 283
143 3551 353
143 3550 422
143 3547 492
143 3544 561
143 3544 1193
143 3542 2213
143 3537 2854
143 3528 3311
143 3513 3582
143 3494 3795
143 3473 3974
143 3445 4062
143 3729 0
143 3729 72
143 3728 143
143 3728 213
143 3727 283
143 3726 353
143 3725 422
143 3723 492
143 3721 561
143 3718 644
143 3720 1568
143 3720 2557
143 3714 3178
143 3704 3524
143 3693 3761
143 3680 3959
143 3662 4062
143 3886 0
143 3886 72
143 3885 143
143 3885 213
143 3884 283
143 3884 353
143 3883 422
143 3881 492
143 3880 561
143 3878 630
143 3878 777
143 3883 2010
143 3883 2928
143 3879 3436
143 3872 3712
143 3863 3928
143 3851 4063
143 4025 0
143 4025 72
143 4025 143
143 4025 213
143 4024 283
143 4024 353
143 4024 422
143 4024 492
143 4023 561
143 4023 630
143 4022 700
143 4023 921
143 4033 2396
143 4037 3252
143 4037 3641
143 4032 3886
143 4023 4060
992 0 0
964 0 134
908 0 557
831 0 928
712 0 1247
519 0 1559
281 0 1879
213 0 2215
213 0 2572
213 0 2935
213 0 3212
213 0 3428
213 0 3617
213 0 3790
213 0 3938
213 0 4014
213 0 4083
977 109 0
949 96 81
892 75 498
812 72 894
690 72 1223
492 72 1540
269 72 1863
213 72 2203
213 72 2561
213 72 2927
213 72 3208
213 72 3426
213 72 3616
213 72 3788
213 72 3937
213 72 4014
