Postproduction/IWLTBAP - Humble/LUTs by IWLTBAP (3DL)/UTILITY/BMDFilm BMCC to Rec.709/U-BMDFILM-BMCC-V2-LTR.3dl
# Copyright: (C) Copyright 2010-2018 by IWLTBAP SAS
# Cannot be resold, shared or otherwise redistributed
# Website: https://luts.iwltbap.com
0 64 128 192 256 320 384 448 512 576 640 704 768 832 896 960 1023
0 0 0
0 0 313
0 0 743
0 0 1124
0 0 1509
0 0 1918
0 0 2368
0 0 2870
0 0 3319
0 0 3577
0 0 3758
0 0 3908
0 0 4039
0 0 4095
0 0 4095
0 0 4095
0 0 4095
0 244 0
0 166 124
0 73 621
0 1 1043
0 0 1449
0 0 1873
0 0 2331
0 0 2841
0 0 3304
0 0 3571
0 0 3755
0 0 3906
0 0 4038
0 0 4095
0 0 4095
0 0 4095
0 0 4095
0 649 0
0 596 1
0 527 444
0 420 936
0 247 1373
0 34 1815
0 0 2287
0 0 2805
0 0 3286
0 0 3564
0 0 3751
0 0 3903
0 0 4037
0 0 4095
0 0 4095
0 0 4095
0 0 4095
0 1011 0
0 975 0
0 931 152
0 866 764
0 764 1260
0 598 1732
0 313 2223
0 30 2755
0 0 3260
0 0 3553
0 0 3745
0 0 3900
0 0 4035
0 0 4095
0 0 4095
0 0 4095
0 0 4095
0 1374 0
0 1347 0
0 1315 0
0 1269 446
0 1200 1080
0 1098 1608
0 935 2130
0 645 2682
0 176 3221
0 0 3538
0 0 3737
0 0 3895
0 0 4032
0 0 4095
0 0 4095
0 0 4095
0 0 4095
0 1759 0
0 1739 0
0 1714 0
0 1679 49
0 1629 758
0 1555 1414
0 1445 1991
0 1274 2577
0 978 3161
0 434 3516
0 0 3725
0 0 3888
0 0 4029
0 0 4095
0 0 4095
0 0 4095
0 0 4095
0 2181 0
0 2165 0
0 2146 0
0 2119 0
0 2079 182
0 2023 1076
0 1942 1777
0 1821 2421
0 1635 3062
0 1323 3482
0 693 3708
0 27 3878
0 0 4022
0 0 4094
0 0 4095
0 0 4095
0 0 4095
0 2652 0
0 2639 0
0 2623 0
0 2602 0
0 2571 0
0 2527 429
0 2464 1411
0 2373 2180
0 2238 2901
0 2031 3425
0 1690 3682
0 1004 3864
0 141 4013
0 0 4093
0 0 4095
0 0 4095
0 0 4095
0 3149 0
0 3141 0
0 3132 0
0 3116 0
0 3095 0
0 3064 0
0 3019 674
0 2954 1776
0 2857 2634
0 2705 3322
0 2473 3643
0 2094 3842
0 1355 4000
0 241 4092
0 0 4095
0 0 4095
0 0 4095
0 3479 0
0 3475 0
0 3471 0
0 3465 0
0 3457 0
0 3446 0
0 3429 0
0 3404 918
0 3365 2181
0 3297 3104
0 3179 3577
0 2955 3809
0 2546 3981
0 1730 4090
0 323 4095
0 0 4095
0 0 4095
0 3682 0
0 3680 0
0 3678 0
0 3675 0
0 3671 0
0 3666 0
0 3657 0
0 3646 0
0 3629 1187
0 3603 2635
0 3562 3449
0 3494 3756
0 3356 3952
0 3010 4087
0 2147 4095
0 391 4095
0 0 4095
0 3842 0
0 3841 0
0 3840 0
0 3839 0
0 3836 0
0 3833 0
0 3828 0
0 3821 0
0 3811 51
0 3797 1547
0 3776 3082
0 3745 3662
0 3693 3905
0 3602 4071
0 3381 4095
0 2586 4095
0 438 4095
0 3982 0
0 3981 0
0 3980 0
0 3979 0
0 3978 0
0 3976 0
0 3973 0
0 3969 0
0 3963 0
0 3954 145
0 3942 1949
0 3923 3426
0 3895 3826
0 3852 4034
0 3778 4095
0 3626 4095
0 3041 4095
0 4088 0
0 4087 0
0 4087 0
0 4087 0
0 4087 0
0 4087 0
0 4086 0
0 4086 0
0 4085 0
0 4082 0
0 4075 219
0 4065 2365
0 4050 3653
0 4028 3968
0 3991 4095
0 3925 4095
0 3802 4095
0 4095 0
0 4095 0
0 4095 0
0 4095 0
0 4095 0
0 4095 0
0 4095 0
0 4095 0
0 4095 0
0 4095 0
0 4095 0
0 4095 274
0 4095 2794
0 4095 3825
0 4095 4083
0 4089 4095
0 4052 4095
0 4095 0
0 4095 0
0 4095 0
0 4095 0
0 4095 0
0 4095 0
0 4095 0
0 4095 0
0 4095 0
0 4095 0
0 4095 0
0 4095 0
0 4095 305
0 4095 3185
0 4095 3968
0 4095 4095
0 4095 4095
0 4095 0
0 4095 0
0 4095 0
0 4095 0
0 4095 0
0 4095 0
0 4095 0
0 4095 0
0 4095 0
0 4095 0
0 4095 0
0 4095 0
0 4095 0
0 4095 306
0 4095 3476
0 4095 4085
0 4095 4095
307 0 0
260 0 282
205 0 724
129 0 1111
21 0 1499
0 0 1911
0 0 2363
0 0 2865
0 0 3317
0 0 3576
0 0 3757
0 0 3907
0 0 4039
0 0 4095
0 0 4095
0 0 4095
0 0 4095
141 169 0
95 93 94
36 7 599
3 0 1029
0 0 1439
0 0 1865
0 0 2326
0 0 2836
0 0 3302
0 0 3570
0 0 3754
0 0 3905
0 0 4038
0 0 4095
0 0 4095
0 0 4095
0 0 4095
5 598 0
0 542 0
0 468 417
0 352 920
0 179 1362
0 14 1807
0 0 2281
0 0 2800
0 0 3284
0 0 3563
0 0 3750
0 0 3903
0 0 4037
0 0 4095
0 0 4095
0 0 4095
0 0 4095
0 977 0
0 940 0
0 894 125
0 826 745
0 720 1248
0 545 1724
0 253 2217
0 7 2750
0 0 3257
0 0 3552
0 0 3744
0 0 3899
0 0 4035
0 0 4095
0 0 4095
0 0 4095
0 0 4095
0 1348 0
0 1322 0
0 1289 0
0 1242 421
0 1172 1067
0 1066 1599
0 898 2124
0 595 2677
0 128 3219
0 0 3537
0 0 3736
0 0 3894
0 0 4032
0 0 4095
0 0 4095
0 0 4095
0 0 4095
0 1740 0
0 1719 0
0 1694 0
0 1659 41
0 1608 740
0 1533 1404
0 1421 1984
0 1246 2572
0 942 3158
0 391 3515
0 0 3725
0 0 3888
0 0 4028
0 0 4095
0 0 4095
0 0 4095
0 0 4095
0 2166 0
0 2150 0
0 2130 0
0 2103 0
0 2063 161
0 2007 1062
0 1924 1769
0 1802 2415
0 1614 3058
0 1295 3480
0 662 3707
0 6 3878
0 0 4022
0 0 4094
0 0 4095
0 0 4095
0 0 4095
0 2639 0
0 2627 0
0 2611 0
0 2589 0
0 2558 0
0 2514 410
0 2451 1401
0 2359 2174
0 2223 2896
0 2014 3424
0 1669 3682
0 967 3863
0 122 4013
0 0 4093
0 0 4095
0 0 4095
0 0 4095
0 3142 0
0 3134 0
0 3123 0
0 3108 0
0 3086 0
0 3054 0
0 3009 662
0 2944 1768
0 2846 2629
0 2693 3319
0 2460 3642
0 2078 3842
0 1328 4000
0 229 4092
0 0 4095
0 0 4095
0 0 4095
0 3475 0
0 3472 0
0 3468 0
0 3462 0
0 3454 0
0 3443 0
0 3426 0
0 3400 909
0 3360 2175
0 3292 3100
0 3171 3576
0 2945 3808
0 2533 3981
0 1710 4090
0 315 4095
0 0 4095
0 0 4095
0 3680 0
0 3678 0
0 3676 0
0 3674 0
0 3670 0
0 3664 0
0 3656 0
0 3644 0
0 3627 1176
0 3601 2630
0 3560 3447
0 3491 3756
0 3350 3951
0 3001 4087
0 2130 4095
0 385 4095
0 0 4095
0 3841 0
0 3840 0
0 3839 0
0 3838 0
0 3835 0
0 3832 0
0 3827 0
0 3820 0
0 3810 41
0 3796 1535
0 3775 3078
0 3744 3661
0 3692 3905
0 3600 4071
0 3377 4095
0 2574 4095
0 435 4095
0 3981 0
0 3981 0
0 3980 0
0 3979 0
0 3977 0
0 3975 0
0 3972 0
0 3968 0
0 3962 0
0 3953 138
0 3941 1941
0 3922 3424
0 3895 3826
0 3851 4034
0 3777 4095
0 3624 4095
0 3033 4095
0 4087 0
0 4087 0
0 4087 0
0 4087 0
0 4087 0
0 4087 0
0 4086 0
0 4086 0
0 4085 0
0 4082 0
0 4075 215
0 4065 2359
0 4050 3653
0 4027 3967
0 3990 4095
0 3924 4095
0 3801 4095
0 4095 0
0 4095 0
0 4095 0
0 4095 0
0 4095 0
0 4095 0
0 4095 0
0 4095 0
0 4095 0
0 4095 0
0 4095 0
0 4095 271
0 4095 2790
0 4095 3824
0 4094 4083
0 4089 4095
0 4051 4095
0 4095 0
0 4095 0
0 4095 0
0 4095 0
0 4095 0
0 4095 0
0 4095 0
0 4095 0
0 4095 0
0 4095 0
0 4095 0
0 4095 0
0 4095 303
0 4095 3183
0 4095 3968
0 4095 4095
0 4095 4095
0 4095 0
0 4095 0
0 4095 0
0 4095 0
0 4095 0
0 4095 0
0 4095 0
0 4095 0
0 4095 0
0 4095 0
0 4095 0
0 4095 0
0 4095 0
0 4095 305
0 4095 3475
0 4095 4085
0 4095 4095
736 0 0
708 0 245
673 0 701
621 0 1096
540 0 1487
414 0 1902
218 0 2356
24 0 2860
0 0 3314
0 0 3575
0 0 3757
0 0 3907
0 0 4039
0 0 4095
0 0 4095
0 0 4095
0 0 4095
629 81 0
596 8 55
556 0 572
495 0 1013
402 0 1427
260 0 1856
74 0 2318
0 0 2830
0 0 3299
0 0 3569
0 0 3753
0 0 3905
0 0 4038
0 0 4095
0 0 4095
0 0 4095
0 0 4095
478 533 0
438 471 0
390 391 385
314 264 902
215 97 1350
76 0 1798
2 0 2274
0 0 2794
0 0 3281
0 0 3562
0 0 3749
0 0 3902
0 0 4036
0 0 4095
0 0 4095
0 0 4095
0 0 4095
221 934 0
178 896 0
130 848 91
61 776 722
15 663 1234
0 475 1714
0 182 2209
0 0 2744
0 0 3254
0 0 3551
0 0 3744
0 0 3899
0 0 4035
0 0 4095
0 0 4095
0 0 4095
0 0 4095
7 1318 0
0 1290 0
0 1257 0
0 1207 392
0 1136 1051
0 1027 1588
0 850 2116
0 532 2671
0 98 3215
0 0 3536
0 0 3736
0 0 3894
0 0 4032
0 0 4095
0 0 4095
0 0 4095
0 0 4095
0 1716 0
0 1695 0
0 1670 0
0 1634 32
0 1582 717
0 1506 1391
0 1392 1976
0 1212 2566
0 896 3154
0 337 3514
0 0 3724
0 0 3887
0 0 4028
0 0 4095
0 0 4095
0 0 4095
0 0 4095
0 2147 0
0 2131 0
0 2112 0
0 2083 0
0 2043 135
0 1987 1045
0 1903 1759
0 1779 2408
0 1587 3053
0 1262 3479
0 625 3707
0 0 3877
0 0 4022
0 0 4094
0 0 4095
0 0 4095
0 0 4095
0 2625 0
0 2612 0
0 2596 0
0 2574 0
0 2542 0
0 2498 387
0 2434 1388
0 2342 2166
0 2204 2891
0 1994 3422
0 1644 3681
0 921 3863
0 96 4013
0 0 4093
0 0 4095
0 0 4095
0 0 4095
0 3132 0
0 3124 0
0 3112 0
0 3097 0
0 3075 0
0 3043 0
0 2998 646
0 2932 1758
0 2832 2623
0 2678 3317
0 2443 3641
0 2058 3841
0 1293 4000
0 213 4092
0 0 4095
0 0 4095
0 0 4095
0 3471 0
0 3468 0
0 3464 0
0 3458 0
0 3450 0
0 3438 0
0 3421 0
0 3395 898
0 3354 2166
0 3284 3096
0 3162 3575
0 2934 3808
0 2517 3980
0 1685 4090
0 305 4095
0 0 4095
0 0 4095
0 3678 0
0 3676 0
0 3674 0
0 3672 0
0 3668 0
0 3662 0
0 3654 0
0 3642 0
0 3624 1166
0 3598 2624
0 3557 3445
0 3487 3755
0 3345 3951
0 2990 4087
0 2110 4095
0 378 4095
0 0 4095
0 3840 0
0 3839 0
0 3838 0
0 3836 0
0 3834 0
0 3831 0
0 3826 0
0 3819 0
0 3809 30
0 3795 1520
0 3774 3074
0 3742 3661
0 3690 3904
0 3598 4071
0 3372 4095
0 2560 4095
0 430 4095
0 3981 0
0 3980 0
0 3979 0
0 3978 0
0 3977 0
0 3974 0
0 3971 0
0 3967 0
0 3961 0
0 3953 130
0 3940 1930
0 3921 3422
0 3894 3825
0 3850 4034
0 3775 4095
0 3621 4095
0 3023 4095
0 4087 0
0 4087 0
0 4087 0
0 4087 0
0 4087 0
0 4087 0
0 4086 0
0 4086 0
0 4085 0
0 4081 0
0 4074 210
0 4064 2352
0 4049 3652
0 4027 3967
0 3989 4095
0 3924 4095
0 3799 4095
0 4095 0
0 4095 0
0 4095 0
0 4095 0
0 4095 0
0 4095 0
0 4095 0
0 4095 0
0 4095 0
0 4095 0
0 4095 0
0 4095 268
0 4095 2784
0 4095 3824
0 4094 4083
0 4089 4095
0 4051 4095
0 4095 0
0 4095 0
0 4095 0
0 4095 0
0 4095 0
0 4095 0
0 4095 0
0 4095 0
0 4095 0
0 4095 0
0 4095 0
0 4095 0
0 4095 301
0 4095 3180
0 4095 3967
0 4095 4095
0 4095 4095
0 4095 0
0 4095 0
0 4095 0
0 4095 0
0 4095 0
0 4095 0
0 4095 0
0 4095 0
0 4095 0
0 4095 0
0 4095 0
0 4095 0
0 4095 0
0 4095 304
0 4095 3473
0 4095 4085
0 4095 4095
1116 0 0
1097 0 194
1073 0 669
1039 0 1074
990 0 1471
916 0 1890
802 0 2346
612 0 2852
289 0 3310
9 0 3573
0 0 3756
0 0 3906
0 0 4039
0 0 4095
0 0 4095
0 0 4095
0 0 4095
1045 2 0
1024 0 10
999 0 533
962 0 988
909 0 1410
828 0 1843
702 0 2309
488 0 2822
169 0 3295
0 0 3567
0 0 3752
0 0 3904
0 0 4038
0 0 4095
0 0 4095
0 0 4095
