Postproduction/IWLTBAP - Humble/LUTs by IWLTBAP (3DL)/UTILITY/BMDFilm BMCC to Rec.709/U-BMDFILM-BMCC-V2-LTR.3dl
# Copyright: (C) Copyright 2010-2018 by IWLTBAP SAS
# Cannot be resold, shared or otherwise redistributed
# Website: https://luts.iwltbap.com
0 128 256 384 512 640 768 896 1023
0 0 0
0 0 743
0 0 1509
0 0 2368
0 0 3319
0 0 3758
0 0 4039
0 0 4095
0 0 4095
0 649 0
0 527 444
0 247 1373
0 0 2287
0 0 3286
0 0 3751
0 0 4037
0 0 4095
0 0 4095
0 1374 0
0 1315 0
0 1200 1080
0 935 2130
0 176 3221
0 0 3737
0 0 4032
0 0 4095
0 0 4095
0 2181 0
0 2146 0
0 2079 182
0 1942 1777
0 1635 3062
0 693 3708
0 0 4022
0 0 4095
0 0 4095
0 3149 0
0 3132 0
0 3095 0
0 3019 674
0 2857 2634
0 2473 3643
0 1355 4000
0 0 4095
0 0 4095
0 3682 0
0 3678 0
0 3671 0
0 3657 0
0 3629 1187
0 3562 3449
0 3356 3952
0 2147 4095
0 0 4095
0 3982 0
0 3980 0
0 3978 0
0 3973 0
0 3963 0
0 3942 1949
0 3895 3826
0 3778 4095
0 3041 4095
0 4095 0
0 4095 0
0 4095 0
0 4095 0
0 4095 0
0 4095 0
0 4095 2794
0 4095 4083
0 4052 4095
0 4095 0
0 4095 0
0 4095 0
0 4095 0
0 4095 0
0 4095 0
0 4095 0
0 4095 3476
0 4095 4095
736 0 0
673 0 701
540 0 1487
218 0 2356
0 0 3314
0 0 3757
0 0 4039
0 0 4095
0 0 4095
478 533 0
390 391 385
215 97 1350
2 0 2274
0 0 3281
0 0 3749
0 0 4036
0 0 4095
0 0 4095
7 1318 0
0 1257 0
0 1136 1051
0 850 2116
0 98 3215
0 0 3736
0 0 4032
0 0 4095
0 0 4095
0 2147 0
0 2112 0
0 2043 135
0 1903 1759
0 1587 3053
0 625 3707
0 0 4022
0 0 4095
0 0 4095
0 3132 0
0 3112 0
0 3075 0
0 2998 646
0 2832 2623
0 2443 3641
0 1293 4000
0 0 4095
0 0 4095
0 3678 0
0 3674 0
0 3668 0
0 3654 0
0 3624 1166
0 3557 3445
0 3345 3951
0 2110 4095
0 0 4095
0 3981 0
0 3979 0
0 3977 0
0 3971 0
0 3961 0
0 3940 1930
0 3894 3825
0 3775 4095
0 3023 4095
0 4095 0
0 4095 0
0 4095 0
0 4095 0
0 4095 0
0 4095 0
0 4095 2784
0 4094 4083
0 4051 4095
0 4095 0
0 4095 0
0 4095 0
0 4095 0
0 4095 0
0 4095 0
0 4095 0
0 4095 3473
0 4095 4095
1500 0 0
1468 0 620
1408 0 1448
1281 0 2331
984 0 3304
148 0 3755
0 0 4038
0 0 4095
0 0 4095
1381 265 0
1346 108 268
1280 0 1307
1139 0 2250
789 0 3271
32 0 3747
0 0 4036
0 0 4095
0 0 4095
1129 1208 0
1086 1141 0
1004 1007 995
815 672 2089
341 8 3204
0 0 3733
0 0 4031
0 0 4095
0 0 4095
382 2084 0
314 2046 0
186 1977 102
51 1830 1727
0 1497 3038
0 484 3704
0 0 4021
0 0 4095
0 0 4095
0 3097 0
0 3076 0
0 3037 0
0 2958 592
0 2786 2602
0 2388 3638
0 1166 3999
0 0 4095
0 0 4095
0 3672 0
0 3668 0
0 3661 0
0 3647 0
0 3617 1136
0 3547 3439
0 3325 3950
0 2043 4095
0 0 4095
0 3978 0
0 3977 0
0 3974 0
0 3969 0
0 3958 0
0 3937 1893
0 3890 3824
0 3770 4095
0 2989 4095
0 4095 0
0 4095 0
0 4095 0
0 4095 0
0 4095 0
0 4095 0
0 4095 2765
0 4094 4083
0 4049 4095
0 4095 0
0 4095 0
0 4095 0
0 4095 0
0 4095 0
0 4095 0
0 4095 0
0 4095 3467
0 4095 4095
2357 0 0
2337 0 431
2301 0 1368
2229 0 2285
2079 0 3286
1741 0 3750
708 0 4037
0 0 4095
0 0 4095
2285 0 0
2265 0 50
2228 0 1217
2153 0 2200
1996 0 3251
1640 0 3743
550 0 4034
0 0 4095
0 0 4095
2147 956 0
2126 870 0
2086 688 873
2005 262 2036
1834 0 3181
1431 0 3729
244 0 4030
0 0 4095
0 0 4095
1845 1952 0
1819 1912 0
1771 1836 42
1673 1677 1660
1458 1300 3007
876 211 3699
0 0 4019
0 0 4095
0 0 4095
958 3024 0
905 3002 0
801 2962 0
651 2877 469
307 2693 2560
0 2275 3632
0 961 3997
0 0 4095
0 0 4095
0 3658 0
0 3655 0
0 3647 0
0 3632 0
0 3601 1076
0 3527 3427
0 3281 3948
0 1897 4095
0 0 4095
0 3973 0
0 3972 0
0 3969 0
0 3964 0
0 3953 0
0 3931 1813
0 3884 3820
0 3761 4095
0 2909 4095
0 4095 0
0 4095 0
0 4095 0
0 4095 0
0 4095 0
0 4095 0
0 4095 2727
0 4094 4082
0 4045 4095
0 4095 0
0 4095 0
0 4095 0
0 4095 0
0 4095 0
0 4095 0
0 4095 0
0 4095 3456
0 4095 4095
3310 0 0
3302 0 40
3287 0 1196
3257 0 2190
3195 0 3247
3038 0 3742
2638 0 4034
1392 0 4095
0 0 4095
3281 0 0
3272 0 0
3257 0 1018
3225 0 2101
3158 0 3210
2990 0 3734
2575 0 4032
1235 0 4095
0 0 4095
3223 234 0
3214 123 0
3197 24 578
3161 0 1926
3081 0 3132
2899 0 3720
2454 0 4027
1034 0 4095
0 0 4095
3086 1660 0
3074 1612 0
3051 1520 0
3005 1318 1520
2910 773 2945
2698 0 3689
2196 0 4016
549 0 4095
0 0 4095
2726 2870 0
2709 2845 0
2679 2798 0
2618 2701 243
2494 2499 2476
2226 2033 3620
1530 527 3993
54 0 4095
0 0 4095
1650 3631 0
1621 3627 0
1565 3619 0
1447 3602 0
1164 3566 945
717 3483 3402
102 3182 3943
0 1546 4095
0 0 4095
0 3963 0
0 3962 0
0 3959 0
0 3954 0
0 3943 0
0 3920 1672
0 3871 3814
0 3741 4095
0 2741 4095
0 4095 0
0 4095 0
0 4095 0
0 4095 0
0 4095 0
0 4095 0
0 4095 2647
0 4093 4081
0 4038 4095
0 4095 0
0 4095 0
0 4095 0
0 4095 0
0 4095 0
0 4095 0
0 4095 0
0 4095 3434
0 4095 4095
3754 0 0
3752 0 0
3748 0 744
3742 0 1988
3729 0 3160
3702 0 3725
3640 0 4029
3459 0 4095
2250 0 4095
3747 0 0
3745 0 0
3742 0 470
3735 0 1888
3722 0 3115
3694 0 3717
3631 0 4026
3441 0 4095
2165 0 4095
3735 0 0
3733 0 0
3729 0 37
3723 0 1689
3709 0 3021
3680 0 3701
3613 0 4020
3404 0 4095
1990 0 4095
3710 791 0
3708 699 0
3704 562 0
3696 254 1191
3681 0 2813
3649 0 3669
3574 0 4009
3320 0 4095
1608 0 4095
3653 2506 0
3651 2476 0
3647 2418 0
3638 2303 40
3619 2054 2302
3580 1404 3594
3481 64 3986
3092 0 4095
979 0 4095
3499 3568 0
3495 3563 0
3487 3553 0
3472 3532 0
3438 3487 595
3359 3371 3345
3125 2926 3934
2333 976 4095
159 0 4095
2480 3943 0
2462 3942 0
2430 3939 0
2365 3933 0
2226 3921 0
1891 3897 1504
1232 3843 3800
231 3697 4095
0 2318 4095
0 4095 0
0 4095 0
0 4095 0
0 4095 0
0 4095 0
0 4095 0
0 4095 2455
0 4092 4076
0 4023 4095
0 4095 0
0 4095 0
0 4095 0
0 4095 0
0 4095 0
0 4095 0
0 4095 0
0 4095 3388
0 4095 4095
4037 0 0
4036 0 0
4035 0 0
4033 0 1504
4028 0 2939
4018 0 3689
3998 0 4016
3952 0 4095
3838 0 4095
4034 0 0
4034 0 0
4033 0 0
4030 0 1363
4026 0 2881
4015 0 3679
3995 0 4012
3949 0 4095
3833 0 4095
4030 0 0
4030 0 0
4028 0 0
4026 0 1052
4021 0 2767
4010 0 3662
3989 0 4007
3943 0 4095
3824 0 4095
4021 0 0
4020 0 0
4019 0 0
4016 0 329
4011 0 2514
4000 0 3625
3978 0 3995
3930 0 4095
3804 0 4095
4002 1480 0
4001 1424 0
3999 1314 0
3996 1061 0
3991 635 1902
3979 91 3536
3956 0 3970
3903 0 4095
3763 0 4095
3959 3379 0
3959 3368 0
3957 3348 0
3954 3306 0
3947 3208 210
3934 2950 3196
3906 2170 3916
3844 192 4095
3661 0 4095
3856 3899 0
3854 3897 0
3852 3894 0
3847 3887 0
3838 3874 0
3819 3846 1085
3778 3781 3771
3675 3586 4095
3180 1548 4095
3281 4095 0
3274 4095 0
3262 4095 0
3238 4095 0
3187 4095 0
3069 4095 0
2724 4094 2192
1866 4089 4066
342 3993 4095
0 4095 0
0 4095 0
0 4095 0
0 4095 0
0 4095 0
0 4095 0
0 4095 0
0 4095 3274
0 4095 4095
4095 0 0
4095 0 0
4095 0 0
4095 0 149
4095 0 2359
4095 0 3602
4095 0 3988
4095 0 4095
4095 0 4095
4095 0 0
4095 0 0
4095 0 0
4095 0 30
4095 0 2277
4095 0 3590
4095 0 3985
4095 0 4095
4095 0 4095
4095 0 0
4095 0 0
4095 0 0
4095 0 0
4095 0 2115
4095 0 3566
4095 0 3978
4095 0 4095
4095 0 4095
4095 0 0
4095 0 0
4095 0 0
4095 0 0
4095 0 1740
4095 0 3513
4095 0 3965
4095 0 4095
4095 0 4095
4095 0 0
4095 0 0
4095 0 0
4095 0 0
4095 0 717
4095 0 3367
4095 0 3938
4095 0 4095
4095 0 4095
4095 2296 0
4095 2262 0
4095 2198 0
4095 2066 0
4095 1752 0
4095 1136 2768
4095 223 3878
4095 0 4095
4093 0 4095
4095 3789 0
4095 3787 0
4095 3782 0
4095 3772 0
4095 3752 0
4095 3709 369
4095 3597 3706
4095 3040 4095
4086 296 4095
4089 4095 0
4089 4095 0
4089 4095 0
4088 4094 0
4087 4094 0
4086 4092 0
4080 4089 1671
4050 4052 4045
3978 3918 4095
3782 4095 0
3780 4095 0
3777 4095 0
3770 4095 0
3756 4095 0
3725 4095 0
3648 4095 0
3452 4095 3049
2692 4095 4095
4095 0 0
4095 0 0
4095 0 0
4095 0 0
4095 0 350
4095 0 3267
4095 0 3926
4095 0 4095
4095 0 4095
4095 0 0
4095 0 0
4095 0 0
4095 0 0
4095 0 307
4095 0 3234
4095 0 3921
4095 0 4095
4095 0 4095
4095 0 0
4095 0 0
4095 0 0
4095 0 0
4095 0 206
4095 0 3168
4095 0 3914
4095 0 4095
4095 0 4095
4095 0 0
4095 0 0
4095 0 0
4095 0 0
4095 0 0
4095 0 3006
4095 0 3898
4095 0 4095
4095 0 4095
4095 0 0
4095 0 0
4095 0 0
4095 0 0
4095 0 0
4095 0 2589
4095 0 3864
4095 0 4095
4095 0 4095
4095 0 0
4095 0 0
4095 0 0
4095 0 0
4095 0 0
4095 0 1138
4095 0 3784
4095 0 4095
4095 0 4095
4095 3176 0
4095 3161 0
4095 3134 0
4095 3077 0
4095 2937 0
4095 2582 0
4095 1747 3502
4095 337 4091
4095 0 4095
4095 4060 0
4095 4059 0
4095 4057 0
4095 4054 0
4095 4046 0
4095 4031 0
4095 4001 461
4095 3926 3999
4095 3626 4095
4095 4095 0
4095 4095 0
4095 4095 0
4095 4095 0
4095 4095 0
4095 4095 0
4095 4095 0
4095 4095 2384
4095 4095 4095
