Postproduction/IWLTBAP - Humble/LUTs by IWLTBAP (3DL)/UTILITY/BMDFilm BMCC to Rec.709/U-BMDFILM-BMCC-V1-LTR.3dl
# Copyright: (C) Copyright 2010-2018 by IWLTBAP SAS
# Cannot be resold, shared or otherwise redistributed
# Website: https://luts.iwltbap.com
0 64 128 192 256 320 384 448 512 576 640 704 768 832 896 960 1023
0 0 0
0 0 272
0 0 868
0 0 1487
0 0 2121
0 0 2765
0 0 3398
0 0 3840
0 0 3916
0 0 3941
0 0 3964
0 0 3986
0 0 4007
0 0 4028
0 0 4049
0 0 4070
0 0 4090
0 100 0
0 75 83
0 45 643
0 4 1261
0 0 1892
0 0 2544
0 0 3202
0 0 3756
0 0 3916
0 0 3941
0 0 3964
0 0 3986
0 0 4007
0 0 4028
0 0 4049
0 0 4070
0 0 4090
0 422 0
0 399 5
0 371 393
0 334 1006
0 294 1637
0 249 2286
0 201 2950
0 153 3593
0 124 3914
0 110 3941
0 95 3964
0 81 3986
0 69 4007
0 59 4028
0 50 4049
0 47 4070
0 45 4090
0 778 0
0 758 0
0 735 157
0 705 727
0 667 1360
0 624 2015
0 578 2679
0 525 3346
0 472 3847
0 432 3940
0 407 3964
0 386 3986
0 365 4007
0 347 4028
0 329 4049
0 319 4070
0 312 4090
0 1152 0
0 1136 0
0 1114 39
0 1089 455
0 1057 1085
0 1019 1742
0 979 2410
0 934 3082
0 887 3684
0 841 3928
0 788 3961
0 749 3986
0 728 4007
0 708 4028
0 688 4049
0 676 4070
0 668 4090
0 1539 0
0 1525 0
0 1502 24
0 1480 202
0 1451 795
0 1417 1457
0 1379 2133
0 1339 2815
0 1296 3468
0 1256 3898
0 1218 3957
0 1155 3982
0 1099 4007
0 1078 4028
0 1059 4049
0 1047 4070
0 1039 4090
0 1935 0
0 1922 0
0 1899 24
0 1878 80
0 1852 494
0 1821 1151
0 1786 1838
0 1747 2532
0 1707 3215
0 1669 3783
0 1638 3949
0 1597 3979
0 1524 4002
0 1449 4028
0 1429 4049
0 1416 4070
0 1408 4090
0 2336 0
0 2326 0
0 2304 24
0 2283 58
0 2262 231
0 2231 812
0 2198 1522
0 2163 2231
0 2126 2932
0 2087 3573
0 2057 3921
0 2025 3978
0 1980 4000
0 1897 4022
0 1804 4048
0 1786 4070
0 1778 4090
0 2745 0
0 2738 0
0 2717 24
0 2696 56
0 2678 101
0 2653 456
0 2618 1165
0 2584 1906
0 2549 2633
0 2513 3321
0 2479 3838
0 2451 3973
0 2417 4000
0 2367 4020
0 2274 4043
0 2166 4068
0 2149 4090
0 3153 0
0 3149 0
0 3130 23
0 3108 56
0 3089 86
0 3071 226
0 3044 732
0 3006 1539
0 2973 2310
0 2938 3035
0 2904 3652
0 2877 3953
0 2850 4000
0 2815 4020
0 2761 4042
0 2666 4063
0 2630 4085
0 3542 0
0 3538 0
0 3522 23
0 3502 55
0 3483 86
0 3468 135
0 3449 426
0 3416 1082
0 3380 1939
0 3348 2726
0 3313 3412
0 3286 3887
0 3266 3997
0 3242 4021
0 3211 4042
0 3162 4062
0 3143 4083
0 3863 0
0 3861 0
0 3854 22
0 3841 55
0 3829 86
0 3818 118
0 3808 276
0 3792 739
0 3763 1473
0 3732 2375
0 3700 3146
0 3671 3744
0 3650 3984
0 3635 4021
0 3616 4042
0 3594 4063
0 3580 4083
0 3986 0
0 3986 0
0 3985 22
0 3982 55
0 3979 86
0 3976 117
0 3973 222
0 3970 585
0 3964 1178
0 3952 1953
0 3943 2879
0 3932 3587
0 3923 3956
0 3918 4021
0 3912 4042
0 3906 4063
0 3901 4083
0 4015 0
0 4015 0
0 4015 22
0 4015 55
0 4015 86
0 4015 117
0 4015 190
0 4015 479
0 4015 1046
0 4015 1642
0 4015 2457
0 4016 3394
0 4016 3921
0 4016 4021
0 4016 4042
0 4016 4063
0 4016 4083
0 4036 0
0 4036 0
0 4036 22
0 4036 55
0 4036 86
0 4036 117
0 4036 170
0 4036 395
0 4036 911
0 4036 1499
0 4036 2097
0 4036 2955
0 4037 3826
0 4036 4019
0 4036 4042
0 4036 4063
0 4036 4083
0 4057 0
0 4057 0
0 4057 22
0 4057 55
0 4057 86
0 4057 117
0 4057 154
0 4057 331
0 4057 786
0 4057 1357
0 4057 1952
0 4057 2554
0 4057 3448
0 4058 4000
0 4058 4042
0 4058 4063
0 4058 4083
0 4078 0
0 4078 0
0 4078 22
0 4078 55
0 4078 86
0 4078 117
0 4078 147
0 4078 286
0 4078 688
0 4078 1234
0 4078 1822
0 4078 2422
0 4078 3125
0 4078 3962
0 4078 4042
0 4078 4063
0 4078 4083
237 0 0
209 0 210
173 0 802
133 0 1421
87 0 2056
39 0 2704
3 0 3345
0 0 3823
0 0 3916
0 0 3941
0 0 3964
0 0 3986
0 0 4007
0 0 4028
0 0 4049
0 0 4070
0 0 4090
47 39 0
24 16 30
7 2 567
4 0 1188
3 0 1824
1 0 2478
0 0 3141
0 0 3716
0 0 3916
0 0 3941
0 0 3964
0 0 3986
0 0 4007
0 0 4028
0 0 4049
0 0 4070
0 0 4090
2 365 0
0 344 1
0 319 337
0 284 949
0 246 1581
0 201 2233
0 158 2902
0 118 3558
0 94 3914
0 82 3941
0 70 3964
0 60 3986
0 51 4007
0 43 4028
0 37 4049
0 35 4070
0 34 4090
0 734 0
0 714 0
0 691 131
0 662 685
0 625 1319
0 585 1972
0 536 2640
0 485 3314
0 433 3838
0 397 3940
0 373 3964
0 353 3986
0 335 4007
0 318 4028
0 301 4049
0 292 4070
0 287 4090
0 1116 0
0 1099 0
0 1077 36
0 1053 420
0 1022 1049
0 985 1707
0 945 2376
0 901 3052
0 854 3664
0 807 3928
0 755 3961
0 719 3986
0 700 4007
0 680 4028
0 660 4049
0 650 4070
0 642 4090
0 1509 0
0 1493 0
0 1473 24
0 1451 179
0 1422 763
0 1390 1427
0 1353 2105
0 1313 2789
0 1269 3450
0 1229 3896
0 1191 3958
0 1128 3982
0 1076 4007
0 1056 4028
0 1037 4049
0 1026 4070
0 1019 4090
0 1908 0
0 1896 0
0 1874 24
0 1854 74
0 1830 471
0 1799 1127
0 1765 1816
0 1728 2511
0 1688 3198
0 1649 3773
0 1619 3948
0 1578 3979
0 1504 4002
0 1431 4028
0 1412 4049
0 1401 4070
0 1393 4090
0 2316 0
0 2308 0
0 2286 24
0 2264 57
0 2245 218
0 2215 792
0 2182 1505
0 2148 2214
0 2111 2919
0 2073 3563
0 2043 3919
0 2011 3978
0 1965 4000
0 1882 4022
0 1790 4048
0 1775 4070
0 1767 4090
0 2732 0
0 2727 0
0 2705 24
0 2683 56
0 2665 100
0 2642 445
0 2607 1149
0 2573 1892
0 2538 2620
0 2501 3309
0 2467 3831
0 2439 3972
0 2405 4000
0 2356 4020
0 2263 4043
0 2155 4068
0 2138 4090
0 3142 0
0 3138 0
0 3119 23
0 3099 56
0 3079 86
0 3061 222
0 3034 717
0 2997 1524
0 2963 2297
0 2928 3024
0 2893 3645
0 2868 3952
0 2840 4000
0 2804 4020
0 2752 4042
0 2655 4063
0 2621 4085
0 3533 0
0 3529 0
0 3513 23
0 3493 55
0 3475 86
0 3459 133
0 3441 419
0 3408 1064
0 3371 1926
0 3339 2717
0 3304 3405
0 3278 3884
0 3256 3997
0 3234 4021
0 3203 4042
0 3154 4062
0 3134 4083
0 3859 0
0 3857 0
0 3849 22
0 3837 55
0 3824 86
0 3814 118
0 3802 269
0 3786 728
0 3757 1457
0 3725 2361
0 3694 3138
0 3664 3739
0 3644 3983
0 3627 4021
0 3610 4042
0 3587 4063
0 3573 4083
0 3986 0
0 3985 0
0 3984 22
0 3981 55
0 3978 86
0 3975 117
0 3972 218
0 3968 576
0 3962 1168
0 3950 1938
0 3941 2867
0 3930 3580
0 3921 3955
0 3916 4021
0 3910 4042
0 3904 4063
0 3899 4083
0 4015 0
0 4015 0
0 4015 22
0 4015 55
0 4015 86
0 4015 117
0 4015 188
0 4015 471
0 4015 1037
0 4015 1632
0 4015 2446
0 4016 3385
0 4016 3917
0 4016 4020
0 4016 4042
0 4016 4063
0 4016 4083
0 4036 0
0 4036 0
0 4036 22
0 4036 55
0 4036 86
0 4036 117
0 4036 167
0 4036 389
0 4036 902
0 4036 1491
0 4036 2090
0 4036 2945
0 4037 3820
0 4036 4018
0 4036 4042
0 4036 4063
0 4036 4083
0 4057 0
0 4057 0
0 4057 22
0 4057 55
0 4057 86
0 4057 117
0 4057 153
0 4057 325
0 4057 778
0 4057 1349
0 4057 1945
0 4057 2547
0 4057 3441
0 4058 3999
0 4058 4042
0 4058 4063
0 4058 4083
0 4078 0
0 4078 0
0 4078 22
0 4078 55
0 4078 86
0 4078 117
0 4078 147
0 4078 282
0 4078 680
0 4078 1227
0 4078 1814
0 4078 2415
0 4078 3118
0 4078 3960
0 4078 4042
0 4078 4063
0 4078 4083
782 0 0
748 0 129
707 0 707
654 0 1332
597 0 1969
531 0 2621
461 0 3274
410 0 3798
378 0 3916
348 0 3941
319 0 3964
294 0 3986
270 0 4007
245 0 4028
224 0 4049
215 0 4070
207 0 4090
547 2 0
514 0 5
475 0 480
430 0 1107
378 0 1746
324 0 2407
272 0 3074
229 0 3673
204 0 3916
184 0 3941
164 0 3964
145 0 3986
130 0 4007
117 0 4028
104 0 4049
100 0 4070
95 0 4090
323 309 0
300 288 0
270 266 282
233 235 884
197 198 1518
162 157 2173
129 120 2847
100 86 3518
78 64 3911
68 55 3941
57 46 3964
49 38 3986
42 31 4007
36 27 4028
32 24 4049
31 24 4070
31 24 4090
124 683 0
114 666 0
101 642 108
88 612 635
71 578 1265
56 535 1922
42 487 2590
35 435 3269
29 383 3821
29 347 3940
28 325 3964
27 305 3986
26 288 4007
24 271 4028
24 254 4049
24 246 4070
24 240 4090
33 1068 0
33 1051 0
30 1028 32
29 1004 376
27 973 998
26 938 1656
24 896 2327
23 851 3006
23 802 3631
23 752 3928
23 700 3962
23 667 3986
23 647 4007
23 627 4028
23 607 4049
23 596 4070
23 589 4090
23 1458 0
23 1445 0
23 1422 24
23 1401 152
23 1374 713
23 1341 1377
23 1303 2056
23 1263 2742
23 1219 3412
23 1179 3893
23 1138 3958
23 1075 3982
23 1024 4007
23 1005 4028
23 986 4049
23 974 4070
23 967 4090
23 1859 0
23 1849 0
23 1826 24
23 1806 67
23 1780 426
23 1751 1077
23 1716 1767
23 1680 2463
23 1639 3152
22 1599 3745
22 1569 3947
22 1527 3979
23 1453 4002
23 1381 4028
23 1363 4049
23 1350 4070
23 1343 4090
23 2269 0
23 2260 0
23 2238 24
23 2216 57
23 2199 190
23 2168 742
23 2137 1455
22 2102 2168
22 2064 2874
22 2026 3526
22 1994 3913
22 1964 3978
22 1918 4000
23 1834 4022
23 1742 4049
23 1726 4070
23 1719 4090
23 2687 0
23 2682 0
23 2661 24
23 2639 56
23 2620 97
23 2599 412
23 2564 1101
22 2531 1845
22 2497 2578
22 2460 3271
22 2426 3812
22 2399 3971
22 2363 4000
22 2313 4020
22 2218 4043
23 2112 4068
23 2096 4090
23 3103 0
23 3098 0
23 3080 23
23 3059 56
23 3040 86
23 3023 203
23 2997 678
22 2960 1482
22 2927 2258
22 2893 2990
22 2859 3618
22 2833 3950
22 2806 4000
22 2771 4020
22 2717 4042
22 2619 4063
23 2584 4085
23 3499 0
23 3496 0
23 3481 23
23 3462 55
23 3443 86
23 3427 128
23 3409 394
22 3379 1021
22 3342 1891
22 3309 2685
22 3276 3378
22 3249 3876
22 3229 3997
22 3206 4021
22 3174 4042
22 3125 4062
22 3106 4083
22 3842 0
22 3840 0
22 3832 22
22 3820 55
22 3806 86
22 3795 118
22 3783 250
22 3766 694
22 3736 1418
22 3703 2329
22 3671 3111
22 3642 3723
22 3621 3983
22 3605 4021
22 3588 4042
22 3565 4063
22 3553 4083
22 3983 0
22 3982 0
22 3981 22
22 3978 55
22 3974 86
22 3971 117
22 3968 207
22 3964 547
22 3957 1138
22 3943 1905
22 3935 2840
22 3924 3560
22 3916 3953
22 3910 4021
22 3905 4042
22 3899 4063
22 3893 4083
22 4015 0
22 4015 0
22 4015 22
22 4015 55
22 4015 86
22 4015 117
22 4015 182
22 4015 453
22 4015 1014
22 4015 1610
22 4015 2422
22 4016 3366
22 4016 3911
22 4016 4020
22 4016 4042
22 4016 4063
22 4016 4083
22 4036 0
22 4036 0
22 4036 22
22 4036 55
22 4036 86
22 4036 117
22 4036 164
22 4036 378
22 4036 887
22 4036 1475
22 4036 2075
22 4036 2929
22 4037 3812
22 4036 4017
22 4036 4042
22 4036 4063
22 4036 4083
22 4057 0
22 4057 0
22 4057 22
22 4057 55
22 4057 86
22 4057 117
22 4057 151
22 4057 320
22 4057 769
22 4057 1339
22 4057 1934
22 4057 2537
22 4057 3430
22 4058 3997
22 4058 4042
22 4058 4063
22 4058 4083
22 4078 0
22 4078 0
22 4078 22
22 4078 55
22 4078 86
22 4078 117
22 4078 146
22 4078 277
22 4078 673
22 4078 1218
22 4078 1805
22 4078 2406
22 4078 3109
22 4078 3958
22 4078 4042
22 4078 4063
22 4078 4083
1339 0 0
1309 0 28
1267 0 588
1216 0 1215
1158 0 1855
1092 0 2508
1014 0 3172
930 0 3746
872 0 3915
837 0 3941
804 0 3964
772 0 3986
741 0 4007
713 0 4028
686 0 4049
675 0 4070
665 0 4090
1107 0 0
1080 0 1
1042 0 375
999 0 1001
946 0 1644
882 0 2307
806 0 2984
728 0 3612
678 0 3915
650 0 3941
623 0 3964
597 0 3986
574 0 4007
551 0 4028
530 0 4049
521 0 4070
