Postproduction/IWLTBAP - Humble/LUTs by IWLTBAP (3DL)/UTILITY/BMDFilm BMCC to Rec.709/U-BMDFILM-BMCC-V1-LTR.3dl
# Copyright: (C) Copyright 2010-2018 by IWLTBAP SAS
# Cannot be resold, shared or otherwise redistributed
# Website: https://luts.iwltbap.com
0 256 512 768 1023
0 0 0
0 0 2121
0 0 3916
0 0 4007
0 0 4090
0 1152 0
0 1057 1085
0 887 3684
0 728 4007
0 668 4090
0 2745 0
0 2678 101
0 2549 2633
0 2417 4000
0 2149 4090
0 3986 0
0 3979 86
0 3964 1178
0 3923 3956
0 3901 4083
0 4078 0
0 4078 86
0 4078 688
0 4078 3125
0 4078 4083
1901 0 0
1728 0 1728
1424 0 3911
1253 0 4007
1174 0 4090
970 951 0
846 872 883
612 702 3565
557 556 4007
500 498 4090
94 2604 0
92 2536 94
87 2412 2492
86 2273 4000
87 2006 4090
86 3969 0
86 3958 86
86 3935 1016
86 3891 3939
86 3857 4083
86 4078 0
86 4078 86
86 4078 576
86 4078 3001
86 4078 4083
3913 0 0
3884 0 1138
3780 0 3775
3500 0 4003
3221 0 4090
3524 527 0
3463 443 419
3279 288 3277
2873 259 4004
2617 248 4090
2508 2358 0
2436 2298 86
2223 2227 2217
1702 2084 4000
1799 1803 4090
971 3924 0
900 3910 86
799 3882 800
616 3776 3849
574 3717 4083
526 4078 0
473 4078 86
369 4078 372
272 4078 2731
230 4078 4083
4008 0 0
4008 0 832
4005 0 3410
3999 0 3998
3997 0 4081
4008 315 0
4008 264 277
4005 177 2766
3999 122 3998
3997 105 4081
4006 2038 0
4006 1970 86
4006 1866 1642
4002 1635 4001
3997 1467 4081
3919 3783 0
3895 3740 86
3852 3670 373
3651 3641 3588
3321 3575 4090
2708 4079 0
2643 4079 86
2493 4079 217
2262 4079 2272
2013 4078 4083
4090 0 0
4090 0 664
4090 0 2951
4082 0 3997
4082 0 4081
4090 240 0
4090 190 201
4090 122 2339
4082 92 3996
4082 86 4081
4090 1733 0
4090 1671 87
4090 1581 1582
4082 1420 3996
4082 1356 4081
4094 3674 0
4094 3630 86
4094 3549 347
4094 3478 3287
4092 3361 4090
4094 4085 0
4094 4085 86
4094 4085 202
4094 4085 1582
4093 4093 4091
