Postproduction/IWLTBAP - Humble/LUTs by IWLTBAP (3DL)/UTILITY/BMDFilm BMCC to Rec.709/U-BMDFILM-BMCC-V2-LTR.3dl
# Copyright: (C) Copyright 2010-2018 by IWLTBAP SAS
# Cannot be resold, shared or otherwise redistributed
# Website: https://luts.iwltbap.com
0 256 512 768 1023
0 0 0
0 0 1509
0 0 3319
0 0 4039
0 0 4095
0 1374 0
0 1200 1080
0 176 3221
0 0 4032
0 0 4095
0 3149 0
0 3095 0
0 2857 2634
0 1355 4000
0 0 4095
0 3982 0
0 3978 0
0 3963 0
0 3895 3826
0 3041 4095
0 4095 0
0 4095 0
0 4095 0
0 4095 0
0 4095 4095
1500 0 0
1408 0 1448
984 0 3304
0 0 4038
0 0 4095
1129 1208 0
1004 1007 995
341 8 3204
0 0 4031
0 0 4095
0 3097 0
0 3037 0
0 2786 2602
0 1166 3999
0 0 4095
0 3978 0
0 3974 0
0 3958 0
0 3890 3824
0 2989 4095
0 4095 0
0 4095 0
0 4095 0
0 4095 0
0 4095 4095
3310 0 0
3287 0 1196
3195 0 3247
2638 0 4034
0 0 4095
3223 234 0
3197 24 578
3081 0 3132
2454 0 4027
0 0 4095
2726 2870 0
2679 2798 0
2494 2499 2476
1530 527 3993
0 0 4095
0 3963 0
0 3959 0
0 3943 0
0 3871 3814
0 2741 4095
0 4095 0
0 4095 0
0 4095 0
0 4095 0
0 4095 4095
4037 0 0
4035 0 0
4028 0 2939
3998 0 4016
3838 0 4095
4030 0 0
4028 0 0
4021 0 2767
3989 0 4007
3824 0 4095
4002 1480 0
3999 1314 0
3991 635 1902
3956 0 3970
3763 0 4095
3856 3899 0
3852 3894 0
3838 3874 0
3778 3781 3771
3180 1548 4095
0 4095 0
0 4095 0
0 4095 0
0 4095 0
0 4095 4095
4095 0 0
4095 0 0
4095 0 350
4095 0 3926
4095 0 4095
4095 0 0
4095 0 0
4095 0 206
4095 0 3914
4095 0 4095
4095 0 0
4095 0 0
4095 0 0
4095 0 3864
4095 0 4095
4095 3176 0
4095 3134 0
4095 2937 0
4095 1747 3502
4095 0 4095
4095 4095 0
4095 4095 0
4095 4095 0
4095 4095 0
4095 4095 4095
