Postproduction/IWLTBAP - Humble/LUTs by IWLTBAP (3DL)/UTILITY/BMDFilm BMCC to Rec.709/U-BMDFILM-BMCC-V1-LTR.3dl
# Copyright: (C) Copyright 2010-2018 by IWLTBAP SAS
# Cannot be resold, shared or otherwise redistributed
# Website: https://luts.iwltbap.com
0 128 256 384 512 640 768 896 1023
0 0 0
0 0 868
0 0 2121
0 0 3398
0 0 3916
0 0 3964
0 0 4007
0 0 4049
0 0 4090
0 422 0
0 371 393
0 294 1637
0 201 2950
0 124 3914
0 95 3964
0 69 4007
0 50 4049
0 45 4090
0 1152 0
0 1114 39
0 1057 1085
0 979 2410
0 887 3684
0 788 3961
0 728 4007
0 688 4049
0 668 4090
0 1935 0
0 1899 24
0 1852 494
0 1786 1838
0 1707 3215
0 1638 3949
0 1524 4002
0 1429 4049
0 1408 4090
0 2745 0
0 2717 24
0 2678 101
0 2618 1165
0 2549 2633
0 2479 3838
0 2417 4000
0 2274 4043
0 2149 4090
0 3542 0
0 3522 23
0 3483 86
0 3449 426
0 3380 1939
0 3313 3412
0 3266 3997
0 3211 4042
0 3143 4083
0 3986 0
0 3985 22
0 3979 86
0 3973 222
0 3964 1178
0 3943 2879
0 3923 3956
0 3912 4042
0 3901 4083
0 4036 0
0 4036 22
0 4036 86
0 4036 170
0 4036 911
0 4036 2097
0 4037 3826
0 4036 4042
0 4036 4083
0 4078 0
0 4078 22
0 4078 86
0 4078 147
0 4078 688
0 4078 1822
0 4078 3125
0 4078 4042
0 4078 4083
782 0 0
707 0 707
597 0 1969
461 0 3274
378 0 3916
319 0 3964
270 0 4007
224 0 4049
207 0 4090
323 309 0
270 266 282
197 198 1518
129 120 2847
78 64 3911
57 46 3964
42 31 4007
32 24 4049
31 24 4090
33 1068 0
30 1028 32
27 973 998
24 896 2327
23 802 3631
23 700 3962
23 647 4007
23 607 4049
23 589 4090
23 1859 0
23 1826 24
23 1780 426
23 1716 1767
23 1639 3152
22 1569 3947
23 1453 4002
23 1363 4049
23 1343 4090
23 2687 0
23 2661 24
23 2620 97
23 2564 1101
22 2497 2578
22 2426 3812
22 2363 4000
22 2218 4043
23 2096 4090
23 3499 0
23 3481 23
23 3443 86
23 3409 394
22 3342 1891
22 3276 3378
22 3229 3997
22 3174 4042
22 3106 4083
22 3983 0
22 3981 22
22 3974 86
22 3968 207
22 3957 1138
22 3935 2840
22 3916 3953
22 3905 4042
22 3893 4083
22 4036 0
22 4036 22
22 4036 86
22 4036 164
22 4036 887
22 4036 2075
22 4037 3812
22 4036 4042
22 4036 4083
22 4078 0
22 4078 22
22 4078 86
22 4078 146
22 4078 673
22 4078 1805
22 4078 3109
22 4078 4042
22 4078 4083
1901 0 0
1831 0 457
1728 0 1728
1590 0 3052
1424 0 3911
1315 0 3964
1253 0 4007
1197 0 4049
1174 0 4090
1461 149 0
1407 121 135
1317 85 1331
1194 41 2679
1034 26 3870
951 24 3964
897 23 4007
847 23 4049
829 23 4090
970 951 0
928 915 26
846 872 883
708 804 2226
612 702 3565
592 601 3963
557 556 4007
519 517 4049
500 498 4090
402 1774 0
368 1741 24
321 1699 354
266 1636 1681
217 1557 3074
192 1480 3942
200 1362 4002
206 1277 4049
198 1256 4090
94 2604 0
93 2577 24
92 2536 94
90 2480 1005
87 2412 2492
86 2337 3764
86 2273 4000
86 2125 4044
87 2006 4090
86 3418 0
86 3400 23
86 3360 86
86 3326 335
86 3258 1790
86 3193 3298
86 3141 3995
86 3087 4042
86 3017 4083
86 3969 0
86 3966 22
86 3958 86
86 3949 163
86 3935 1016
86 3913 2718
86 3891 3939
86 3874 4042
86 3857 4083
86 4036 0
86 4036 22
86 4036 86
86 4036 149
86 4036 772
86 4036 1958
86 4037 3742
86 4036 4042
86 4036 4083
86 4078 0
86 4078 22
86 4078 86
86 4078 146
86 4078 576
86 4078 1694
86 4078 3001
86 4078 4042
86 4078 4083
3061 0 0
3004 0 197
2907 0 1447
2790 0 2794
2644 0 3876
2442 0 3962
2276 0 4007
2222 0 4049
2200 0 4090
2682 33 0
2639 27 32
2561 25 1082
2449 23 2454
2296 23 3744
2094 23 3962
1948 23 4007
1900 23 4049
1881 23 4090
2229 770 0
2191 735 23
2134 693 675
2026 626 2050
1871 529 3438
1732 441 3962
1619 414 4007
1577 379 4049
1556 362 4090
1696 1633 0
1662 1605 23
1615 1566 222
1495 1522 1535
1260 1466 2965
1160 1369 3932
1180 1239 4004
1167 1172 4049
1148 1152 4090
1006 2516 0
972 2493 22
917 2452 88
803 2411 880
674 2340 2409
607 2258 3716
598 2192 4000
649 2041 4044
690 1928 4090
352 3352 0
340 3335 23
314 3293 86
295 3258 298
261 3193 1700
220 3127 3232
201 3070 3991
200 3013 4042
213 2941 4083
170 3953 0
165 3949 22
148 3937 86
147 3924 147
146 3911 906
146 3884 2599
146 3837 3896
146 3812 4042
146 3786 4083
149 4036 0
149 4036 22
146 4036 86
146 4036 146
146 4036 659
146 4036 1837
146 4037 3639
146 4036 4042
146 4036 4083
146 4078 0
146 4078 22
146 4078 86
146 4078 146
146 4078 472
146 4078 1565
146 4078 2870
146 4078 4042
146 4078 4083
3913 0 0
3905 0 49
3884 0 1138
3844 0 2530
3780 0 3775
3694 0 3960
3500 0 4003
3242 0 4049
3221 0 4090
3810 23 0
3786 23 23
3744 23 765
3666 23 2187
3566 23 3560
3447 23 3960
3201 23 4003
2951 23 4049
2931 23 4090
3524 527 0
3496 491 23
3463 443 419
3379 372 1829
3279 288 3277
3144 255 3960
2873 259 4004
2640 261 4049
2617 248 4090
3062 1441 0
3033 1413 23
2992 1372 132
2923 1330 1293
2790 1270 2772
2619 1191 3897
2415 1056 4003
2263 1027 4049
2243 1007 4090
2508 2358 0
2483 2337 22
2436 2298 86
2390 2262 578
2223 2227 2217
1909 2183 3620
1702 2084 4000
1771 1896 4044
1799 1803 4090
1762 3258 0
1738 3243 22
1682 3206 86
1610 3171 221
1405 3134 1500
1161 3065 3140
1137 2973 3985
1131 2916 4042
1144 2839 4083
971 3924 0
955 3921 22
900 3910 86
849 3897 146
799 3882 800
699 3837 2474
616 3776 3849
593 3745 4042
574 3717 4083
725 4036 0
717 4036 22
665 4036 86
612 4036 146
567 4036 569
502 4036 1733
392 4037 3535
352 4036 4042
330 4036 4083
526 4078 0
520 4078 22
473 4078 86
418 4078 146
369 4078 372
316 4078 1435
272 4078 2731
240 4078 4035
230 4078 4083
3964 0 0
3964 0 24
3964 0 949
3963 0 2266
3961 0 3651
3958 0 3957
3954 0 3998
3950 0 4043
3913 0 4089
3964 23 0
3964 23 23
3964 23 619
3963 23 1920
3961 23 3398
3958 22 3957
3954 22 3998
3942 22 4043
3868 23 4089
3964 374 0
3964 346 23
3964 311 327
3963 268 1542
3960 205 3072
3951 166 3948
3930 147 3998
3862 140 4043
3667 146 4089
3958 1248 0
3955 1218 22
3951 1170 104
3945 1113 994
3916 1025 2598
3873 892 3854
3815 824 3999
3666 813 4044
3369 840 4089
3773 2177 0
3762 2156 22
3736 2113 86
3712 2072 412
3646 2037 1965
3536 1977 3471
3435 1894 4003
3184 1679 4044
2935 1651 4090
3337 3100 0
3323 3086 22
3282 3047 86
3244 3012 153
3199 2980 1062
2994 2966 2919
2752 2924 3996
2308 2818 4044
2297 2684 4083
2651 3900 0
2634 3896 22
2576 3867 86
2514 3835 146
2434 3806 536
2130 3791 2207
1769 3728 3771
1734 3626 4042
1712 3598 4083
1815 4036 0
1806 4036 22
1753 4036 86
1697 4036 146
1647 4036 432
1579 4036 1580
1449 4037 3373
1376 4036 4042
1333 4036 4083
1533 4078 0
1526 4078 22
1471 4078 86
1403 4078 146
1338 4078 279
1267 4078 1268
1167 4078 2552
1022 4078 4014
966 4078 4083
4008 0 0
4008 0 23
4008 0 832
4008 0 1980
4005 0 3410
3999 0 3954
3999 0 3998
3998 0 4040
3997 0 4081
4008 23 0
4008 23 23
4008 23 528
4008 23 1676
4005 23 3120
3999 22 3951
3999 22 3998
3998 22 4040
3997 22 4081
4008 315 0
4008 293 23
4008 264 277
4008 229 1337
4005 177 2766
4000 136 3920
3999 122 3998
3998 111 4040
3997 105 4081
4007 1074 0
4007 1049 23
4007 1004 120
4007 959 962
4005 882 2342
4000 792 3792
3999 750 3998
3998 715 4040
3997 687 4081
4006 2038 0
4006 2017 22
4006 1970 86
4006 1926 417
4006 1866 1642
4005 1790 3392
4002 1635 4001
3998 1495 4040
3997 1467 4081
4009 2987 0
4009 2974 22
4009 2930 86
4009 2887 147
4008 2842 884
3999 2820 2715
3983 2754 3975
3980 2649 4048
3939 2490 4086
3919 3783 0
3915 3776 22
3895 3740 86
3873 3702 146
3852 3670 373
3802 3649 1663
3651 3641 3588
3551 3603 4050
3321 3575 4090
3654 4043 0
3647 4043 22
3599 4043 86
3541 4043 146
3475 4043 255
3381 4042 1190
3070 4046 3060
2558 4041 4042
2415 4029 4084
2708 4079 0
2701 4079 22
2643 4079 86
2569 4079 146
2493 4079 217
2409 4079 993
2262 4079 2272
2073 4078 3958
2013 4078 4083
4050 0 0
4050 0 23
4050 0 726
4050 0 1868
4050 0 3014
4044 0 3950
4041 0 3998
4041 0 4040
4041 0 4081
4050 23 0
4050 23 23
4050 23 458
4050 23 1584
4050 23 2744
4045 22 3925
4041 22 3998
4041 22 4040
4041 22 4081
4050 272 0
4050 252 23
4050 221 234
4050 189 1240
4050 150 2400
4045 115 3833
4041 104 3998
4041 96 4040
4041 92 4081
4050 1008 0
4050 985 23
4050 939 111
4050 897 900
4050 835 2064
4045 739 3627
4041 688 3997
4041 652 4040
4041 623 4081
4049 1781 0
4049 1763 23
4049 1717 87
4049 1677 488
4050 1623 1624
4046 1538 3166
4041 1471 3997
4041 1437 4040
4041 1408 4081
4050 2859 0
4050 2845 22
4050 2801 86
4050 2757 154
4050 2710 906
4050 2647 2271
4049 2578 3957
4045 2395 4044
4042 2227 4082
4053 3728 0
4053 3721 22
4053 3683 86
4053 3643 146
4053 3606 357
4053 3555 1472
4053 3557 3466
4052 3509 4050
4051 3463 4091
4053 4044 0
4053 4044 22
4053 4043 86
4053 4041 146
4053 4038 213
4053 4035 971
4053 4034 2466
4036 4043 4023
4024 4033 4092
4053 4085 0
4053 4085 22
4053 4085 86
4045 4085 146
4032 4085 202
4017 4085 530
3983 4085 1716
3815 4093 3780
3756 4092 4091
4090 0 0
4090 0 23
4090 0 664
4090 0 1804
4090 0 2951
4090 0 3885
4082 0 3997
4082 0 4040
4082 0 4081
4090 23 0
4090 23 23
4090 23 420
4090 23 1531
4090 23 2691
4090 23 3787
4082 22 3997
4082 22 4040
4082 22 4081
4090 240 0
4090 220 23
4090 190 201
4090 159 1180
4090 122 2339
4090 103 3541
4082 92 3996
4082 87 4040
4082 86 4081
4090 961 0
4090 938 23
4090 894 98
4090 852 857
4090 790 2013
4090 716 3253
4082 635 3996
4082 599 4040
4082 571 4081
4090 1733 0
4090 1715 23
4090 1671 87
4090 1632 466
4090 1581 1582
4090 1514 2801
4082 1420 3996
4082 1385 4040
4082 1356 4081
4089 2658 0
4090 2644 23
4090 2598 86
4089 2553 185
4089 2502 989
4089 2418 2208
4084 2269 3912
4082 2161 4040
4082 2130 4081
4094 3674 0
4094 3668 22
4094 3630 86
4094 3587 146
4094 3549 347
4094 3496 1437
4094 3478 3287
4092 3425 4049
4092 3361 4090
4094 4042 0
4094 4042 22
4094 4040 86
4094 4036 146
4094 4032 203
4094 4022 846
4094 4009 2121
4093 4000 3976
4093 3972 4092
4094 4085 0
4094 4085 22
4094 4085 86
4094 4085 146
4094 4085 202
4094 4085 425
4094 4085 1582
4094 4092 3631
4093 4093 4091
