Postproduction/IWLTBAP - Humble/LUTs by IWLTBAP (CUBE)/UTILITY/BMDFilm URSA 4.6K to Rec.709/U-BMDFILM-URSA-46K-V1-LTR.cube
# Copyright: (C) Copyright 2010-2018 by IWLTBAP SAS
# Cannot be resold, shared or otherwise redistributed
# Website: https://luts.iwltbap.com
TITLE "BMDFilm URSA 4.6K Version 1 (Utility LOG to Rec.709)"
LUT_3D_SIZE 9
0.000000 0.000000 0.000000
0.020294 0.000000 0.000000
0.257507 0.000000 0.000000
0.468964 0.000000 0.000000
0.658875 0.000000 0.000000
0.829224 0.000000 0.000000
0.975342 0.000000 0.115662
1.000000 0.000000 0.264435
1.000000 0.000000 0.423523
0.000000 0.026031 0.000000
0.000000 0.000000 0.000000
0.229126 0.000000 0.000000
0.453491 0.000000 0.000000
0.650696 0.000000 0.000000
0.824707 0.000000 0.000000
0.973175 0.000000 0.040466
1.000000 0.000000 0.215179
1.000000 0.000000 0.392914
0.000000 0.265442 0.000000
0.000000 0.244476 0.000000
0.186035 0.213684 0.000000
0.431244 0.156036 0.000000
0.638733 0.037109 0.000000
0.818420 0.000000 0.000000
0.969971 0.000000 0.000000
1.000000 0.000000 0.133820
1.000000 0.000000 0.345490
0.000000 0.477295 0.000000
0.000000 0.466003 0.000000
0.101410 0.449890 0.000000
0.391632 0.421661 0.000000
0.618164 0.369202 0.000000
0.807648 0.260773 0.000000
0.964539 0.000000 0.000000
1.000000 0.000000 0.000000
1.000000 0.000000 0.250244
0.000000 0.667297 0.000000
0.000000 0.661041 0.000000
0.000000 0.652527 0.000000
0.313354 0.637665 0.000000
0.581573 0.612091 0.000000
0.789124 0.564026 0.000000
0.955688 0.464844 0.000000
1.000000 0.179230 0.000000
1.000000 0.000000 0.008209
0.000000 0.836945 0.000000
0.000000 0.833618 0.000000
0.000000 0.829010 0.000000
0.127716 0.821259 0.000000
0.509216 0.808105 0.000000
0.755707 0.784851 0.000000
0.940186 0.741547 0.000000
1.000000 0.651337 0.000000
1.000000 0.392670 0.000000
0.000000 0.982056 0.000000
0.000000 0.980408 0.000000
0.000000 0.978058 0.000000
0.000000 0.974274 0.000000
0.338562 0.967682 0.000000
0.689819 0.956512 0.000000
0.911926 0.937347 0.000000
1.000000 0.900360 0.000000
1.000000 0.820190 0.000000
0.000000 1.000000 0.000000
0.000000 1.000000 0.000000
0.000000 1.000000 0.000000
0.000000 1.000000 0.000000
0.000000 1.000000 0.000000
0.532654 1.000000 0.000000
0.853729 1.000000 0.000000
1.000000 1.000000 0.000000
1.000000 1.000000 0.000000
0.000000 1.000000 0.000000
0.000000 1.000000 0.000000
0.000000 1.000000 0.000000
0.000000 1.000000 0.000000
0.000000 1.000000 0.000000
0.000000 1.000000 0.000000
0.710938 1.000000 0.000000
0.994446 1.000000 0.000000
1.000000 1.000000 0.000000
0.000000 0.000000 0.027466
0.007324 0.000000 0.040619
0.250000 0.000000 0.058624
0.464722 0.000000 0.086853
0.656616 0.000000 0.129333
0.827911 0.000000 0.189941
0.974731 0.000000 0.272034
1.000000 0.000000 0.375336
1.000000 0.000000 0.497406
0.000000 0.000000 0.000000
0.000000 0.000000 0.000000
0.220795 0.000000 0.000000
0.449158 0.000000 0.008453
0.648346 0.000000 0.057373
0.823364 0.000000 0.129242
0.972412 0.000000 0.223969
1.000000 0.000000 0.340027
1.000000 0.000000 0.473267
0.000000 0.247955 0.000000
0.000000 0.225922 0.000000
0.176819 0.193420 0.000000
0.426636 0.132141 0.000000
0.636353 0.007172 0.000000
0.817169 0.000000 0.025757
0.969269 0.000000 0.144928
1.000000 0.000000 0.284424
1.000000 0.000000 0.436310
0.000000 0.467834 0.000000
0.000000 0.456207 0.000000
0.089630 0.439514 0.000000
0.386261 0.410431 0.000000
0.615601 0.356232 0.000000
0.806244 0.242889 0.000000
0.964020 0.000000 0.000000
1.000000 0.000000 0.168640
1.000000 0.000000 0.365417
0.000000 0.662048 0.000000
0.000000 0.655823 0.000000
0.000000 0.647003 0.000000
0.306854 0.632019 0.000000
0.578522 0.605774 0.000000
0.787628 0.556702 0.000000
0.954987 0.454926 0.000000
1.000000 0.155273 0.000000
1.000000 0.000000 0.203583
0.000000 0.834259 0.000000
0.000000 0.830872 0.000000
0.000000 0.826263 0.000000
0.116577 0.818359 0.000000
0.505646 0.804901 0.000000
0.754211 0.781403 0.000000
0.939331 0.737488 0.000000
1.000000 0.645752 0.000000
1.000000 0.379608 0.000000
0.000000 0.980591 0.000000
0.000000 0.979034 0.000000
0.000000 0.976685 0.000000
0.000000 0.972595 0.000000
0.332275 0.966095 0.000000
0.687805 0.955048 0.000000
0.911163 0.935577 0.000000
1.000000 0.898224 0.000000
1.000000 0.817261 0.000000
0.000000 1.000000 0.000000
0.000000 1.000000 0.000000
0.000000 1.000000 0.000000
0.000000 1.000000 0.000000
0.000000 1.000000 0.000000
0.529236 1.000000 0.000000
0.852600 1.000000 0.000000
1.000000 1.000000 0.000000
1.000000 1.000000 0.000000
0.000000 1.000000 0.000000
0.000000 1.000000 0.000000
0.000000 1.000000 0.000000
0.000000 1.000000 0.000000
0.000000 1.000000 0.000000
0.000000 1.000000 0.000000
0.709106 1.000000 0.000000
0.993927 1.000000 0.000000
1.000000 1.000000 0.000000
0.000000 0.000000 0.267334
0.000000 0.000000 0.274689
0.239136 0.000000 0.284576
0.458801 0.000000 0.300507
0.653381 0.000000 0.324738
0.826324 0.000000 0.361511
0.973877 0.000000 0.414215
1.000000 0.000000 0.486267
1.000000 0.000000 0.578094
0.000000 0.000000 0.218567
0.000000 0.000000 0.227081
0.209015 0.000000 0.238281
0.443024 0.000000 0.256165
0.644928 0.000000 0.283661
0.821747 0.000000 0.324585
0.971497 0.000000 0.382812
1.000000 0.000000 0.460999
1.000000 0.000000 0.559235
0.000000 0.222260 0.139221
0.000000 0.198608 0.149780
0.163483 0.163483 0.163483
0.420074 0.096802 0.185150
0.632904 0.000000 0.218323
0.815247 0.000000 0.267029
0.968384 0.000000 0.334564
1.000000 0.000000 0.422943
1.000000 0.000000 0.531494
0.000000 0.454285 0.000000
0.000000 0.442200 0.000000
0.072906 0.424774 0.000000
0.378998 0.394379 0.027374
0.612061 0.337433 0.075470
0.804504 0.216522 0.144806
0.963074 0.000000 0.236298
1.000000 0.000000 0.349243
1.000000 0.000000 0.479462
0.000000 0.654785 0.000000
0.000000 0.648468 0.000000
0.000000 0.639465 0.000000
0.297607 0.623932 0.000000
0.574371 0.596985 0.000000
0.785675 0.546478 0.000000
0.953979 0.440704 0.000000
1.000000 0.122864 0.178589
1.000000 0.000000 0.371613
0.000000 0.830292 0.000000
0.000000 0.826965 0.000000
0.000000 0.822083 0.000000
0.100830 0.814117 0.000000
0.500397 0.800507 0.000000
0.751923 0.776703 0.000000
0.938293 0.731903 0.000000
1.000000 0.638092 0.000000
1.000000 0.361053 0.054260
0.000000 0.978790 0.000000
0.000000 0.976959 0.000000
0.000000 0.974609 0.000000
0.000000 0.970490 0.000000
0.323517 0.964081 0.000000
0.685028 0.952820 0.000000
0.910095 0.933197 0.000000
1.000000 0.895386 0.000000
1.000000 0.812958 0.000000
0.000000 1.000000 0.000000
0.000000 1.000000 0.000000
0.000000 1.000000 0.000000
0.000000 1.000000 0.000000
0.000000 1.000000 0.000000
0.524200 1.000000 0.000000
0.851105 1.000000 0.000000
1.000000 1.000000 0.000000
1.000000 1.000000 0.000000
0.000000 1.000000 0.000000
0.000000 1.000000 0.000000
0.000000 1.000000 0.000000
0.000000 1.000000 0.000000
0.000000 1.000000 0.000000
0.000000 1.000000 0.000000
0.706390 1.000000 0.000000
0.993103 1.000000 0.000000
1.000000 1.000000 0.000000
0.000000 0.000000 0.479126
0.000000 0.000000 0.483246
0.220367 0.000000 0.488647
0.449066 0.000000 0.497345
0.648285 0.000000 0.511322
0.823364 0.000000 0.532990
0.972412 0.000000 0.565582
1.000000 0.000000 0.612885
1.000000 0.000000 0.677124
0.000000 0.000000 0.453400
0.000000 0.000000 0.457733
0.188782 0.000000 0.463745
0.432892 0.000000 0.473114
0.639587 0.000000 0.487915
0.818726 0.000000 0.511200
0.970123 0.000000 0.545959
1.000000 0.000000 0.595947
1.000000 0.000000 0.663483
0.000000 0.175323 0.414368
0.000000 0.148376 0.419312
0.140533 0.107971 0.425842
0.409088 0.030548 0.436401
0.627075 0.000000 0.453094
0.812347 0.000000 0.478790
0.966827 0.000000 0.516876
1.000000 0.000000 0.571167
1.000000 0.000000 0.643951
0.000000 0.430969 0.339508
0.000000 0.418091 0.345551
0.043854 0.399353 0.353577
0.366638 0.366638 0.366638
0.605865 0.304260 0.386841
0.801331 0.169342 0.417908
0.961487 0.000000 0.463043
1.000000 0.000000 0.526215
1.000000 0.000000 0.608765
0.000000 0.642426 0.162537
0.000000 0.635742 0.172333
0.000000 0.626434 0.185455
0.281830 0.610260 0.205963
0.567566 0.581970 0.237976
0.782318 0.528809 0.284363
0.952362 0.416321 0.349182
1.000000 0.071808 0.434570
1.000000 0.000000 0.539917
0.000000 0.823792 0.000000
0.000000 0.820312 0.000000
0.000000 0.815338 0.000000
0.073944 0.807190 0.000000
0.491760 0.793182 0.000000
0.748047 0.768738 0.000000
0.936707 0.722473 0.011841
1.000000 0.625153 0.192749
1.000000 0.328339 0.380707
0.000000 0.975403 0.000000
0.000000 0.973633 0.000000
0.000000 0.971252 0.000000
0.000000 0.967224 0.000000
0.308868 0.960663 0.000000
0.680054 0.949188 0.000000
0.908020 0.929108 0.000000
1.000000 0.890350 0.000000
1.000000 0.806061 0.000000
0.000000 1.000000 0.000000
0.000000 1.000000 0.000000
0.000000 1.000000 0.000000
0.000000 1.000000 0.000000
0.000000 1.000000 0.000000
0.516235 1.000000 0.000000
0.848419 1.000000 0.000000
1.000000 1.000000 0.000000
1.000000 1.000000 0.000000
0.000000 1.000000 0.000000
0.000000 1.000000 0.000000
0.000000 1.000000 0.000000
0.000000 1.000000 0.000000
0.000000 1.000000 0.000000
0.000000 1.000000 0.000000
0.701935 1.000000 0.000000
0.991760 1.000000 0.000000
1.000000 1.000000 0.000000
0.000000 0.000000 0.669189
0.000000 0.000000 0.671234
0.187592 0.000000 0.674316
0.432251 0.000000 0.679321
0.639465 0.000000 0.687134
0.818665 0.000000 0.699493
0.970093 0.000000 0.718719
1.000000 0.000000 0.747772
1.000000 0.000000 0.789734
0.000000 0.000000 0.655273
0.000000 0.000000 0.657593
0.152832 0.000000 0.660736
0.415161 0.000000 0.665924
0.630463 0.000000 0.673981
0.813965 0.000000 0.687042
0.967743 0.000000 0.707062
1.000000 0.000000 0.737366
1.000000 0.000000 0.780670
0.000000 0.082489 0.635071
0.000000 0.048065 0.637482
0.099335 0.000366 0.640839
0.390106 0.000000 0.646301
0.617737 0.000000 0.655029
0.807281 0.000000 0.668762
0.964447 0.000000 0.690155
1.000000 0.000000 0.722076
1.000000 0.000000 0.767761
0.000000 0.388580 0.598541
0.000000 0.373810 0.601379
0.000000 0.352478 0.605042
0.345062 0.314636 0.611267
0.595734 0.241058 0.621033
0.796082 0.073242 0.636505
0.958984 0.000000 0.660248
1.000000 0.000000 0.695374
1.000000 0.000000 0.745270
0.000000 0.621246 0.528320
0.000000 0.614105 0.531738
0.000000 0.603943 0.536377
0.254120 0.586487 0.543915
0.555939 0.555939 0.555939
0.776794 0.498047 0.575043
0.949738 0.372253 0.603729
1.000000 0.000000 0.645691
1.000000 0.000000 0.703979
0.000000 0.812775 0.361694
0.000000 0.809174 0.367493
0.000000 0.803955 0.375153
0.028107 0.795502 0.387360
0.477081 0.780792 0.406403
0.741882 0.755157 0.436188
0.933777 0.706329 0.479248
1.000000 0.602417 0.539825
1.000000 0.266083 0.619324
0.000000 0.970001 0.000000
0.000000 0.968109 0.000000
0.000000 0.965637 0.000000
0.000000 0.961609 0.000000
0.283417 0.954834 0.000000
0.672150 0.942902 0.000000
0.904755 0.922394 0.047668
1.000000 0.882080 0.211304
1.000000 0.794098 0.394287
0.000000 1.000000 0.000000
0.000000 1.000000 0.000000
0.000000 1.000000 0.000000
0.000000 1.000000 0.000000
0.000000 1.000000 0.000000
0.502441 1.000000 0.000000
0.844269 1.000000 0.000000
1.000000 1.000000 0.000000
1.000000 1.000000 0.000000
0.000000 1.000000 0.000000
0.000000 1.000000 0.000000
0.000000 1.000000 0.000000
0.000000 1.000000 0.000000
0.000000 1.000000 0.000000
0.000000 1.000000 0.000000
0.694397 1.000000 0.000000
0.989532 1.000000 0.000000
1.000000 1.000000 0.000000
0.000000 0.000000 0.838867
0.000000 0.000000 0.840027
0.126190 0.000000 0.841553
0.402649 0.000000 0.844391
0.624115 0.000000 0.848755
0.810730 0.000000 0.855591
0.966034 0.000000 0.866516
1.000000 0.000000 0.883392
1.000000 0.000000 0.908478
0.000000 0.000000 0.831360
0.000000 0.000000 0.832458
0.084991 0.000000 0.834290
0.384094 0.000000 0.836945
0.614655 0.000000 0.841370
0.805969 0.000000 0.848572
0.963776 0.000000 0.859772
1.000000 0.000000 0.877319
1.000000 0.000000 0.903107
0.000000 0.000000 0.820709
0.000000 0.000000 0.821930
0.021912 0.000000 0.823730
0.356567 0.000000 0.826538
0.601349 0.000000 0.831177
0.799164 0.000000 0.838623
0.960541 0.000000 0.850311
1.000000 0.000000 0.868439
1.000000 0.000000 0.895477
0.000000 0.304779 0.802216
0.000000 0.285797 0.803650
0.000000 0.258301 0.805359
0.306610 0.208313 0.808502
0.578033 0.104828 0.813599
0.787476 0.000000 0.821472
0.954956 0.000000 0.833984
1.000000 0.000000 0.853333
1.000000 0.000000 0.881989
0.000000 0.582458 0.768982
0.000000 0.574280 0.770416
0.000000 0.562836 0.772583
0.203430 0.542908 0.776093
0.536011 0.507782 0.781708
0.767609 0.439178 0.790497
0.945557 0.282501 0.804657
1.000000 0.000000 0.826263
1.000000 0.000000 0.858063
0.000000 0.793671 0.704315
0.000000 0.789795 0.706329
0.000000 0.784302 0.708954
0.000000 0.774902 0.713257
0.451202 0.759186 0.720245
0.731262 0.731262 0.731262
0.929138 0.677979 0.748657
1.000000 0.561340 0.774811
1.000000 0.150238 0.813049
0.000000 0.960785 0.549133
0.000000 0.958832 0.552399
0.000000 0.956329 0.556854
0.000000 0.951965 0.564117
0.235474 0.944855 0.575378
0.658691 0.932617 0.593201
0.899261 0.910706 0.620880
1.000000 0.867798 0.660797
1.000000 0.773499 0.716461
0.000000 1.000000 0.000000
0.000000 1.000000 0.000000
0.000000 1.000000 0.000000
0.000000 1.000000 0.000000
0.000000 1.000000 0.000000
0.478790 1.000000 0.016602
0.836853 1.000000 0.106171
1.000000 1.000000 0.230988
1.000000 1.000000 0.412201
0.000000 1.000000 0.000000
0.000000 1.000000 0.000000
0.000000 1.000000 0.000000
0.000000 1.000000 0.000000
0.000000 1.000000 0.000000
0.000000 1.000000 0.000000
0.681854 1.000000 0.000000
0.985840 1.000000 0.000000
1.000000 1.000000 0.000000
0.000000 0.000000 0.983673
0.000000 0.000000 0.984161
0.002960 0.000000 0.985046
0.347992 0.000000 0.986420
0.597229 0.000000 0.988678
0.797119 0.000000 0.992401
0.959595 0.000000 0.998077
1.000000 0.000000 1.000000
1.000000 0.000000 1.000000
0.000000 0.000000 0.979736
0.000000 0.000000 0.980469
0.000000 0.000000 0.981354
0.325775 0.000000 0.982727
0.587067 0.000000 0.984985
0.791840 0.000000 0.988617
0.957123 0.000000 0.994507
1.000000 0.000000 1.000000
1.000000 0.000000 1.000000
0.000000 0.000000 0.974579
0.000000 0.000000 0.975037
0.000000 0.000000 0.975983
0.293152 0.000000 0.977448
0.572296 0.000000 0.979645
0.784760 0.000000 0.983612
0.953766 0.000000 0.989594
1.000000 0.000000 0.999146
1.000000 0.000000 1.000000
0.000000 0.098267 0.965546
0.000000 0.065552 0.966156
0.000000 0.021149 0.967010
0.232483 0.000000 0.968689
0.546814 0.000000 0.971039
0.772522 0.000000 0.974792
0.947998 0.000000 0.981079
1.000000 0.000000 0.991028
1.000000 0.000000 1.000000
0.000000 0.505981 0.950104
0.000000 0.495636 0.950684
0.000000 0.480927 0.951721
0.100677 0.455261 0.953186
0.500183 0.408600 0.955963
0.751312 0.312195 0.959991
0.938171 0.065155 0.966644
1.000000 0.000000 0.977112
1.000000 0.000000 0.993439
0.000000 0.758759 0.921997
0.000000 0.754272 0.922913
0.000000 0.747925 0.924011
0.000000 0.737488 0.925690
0.403992 0.719391 0.928711
0.712952 0.686981 0.933380
0.921387 0.623444 0.940826
1.000000 0.477905 0.952637
1.000000 0.000000 0.970490
0.000000 0.944855 0.865234
0.000000 0.942810 0.866333
0.000000 0.940155 0.867920
0.000000 0.935547 0.870270
0.137634 0.927704 0.874084
0.634857 0.914307 0.880249
0.889984 0.889984 0.889984
1.000000 0.842224 0.905243
1.000000 0.736176 0.927704
0.000000 1.000000 0.723541
0.000000 1.000000 0.725342
0.000000 1.000000 0.727844
0.000000 1.000000 0.731995
0.000000 1.000000 0.738556
0.434326 1.000000 0.748901
0.824707 1.000000 0.765045
1.000000 1.000000 0.790283
1.000000 1.000000 0.826569
0.000000 1.000000 0.000000
0.000000 1.000000 0.000000
0.000000 1.000000 0.000000
0.000000 1.000000 0.020782
0.000000 1.000000 0.059631
0.000000 1.000000 0.113861
0.659943 1.000000 0.183990
0.979645 1.000000 0.268036
1.000000 1.000000 0.430817
0.000000 0.000000 1.000000
0.000000 0.000000 1.000000
0.000000 0.000000 1.000000
0.233276 0.000000 1.000000
0.547485 0.000000 1.000000
0.773132 0.000000 1.000000
0.948151 0.000000 1.000000
1.000000 0.000000 1.000000
1.000000 0.000000 1.000000
0.000000 0.000000 1.000000
0.000000 0.000000 1.000000
0.000000 0.000000 1.000000
0.202423 0.000000 1.000000
0.535431 0.000000 1.000000
0.767548 0.000000 1.000000
0.945679 0.000000 1.000000
1.000000 0.000000 1.000000
1.000000 0.000000 1.000000
0.000000 0.000000 1.000000
0.000000 0.000000 1.000000
0.000000 0.000000 1.000000
0.155151 0.000000 1.000000
0.518127 0.000000 1.000000
0.759644 0.000000 1.000000
0.942047 0.000000 1.000000
1.000000 0.000000 1.000000
1.000000 0.000000 1.000000
0.000000 0.000000 1.000000
0.000000 0.000000 1.000000
0.000000 0.000000 1.000000
0.063385 0.000000 1.000000
0.487671 0.000000 1.000000
0.746216 0.000000 1.000000
0.935883 0.000000 1.000000
1.000000 0.000000 1.000000
1.000000 0.000000 1.000000
0.000000 0.320251 1.000000
0.000000 0.301880 1.000000
0.000000 0.275024 1.000000
0.000000 0.226044 1.000000
0.431152 0.128113 1.000000
0.722870 0.000000 1.000000
0.925629 0.000000 1.000000
1.000000 0.000000 1.000000
1.000000 0.000000 1.000000
0.000000 0.689606 1.000000
0.000000 0.683929 1.000000
0.000000 0.675751 1.000000
0.000000 0.662140 1.000000
0.308655 0.638519 1.000000
0.679871 0.595123 1.000000
0.907471 0.505646 1.000000
1.000000 0.255096 1.000000
1.000000 0.000000 1.000000
0.000000 0.915436 1.000000
0.000000 0.913177 1.000000
0.000000 0.910126 1.000000
0.000000 0.904633 1.000000
0.000000 0.895416 1.000000
0.590851 0.879303 1.000000
0.873779 0.850311 1.000000
1.000000 0.792725 1.000000
1.000000 0.659271 1.000000
0.000000 1.000000 1.000000
0.000000 1.000000 1.000000
0.000000 1.000000 1.000000
0.000000 1.000000 1.000000
0.000000 1.000000 1.000000
0.343201 1.000000 1.000000
0.802948 1.000000 1.000000
1.000000 1.000000 1.000000
1.000000 0.984039 1.000000
0.000000 1.000000 0.882050
0.000000 1.000000 0.883057
0.000000 1.000000 0.884399
0.000000 1.000000 0.886688
0.000000 1.000000 0.890228
0.000000 1.000000 0.896118
0.618958 1.000000 0.905121
0.969543 1.000000 0.919250
1.000000 1.000000 0.940369
0.000000 0.000000 1.000000
0.000000 0.000000 1.000000
0.000000 0.000000 1.000000
0.000000 0.000000 1.000000
0.444092 0.000000 1.000000
0.728333 0.000000 1.000000
0.928101 0.000000 1.000000
1.000000 0.000000 1.000000
1.000000 0.000000 1.000000
0.000000 0.000000 1.000000
0.000000 0.000000 1.000000
0.000000 0.000000 1.000000
0.000000 0.000000 1.000000
0.427490 0.000000 1.000000
0.721771 0.000000 1.000000
0.925293 0.000000 1.000000
1.000000 0.000000 1.000000
1.000000 0.000000 1.000000
0.000000 0.000000 1.000000
0.000000 0.000000 1.000000
0.000000 0.000000 1.000000
0.000000 0.000000 1.000000
0.403259 0.000000 1.000000
0.712280 0.000000 1.000000
0.921173 0.000000 1.000000
1.000000 0.000000 1.000000
1.000000 0.000000 1.000000
0.000000 0.000000 1.000000
0.000000 0.000000 1.000000
0.000000 0.000000 1.000000
0.000000 0.000000 1.000000
0.359467 0.000000 1.000000
0.696442 0.000000 1.000000
0.914642 0.000000 1.000000
1.000000 0.000000 1.000000
1.000000 0.000000 1.000000
0.000000 0.000000 1.000000
0.000000 0.000000 1.000000
0.000000 0.000000 1.000000
0.000000 0.000000 1.000000
0.273560 0.000000 1.000000
0.668488 0.000000 1.000000
0.902802 0.000000 1.000000
1.000000 0.000000 1.000000
1.000000 0.000000 1.000000
0.000000 0.520599 1.000000
0.000000 0.510315 1.000000
0.000000 0.496033 1.000000
0.000000 0.471100 1.000000
0.061249 0.425690 1.000000
0.616180 0.335297 1.000000
0.882385 0.113373 1.000000
1.000000 0.000000 1.000000
1.000000 0.000000 1.000000
0.000000 0.854828 1.000000
0.000000 0.851654 1.000000
0.000000 0.847351 1.000000
0.000000 0.840118 1.000000
0.000000 0.827728 1.000000
0.502167 0.806244 1.000000
0.844025 0.766846 1.000000
1.000000 0.684814 1.000000
1.000000 0.453979 1.000000
0.000000 1.000000 1.000000
0.000000 1.000000 1.000000
0.000000 1.000000 1.000000
0.000000 1.000000 1.000000
0.000000 1.000000 1.000000
0.131195 1.000000 1.000000
0.763153 1.000000 1.000000
1.000000 0.990967 1.000000
1.000000 0.942474 1.000000
0.000000 1.000000 1.000000
0.000000 1.000000 1.000000
0.000000 1.000000 1.000000
0.000000 1.000000 1.000000
0.000000 1.000000 1.000000
0.000000 1.000000 1.000000
0.534668 1.000000 1.000000
0.951294 1.000000 1.000000
1.000000 1.000000 1.000000
