Postproduction/IWLTBAP - Humble/LUTs by IWLTBAP (CUBE)/UTILITY/BMDFilm URSA 4.6K to Rec.709/U-BMDFILM-URSA-46K-V1-LTR.cube
# Copyright: (C) Copyright 2010-2018 by IWLTBAP SAS
# Cannot be resold, shared or otherwise redistributed
# Website: https://luts.iwltbap.com
TITLE "BMDFilm URSA 4.6K Version 1 (Utility LOG to Rec.709)"
LUT_3D_SIZE 5
0.000000 0.000000 0.000000
0.257507 0.000000 0.000000
0.658875 0.000000 0.000000
0.975342 0.000000 0.115662
1.000000 0.000000 0.423523
0.000000 0.265442 0.000000
0.186035 0.213684 0.000000
0.638733 0.037109 0.000000
0.969971 0.000000 0.000000
1.000000 0.000000 0.345490
0.000000 0.667297 0.000000
0.000000 0.652527 0.000000
0.581573 0.612091 0.000000
0.955688 0.464844 0.000000
1.000000 0.000000 0.008209
0.000000 0.982056 0.000000
0.000000 0.978058 0.000000
0.338562 0.967682 0.000000
0.911926 0.937347 0.000000
1.000000 0.820190 0.000000
0.000000 1.000000 0.000000
0.000000 1.000000 0.000000
0.000000 1.000000 0.000000
0.710938 1.000000 0.000000
1.000000 1.000000 0.000000
0.000000 0.000000 0.267334
0.239136 0.000000 0.284576
0.653381 0.000000 0.324738
0.973877 0.000000 0.414215
1.000000 0.000000 0.578094
0.000000 0.222260 0.139221
0.163483 0.163483 0.163483
0.632904 0.000000 0.218323
0.968384 0.000000 0.334564
1.000000 0.000000 0.531494
0.000000 0.654785 0.000000
0.000000 0.639465 0.000000
0.574371 0.596985 0.000000
0.953979 0.440704 0.000000
1.000000 0.000000 0.371613
0.000000 0.978790 0.000000
0.000000 0.974609 0.000000
0.323517 0.964081 0.000000
0.910095 0.933197 0.000000
1.000000 0.812958 0.000000
0.000000 1.000000 0.000000
0.000000 1.000000 0.000000
0.000000 1.000000 0.000000
0.706390 1.000000 0.000000
1.000000 1.000000 0.000000
0.000000 0.000000 0.669189
0.187592 0.000000 0.674316
0.639465 0.000000 0.687134
0.970093 0.000000 0.718719
1.000000 0.000000 0.789734
0.000000 0.082489 0.635071
0.099335 0.000366 0.640839
0.617737 0.000000 0.655029
0.964447 0.000000 0.690155
1.000000 0.000000 0.767761
0.000000 0.621246 0.528320
0.000000 0.603943 0.536377
0.555939 0.555939 0.555939
0.949738 0.372253 0.603729
1.000000 0.000000 0.703979
0.000000 0.970001 0.000000
0.000000 0.965637 0.000000
0.283417 0.954834 0.000000
0.904755 0.922394 0.047668
1.000000 0.794098 0.394287
0.000000 1.000000 0.000000
0.000000 1.000000 0.000000
0.000000 1.000000 0.000000
0.694397 1.000000 0.000000
1.000000 1.000000 0.000000
0.000000 0.000000 0.983673
0.002960 0.000000 0.985046
0.597229 0.000000 0.988678
0.959595 0.000000 0.998077
1.000000 0.000000 1.000000
0.000000 0.000000 0.974579
0.000000 0.000000 0.975983
0.572296 0.000000 0.979645
0.953766 0.000000 0.989594
1.000000 0.000000 1.000000
0.000000 0.505981 0.950104
0.000000 0.480927 0.951721
0.500183 0.408600 0.955963
0.938171 0.065155 0.966644
1.000000 0.000000 0.993439
0.000000 0.944855 0.865234
0.000000 0.940155 0.867920
0.137634 0.927704 0.874084
0.889984 0.889984 0.889984
1.000000 0.736176 0.927704
0.000000 1.000000 0.000000
0.000000 1.000000 0.000000
0.000000 1.000000 0.059631
0.659943 1.000000 0.183990
1.000000 1.000000 0.430817
0.000000 0.000000 1.000000
0.000000 0.000000 1.000000
0.444092 0.000000 1.000000
0.928101 0.000000 1.000000
1.000000 0.000000 1.000000
0.000000 0.000000 1.000000
0.000000 0.000000 1.000000
0.403259 0.000000 1.000000
0.921173 0.000000 1.000000
1.000000 0.000000 1.000000
0.000000 0.000000 1.000000
0.000000 0.000000 1.000000
0.273560 0.000000 1.000000
0.902802 0.000000 1.000000
1.000000 0.000000 1.000000
0.000000 0.854828 1.000000
0.000000 0.847351 1.000000
0.000000 0.827728 1.000000
0.844025 0.766846 1.000000
1.000000 0.453979 1.000000
0.000000 1.000000 1.000000
0.000000 1.000000 1.000000
0.000000 1.000000 1.000000
0.534668 1.000000 1.000000
1.000000 1.000000 1.000000
