Postproduction/IWLTBAP - Humble/LUTs by IWLTBAP (CUBE)/UTILITY/BMDFilm URSA 4.6K to Rec.709/U-BMDFILM-URSA-46K-V1-LTR.cube
# Copyright: (C) Copyright 2010-2018 by IWLTBAP SAS
# Cannot be resold, shared or otherwise redistributed
# Website: https://luts.iwltbap.com
TITLE "BMDFilm URSA 4.6K Version 1 (Utility LOG to Rec.709)"
LUT_3D_SIZE 33
0.000000 0.000000 0.000000
0.000000 0.000000 0.000000
0.000000 0.000000 0.000000
0.000000 0.000000 0.000000
0.020294 0.000000 0.000000
0.081512 0.000000 0.000000
0.142212 0.000000 0.000000
0.200714 0.000000 0.000000
0.257507 0.000000 0.000000
0.312836 0.000000 0.000000
0.366150 0.000000 0.000000
0.418243 0.000000 0.000000
0.468964 0.000000 0.000000
0.518188 0.000000 0.000000
0.566406 0.000000 0.000000
0.613312 0.000000 0.000000
0.658875 0.000000 0.000000
0.703247 0.000000 0.000000
0.746552 0.000000 0.000000
0.788391 0.000000 0.000000
0.829224 0.000000 0.000000
0.868805 0.000000 0.017212
0.906219 0.000000 0.047791
0.941528 0.000000 0.080872
0.975342 0.000000 0.115662
1.000000 0.000000 0.151459
1.000000 0.000000 0.188446
1.000000 0.000000 0.226074
1.000000 0.000000 0.264435
1.000000 0.000000 0.303741
1.000000 0.000000 0.343201
1.000000 0.000000 0.383301
1.000000 0.000000 0.423523
0.000000 0.000000 0.000000
0.000000 0.000000 0.000000
0.000000 0.000000 0.000000
0.000000 0.000000 0.000000
0.008667 0.000000 0.000000
0.070618 0.000000 0.000000
0.132782 0.000000 0.000000
0.192780 0.000000 0.000000
0.250824 0.000000 0.000000
0.306854 0.000000 0.000000
0.361115 0.000000 0.000000
0.413910 0.000000 0.000000
0.465118 0.000000 0.000000
0.515015 0.000000 0.000000
0.563599 0.000000 0.000000
0.610992 0.000000 0.000000
0.657013 0.000000 0.000000
0.701691 0.000000 0.000000
0.745117 0.000000 0.000000
0.787109 0.000000 0.000000
0.828033 0.000000 0.000000
0.867859 0.000000 0.000000
0.905609 0.000000 0.027679
0.940979 0.000000 0.061981
0.974792 0.000000 0.098114
1.000000 0.000000 0.135651
1.000000 0.000000 0.174011
1.000000 0.000000 0.213074
1.000000 0.000000 0.252899
1.000000 0.000000 0.293152
1.000000 0.000000 0.333893
1.000000 0.000000 0.375031
1.000000 0.000000 0.416229
0.000000 0.000000 0.000000
0.000000 0.000000 0.000000
0.000000 0.000000 0.000000
0.000000 0.000000 0.000000
0.000000 0.000000 0.000000
0.059387 0.000000 0.000000
0.123169 0.000000 0.000000
0.184662 0.000000 0.000000
0.243866 0.000000 0.000000
0.300842 0.000000 0.000000
0.355988 0.000000 0.000000
0.409576 0.000000 0.000000
0.461243 0.000000 0.000000
0.511841 0.000000 0.000000
0.560852 0.000000 0.000000
0.608612 0.000000 0.000000
0.654907 0.000000 0.000000
0.699829 0.000000 0.000000
0.743408 0.000000 0.000000
0.785858 0.000000 0.000000
0.827179 0.000000 0.000000
0.866943 0.000000 0.000000
0.904755 0.000000 0.007629
0.940247 0.000000 0.042236
0.974365 0.000000 0.079865
1.000000 0.000000 0.119049
1.000000 0.000000 0.158966
1.000000 0.000000 0.199615
1.000000 0.000000 0.240845
1.000000 0.000000 0.282501
1.000000 0.000000 0.324371
1.000000 0.000000 0.366577
1.000000 0.000000 0.408691
0.000000 0.000000 0.000000
0.000000 0.000000 0.000000
0.000000 0.000000 0.000000
0.000000 0.000000 0.000000
0.000000 0.000000 0.000000
0.047821 0.000000 0.000000
0.113251 0.000000 0.000000
0.176208 0.000000 0.000000
0.236511 0.000000 0.000000
0.294769 0.000000 0.000000
0.350952 0.000000 0.000000
0.404968 0.000000 0.000000
0.457520 0.000000 0.000000
0.508331 0.000000 0.000000
0.557922 0.000000 0.000000
0.605988 0.000000 0.000000
0.652832 0.000000 0.000000
0.697998 0.000000 0.000000
0.741974 0.000000 0.000000
0.784607 0.000000 0.000000
0.825989 0.000000 0.000000
0.865936 0.000000 0.000000
0.903870 0.000000 0.000000
0.939484 0.000000 0.021942
0.973633 0.000000 0.060913
1.000000 0.000000 0.101654
1.000000 0.000000 0.143463
1.000000 0.000000 0.185760
1.000000 0.000000 0.228363
1.000000 0.000000 0.271393
1.000000 0.000000 0.314514
1.000000 0.000000 0.357727
1.000000 0.000000 0.401123
0.000000 0.026031 0.000000
0.000000 0.017181 0.000000
0.000000 0.008423 0.000000
0.000000 0.000458 0.000000
0.000000 0.000000 0.000000
0.035858 0.000000 0.000000
0.102722 0.000000 0.000000
0.167389 0.000000 0.000000
0.229126 0.000000 0.000000
0.288452 0.000000 0.000000
0.345367 0.000000 0.000000
0.400360 0.000000 0.000000
0.453491 0.000000 0.000000
0.504974 0.000000 0.000000
0.555084 0.000000 0.000000
0.603577 0.000000 0.000000
0.650696 0.000000 0.000000
0.696228 0.000000 0.000000
0.740417 0.000000 0.000000
0.783264 0.000000 0.000000
0.824707 0.000000 0.000000
0.864929 0.000000 0.000000
0.903107 0.000000 0.000000
0.938934 0.000000 0.001770
0.973175 0.000000 0.040466
1.000000 0.000000 0.082947
1.000000 0.000000 0.126678
1.000000 0.000000 0.170837
1.000000 0.000000 0.215179
1.000000 0.000000 0.259705
1.000000 0.000000 0.304138
1.000000 0.000000 0.348541
1.000000 0.000000 0.392914
0.000000 0.088226 0.000000
0.000000 0.080109 0.000000
0.000000 0.071838 0.000000
0.000000 0.063416 0.000000
0.000000 0.054474 0.000000
0.022583 0.044556 0.000000
0.090820 0.033051 0.000000
0.157471 0.019745 0.000000
0.220581 0.005188 0.000000
0.281250 0.000000 0.000000
0.339172 0.000000 0.000000
0.395142 0.000000 0.000000
0.449097 0.000000 0.000000
0.501312 0.000000 0.000000
0.551636 0.000000 0.000000
0.600647 0.000000 0.000000
0.648315 0.000000 0.000000
0.694122 0.000000 0.000000
0.738647 0.000000 0.000000
0.781708 0.000000 0.000000
0.823395 0.000000 0.000000
0.863800 0.000000 0.000000
0.902222 0.000000 0.000000
0.938110 0.000000 0.000000
0.972412 0.000000 0.017181
1.000000 0.000000 0.061218
1.000000 0.000000 0.107117
1.000000 0.000000 0.153534
1.000000 0.000000 0.199768
1.000000 0.000000 0.246094
1.000000 0.000000 0.292328
1.000000 0.000000 0.338104
1.000000 0.000000 0.383667
0.000000 0.149353 0.000000
0.000000 0.142487 0.000000
0.000000 0.135254 0.000000
0.000000 0.128113 0.000000
0.000000 0.120483 0.000000
0.007446 0.111938 0.000000
0.077148 0.101929 0.000000
0.145752 0.090332 0.000000
0.210876 0.076660 0.000000
0.272827 0.060760 0.000000
0.332275 0.041962 0.000000
0.389069 0.020325 0.000000
0.443909 0.000000 0.000000
0.496918 0.000000 0.000000
0.548004 0.000000 0.000000
0.597443 0.000000 0.000000
0.645416 0.000000 0.000000
0.691803 0.000000 0.000000
0.736572 0.000000 0.000000
0.780029 0.000000 0.000000
0.821991 0.000000 0.000000
0.862579 0.000000 0.000000
0.901184 0.000000 0.000000
0.937347 0.000000 0.000000
0.971619 0.000000 0.000000
1.000000 0.000000 0.035431
1.000000 0.000000 0.083740
1.000000 0.000000 0.132904
1.000000 0.000000 0.181671
1.000000 0.000000 0.230133
1.000000 0.000000 0.278259
1.000000 0.000000 0.325714
1.000000 0.000000 0.372955
0.000000 0.208405 0.000000
0.000000 0.202484 0.000000
0.000000 0.196472 0.000000
0.000000 0.190308 0.000000
0.000000 0.183868 0.000000
0.000000 0.176697 0.000000
0.060852 0.168274 0.000000
0.132111 0.158630 0.000000
0.199463 0.147217 0.000000
0.263245 0.133850 0.000000
0.324158 0.118073 0.000000
0.382324 0.099487 0.000000
0.438171 0.077209 0.000000
0.491852 0.050751 0.000000
0.543732 0.019470 0.000000
0.593842 0.000000 0.000000
0.642242 0.000000 0.000000
0.689056 0.000000 0.000000
0.734283 0.000000 0.000000
0.778015 0.000000 0.000000
0.820312 0.000000 0.000000
0.861176 0.000000 0.000000
0.900055 0.000000 0.000000
0.936401 0.000000 0.000000
0.970886 0.000000 0.000000
1.000000 0.000000 0.005859
1.000000 0.000000 0.055786
1.000000 0.000000 0.108002
1.000000 0.000000 0.159912
1.000000 0.000000 0.211182
1.000000 0.000000 0.261536
1.000000 0.000000 0.311310
1.000000 0.000000 0.360321
0.000000 0.265442 0.000000
0.000000 0.260406 0.000000
0.000000 0.255249 0.000000
0.000000 0.250092 0.000000
0.000000 0.244476 0.000000
0.000000 0.238373 0.000000
0.041534 0.231293 0.000000
0.115997 0.223206 0.000000
0.186035 0.213684 0.000000
0.252106 0.202576 0.000000
0.314636 0.189606 0.000000
0.374237 0.174225 0.000000
0.431244 0.156036 0.000000
0.486176 0.134369 0.000000
0.538666 0.108154 0.000000
0.589600 0.076172 0.000000
0.638733 0.037109 0.000000
0.686127 0.000000 0.000000
0.731812 0.000000 0.000000
0.775757 0.000000 0.000000
0.818420 0.000000 0.000000
0.859467 0.000000 0.000000
0.898682 0.000000 0.000000
0.935272 0.000000 0.000000
0.969971 0.000000 0.000000
1.000000 0.000000 0.000000
1.000000 0.000000 0.022156
1.000000 0.000000 0.077881
1.000000 0.000000 0.133820
1.000000 0.000000 0.188507
1.000000 0.000000 0.241943
1.000000 0.000000 0.294281
1.000000 0.000000 0.345490
0.000000 0.320862 0.000000
0.000000 0.316406 0.000000
0.000000 0.312073 0.000000
0.000000 0.307709 0.000000
0.000000 0.302917 0.000000
0.000000 0.297729 0.000000
0.019257 0.291687 0.000000
0.096710 0.284729 0.000000
0.170227 0.276703 0.000000
0.239075 0.267609 0.000000
0.303741 0.256622 0.000000
0.364960 0.244019 0.000000
0.423492 0.229034 0.000000
0.479340 0.211334 0.000000
0.533142 0.190094 0.000000
0.584869 0.164612 0.000000
0.634583 0.133270 0.000000
0.682678 0.094330 0.000000
0.728699 0.045471 0.000000
0.773285 0.000000 0.000000
0.816193 0.000000 0.000000
0.857727 0.000000 0.000000
0.897003 0.000000 0.000000
0.933838 0.000000 0.000000
0.968842 0.000000 0.000000
1.000000 0.000000 0.000000
1.000000 0.000000 0.000000
1.000000 0.000000 0.040985
1.000000 0.000000 0.101593
1.000000 0.000000 0.160828
1.000000 0.000000 0.218201
1.000000 0.000000 0.273834
1.000000 0.000000 0.327911
0.000000 0.374390 0.000000
0.000000 0.370789 0.000000
0.000000 0.366913 0.000000
0.000000 0.363159 0.000000
0.000000 0.359222 0.000000
0.000000 0.354645 0.000000
0.000000 0.349518 0.000000
0.073639 0.343719 0.000000
0.151306 0.336914 0.000000
0.223358 0.329224 0.000000
0.290833 0.320190 0.000000
0.354309 0.309448 0.000000
0.414307 0.297058 0.000000
0.471680 0.282532 0.000000
0.526520 0.265228 0.000000
0.579346 0.244476 0.000000
0.629913 0.219727 0.000000
0.678558 0.189087 0.000000
0.725281 0.151184 0.000000
0.770233 0.102783 0.000000
0.813782 0.040649 0.000000
0.855499 0.000000 0.000000
0.895386 0.000000 0.000000
0.932404 0.000000 0.000000
0.967651 0.000000 0.000000
1.000000 0.000000 0.000000
1.000000 0.000000 0.000000
1.000000 0.000000 0.000000
1.000000 0.000000 0.061920
1.000000 0.000000 0.126953
1.000000 0.000000 0.189362
1.000000 0.000000 0.249237
1.000000 0.000000 0.306946
0.000000 0.426605 0.000000
0.000000 0.423370 0.000000
0.000000 0.420135 0.000000
0.000000 0.416901 0.000000
0.000000 0.413422 0.000000
0.000000 0.409637 0.000000
0.000000 0.405334 0.000000
0.046265 0.400269 0.000000
0.128632 0.394409 0.000000
0.204865 0.387878 0.000000
0.275574 0.380341 0.000000
0.341797 0.371552 0.000000
0.403778 0.361115 0.000000
0.462860 0.349091 0.000000
0.519012 0.334747 0.000000
0.572937 0.317841 0.000000
0.624451 0.297729 0.000000
0.673981 0.273346 0.000000
0.721344 0.243744 0.000000
0.766907 0.206635 0.000000
0.810822 0.159607 0.000000
0.853180 0.097290 0.000000
0.893341 0.018890 0.000000
0.930878 0.000000 0.000000
0.966156 0.000000 0.000000
1.000000 0.000000 0.000000
1.000000 0.000000 0.000000
1.000000 0.000000 0.000000
1.000000 0.000000 0.013092
1.000000 0.000000 0.084351
1.000000 0.000000 0.153778
1.000000 0.000000 0.219177
1.000000 0.000000 0.281464
0.000000 0.477295 0.000000
0.000000 0.474548 0.000000
0.000000 0.471649 0.000000
0.000000 0.468964 0.000000
0.000000 0.466003 0.000000
0.000000 0.462769 0.000000
0.000000 0.458923 0.000000
0.014069 0.454620 0.000000
0.101410 0.449890 0.000000
0.182831 0.444153 0.000000
0.257416 0.437775 0.000000
0.326691 0.430328 0.000000
0.391632 0.421661 0.000000
0.452454 0.411621 0.000000
0.510284 0.399658 0.000000
0.565491 0.385773 0.000000
0.618164 0.369202 0.000000
0.668640 0.349579 0.000000
0.716888 0.325745 0.000000
0.763214 0.296814 0.000000
0.807648 0.260773 0.000000
0.850342 0.214935 0.000000
0.891022 0.154266 0.000000
0.928925 0.071564 0.000000
0.964539 0.000000 0.000000
0.999329 0.000000 0.000000
1.000000 0.000000 0.000000
1.000000 0.000000 0.000000
1.000000 0.000000 0.000000
1.000000 0.000000 0.030609
1.000000 0.000000 0.108612
1.000000 0.000000 0.181824
1.000000 0.000000 0.250244
0.000000 0.526581 0.000000
0.000000 0.524231 0.000000
0.000000 0.521881 0.000000
0.000000 0.519531 0.000000
0.000000 0.516876 0.000000
0.000000 0.514221 0.000000
0.000000 0.511017 0.000000
0.000000 0.507355 0.000000
0.068024 0.503235 0.000000
0.156006 0.498352 0.000000
0.235901 0.492889 0.000000
0.308990 0.486542 0.000000
0.376831 0.479187 0.000000
0.440460 0.470734 0.000000
0.500244 0.460907 0.000000
0.556854 0.449249 0.000000
0.611084 0.435577 0.000000
0.662506 0.419464 0.000000
0.711761 0.400299 0.000000
0.758820 0.377136 0.000000
0.803925 0.348785 0.000000
0.847137 0.313477 0.000000
0.888367 0.268707 0.000000
0.926727 0.209961 0.000000
0.962860 0.128235 0.000000
0.997772 0.022797 0.000000
1.000000 0.000000 0.000000
1.000000 0.000000 0.000000
1.000000 0.000000 0.000000
1.000000 0.000000 0.000000
1.000000 0.000000 0.050140
1.000000 0.000000 0.134155
1.000000 0.000000 0.211273
0.000000 0.574768 0.000000
0.000000 0.572784 0.000000
0.000000 0.570679 0.000000
0.000000 0.568573 0.000000
0.000000 0.566437 0.000000
0.000000 0.564087 0.000000
0.000000 0.561249 0.000000
0.000000 0.558105 0.000000
0.027344 0.554596 0.000000
0.123077 0.550476 0.000000
0.209503 0.545837 0.000000
0.287689 0.540436 0.000000
0.359497 0.534180 0.000000
0.426025 0.527222 0.000000
0.488434 0.518860 0.000000
0.546967 0.509155 0.000000
0.602600 0.497925 0.000000
0.655457 0.484467 0.000000
0.705872 0.468719 0.000000
0.753784 0.449921 0.000000
0.799591 0.427094 0.000000
0.843506 0.399475 0.000000
0.885406 0.365051 0.000000
0.924316 0.321411 0.000000
0.960754 0.264130 0.000000
0.996002 0.184662 0.000000
1.000000 0.071014 0.000000
1.000000 0.000000 0.000000
1.000000 0.000000 0.000000
1.000000 0.000000 0.000000
1.000000 0.000000 0.000000
1.000000 0.000000 0.071655
1.000000 0.000000 0.161346
0.000000 0.621796 0.000000
0.000000 0.619904 0.000000
0.000000 0.618042 0.000000
0.000000 0.616425 0.000000
0.000000 0.614502 0.000000
0.000000 0.612427 0.000000
0.000000 0.610138 0.000000
0.000000 0.607452 0.000000
0.000000 0.604431 0.000000
0.082001 0.600800 0.000000
0.177246 0.596893 0.000000
0.262085 0.592316 0.000000
0.338715 0.587097 0.000000
0.408936 0.580902 0.000000
0.474274 0.574066 0.000000
0.535309 0.565887 0.000000
0.592834 0.556488 0.000000
0.647400 0.545380 0.000000
0.698853 0.532318 0.000000
0.747894 0.516754 0.000000
0.794769 0.498352 0.000000
0.839447 0.476135 0.000000
0.881958 0.449127 0.000000
0.921661 0.415405 0.000000
0.958374 0.372833 0.000000
0.993927 0.316925 0.000000
1.000000 0.239624 0.000000
1.000000 0.123413 0.000000
1.000000 0.000000 0.000000
1.000000 0.000000 0.000000
1.000000 0.000000 0.000000
1.000000 0.000000 0.000000
1.000000 0.000000 0.094635
0.000000 0.667297 0.000000
0.000000 0.665802 0.000000
0.000000 0.664215 0.000000
0.000000 0.662720 0.000000
0.000000 0.661041 0.000000
0.000000 0.659393 0.000000
0.000000 0.657379 0.000000
0.000000 0.655090 0.000000
0.000000 0.652527 0.000000
0.030640 0.649536 0.000000
0.136902 0.646149 0.000000
0.230347 0.642151 0.000000
0.313354 0.637665 0.000000
0.388611 0.632507 0.000000
0.457520 0.626678 0.000000
0.521484 0.619934 0.000000
0.581573 0.612091 0.000000
0.637787 0.602661 0.000000
0.690887 0.591736 0.000000
0.741272 0.579071 0.000000
0.789124 0.564026 0.000000
0.834595 0.545898 0.000000
0.878113 0.524170 0.000000
0.918365 0.497650 0.000000
0.955688 0.464844 0.000000
0.991638 0.423004 0.000000
1.000000 0.368286 0.000000
1.000000 0.293030 0.000000
1.000000 0.179230 0.000000
1.000000 0.028259 0.000000
1.000000 0.000000 0.000000
1.000000 0.000000 0.000000
1.000000 0.000000 0.008209
0.000000 0.711517 0.000000
0.000000 0.710327 0.000000
0.000000 0.708893 0.000000
0.000000 0.707611 0.000000
0.000000 0.706268 0.000000
0.000000 0.704834 0.000000
0.000000 0.703033 0.000000
0.000000 0.701019 0.000000
0.000000 0.698792 0.000000
0.000000 0.696320 0.000000
0.085114 0.693329 0.000000
0.190857 0.690033 0.000000
0.282501 0.686310 0.000000
0.363800 0.681946 0.000000
0.437439 0.677063 0.000000
0.505005 0.671112 0.000000
0.567963 0.664581 0.000000
0.626678 0.657013 0.000000
0.681702 0.647827 0.000000
0.733368 0.637329 0.000000
0.782532 0.624756 0.000000
0.829102 0.610107 0.000000
0.873505 0.592468 0.000000
0.914673 0.571075 0.000000
0.952515 0.545258 0.000000
0.988770 0.513062 0.000000
1.000000 0.472290 0.000000
1.000000 0.418701 0.000000
1.000000 0.345306 0.000000
1.000000 0.234955 0.000000
1.000000 0.073486 0.000000
1.000000 0.000000 0.000000
1.000000 0.000000 0.000000
0.000000 0.754547 0.000000
0.000000 0.753418 0.000000
0.000000 0.752289 0.000000
0.000000 0.751160 0.000000
0.000000 0.750031 0.000000
0.000000 0.748779 0.000000
0.000000 0.747253 0.000000
0.000000 0.745544 0.000000
0.000000 0.743622 0.000000
0.000000 0.741669 0.000000
0.019806 0.738983 0.000000
0.140106 0.736298 0.000000
0.243866 0.733032 0.000000
0.333557 0.729309 0.000000
0.413177 0.725128 0.000000
0.485443 0.720093 0.000000
0.551758 0.714661 0.000000
0.613464 0.708191 0.000000
0.670807 0.700684 0.000000
0.724365 0.691833 0.000000
0.774872 0.681549 0.000000
0.822845 0.669464 0.000000
0.868164 0.655029 0.000000
0.910309 0.637787 0.000000
0.949005 0.617004 0.000000
0.985840 0.591644 0.000000
1.000000 0.560150 0.000000
1.000000 0.520294 0.000000
1.000000 0.468079 0.000000
1.000000 0.396271 0.000000
1.000000 0.288849 0.000000
1.000000 0.118896 0.000000
1.000000 0.000000 0.000000
0.000000 0.796295 0.000000
0.000000 0.795563 0.000000
0.000000 0.794556 0.000000
0.000000 0.793579 0.000000
0.000000 0.792542 0.000000
0.000000 0.791412 0.000000
0.000000 0.790192 0.000000
0.000000 0.788727 0.000000
0.000000 0.787079 0.000000
0.000000 0.785309 0.000000
0.000000 0.783112 0.000000
0.072693 0.780731 0.000000
0.194122 0.777985 0.000000
0.295624 0.774780 0.000000
0.383514 0.771210 0.000000
0.461731 0.767029 0.000000
0.532623 0.762329 0.000000
0.597656 0.756836 0.000000
0.657745 0.750702 0.000000
0.713867 0.743256 0.000000
0.766113 0.734619 0.000000
0.815338 0.724518 0.000000
0.861847 0.712860 0.000000
0.905243 0.698700 0.000000
0.944855 0.681976 0.000000
0.982391 0.661835 0.000000
1.000000 0.636993 0.000000
1.000000 0.606262 0.000000
1.000000 0.567352 0.000000
1.000000 0.516296 0.000000
1.000000 0.446045 0.000000
1.000000 0.341461 0.000000
1.000000 0.164185 0.000000
0.000000 0.836945 0.000000
0.000000 0.836304 0.000000
0.000000 0.835388 0.000000
0.000000 0.834503 0.000000
0.000000 0.833618 0.000000
0.000000 0.832703 0.000000
0.000000 0.831757 0.000000
0.000000 0.830505 0.000000
0.000000 0.829010 0.000000
0.000000 0.827515 0.000000
0.000000 0.825623 0.000000
0.000000 0.823517 0.000000
0.127716 0.821259 0.000000
0.247040 0.818604 0.000000
0.346405 0.815460 0.000000
0.432465 0.811981 0.000000
0.509216 0.808105 0.000000
0.578705 0.803528 0.000000
0.642365 0.798096 0.000000
0.701141 0.791840 0.000000
0.755707 0.784851 0.000000
0.806854 0.776520 0.000000
0.854767 0.766693 0.000000
0.899323 0.755249 0.000000
0.940186 0.741547 0.000000
0.978210 0.725159 0.000000
1.000000 0.705383 0.000000
1.000000 0.681213 0.000000
1.000000 0.651337 0.000000
1.000000 0.613312 0.000000
1.000000 0.563232 0.000000
1.000000 0.494781 0.000000
1.000000 0.392670 0.000000
0.000000 0.876282 0.000000
0.000000 0.875488 0.000000
0.000000 0.874939 0.000000
0.000000 0.874146 0.000000
0.000000 0.873627 0.000000
0.000000 0.872711 0.000000
0.000000 0.871735 0.000000
0.000000 0.870697 0.000000
0.000000 0.869537 0.000000
0.000000 0.868225 0.000000
0.000000 0.866669 0.000000
0.000000 0.864960 0.000000
0.038940 0.862885 0.000000
0.182098 0.860596 0.000000
0.298767 0.858093 0.000000
0.396179 0.855042 0.000000
0.480743 0.851654 0.000000
0.555817 0.847870 0.000000
0.623993 0.843353 0.000000
0.686188 0.838043 0.000000
0.743378 0.832184 0.000000
0.796692 0.825317 0.000000
0.846375 0.817200 0.000000
0.892548 0.807556 0.000000
0.934601 0.796295 0.000000
0.973602 0.782990 0.000000
1.000000 0.767120 0.000000
1.000000 0.747894 0.000000
1.000000 0.724396 0.000000
1.000000 0.695251 0.000000
1.000000 0.657959 0.000000
1.000000 0.609222 0.000000
1.000000 0.542328 0.000000
0.000000 0.913574 0.000000
0.000000 0.912872 0.000000
0.000000 0.912384 0.000000
0.000000 0.911713 0.000000
0.000000 0.911102 0.000000
0.000000 0.910461 0.000000
0.000000 0.909760 0.000000
0.000000 0.908936 0.000000
0.000000 0.907928 0.000000
0.000000 0.906799 0.000000
0.000000 0.905579 0.000000
0.000000 0.903961 0.000000
0.000000 0.902435 0.000000
0.090790 0.900482 0.000000
0.235352 0.898285 0.000000
0.349426 0.895844 0.000000
0.444946 0.893158 0.000000
0.527863 0.889923 0.000000
0.601532 0.886261 0.000000
0.668121 0.881927 0.000000
0.728760 0.877045 0.000000
0.784698 0.871277 0.000000
0.836578 0.864655 0.000000
0.884521 0.856781 0.000000
0.928406 0.847351 0.000000
0.968262 0.836487 0.000000
1.000000 0.823425 0.000000
1.000000 0.808136 0.000000
1.000000 0.789337 0.000000
1.000000 0.766541 0.000000
1.000000 0.737915 0.000000
1.000000 0.701813 0.000000
1.000000 0.654205 0.000000
0.000000 0.948364 0.000000
0.000000 0.947845 0.000000
0.000000 0.947327 0.000000
0.000000 0.946960 0.000000
0.000000 0.946442 0.000000
0.000000 0.945892 0.000000
0.000000 0.945160 0.000000
0.000000 0.944580 0.000000
0.000000 0.943665 0.000000
0.000000 0.942688 0.000000
0.000000 0.941650 0.000000
0.000000 0.940460 0.000000
0.000000 0.939148 0.000000
0.000000 0.937714 0.000000
0.145508 0.935822 0.000000
0.287476 0.933746 0.000000
0.399261 0.931549 0.000000
0.492859 0.928925 0.000000
0.574127 0.925903 0.000000
0.646301 0.922455 0.000000
0.711090 0.918427 0.000000
0.770325 0.913818 0.000000
0.824921 0.908356 0.000000
0.875214 0.902100 0.000000
0.920837 0.894562 0.000000
0.962097 0.885651 0.000000
1.000000 0.875275 0.000000
1.000000 0.862823 0.000000
1.000000 0.847870 0.000000
1.000000 0.829712 0.000000
1.000000 0.807312 0.000000
1.000000 0.779663 0.000000
1.000000 0.744324 0.000000
0.000000 0.982056 0.000000
0.000000 0.981628 0.000000
0.000000 0.981323 0.000000
0.000000 0.980713 0.000000
0.000000 0.980408 0.000000
0.000000 0.979889 0.000000
0.000000 0.979340 0.000000
0.000000 0.978851 0.000000
0.000000 0.978058 0.000000
0.000000 0.977173 0.000000
0.000000 0.976288 0.000000
0.000000 0.975281 0.000000
0.000000 0.974274 0.000000
0.000000 0.972778 0.000000
0.025940 0.971283 0.000000
0.199677 0.969727 0.000000
0.338562 0.967682 0.000000
0.448059 0.965424 0.000000
0.539764 0.962952 0.000000
0.619385 0.959900 0.000000
0.689819 0.956512 0.000000
0.753235 0.952789 0.000000
0.810852 0.948334 0.000000
0.863922 0.943207 0.000000
0.911926 0.937347 0.000000
0.954987 0.930206 0.000000
0.995300 0.922058 0.000000
1.000000 0.912170 0.000000
1.000000 0.900360 0.000000
1.000000 0.886200 0.000000
1.000000 0.868683 0.000000
1.000000 0.847046 0.000000
1.000000 0.820190 0.000000
0.000000 1.000000 0.000000
0.000000 1.000000 0.000000
0.000000 1.000000 0.000000
0.000000 1.000000 0.000000
0.000000 1.000000 0.000000
0.000000 1.000000 0.000000
0.000000 1.000000 0.000000
0.000000 1.000000 0.000000
0.000000 1.000000 0.000000
0.000000 1.000000 0.000000
0.000000 1.000000 0.000000
0.000000 1.000000 0.000000
0.000000 1.000000 0.000000
0.000000 1.000000 0.000000
0.000000 1.000000 0.000000
0.071899 1.000000 0.000000
0.252777 1.000000 0.000000
0.388580 1.000000 0.000000
0.495880 0.998749 0.000000
0.585876 0.996277 0.000000
0.663696 0.993225 0.000000
0.732452 0.989868 0.000000
0.794250 0.986115 0.000000
0.850403 0.981720 0.000000
0.901306 0.976776 0.000000
0.946594 0.971008 0.000000
0.988159 0.964233 0.000000
1.000000 0.956299 0.000000
1.000000 0.946930 0.000000
1.000000 0.935699 0.000000
1.000000 0.922333 0.000000
1.000000 0.905945 0.000000
1.000000 0.885376 0.000000
0.000000 1.000000 0.000000
0.000000 1.000000 0.000000
0.000000 1.000000 0.000000
0.000000 1.000000 0.000000
0.000000 1.000000 0.000000
0.000000 1.000000 0.000000
0.000000 1.000000 0.000000
0.000000 1.000000 0.000000
0.000000 1.000000 0.000000
0.000000 1.000000 0.000000
0.000000 1.000000 0.000000
0.000000 1.000000 0.000000
0.000000 1.000000 0.000000
0.000000 1.000000 0.000000
0.000000 1.000000 0.000000
0.000000 1.000000 0.000000
0.120422 1.000000 0.000000
0.304749 1.000000 0.000000
0.437439 1.000000 0.000000
0.542694 1.000000 0.000000
0.630920 1.000000 0.000000
0.706787 1.000000 0.000000
