Postproduction/IWLTBAP - Humble/LUTs by IWLTBAP (CUBE)/UTILITY/BMDFilm URSA 4.6K to Rec.709/U-BMDFILM-URSA-46K-V2-LTR.cube
# Copyright: (C) Copyright 2010-2018 by IWLTBAP SAS
# Cannot be resold, shared or otherwise redistributed
# Website: https://luts.iwltbap.com
TITLE "BMDFilm URSA 4.6K Version 2 (Utility LOG to Rec.709)"
LUT_3D_SIZE 5
0.000000 0.000000 0.000000
0.280945 0.000000 0.000000
0.718872 0.000000 0.000000
1.000000 0.000000 0.014954
0.999939 0.000000 0.379028
0.032928 0.309448 0.000000
0.229492 0.235931 0.000000
0.701508 0.000000 0.000000
1.000000 0.000000 0.000000
1.000000 0.000000 0.285950
0.082794 0.777954 0.000000
0.080963 0.760742 0.000000
0.710480 0.672333 0.000000
1.000000 0.474152 0.000000
1.000000 0.000000 0.000000
0.121857 1.000000 0.000000
0.121368 1.000000 0.000000
0.489471 1.000000 0.000000
1.000000 1.000000 0.000000
1.000000 0.885284 0.000000
0.124084 1.000000 0.000000
0.124084 1.000000 0.000000
0.124084 1.000000 0.000000
0.899780 1.000000 0.000000
1.000000 1.000000 0.000000
0.000000 0.000000 0.318848
0.199677 0.000000 0.309265
0.643005 0.000000 0.304901
0.973419 0.000000 0.371216
0.966675 0.000000 0.563385
0.000000 0.245911 0.151245
0.163483 0.163483 0.163483
0.643555 0.000000 0.180573
0.984589 0.000000 0.276917
0.976715 0.000000 0.507782
0.081238 0.763367 0.000000
0.079346 0.745483 0.000000
0.700745 0.655243 0.000000
1.000000 0.446136 0.000000
1.000000 0.000000 0.317108
0.121460 1.000000 0.000000
0.120941 1.000000 0.000000
0.472626 1.000000 0.000000
1.000000 1.000000 0.000000
1.000000 0.876862 0.000000
0.124084 1.000000 0.000000
0.124084 1.000000 0.000000
0.124084 1.000000 0.000000
0.894806 1.000000 0.000000
1.000000 1.000000 0.000000
0.000000 0.000000 0.798126
0.059601 0.000000 0.780579
0.549866 0.000000 0.738892
0.903809 0.000000 0.734863
0.921143 0.000000 0.815796
0.000000 0.035889 0.751923
0.000000 0.000000 0.751770
0.533051 0.000000 0.703339
0.903778 0.000000 0.701508
0.925873 0.000000 0.789581
0.000000 0.674103 0.588745
0.000000 0.653168 0.599518
0.555939 0.555939 0.555939
0.952515 0.309326 0.575500
0.939606 0.000000 0.713531
0.120361 1.000000 0.000000
0.119812 1.000000 0.000000
0.427704 1.000000 0.000000
1.000000 1.000000 0.000000
1.000000 0.817444 0.291290
0.124084 1.000000 0.000000
0.124084 1.000000 0.000000
0.124084 1.000000 0.000000
0.881714 1.000000 0.000000
1.000000 1.000000 0.000000
0.000000 0.000000 1.000000
0.000000 0.000000 1.000000
0.438904 0.000000 1.000000
0.832245 0.000000 1.000000
0.875916 0.000000 1.000000
0.000000 0.000000 1.000000
0.000000 0.000000 1.000000
0.413635 0.000000 1.000000
0.827698 0.000000 1.000000
0.875916 0.000000 1.000000
0.000000 0.499725 1.000000
0.000000 0.470337 1.000000
0.390778 0.350159 1.000000
0.823700 0.000000 1.000000
0.877319 0.000000 1.000000
0.000000 1.000000 0.969055
0.000000 1.000000 0.972565
0.077240 0.988831 0.963379
0.889984 0.889984 0.889984
0.982819 0.699280 0.931335
0.124084 1.000000 0.000000
0.124084 1.000000 0.000000
0.111267 1.000000 0.004547
0.804535 1.000000 0.069641
1.000000 1.000000 0.321136
0.000000 0.000000 1.000000
0.000000 0.000000 1.000000
0.269379 0.000000 1.000000
0.797455 0.000000 1.000000
0.875916 0.000000 1.000000
0.000000 0.000000 1.000000
0.000000 0.000000 1.000000
0.224823 0.000000 1.000000
0.789917 0.000000 1.000000
0.875916 0.000000 1.000000
0.000000 0.000000 1.000000
0.000000 0.000000 1.000000
0.083313 0.000000 1.000000
0.769867 0.000000 1.000000
0.875916 0.000000 1.000000
0.000000 0.901672 1.000000
0.000000 0.892944 1.000000
0.000000 0.870087 1.000000
0.800903 0.739258 1.000000
0.932251 0.363434 1.000000
0.000000 1.000000 1.000000
0.000000 1.000000 1.000000
0.000000 1.000000 1.000000
0.492310 1.000000 1.000000
1.000000 1.000000 1.000000
