Postproduction/IWLTBAP - Humble/LUTs by IWLTBAP (CUBE)/UTILITY/BMDFilm URSA 4.6K to Rec.709/U-BMDFILM-URSA-46K-V2-LTR.cube
# Copyright: (C) Copyright 2010-2018 by IWLTBAP SAS
# Cannot be resold, shared or otherwise redistributed
# Website: https://luts.iwltbap.com
TITLE "BMDFilm URSA 4.6K Version 2 (Utility LOG to Rec.709)"
LUT_3D_SIZE 33
0.000000 0.000000 0.000000
0.000000 0.000000 0.000000
0.000000 0.000000 0.000000
0.000000 0.000000 0.000000
0.022125 0.000000 0.000000
0.088928 0.000000 0.000000
0.155151 0.000000 0.000000
0.218994 0.000000 0.000000
0.280945 0.000000 0.000000
0.341309 0.000000 0.000000
0.399506 0.000000 0.000000
0.456329 0.000000 0.000000
0.511658 0.000000 0.000000
0.565369 0.000000 0.000000
0.617981 0.000000 0.000000
0.669159 0.000000 0.000000
0.718872 0.000000 0.000000
0.767273 0.000000 0.000000
0.814514 0.000000 0.000000
0.860199 0.000000 0.000000
0.904724 0.000000 0.000000
0.944214 0.000000 0.000000
0.978455 0.000000 0.000000
1.000000 0.000000 0.000000
1.000000 0.000000 0.014954
1.000000 0.000000 0.054535
1.000000 0.000000 0.098663
1.000000 0.000000 0.143524
1.000000 0.000000 0.189301
1.000000 0.000000 0.236145
1.000000 0.000000 0.283234
1.000000 0.000000 0.331055
0.999939 0.000000 0.379028
0.000000 0.000000 0.000000
0.000000 0.000000 0.000000
0.000000 0.000000 0.000000
0.000000 0.000000 0.000000
0.009460 0.000000 0.000000
0.077057 0.000000 0.000000
0.144867 0.000000 0.000000
0.210327 0.000000 0.000000
0.273682 0.000000 0.000000
0.334778 0.000000 0.000000
0.393982 0.000000 0.000000
0.451599 0.000000 0.000000
0.507477 0.000000 0.000000
0.561920 0.000000 0.000000
0.614929 0.000000 0.000000
0.666626 0.000000 0.000000
0.716858 0.000000 0.000000
0.765594 0.000000 0.000000
0.812958 0.000000 0.000000
0.858795 0.000000 0.000000
0.903442 0.000000 0.000000
0.946869 0.000000 0.000000
0.982117 0.000000 0.000000
1.000000 0.000000 0.000000
1.000000 0.000000 0.000000
1.000000 0.000000 0.035675
1.000000 0.000000 0.081451
1.000000 0.000000 0.128021
1.000000 0.000000 0.175537
1.000000 0.000000 0.223541
1.000000 0.000000 0.272125
1.000000 0.000000 0.321198
1.000000 0.000000 0.370331
0.000000 0.000000 0.000000
0.000000 0.000000 0.000000
0.000000 0.000000 0.000000
0.000000 0.000000 0.000000
0.000000 0.000000 0.000000
0.064789 0.000000 0.000000
0.134399 0.000000 0.000000
0.201477 0.000000 0.000000
0.266083 0.000000 0.000000
0.328247 0.000000 0.000000
0.388397 0.000000 0.000000
0.446869 0.000000 0.000000
0.503235 0.000000 0.000000
0.558441 0.000000 0.000000
0.611908 0.000000 0.000000
0.664032 0.000000 0.000000
0.714539 0.000000 0.000000
0.763550 0.000000 0.000000
0.811096 0.000000 0.000000
0.857422 0.000000 0.000000
0.902496 0.000000 0.000000
0.945892 0.000000 0.000000
0.985474 0.000000 0.000000
1.000000 0.000000 0.000000
1.000000 0.000000 0.000000
1.000000 0.000000 0.015900
1.000000 0.000000 0.063507
1.000000 0.000000 0.111969
1.000000 0.000000 0.161163
1.000000 0.000000 0.210846
1.000000 0.000000 0.260773
1.000000 0.000000 0.311096
1.000000 0.000000 0.361328
0.000000 0.000000 0.000000
0.000000 0.000000 0.000000
0.000000 0.000000 0.000000
0.000000 0.000000 0.000000
0.000000 0.000000 0.000000
0.052155 0.000000 0.000000
0.123566 0.000000 0.000000
0.192261 0.000000 0.000000
0.258057 0.000000 0.000000
0.321594 0.000000 0.000000
0.382904 0.000000 0.000000
0.441833 0.000000 0.000000
0.499176 0.000000 0.000000
0.554626 0.000000 0.000000
0.608734 0.000000 0.000000
0.661163 0.000000 0.000000
0.712280 0.000000 0.000000
0.761566 0.000000 0.000000
0.809540 0.000000 0.000000
0.856049 0.000000 0.000000
0.901215 0.000000 0.000000
0.944794 0.000000 0.000000
0.986176 0.000000 0.000000
1.000000 0.000000 0.000000
1.000000 0.000000 0.000000
1.000000 0.000000 0.000000
1.000000 0.000000 0.045013
1.000000 0.000000 0.095459
1.000000 0.000000 0.146271
1.000000 0.000000 0.197601
1.000000 0.000000 0.248993
1.000000 0.000000 0.300537
1.000000 0.000000 0.352325
0.003235 0.030334 0.000000
0.002136 0.020020 0.000000
0.001038 0.009827 0.000000
0.000061 0.000549 0.000000
0.000000 0.000000 0.000000
0.039124 0.000000 0.000000
0.112091 0.000000 0.000000
0.182617 0.000000 0.000000
0.249969 0.000000 0.000000
0.314728 0.000000 0.000000
0.376801 0.000000 0.000000
0.436829 0.000000 0.000000
0.494781 0.000000 0.000000
0.550964 0.000000 0.000000
0.605621 0.000000 0.000000
0.658539 0.000000 0.000000
0.709961 0.000000 0.000000
0.759613 0.000000 0.000000
0.807831 0.000000 0.000000
0.854584 0.000000 0.000000
0.899811 0.000000 0.000000
0.943695 0.000000 0.000000
0.985321 0.000000 0.000000
1.000000 0.000000 0.000000
1.000000 0.000000 0.000000
1.000000 0.000000 0.000000
1.000000 0.000000 0.024994
1.000000 0.000000 0.077667
1.000000 0.000000 0.130524
1.000000 0.000000 0.183655
1.000000 0.000000 0.236633
1.000000 0.000000 0.289581
1.000000 0.000000 0.342529
0.010956 0.102844 0.000000
0.009949 0.093384 0.000000
0.008911 0.083740 0.000000
0.007874 0.073914 0.000000
0.006744 0.063507 0.000000
0.030182 0.050354 0.000000
0.103180 0.032104 0.000000
0.174255 0.011841 0.000000
0.241302 0.000000 0.000000
0.306854 0.000000 0.000000
0.370056 0.000000 0.000000
0.431122 0.000000 0.000000
0.489990 0.000000 0.000000
0.546967 0.000000 0.000000
0.601868 0.000000 0.000000
0.655334 0.000000 0.000000
0.707336 0.000000 0.000000
0.757324 0.000000 0.000000
0.805908 0.000000 0.000000
0.852905 0.000000 0.000000
0.898376 0.000000 0.000000
0.942444 0.000000 0.000000
0.984375 0.000000 0.000000
1.000000 0.000000 0.000000
1.000000 0.000000 0.000000
1.000000 0.000000 0.000000
1.000000 0.000000 0.001648
1.000000 0.000000 0.057007
1.000000 0.000000 0.112152
1.000000 0.000000 0.167419
1.000000 0.000000 0.222565
1.000000 0.000000 0.277130
1.000000 0.000000 0.331482
0.018524 0.174103 0.000000
0.017670 0.166107 0.000000
0.016785 0.157684 0.000000
0.015900 0.149353 0.000000
0.014954 0.140472 0.000000
0.022003 0.129974 0.000000
0.096802 0.113373 0.000000
0.170227 0.094971 0.000000
0.239594 0.074432 0.000000
0.305206 0.051483 0.000000
0.367737 0.025360 0.000000
0.427032 0.000000 0.000000
0.484314 0.000000 0.000000
0.542175 0.000000 0.000000
0.597900 0.000000 0.000000
0.651825 0.000000 0.000000
0.704193 0.000000 0.000000
0.754791 0.000000 0.000000
0.803650 0.000000 0.000000
0.851074 0.000000 0.000000
0.896851 0.000000 0.000000
0.941132 0.000000 0.000000
0.983246 0.000000 0.000000
1.000000 0.000000 0.000000
1.000000 0.000000 0.000000
1.000000 0.000000 0.000000
1.000000 0.000000 0.000000
1.000000 0.000000 0.032410
1.000000 0.000000 0.090576
1.000000 0.000000 0.148376
1.000000 0.000000 0.205780
1.000000 0.000000 0.262360
1.000000 0.000000 0.318726
0.025879 0.242950 0.000000
0.025116 0.236053 0.000000
0.024384 0.229034 0.000000
0.023621 0.221863 0.000000
0.022827 0.214355 0.000000
0.021912 0.205994 0.000000
0.087280 0.191864 0.000000
0.163818 0.175568 0.000000
0.235901 0.157471 0.000000
0.303802 0.137390 0.000000
0.368317 0.114655 0.000000
0.429504 0.088867 0.000000
0.487640 0.058929 0.000000
0.542938 0.024292 0.000000
0.595673 0.000000 0.000000
0.647919 0.000000 0.000000
0.700714 0.000000 0.000000
0.751801 0.000000 0.000000
0.801147 0.000000 0.000000
0.848877 0.000000 0.000000
0.895020 0.000000 0.000000
0.939575 0.000000 0.000000
0.981995 0.000000 0.000000
1.000000 0.000000 0.000000
1.000000 0.000000 0.000000
1.000000 0.000000 0.000000
1.000000 0.000000 0.000000
1.000000 0.000000 0.002716
1.000000 0.000000 0.064636
1.000000 0.000000 0.125763
1.000000 0.000000 0.185822
1.000000 0.000000 0.245178
1.000000 0.000000 0.303650
0.032928 0.309448 0.000000
0.032318 0.303589 0.000000
0.031677 0.297577 0.000000
0.031036 0.291565 0.000000
0.030334 0.285004 0.000000
0.029572 0.277893 0.000000
0.074036 0.266693 0.000000
0.154266 0.251984 0.000000
0.229492 0.235931 0.000000
0.300201 0.218292 0.000000
0.366821 0.198730 0.000000
0.429932 0.176575 0.000000
0.489868 0.151337 0.000000
0.547119 0.122162 0.000000
0.601135 0.087891 0.000000
0.652740 0.046997 0.000000
0.701508 0.000000 0.000000
0.748596 0.000000 0.000000
0.798431 0.000000 0.000000
0.846405 0.000000 0.000000
0.892944 0.000000 0.000000
0.937714 0.000000 0.000000
0.980499 0.000000 0.000000
1.000000 0.000000 0.000000
1.000000 0.000000 0.000000
1.000000 0.000000 0.000000
1.000000 0.000000 0.000000
1.000000 0.000000 0.000000
1.000000 0.000000 0.033508
1.000000 0.000000 0.098724
1.000000 0.000000 0.162445
1.000000 0.000000 0.224884
1.000000 0.000000 0.285950
0.039825 0.374084 0.000000
0.039276 0.368866 0.000000
0.038727 0.363831 0.000000
0.038177 0.358734 0.000000
0.037598 0.353149 0.000000
0.036957 0.347107 0.000000
0.057190 0.338684 0.000000
0.140869 0.325073 0.000000
0.220062 0.310516 0.000000
0.294067 0.295013 0.000000
0.363251 0.277649 0.000000
0.428467 0.258606 0.000000
0.490479 0.236969 0.000000
0.549194 0.212372 0.000000
0.605286 0.183807 0.000000
0.658539 0.150421 0.000000
0.708893 0.110352 0.000000
0.756561 0.061554 0.000000
0.800690 0.001343 0.000000
0.843689 0.000000 0.000000
0.890503 0.000000 0.000000
0.935822 0.000000 0.000000
0.978668 0.000000 0.000000
1.000000 0.000000 0.000000
1.000000 0.000000 0.000000
1.000000 0.000000 0.000000
1.000000 0.000000 0.000000
1.000000 0.000000 0.000000
1.000000 0.000000 0.000000
1.000000 0.000000 0.065735
1.000000 0.000000 0.134125
1.000000 0.000000 0.200500
1.000000 0.000000 0.264984
0.046448 0.436462 0.000000
0.046021 0.432281 0.000000
0.045532 0.427765 0.000000
0.045074 0.423370 0.000000
0.044556 0.418793 0.000000
0.044006 0.413452 0.000000
0.043365 0.407471 0.000000
0.122986 0.395477 0.000000
0.206909 0.382050 0.000000
0.284546 0.367981 0.000000
0.357056 0.352661 0.000000
0.424957 0.335632 0.000000
0.488892 0.316925 0.000000
0.549683 0.295929 0.000000
0.607361 0.271881 0.000000
0.662445 0.243927 0.000000
0.714539 0.211487 0.000000
0.763824 0.172333 0.000000
0.810089 0.124817 0.000000
0.853119 0.065216 0.000000
0.892914 0.000000 0.000000
0.933380 0.000000 0.000000
0.976898 0.000000 0.000000
1.000000 0.000000 0.000000
1.000000 0.000000 0.000000
1.000000 0.000000 0.000000
1.000000 0.000000 0.000000
1.000000 0.000000 0.000000
1.000000 0.000000 0.000000
1.000000 0.000000 0.025299
1.000000 0.000000 0.099762
1.000000 0.000000 0.171173
1.000000 0.000000 0.239990
0.052948 0.497345 0.000000
0.052521 0.493561 0.000000
0.052124 0.489807 0.000000
0.051727 0.486023 0.000000
0.051300 0.481964 0.000000
0.050842 0.477539 0.000000
0.050293 0.472534 0.000000
0.100159 0.463348 0.000000
0.189301 0.450684 0.000000
0.271637 0.437683 0.000000
0.347870 0.423859 0.000000
0.419037 0.408905 0.000000
0.485352 0.392365 0.000000
0.548340 0.374146 0.000000
0.607819 0.353455 0.000000
0.664551 0.329926 0.000000
0.718262 0.302826 0.000000
0.769257 0.270874 0.000000
0.817291 0.233002 0.000000
0.862366 0.186523 0.000000
0.904449 0.128571 0.000000
0.942932 0.052917 0.000000
0.977020 0.000000 0.000000
1.000000 0.000000 0.000000
1.000000 0.000000 0.000000
1.000000 0.000000 0.000000
1.000000 0.000000 0.000000
1.000000 0.000000 0.000000
1.000000 0.000000 0.000000
1.000000 0.000000 0.000000
1.000000 0.000000 0.057312
1.000000 0.000000 0.135315
1.000000 0.000000 0.209595
0.059235 0.556427 0.000000
0.058899 0.553223 0.000000
0.058533 0.549866 0.000000
0.058197 0.546722 0.000000
0.057831 0.543274 0.000000
0.057434 0.539490 0.000000
0.056946 0.535034 0.000000
0.071747 0.528992 0.000000
0.166473 0.517303 0.000000
0.254608 0.504822 0.000000
0.335175 0.492096 0.000000
0.409851 0.478516 0.000000
0.479614 0.463806 0.000000
0.544739 0.447784 0.000000
0.606354 0.429749 0.000000
0.664856 0.409637 0.000000
0.720276 0.386566 0.000000
0.772888 0.360138 0.000000
0.822601 0.328918 0.000000
0.869537 0.291901 0.000000
0.913544 0.246735 0.000000
0.954437 0.190277 0.000000
0.991302 0.116669 0.000000
1.000000 0.017548 0.000000
1.000000 0.000000 0.000000
1.000000 0.000000 0.000000
1.000000 0.000000 0.000000
1.000000 0.000000 0.000000
1.000000 0.000000 0.000000
1.000000 0.000000 0.000000
1.000000 0.000000 0.003448
1.000000 0.000000 0.090759
1.000000 0.000000 0.172363
0.065338 0.613892 0.000000
0.065033 0.611145 0.000000
0.064758 0.608398 0.000000
0.064453 0.605682 0.000000
0.064148 0.602570 0.000000
0.063812 0.599487 0.000000
0.063416 0.595734 0.000000
0.062958 0.591461 0.000000
0.136658 0.581848 0.000000
0.232056 0.569946 0.000000
0.318542 0.557892 0.000000
0.397491 0.545319 0.000000
0.470612 0.531921 0.000000
0.538971 0.517548 0.000000
0.602997 0.501862 0.000000
0.663300 0.484253 0.000000
0.720795 0.464478 0.000000
0.774872 0.442047 0.000000
0.826233 0.416199 0.000000
0.874725 0.385864 0.000000
0.920410 0.349609 0.000000
0.963165 0.305389 0.000000
1.000000 0.250275 0.000000
1.000000 0.179077 0.000000
1.000000 0.081207 0.000000
1.000000 0.000000 0.000000
1.000000 0.000000 0.000000
1.000000 0.000000 0.000000
1.000000 0.000000 0.000000
1.000000 0.000000 0.000000
1.000000 0.000000 0.000000
1.000000 0.000000 0.033905
1.000000 0.000000 0.125885
0.071320 0.670074 0.000000
0.071075 0.667755 0.000000
0.070801 0.665314 0.000000
0.070557 0.662842 0.000000
0.070282 0.660370 0.000000
0.070007 0.657623 0.000000
0.069641 0.654327 0.000000
0.069244 0.650665 0.000000
0.098633 0.644623 0.000000
0.202576 0.633026 0.000000
0.296326 0.621490 0.000000
0.380951 0.609650 0.000000
0.458527 0.597260 0.000000
0.530243 0.584442 0.000000
0.597290 0.570251 0.000000
0.659973 0.554810 0.000000
0.719269 0.537750 0.000000
0.775269 0.518311 0.000000
0.828308 0.496399 0.000000
0.878265 0.471069 0.000000
0.925385 0.441223 0.000000
0.969879 0.405914 0.000000
1.000000 0.362793 0.000000
1.000000 0.309174 0.000000
1.000000 0.239807 0.000000
1.000000 0.144653 0.000000
1.000000 0.011871 0.000000
1.000000 0.000000 0.000000
1.000000 0.000000 0.000000
1.000000 0.000000 0.000000
1.000000 0.000000 0.000000
1.000000 0.000000 0.000000
1.000000 0.000000 0.066345
0.077179 0.724884 0.000000
0.076935 0.722687 0.000000
0.076691 0.720520 0.000000
0.076508 0.718628 0.000000
0.076263 0.716400 0.000000
0.076019 0.713959 0.000000
0.075714 0.711304 0.000000
0.075378 0.708160 0.000000
0.075012 0.704651 0.000000
0.164032 0.694611 0.000000
0.267456 0.683289 0.000000
0.359467 0.671936 0.000000
0.442413 0.660431 0.000000
0.518250 0.648224 0.000000
0.588684 0.635620 0.000000
0.654266 0.621765 0.000000
0.715851 0.606720 0.000000
0.774017 0.589905 0.000000
0.828552 0.571014 0.000000
0.880127 0.549408 0.000000
0.928986 0.524628 0.000000
0.974976 0.495544 0.000000
1.000000 0.461060 0.000000
1.000000 0.418945 0.000000
1.000000 0.366699 0.000000
1.000000 0.298981 0.000000
1.000000 0.208435 0.000000
1.000000 0.072968 0.000000
1.000000 0.000000 0.000000
1.000000 0.000000 0.000000
1.000000 0.000000 0.000000
1.000000 0.000000 0.000000
1.000000 0.000000 0.000000
0.082794 0.777954 0.000000
0.082611 0.776215 0.000000
0.082428 0.774353 0.000000
0.082245 0.772614 0.000000
0.082031 0.770660 0.000000
0.081818 0.768738 0.000000
0.081573 0.766388 0.000000
0.081299 0.763733 0.000000
0.080963 0.760742 0.000000
0.114014 0.755066 0.000000
0.229553 0.743591 0.000000
0.330994 0.732300 0.000000
0.421021 0.721191 0.000000
0.502472 0.709839 0.000000
0.576935 0.698151 0.000000
0.645905 0.685730 0.000000
0.710480 0.672333 0.000000
0.770630 0.657349 0.000000
0.827240 0.640869 0.000000
0.880615 0.622528 0.000000
0.930969 0.601593 0.000000
0.978333 0.577240 0.000000
1.000000 0.548798 0.000000
1.000000 0.515045 0.000000
1.000000 0.474152 0.000000
1.000000 0.422821 0.000000
1.000000 0.358429 0.000000
1.000000 0.270691 0.000000
1.000000 0.138031 0.000000
1.000000 0.000000 0.000000
1.000000 0.000000 0.000000
1.000000 0.000000 0.000000
1.000000 0.000000 0.000000
0.088287 0.829498 0.000000
0.088165 0.828094 0.000000
0.087982 0.826447 0.000000
0.087830 0.824951 0.000000
0.087646 0.823364 0.000000
0.087463 0.821716 0.000000
0.087250 0.819611 0.000000
0.087006 0.817261 0.000000
0.086731 0.814667 0.000000
0.086426 0.811768 0.000000
0.178894 0.802246 0.000000
0.293854 0.790924 0.000000
0.393402 0.780090 0.000000
0.481567 0.769226 0.000000
0.561279 0.758301 0.000000
0.634277 0.746582 0.000000
0.702148 0.734497 0.000000
0.765289 0.721527 0.000000
0.824158 0.706909 0.000000
0.879242 0.691010 0.000000
0.931305 0.672852 0.000000
0.980316 0.652466 0.000000
1.000000 0.628754 0.000000
1.000000 0.600891 0.000000
1.000000 0.568115 0.000000
1.000000 0.528015 0.000000
1.000000 0.479706 0.000000
1.000000 0.417206 0.000000
1.000000 0.331665 0.000000
1.000000 0.203003 0.000000
1.000000 0.014771 0.000000
1.000000 0.000000 0.000000
1.000000 0.000000 0.000000
0.093628 0.879669 0.000000
0.093475 0.878326 0.000000
0.093353 0.877014 0.000000
0.093201 0.875702 0.000000
0.093079 0.874390 0.000000
0.092926 0.872925 0.000000
0.092712 0.871155 0.000000
0.092499 0.869171 0.000000
0.092285 0.866913 0.000000
0.092041 0.864655 0.000000
0.113312 0.860107 0.000000
0.244232 0.848450 0.000000
0.357025 0.837280 0.000000
0.454437 0.826569 0.000000
0.540802 0.816071 0.000000
0.618988 0.805084 0.000000
0.690674 0.794037 0.000000
0.757202 0.782104 0.000000
0.818848 0.769287 0.000000
0.876160 0.755188 0.000000
0.930023 0.739594 0.000000
0.980835 0.722137 0.000000
1.000000 0.702087 0.000000
1.000000 0.678986 0.000000
1.000000 0.652008 0.000000
1.000000 0.619843 0.000000
1.000000 0.582123 0.000000
1.000000 0.535645 0.000000
1.000000 0.474792 0.000000
1.000000 0.391052 0.000000
1.000000 0.265839 0.000000
1.000000 0.067688 0.000000
1.000000 0.000000 0.000000
0.098816 0.928345 0.000000
0.098724 0.927490 0.000000
0.098602 0.926300 0.000000
0.098480 0.925171 0.000000
0.098358 0.923950 0.000000
0.098206 0.922638 0.000000
0.098053 0.921234 0.000000
0.097870 0.919525 0.000000
0.097687 0.917603 0.000000
0.097443 0.915527 0.000000
0.097168 0.912964 0.000000
0.176178 0.905029 0.000000
0.308350 0.893219 0.000000
0.418671 0.882294 0.000000
0.514130 0.871887 0.000000
0.598938 0.861481 0.000000
0.675720 0.850952 0.000000
0.746002 0.839935 0.000000
0.810791 0.828522 0.000000
0.871094 0.815887 0.000000
0.927032 0.802094 0.000000
0.979492 0.786835 0.000000
1.000000 0.769958 0.000000
1.000000 0.750366 0.000000
1.000000 0.728058 0.000000
1.000000 0.701904 0.000000
1.000000 0.671692 0.000000
1.000000 0.635864 0.000000
1.000000 0.590515 0.000000
1.000000 0.530975 0.000000
1.000000 0.449097 0.000000
1.000000 0.327179 0.000000
1.000000 0.120483 0.000000
0.103851 0.975708 0.000000
0.103790 0.974976 0.000000
0.103668 0.973907 0.000000
0.103546 0.972870 0.000000
0.103455 0.971832 0.000000
0.103333 0.970764 0.000000
0.103210 0.969666 0.000000
0.103058 0.968201 0.000000
0.102875 0.966461 0.000000
0.102692 0.964722 0.000000
0.102448 0.962524 0.000000
0.102203 0.960052 0.000000
0.241272 0.948395 0.000000
0.371094 0.936829 0.000000
0.479126 0.926117 0.000000
0.572601 0.915955 0.000000
0.655853 0.905975 0.000000
0.731110 0.895721 0.000000
0.799896 0.884888 0.000000
0.863251 0.873413 0.000000
0.921906 0.861420 0.000000
0.976685 0.848053 0.000000
1.000000 0.833221 0.000000
1.000000 0.816711 0.000000
1.000000 0.797821 0.000000
1.000000 0.776031 0.000000
1.000000 0.751434 0.000000
1.000000 0.723267 0.000000
1.000000 0.688416 0.000000
1.000000 0.644104 0.000000
1.000000 0.585724 0.000000
1.000000 0.505920 0.000000
1.000000 0.386871 0.000000
0.108734 1.000000 0.000000
0.108643 1.000000 0.000000
0.108582 1.000000 0.000000
0.108459 1.000000 0.000000
0.108398 1.000000 0.000000
0.108307 1.000000 0.000000
0.108185 1.000000 0.000000
0.108032 1.000000 0.000000
0.107910 1.000000 0.000000
0.107727 1.000000 0.000000
0.107544 1.000000 0.000000
0.107330 1.000000 0.000000
0.149567 1.000000 0.000000
0.305481 0.990387 0.000000
0.432434 0.979187 0.000000
0.538361 0.968719 0.000000
0.630219 0.958771 0.000000
0.711639 0.949066 0.000000
0.785461 0.938934 0.000000
0.852661 0.928345 0.000000
0.914337 0.917450 0.000000
0.971649 0.905670 0.000000
1.000000 0.892670 0.000000
1.000000 0.878174 0.000000
1.000000 0.862061 0.000000
1.000000 0.843781 0.000000
1.000000 0.823425 0.000000
1.000000 0.800995 0.000000
1.000000 0.773590 0.000000
1.000000 0.739624 0.000000
1.000000 0.696136 0.000000
1.000000 0.639313 0.000000
1.000000 0.561340 0.000000
0.113373 1.000000 0.000000
0.113281 1.000000 0.000000
0.113220 1.000000 0.000000
0.113129 1.000000 0.000000
0.113068 1.000000 0.000000
0.112976 1.000000 0.000000
0.112885 1.000000 0.000000
0.112793 1.000000 0.000000
0.112671 1.000000 0.000000
0.112518 1.000000 0.000000
0.112396 1.000000 0.000000
0.112183 1.000000 0.000000
0.112000 1.000000 0.000000
0.210785 1.000000 0.000000
0.368256 1.000000 0.000000
0.492401 1.000000 0.000000
0.596283 1.000000 0.000000
0.686371 1.000000 0.000000
0.766266 0.990570 0.000000
0.838409 0.980774 0.000000
0.903961 0.970795 0.000000
0.964264 0.960114 0.000000
1.000000 0.948700 0.000000
1.000000 0.936127 0.000000
1.000000 0.922028 0.000000
1.000000 0.906525 0.000000
1.000000 0.889038 0.000000
1.000000 0.871216 0.000000
1.000000 0.849304 0.000000
1.000000 0.822723 0.000000
1.000000 0.789368 0.000000
1.000000 0.747284 0.000000
1.000000 0.691772 0.000000
0.117676 1.000000 0.000000
0.117615 1.000000 0.000000
0.117554 1.000000 0.000000
0.117493 1.000000 0.000000
0.117432 1.000000 0.000000
0.117371 1.000000 0.000000
0.117279 1.000000 0.000000
0.117218 1.000000 0.000000
0.117096 1.000000 0.000000
0.116974 1.000000 0.000000
0.116852 1.000000 0.000000
0.116699 1.000000 0.000000
0.116547 1.000000 0.000000
0.116364 1.000000 0.000000
0.274872 1.000000 0.000000
0.429504 1.000000 0.000000
0.551208 1.000000 0.000000
0.653015 1.000000 0.000000
0.741302 1.000000 0.000000
0.819611 1.000000 0.000000
0.889801 1.000000 0.000000
0.953857 1.000000 0.000000
1.000000 1.000000 0.000000
1.000000 0.989624 0.000000
1.000000 0.977600 0.000000
1.000000 0.964264 0.000000
1.000000 0.949493 0.000000
1.000000 0.934967 0.000000
1.000000 0.917542 0.000000
1.000000 0.896393 0.000000
1.000000 0.870270 0.000000
1.000000 0.838043 0.000000
1.000000 0.796814 0.000000
0.121857 1.000000 0.000000
0.121826 1.000000 0.000000
0.121765 1.000000 0.000000
0.121704 1.000000 0.000000
0.121674 1.000000 0.000000
0.121613 1.000000 0.000000
0.121521 1.000000 0.000000
0.121460 1.000000 0.000000
0.121368 1.000000 0.000000
0.121246 1.000000 0.000000
0.121155 1.000000 0.000000
0.121033 1.000000 0.000000
0.120911 1.000000 0.000000
0.120728 1.000000 0.000000
0.148834 1.000000 0.000000
0.338196 1.000000 0.000000
0.489471 1.000000 0.000000
0.608643 1.000000 0.000000
0.708405 1.000000 0.000000
0.794922 1.000000 0.000000
0.871338 1.000000 0.000000
0.940063 1.000000 0.000000
1.000000 1.000000 0.000000
1.000000 1.000000 0.000000
1.000000 1.000000 0.000000
1.000000 1.000000 0.000000
1.000000 1.000000 0.000000
1.000000 0.992523 0.000000
1.000000 0.978760 0.000000
1.000000 0.962219 0.000000
1.000000 0.941803 0.000000
1.000000 0.916595 0.000000
1.000000 0.885284 0.000000
0.124084 1.000000 0.000000
0.124084 1.000000 0.000000
0.124084 1.000000 0.000000
0.124084 1.000000 0.000000
0.124084 1.000000 0.000000
0.124084 1.000000 0.000000
0.124084 1.000000 0.000000
0.124084 1.000000 0.000000
0.124084 1.000000 0.000000
0.124084 1.000000 0.000000
0.124084 1.000000 0.000000
0.124084 1.000000 0.000000
0.124084 1.000000 0.000000
0.124084 1.000000 0.000000
0.124084 1.000000 0.000000
0.202545 1.000000 0.000000
0.399902 1.000000 0.000000
0.548065 1.000000 0.000000
0.664948 1.000000 0.000000
0.762848 1.000000 0.000000
0.847382 1.000000 0.000000
0.921967 1.000000 0.000000
0.988953 1.000000 0.000000
1.000000 1.000000 0.000000
1.000000 1.000000 0.000000
1.000000 1.000000 0.000000
1.000000 1.000000 0.000000
1.000000 1.000000 0.000000
1.000000 1.000000 0.000000
1.000000 1.000000 0.000000
1.000000 1.000000 0.000000
1.000000 0.985260 0.000000
1.000000 0.961273 0.000000
0.124084 1.000000 0.000000
0.124084 1.000000 0.000000
0.124084 1.000000 0.000000
0.124084 1.000000 0.000000
0.124084 1.000000 0.000000
0.124084 1.000000 0.000000
0.124084 1.000000 0.000000
0.124084 1.000000 0.000000
0.124084 1.000000 0.000000
0.124084 1.000000 0.000000
0.124084 1.000000 0.000000
0.124084 1.000000 0.000000
0.124084 1.000000 0.000000
0.124084 1.000000 0.000000
0.124084 1.000000 0.000000
0.124084 1.000000 0.000000
0.255493 1.000000 0.000000
0.456604 1.000000 0.000000
0.601379 1.000000 0.000000
0.716217 1.000000 0.000000
0.812469 1.000000 0.000000
0.895233 1.000000 0.000000
