Postproduction/IWLTBAP - Humble/LUTs by IWLTBAP (CUBE)/UTILITY/BMDFilm URSA 4.6K to Rec.709/U-BMDFILM-URSA-46K-V2-LTR.cube
# Copyright: (C) Copyright 2010-2018 by IWLTBAP SAS
# Cannot be resold, shared or otherwise redistributed
# Website: https://luts.iwltbap.com
TITLE "BMDFilm URSA 4.6K Version 2 (Utility LOG to Rec.709)"
LUT_3D_SIZE 9
0.000000 0.000000 0.000000
0.022125 0.000000 0.000000
0.280945 0.000000 0.000000
0.511658 0.000000 0.000000
0.718872 0.000000 0.000000
0.904724 0.000000 0.000000
1.000000 0.000000 0.014954
1.000000 0.000000 0.189301
0.999939 0.000000 0.379028
0.003235 0.030334 0.000000
0.000000 0.000000 0.000000
0.249969 0.000000 0.000000
0.494781 0.000000 0.000000
0.709961 0.000000 0.000000
0.899811 0.000000 0.000000
1.000000 0.000000 0.000000
1.000000 0.000000 0.130524
1.000000 0.000000 0.342529
0.032928 0.309448 0.000000
0.030334 0.285004 0.000000
0.229492 0.235931 0.000000
0.489868 0.151337 0.000000
0.701508 0.000000 0.000000
0.892944 0.000000 0.000000
1.000000 0.000000 0.000000
1.000000 0.000000 0.033508
1.000000 0.000000 0.285950
0.059235 0.556427 0.000000
0.057831 0.543274 0.000000
0.166473 0.517303 0.000000
0.479614 0.463806 0.000000
0.720276 0.386566 0.000000
0.913544 0.246735 0.000000
1.000000 0.000000 0.000000
1.000000 0.000000 0.000000
1.000000 0.000000 0.172363
0.082794 0.777954 0.000000
0.082031 0.770660 0.000000
0.080963 0.760742 0.000000
0.421021 0.721191 0.000000
0.710480 0.672333 0.000000
0.930969 0.601593 0.000000
1.000000 0.474152 0.000000
1.000000 0.138031 0.000000
1.000000 0.000000 0.000000
0.103851 0.975708 0.000000
0.103455 0.971832 0.000000
0.102875 0.966461 0.000000
0.241272 0.948395 0.000000
0.655853 0.905975 0.000000
0.921906 0.861420 0.000000
1.000000 0.797821 0.000000
1.000000 0.688416 0.000000
1.000000 0.386871 0.000000
0.121857 1.000000 0.000000
0.121674 1.000000 0.000000
0.121368 1.000000 0.000000
0.120911 1.000000 0.000000
0.489471 1.000000 0.000000
0.871338 1.000000 0.000000
1.000000 1.000000 0.000000
1.000000 0.978760 0.000000
1.000000 0.885284 0.000000
0.124084 1.000000 0.000000
0.124084 1.000000 0.000000
0.124084 1.000000 0.000000
0.124084 1.000000 0.000000
0.124084 1.000000 0.000000
0.705261 1.000000 0.000000
1.000000 1.000000 0.000000
1.000000 1.000000 0.000000
1.000000 1.000000 0.000000
0.124084 1.000000 0.000000
0.124084 1.000000 0.000000
0.124084 1.000000 0.000000
0.124084 1.000000 0.000000
0.124084 1.000000 0.000000
0.124084 1.000000 0.000000
0.899780 1.000000 0.000000
1.000000 1.000000 0.000000
1.000000 1.000000 0.000000
0.000000 0.000000 0.032776
0.000000 0.000000 0.047516
0.260162 0.000000 0.038391
0.488342 0.000000 0.044983
0.688568 0.000000 0.071442
0.862427 0.000000 0.122131
1.000000 0.000000 0.201538
1.000000 0.000000 0.321564
0.984039 0.000000 0.467133
0.000000 0.000000 0.000000
0.000000 0.000000 0.000000
0.240875 0.000000 0.000000
0.488220 0.000000 0.000000
0.695038 0.000000 0.000000
0.870544 0.000000 0.050323
1.000000 0.000000 0.144501
1.000000 0.000000 0.279449
0.989227 0.000000 0.438354
0.030762 0.289062 0.000000
0.028046 0.263397 0.000000
0.216919 0.212952 0.000000
0.481873 0.123779 0.000000
0.695190 0.000000 0.000000
0.886047 0.000000 0.000000
1.000000 0.000000 0.050629
1.000000 0.000000 0.213135
0.997192 0.000000 0.394257
0.058044 0.545410 0.000000
0.056610 0.531860 0.000000
0.152344 0.506042 0.000000
0.472351 0.451080 0.000000
0.715851 0.371643 0.000000
0.909790 0.225983 0.000000
1.000000 0.000000 0.000000
1.000000 0.000000 0.075043
1.000000 0.000000 0.309723
0.082153 0.771820 0.000000
0.081390 0.764587 0.000000
0.080292 0.754303 0.000000
0.413239 0.715057 0.000000
0.706360 0.665192 0.000000
0.928436 0.593140 0.000000
1.000000 0.462646 0.000000
1.000000 0.110107 0.000000
1.000000 0.000000 0.116699
0.103516 0.972595 0.000000
0.103119 0.968628 0.000000
0.102539 0.963257 0.000000
0.228760 0.945801 0.000000
0.651581 0.902496 0.000000
0.919861 0.857483 0.000000
1.000000 0.793152 0.000000
1.000000 0.681915 0.000000
1.000000 0.371643 0.000000
0.121674 1.000000 0.000000
0.121490 1.000000 0.000000
0.121185 1.000000 0.000000
0.120697 1.000000 0.000000
0.482422 1.000000 0.000000
0.868958 1.000000 0.000000
1.000000 1.000000 0.000000
1.000000 0.976257 0.000000
1.000000 0.881866 0.000000
0.124084 1.000000 0.000000
0.124084 1.000000 0.000000
0.124084 1.000000 0.000000
0.124084 1.000000 0.000000
0.124084 1.000000 0.000000
0.701538 1.000000 0.000000
1.000000 1.000000 0.000000
1.000000 1.000000 0.000000
1.000000 1.000000 0.000000
0.124084 1.000000 0.000000
0.124084 1.000000 0.000000
0.124084 1.000000 0.000000
0.124084 1.000000 0.000000
0.124084 1.000000 0.000000
0.124084 1.000000 0.000000
0.897766 1.000000 0.000000
1.000000 1.000000 0.000000
1.000000 1.000000 0.000000
0.000000 0.000000 0.318848
0.000000 0.000000 0.327606
0.199677 0.000000 0.309265
0.435944 0.000000 0.300568
0.643005 0.000000 0.304901
0.823792 0.000000 0.326965
0.973419 0.000000 0.371216
0.986420 0.000000 0.453857
0.966675 0.000000 0.563385
0.000000 0.000000 0.260681
0.000000 0.000000 0.270844
0.176788 0.000000 0.257843
0.428253 0.000000 0.249664
0.642609 0.000000 0.256989
0.826721 0.000000 0.283508
0.977600 0.000000 0.334045
0.991852 0.000000 0.423706
0.970734 0.000000 0.540894
0.000000 0.245911 0.151245
0.000000 0.217316 0.165405
0.163483 0.163483 0.163483
0.430511 0.065491 0.161407
0.643555 0.000000 0.180573
0.832031 0.000000 0.215668
0.984589 0.000000 0.276917
1.000000 0.000000 0.378326
0.976715 0.000000 0.507782
0.056366 0.529602 0.000000
0.054871 0.515533 0.000000
0.132263 0.490051 0.000000
0.456543 0.430298 0.000000
0.693420 0.342834 0.000000
0.873474 0.181641 0.056854
0.999939 0.000000 0.160400
1.000000 0.000000 0.290436
0.987885 0.000000 0.445740
0.081238 0.763367 0.000000
0.080475 0.756012 0.000000
0.079346 0.745483 0.000000
0.402130 0.706268 0.000000
0.700745 0.655243 0.000000
0.925018 0.581360 0.000000
1.000000 0.446136 0.000000
1.000000 0.055389 0.078705
1.000000 0.000000 0.317108
0.103027 0.967957 0.000000
0.102631 0.964081 0.000000
0.102020 0.958405 0.000000
0.211029 0.941956 0.000000
0.645294 0.897766 0.000000
0.916779 0.852173 0.000000
1.000000 0.786713 0.000000
1.000000 0.672974 0.000000
1.000000 0.344849 0.000000
0.121460 1.000000 0.000000
0.121246 1.000000 0.000000
0.120941 1.000000 0.000000
0.120422 1.000000 0.000000
0.472626 1.000000 0.000000
0.865631 1.000000 0.000000
1.000000 1.000000 0.000000
1.000000 0.972931 0.000000
1.000000 0.876862 0.000000
0.124084 1.000000 0.000000
0.124084 1.000000 0.000000
0.124084 1.000000 0.000000
0.124084 1.000000 0.000000
0.124084 1.000000 0.000000
0.696045 1.000000 0.000000
1.000000 1.000000 0.000000
1.000000 1.000000 0.000000
1.000000 1.000000 0.000000
0.124084 1.000000 0.000000
0.124084 1.000000 0.000000
0.124084 1.000000 0.000000
0.124084 1.000000 0.000000
0.124084 1.000000 0.000000
0.124084 1.000000 0.000000
0.894806 1.000000 0.000000
1.000000 1.000000 0.000000
1.000000 1.000000 0.000000
0.000000 0.000000 0.571442
0.000000 0.000000 0.576355
0.135315 0.000000 0.555023
0.382935 0.000000 0.536530
0.597321 0.000000 0.528107
0.783661 0.000000 0.531860
0.939270 0.000000 0.551941
0.959198 0.000000 0.604889
0.945374 0.000000 0.681488
0.000000 0.000000 0.540771
0.000000 0.000000 0.545929
0.106201 0.000000 0.529297
0.370514 0.000000 0.509674
0.592865 0.000000 0.501282
0.783295 0.000000 0.506439
0.941010 0.000000 0.528809
0.962830 0.000000 0.584686
0.948303 0.000000 0.665222
0.000000 0.165070 0.482544
0.000000 0.133179 0.490234
0.075104 0.075500 0.482971
0.356232 0.000000 0.466858
0.586700 0.000000 0.461334
0.783295 0.000000 0.468597
0.943665 0.000000 0.494537
0.968170 0.000000 0.555115
0.952515 0.000000 0.641907
0.000000 0.470215 0.376221
0.000000 0.454620 0.384308
0.021332 0.428894 0.389587
0.366638 0.366638 0.366638
0.615570 0.275024 0.364716
0.805389 0.100922 0.386108
0.949402 0.000000 0.431030
0.977844 0.000000 0.501495
0.960083 0.000000 0.599976
0.044739 0.733521 0.151093
0.041809 0.724792 0.163208
0.037842 0.712708 0.179474
0.338898 0.671906 0.169495
0.640259 0.615631 0.173523
0.858002 0.534027 0.205292
1.000000 0.384674 0.268646
1.000000 0.000000 0.387421
0.974884 0.000000 0.517822
0.102234 0.960388 0.000000
0.101807 0.956329 0.000000
0.101196 0.950531 0.000000
0.180847 0.935791 0.000000
0.634979 0.889832 0.000000
0.911560 0.843170 0.000000
1.000000 0.774719 0.000000
1.000000 0.639618 0.062164
1.000000 0.275726 0.306091
0.121033 1.000000 0.000000
0.120819 1.000000 0.000000
0.120514 1.000000 0.000000
0.120026 1.000000 0.000000
0.456207 1.000000 0.000000
0.859772 1.000000 0.000000
1.000000 1.000000 0.000000
1.000000 0.967072 0.000000
1.000000 0.868805 0.000000
0.124084 1.000000 0.000000
0.124084 1.000000 0.000000
0.124084 1.000000 0.000000
0.124084 1.000000 0.000000
0.124084 1.000000 0.000000
0.687347 1.000000 0.000000
1.000000 1.000000 0.000000
1.000000 1.000000 0.000000
1.000000 1.000000 0.000000
0.124084 1.000000 0.000000
0.124084 1.000000 0.000000
0.124084 1.000000 0.000000
0.124084 1.000000 0.000000
0.124084 1.000000 0.000000
0.124084 1.000000 0.000000
0.889954 1.000000 0.000000
1.000000 1.000000 0.000000
1.000000 1.000000 0.000000
0.000000 0.000000 0.798126
0.000000 0.000000 0.800568
0.059601 0.000000 0.780579
0.325470 0.000000 0.755707
0.549866 0.000000 0.738892
0.742706 0.000000 0.731018
0.903809 0.000000 0.734863
0.930176 0.000000 0.765747
0.921143 0.000000 0.815796
0.000000 0.000000 0.781525
0.000000 0.000000 0.784302
0.024597 0.000000 0.768768
0.309692 0.000000 0.741882
0.542847 0.000000 0.724335
0.740265 0.000000 0.716766
0.903748 0.000000 0.721252
0.932404 0.000000 0.753357
0.923096 0.000000 0.804993
0.000000 0.035889 0.751923
0.000000 0.000000 0.757111
0.000000 0.000000 0.751770
0.286591 0.000000 0.721619
0.533051 0.000000 0.703339
0.736908 0.000000 0.695801
0.903778 0.000000 0.701508
0.935699 0.000000 0.735107
0.925873 0.000000 0.789581
0.000000 0.396210 0.687988
0.000000 0.378723 0.692352
0.000000 0.353485 0.698151
0.284027 0.284332 0.664581
0.546265 0.179840 0.649506
0.740723 0.000000 0.653870
0.904266 0.000000 0.666534
0.941437 0.000000 0.703247
0.930725 0.000000 0.762756
0.000000 0.674103 0.588745
0.000000 0.665466 0.593323
0.000000 0.653168 0.599518
0.233032 0.614105 0.577637
0.555939 0.555939 0.555939
0.785614 0.470978 0.554718
0.952515 0.309326 0.575500
0.952148 0.000000 0.643982
0.939606 0.000000 0.713531
0.023041 0.913208 0.377289
0.021362 0.908478 0.384430
0.019043 0.901642 0.393921
0.046021 0.888641 0.405487
0.529999 0.837860 0.372559
0.809296 0.786377 0.376404
1.000000 0.711761 0.406830
1.000000 0.580170 0.477631
0.990814 0.180511 0.594849
0.120361 1.000000 0.000000
0.120148 1.000000 0.000000
0.119812 1.000000 0.000000
0.119324 1.000000 0.000000
0.427704 1.000000 0.000000
0.850342 1.000000 0.000000
1.000000 1.000000 0.000000
1.000000 0.937378 0.067200
1.000000 0.817444 0.291290
0.124084 1.000000 0.000000
0.124084 1.000000 0.000000
0.124084 1.000000 0.000000
0.124084 1.000000 0.000000
0.124084 1.000000 0.000000
0.672272 1.000000 0.000000
1.000000 1.000000 0.000000
1.000000 1.000000 0.000000
1.000000 1.000000 0.000000
0.124084 1.000000 0.000000
0.124084 1.000000 0.000000
0.124084 1.000000 0.000000
0.124084 1.000000 0.000000
0.124084 1.000000 0.000000
0.124084 1.000000 0.000000
0.881714 1.000000 0.000000
1.000000 1.000000 0.000000
1.000000 1.000000 0.000000
0.000000 0.000000 1.000000
0.000000 0.000000 1.000000
0.000000 0.000000 0.987793
0.257629 0.000000 0.956299
0.498352 0.000000 0.933563
0.700470 0.000000 0.918213
0.867554 0.000000 0.911652
0.901001 0.000000 0.927490
0.895599 0.000000 0.957428
0.000000 0.000000 0.991547
0.000000 0.000000 0.992859
0.000000 0.000000 0.984314
0.239014 0.000000 0.949768
0.489594 0.000000 0.925964
0.696777 0.000000 0.910431
0.866547 0.000000 0.903900
0.902313 0.000000 0.920258
0.896759 0.000000 0.951019
0.000000 0.000000 0.978851
0.000000 0.000000 0.980286
0.000000 0.000000 0.979675
0.211212 0.000000 0.940826
0.477295 0.000000 0.915497
0.691498 0.000000 0.899445
0.865051 0.000000 0.893005
0.904236 0.000000 0.909668
0.898407 0.000000 0.941895
0.000000 0.279175 0.936493
0.000000 0.256927 0.939453
0.000000 0.224701 0.943329
0.186432 0.144379 0.911743
0.468628 0.003998 0.890503
0.682434 0.000000 0.880463
0.862488 0.000000 0.874237
0.907471 0.000000 0.891663
0.901306 0.000000 0.925812
0.000000 0.606079 0.878357
0.000000 0.596405 0.880615
0.000000 0.582855 0.883972
0.122345 0.544861 0.863831
0.479645 0.479797 0.830933
0.721924 0.382538 0.816772
0.893585 0.185913 0.821655
0.913300 0.000000 0.859375
0.906464 0.000000 0.897278
0.000000 0.858429 0.787170
0.000000 0.853729 0.789856
0.000000 0.847076 0.793335
0.000000 0.835693 0.799103
0.431549 0.784729 0.751587
0.731262 0.731262 0.731262
0.936798 0.653473 0.730621
0.994019 0.509979 0.760620
0.934784 0.027069 0.833588
0.001068 1.000000 0.590973
0.000122 1.000000 0.595001
0.000000 1.000000 0.600494
0.000000 1.000000 0.609436
0.250366 1.000000 0.593628
0.706787 0.984253 0.562347
0.960571 0.939026 0.566498
1.000000 0.878082 0.604248
1.000000 0.762848 0.676910
0.124084 1.000000 0.000000
0.124084 1.000000 0.000000
0.124084 1.000000 0.000000
0.124084 1.000000 0.000000
0.124084 1.000000 0.000000
0.642914 1.000000 0.000000
1.000000 1.000000 0.000000
1.000000 1.000000 0.082825
1.000000 1.000000 0.298950
0.124084 1.000000 0.000000
0.124084 1.000000 0.000000
0.124084 1.000000 0.000000
0.124084 1.000000 0.000000
0.124084 1.000000 0.000000
0.124084 1.000000 0.000000
0.868042 1.000000 0.000000
1.000000 1.000000 0.000000
1.000000 1.000000 0.000000
0.000000 0.000000 1.000000
0.000000 0.000000 1.000000
0.000000 0.000000 1.000000
0.167450 0.000000 1.000000
0.438904 0.000000 1.000000
0.656189 0.000000 1.000000
0.832245 0.000000 1.000000
0.875916 0.000000 1.000000
0.875916 0.000000 1.000000
0.000000 0.000000 1.000000
0.000000 0.000000 1.000000
0.000000 0.000000 1.000000
0.144012 0.000000 1.000000
0.428589 0.000000 1.000000
0.651245 0.000000 1.000000
0.830322 0.000000 1.000000
0.875916 0.000000 1.000000
0.875916 0.000000 1.000000
0.000000 0.000000 1.000000
0.000000 0.000000 1.000000
0.000000 0.000000 1.000000
0.109558 0.000000 1.000000
0.413635 0.000000 1.000000
0.644592 0.000000 1.000000
0.827698 0.000000 1.000000
0.876099 0.000000 1.000000
0.875916 0.000000 1.000000
0.000000 0.022919 1.000000
0.000000 0.000000 1.000000
0.000000 0.000000 1.000000
0.045258 0.000000 1.000000
0.387695 0.000000 1.000000
0.633148 0.000000 1.000000
0.823242 0.000000 1.000000
0.877838 0.000000 1.000000
0.875916 0.000000 1.000000
0.000000 0.499725 1.000000
0.000000 0.487610 1.000000
0.000000 0.470337 1.000000
0.000000 0.433167 1.000000
0.390778 0.350159 1.000000
0.651917 0.219574 1.000000
0.823700 0.000000 1.000000
0.880829 0.000000 1.000000
0.877319 0.000000 1.000000
0.000000 0.797089 1.000000
0.000000 0.791748 1.000000
0.000000 0.784241 1.000000
0.000000 0.771912 1.000000
0.330231 0.721893 1.000000
0.662292 0.661743 0.977570
0.880219 0.572205 0.964417
0.945404 0.395813 0.978271
0.882263 0.000000 1.000000
0.000000 1.000000 0.969055
0.000000 1.000000 0.970490
0.000000 1.000000 0.972565
0.000000 1.000000 0.975677
0.077240 0.988831 0.963379
0.616730 0.937347 0.908936
0.889984 0.889984 0.889984
1.000000 0.825043 0.897491
0.982819 0.699280 0.931335
0.000000 1.000000 0.796356
0.000000 1.000000 0.798523
0.000000 1.000000 0.801514
0.000000 1.000000 0.806458
0.000000 1.000000 0.814270
0.436829 1.000000 0.771851
0.859283 1.000000 0.741882
1.000000 1.000000 0.749878
1.000000 1.000000 0.793152
0.124084 1.000000 0.000000
0.124084 1.000000 0.000000
0.124084 1.000000 0.000000
0.119629 1.000000 0.000000
0.111267 1.000000 0.004547
0.099579 1.000000 0.069244
0.804535 1.000000 0.069641
1.000000 1.000000 0.129578
1.000000 1.000000 0.321136
0.000000 0.000000 1.000000
0.000000 0.000000 1.000000
0.000000 0.000000 1.000000
0.039368 0.000000 1.000000
0.382202 0.000000 1.000000
0.628387 0.000000 1.000000
0.819336 0.000000 1.000000
0.875916 0.000000 1.000000
0.875916 0.000000 1.000000
0.000000 0.000000 1.000000
0.000000 0.000000 1.000000
0.000000 0.000000 1.000000
0.005707 0.000000 1.000000
0.369049 0.000000 1.000000
0.622284 0.000000 1.000000
0.816650 0.000000 1.000000
0.875916 0.000000 1.000000
0.875916 0.000000 1.000000
0.000000 0.000000 1.000000
0.000000 0.000000 1.000000
0.000000 0.000000 1.000000
0.000000 0.000000 1.000000
0.350159 0.000000 1.000000
0.613647 0.000000 1.000000
0.812683 0.000000 1.000000
0.875916 0.000000 1.000000
0.875916 0.000000 1.000000
0.000000 0.000000 1.000000
0.000000 0.000000 1.000000
0.000000 0.000000 1.000000
0.000000 0.000000 1.000000
0.316925 0.000000 1.000000
0.598999 0.000000 1.000000
0.805969 0.000000 1.000000
0.875916 0.000000 1.000000
0.875916 0.000000 1.000000
0.000000 0.278442 1.000000
0.000000 0.257019 1.000000
0.000000 0.225739 1.000000
0.000000 0.168610 1.000000
0.271179 0.023865 1.000000
0.573547 0.000000 1.000000
0.794769 0.000000 1.000000
0.875916 0.000000 1.000000
0.875916 0.000000 1.000000
0.000000 0.709045 1.000000
0.000000 0.702454 1.000000
0.000000 0.692902 1.000000
0.000000 0.677032 1.000000
0.200867 0.627625 1.000000
0.600494 0.550690 1.000000
0.837708 0.430237 1.000000
0.907562 0.131592 1.000000
0.875916 0.000000 1.000000
0.000000 0.972321 1.000000
0.000000 0.969696 1.000000
0.000000 0.966125 1.000000
0.000000 0.959717 1.000000
0.000000 0.948975 1.000000
0.538605 0.888306 1.000000
0.843719 0.834442 1.000000
0.974274 0.758362 1.000000
0.957733 0.602783 1.000000
0.000000 1.000000 1.000000
0.000000 1.000000 1.000000
0.000000 1.000000 1.000000
0.000000 1.000000 1.000000
0.000000 1.000000 1.000000
0.283386 1.000000 1.000000
0.785004 1.000000 1.000000
1.000000 1.000000 1.000000
0.998016 0.981384 1.000000
0.000000 1.000000 0.985413
0.000000 1.000000 0.986633
0.000000 1.000000 0.988220
0.000000 1.000000 0.990967
0.000000 1.000000 0.995178
0.000000 1.000000 1.000000
0.604675 1.000000 0.934906
0.984131 1.000000 0.907532
1.000000 1.000000 0.928894
0.000000 0.000000 1.000000
0.000000 0.000000 1.000000
0.000000 0.000000 1.000000
0.000000 0.000000 1.000000
0.269379 0.000000 1.000000
0.579498 0.000000 1.000000
0.797455 0.000000 1.000000
0.875916 0.000000 1.000000
0.875916 0.000000 1.000000
0.000000 0.000000 1.000000
0.000000 0.000000 1.000000
0.000000 0.000000 1.000000
0.000000 0.000000 1.000000
0.251251 0.000000 1.000000
0.572327 0.000000 1.000000
0.794403 0.000000 1.000000
0.875916 0.000000 1.000000
0.875916 0.000000 1.000000
0.000000 0.000000 1.000000
0.000000 0.000000 1.000000
0.000000 0.000000 1.000000
0.000000 0.000000 1.000000
0.224823 0.000000 1.000000
0.561981 0.000000 1.000000
0.789917 0.000000 1.000000
0.875916 0.000000 1.000000
0.875916 0.000000 1.000000
0.000000 0.000000 1.000000
0.000000 0.000000 1.000000
0.000000 0.000000 1.000000
0.000000 0.000000 1.000000
0.177063 0.000000 1.000000
0.544708 0.000000 1.000000
0.782776 0.000000 1.000000
0.875916 0.000000 1.000000
0.875916 0.000000 1.000000
0.000000 0.000000 1.000000
0.000000 0.000000 1.000000
0.000000 0.000000 1.000000
0.000000 0.000000 1.000000
0.083313 0.000000 1.000000
0.514221 0.000000 1.000000
0.769867 0.000000 1.000000
0.875916 0.000000 1.000000
0.875916 0.000000 1.000000
0.000000 0.512024 1.000000
0.000000 0.500031 1.000000
0.000000 0.483368 1.000000
0.000000 0.454315 1.000000
0.000000 0.397034 1.000000
0.498749 0.252289 1.000000
0.761658 0.000000 1.000000
0.875916 0.000000 1.000000
0.875916 0.000000 1.000000
0.000000 0.901672 1.000000
0.000000 0.897980 1.000000
0.000000 0.892944 1.000000
0.000000 0.884521 1.000000
0.000000 0.870087 1.000000
0.432800 0.809418 1.000000
0.800903 0.739258 1.000000
0.960876 0.632538 1.000000
0.932251 0.363434 1.000000
0.000000 1.000000 1.000000
0.000000 1.000000 1.000000
0.000000 1.000000 1.000000
0.000000 1.000000 1.000000
0.000000 1.000000 1.000000
0.052094 1.000000 1.000000
0.741577 1.000000 1.000000
0.998871 0.989471 1.000000
0.992859 0.932953 1.000000
0.000000 1.000000 1.000000
0.000000 1.000000 1.000000
0.000000 1.000000 1.000000
0.000000 1.000000 1.000000
0.000000 1.000000 1.000000
0.000000 1.000000 1.000000
0.492310 1.000000 1.000000
0.946869 1.000000 1.000000
1.000000 1.000000 1.000000
