Postproduction/IWLTBAP - Humble/LUTs by IWLTBAP (CUBE)/UTILITY/Alexa Log-C to Rec.709/U-ALEXA-LOG-C-V4-LTR.cube
# Copyright: (C) Copyright 2010-2018 by IWLTBAP SAS
# Cannot be resold, shared or otherwise redistributed
# Website: https://luts.iwltbap.com
TITLE "Alexa Log-C Version 4 (Utility LOG to Rec.709)"
LUT_3D_SIZE 33
0.009379 0.009379 0.009379
0.026989 0.008611 0.009149
0.046435 0.007843 0.008920
0.074227 0.007074 0.008690
0.114112 0.006306 0.008460
0.148901 0.005591 0.008247
0.187044 0.004679 0.007974
0.229886 0.003458 0.007609
0.276800 0.001825 0.007120
0.327524 0.000000 0.006467
0.381233 0.000000 0.005593
0.437165 0.000000 0.004424
0.492595 0.000000 0.002859
0.545884 0.000000 0.000766
0.596821 0.000000 0.000000
0.645151 0.000000 0.000000
0.690577 0.000000 0.000000
0.732776 0.000000 0.000000
0.771404 0.000000 0.000000
0.806102 0.000000 0.000000
0.836496 0.000000 0.000000
0.862205 0.000000 0.000000
0.882842 0.000000 0.000000
0.898012 0.000000 0.000000
0.907318 0.000000 0.000000
0.910456 0.000000 0.000000
0.911355 0.000000 0.000000
0.912255 0.000000 0.000000
0.913154 0.000000 0.000000
0.914054 0.000000 0.000000
0.914953 0.000000 0.000000
0.915852 0.000000 0.000000
0.916751 0.000000 0.000000
0.003530 0.023909 0.006908
0.021139 0.023140 0.006679
0.039370 0.022372 0.006449
0.063578 0.021604 0.006219
0.100608 0.020836 0.005989
0.137080 0.020121 0.005776
0.176969 0.019208 0.005503
0.221579 0.017988 0.005138
0.270084 0.016355 0.004650
0.322149 0.014170 0.003996
0.377029 0.011247 0.003122
0.433939 0.007336 0.001953
0.490278 0.002104 0.000389
0.544225 0.000000 0.000000
0.595642 0.000000 0.000000
0.644319 0.000000 0.000000
0.689996 0.000000 0.000000
0.732375 0.000000 0.000000
0.771133 0.000000 0.000000
0.805922 0.000000 0.000000
0.836380 0.000000 0.000000
0.862134 0.000000 0.000000
0.882801 0.000000 0.000000
0.897991 0.000000 0.000000
0.907310 0.000000 0.000000
0.910455 0.000000 0.000000
0.911355 0.000000 0.000000
0.912254 0.000000 0.000000
0.913154 0.000000 0.000000
0.914054 0.000000 0.000000
0.914953 0.000000 0.000000
0.915852 0.000000 0.000000
0.916751 0.000000 0.000000
0.000000 0.039013 0.004438
0.015290 0.038135 0.004208
0.032939 0.037266 0.003978
0.054442 0.036409 0.003748
0.086601 0.035564 0.003519
0.124632 0.034790 0.003305
0.166433 0.033817 0.003032
0.212944 0.032542 0.002667
0.263161 0.030884 0.002179
0.316642 0.028699 0.001526
0.372744 0.025776 0.000652
0.430652 0.021865 0.000000
0.487927 0.016633 0.000000
0.542549 0.009633 0.000000
0.594453 0.000267 0.000000
0.643482 0.000000 0.000000
0.689412 0.000000 0.000000
0.731974 0.000000 0.000000
0.770861 0.000000 0.000000
0.805741 0.000000 0.000000
0.836264 0.000000 0.000000
0.862062 0.000000 0.000000
0.882759 0.000000 0.000000
0.897970 0.000000 0.000000
0.907302 0.000000 0.000000
0.910454 0.000000 0.000000
0.911354 0.000000 0.000000
0.912254 0.000000 0.000000
0.913154 0.000000 0.000000
0.914053 0.000000 0.000000
0.914953 0.000000 0.000000
0.915852 0.000000 0.000000
0.916751 0.000000 0.000000
0.000000 0.058106 0.001967
0.009441 0.056936 0.001737
0.027050 0.055788 0.001507
0.046515 0.054664 0.001278
0.074347 0.053567 0.001048
0.111402 0.052567 0.000834
0.155447 0.051313 0.000561
0.203967 0.049661 0.000196
0.256019 0.047493 0.000000
0.311000 0.044699 0.000000
0.368374 0.041179 0.000000
0.427306 0.036700 0.000000
0.485542 0.031163 0.000000
0.540854 0.024162 0.000000
0.593254 0.014797 0.000000
0.642639 0.002267 0.000000
0.688826 0.000000 0.000000
0.731570 0.000000 0.000000
0.770588 0.000000 0.000000
0.805560 0.000000 0.000000
0.836147 0.000000 0.000000
0.861990 0.000000 0.000000
0.882718 0.000000 0.000000
0.897948 0.000000 0.000000
0.907294 0.000000 0.000000
0.910453 0.000000 0.000000
0.911353 0.000000 0.000000
0.912254 0.000000 0.000000
0.913153 0.000000 0.000000
0.914053 0.000000 0.000000
0.914952 0.000000 0.000000
0.915852 0.000000 0.000000
0.916751 0.000000 0.000000
0.000000 0.085228 0.000000
0.003592 0.083548 0.000000
0.021201 0.081895 0.000000
0.039441 0.080269 0.000000
0.063683 0.078672 0.000000
0.097637 0.077211 0.000000
0.143946 0.075384 0.000000
0.194630 0.073005 0.000000
0.248642 0.069929 0.000000
0.305210 0.065991 0.000000
0.363918 0.061054 0.000000
0.423907 0.055043 0.000000
0.483122 0.047859 0.000000
0.539141 0.039305 0.000000
0.592045 0.029327 0.000000
0.641792 0.016797 0.000000
0.688236 0.000033 0.000000
0.731165 0.000000 0.000000
0.770314 0.000000 0.000000
0.805379 0.000000 0.000000
0.836030 0.000000 0.000000
0.861918 0.000000 0.000000
0.882676 0.000000 0.000000
0.897927 0.000000 0.000000
0.907286 0.000000 0.000000
0.910452 0.000000 0.000000
0.911353 0.000000 0.000000
0.912253 0.000000 0.000000
0.913153 0.000000 0.000000
0.914053 0.000000 0.000000
0.914952 0.000000 0.000000
0.915852 0.000000 0.000000
0.916751 0.000000 0.000000
0.000000 0.116876 0.000000
0.000000 0.115111 0.000000
0.015758 0.113328 0.000000
0.033428 0.111536 0.000000
0.055120 0.109745 0.000000
0.084932 0.108090 0.000000
0.132731 0.106012 0.000000
0.185586 0.103320 0.000000
0.241554 0.099300 0.000000
0.299684 0.093866 0.000000
0.359691 0.087125 0.000000
0.420697 0.078712 0.000000
0.480839 0.068588 0.000000
0.537530 0.056954 0.000000
0.590912 0.044224 0.000000
0.640998 0.030316 0.000000
0.687685 0.013552 0.000000
0.730787 0.000000 0.000000
0.770058 0.000000 0.000000
0.805210 0.000000 0.000000
0.835922 0.000000 0.000000
0.861851 0.000000 0.000000
0.882637 0.000000 0.000000
0.897907 0.000000 0.000000
0.907278 0.000000 0.000000
0.910451 0.000000 0.000000
0.911352 0.000000 0.000000
0.912253 0.000000 0.000000
0.913153 0.000000 0.000000
0.914052 0.000000 0.000000
0.914952 0.000000 0.000000
0.915852 0.000000 0.000000
0.916751 0.000000 0.000000
0.000000 0.152947 0.000000
0.000000 0.151452 0.000000
0.008812 0.149947 0.000000
0.026422 0.148433 0.000000
0.045710 0.146909 0.000000
0.070809 0.145483 0.000000
0.117584 0.143652 0.000000
0.173489 0.141179 0.000000
0.232167 0.137831 0.000000
0.292437 0.133274 0.000000
0.354174 0.127033 0.000000
0.416533 0.118418 0.000000
0.477878 0.106348 0.000000
0.535450 0.089620 0.000000
0.589452 0.070218 0.000000
0.639978 0.050366 0.000000
0.686979 0.030806 0.000000
0.730303 0.008378 0.000000
0.769731 0.000000 0.000000
0.804993 0.000000 0.000000
0.835783 0.000000 0.000000
0.861765 0.000000 0.000000
0.882588 0.000000 0.000000
0.897882 0.000000 0.000000
0.907269 0.000000 0.000000
0.910450 0.000000 0.000000
0.911351 0.000000 0.000000
0.912252 0.000000 0.000000
0.913152 0.000000 0.000000
0.914052 0.000000 0.000000
0.914952 0.000000 0.000000
0.915851 0.000000 0.000000
0.916751 0.000000 0.000000
0.000000 0.194077 0.000000
0.000000 0.192818 0.000000
0.000000 0.191553 0.000000
0.017129 0.190281 0.000000
0.034885 0.189001 0.000000
0.055335 0.187804 0.000000
0.095724 0.186268 0.000000
0.156302 0.184196 0.000000
0.218958 0.181393 0.000000
0.282388 0.177586 0.000000
0.346571 0.172390 0.000000
0.410835 0.165265 0.000000
0.473834 0.155414 0.000000
0.532623 0.141584 0.000000
0.587475 0.121727 0.000000
0.638602 0.092371 0.000000
0.686026 0.059541 0.000000
0.729651 0.031464 0.000000
0.769292 0.001455 0.000000
0.804703 0.000000 0.000000
0.835596 0.000000 0.000000
0.861650 0.000000 0.000000
0.882521 0.000000 0.000000
0.897848 0.000000 0.000000
0.907256 0.000000 0.000000
0.910449 0.000000 0.000000
0.911350 0.000000 0.000000
0.912251 0.000000 0.000000
0.913152 0.000000 0.000000
0.914052 0.000000 0.000000
0.914952 0.000000 0.000000
0.915851 0.000000 0.000000
0.916751 0.000000 0.000000
0.000000 0.239636 0.000000
0.000000 0.238609 0.000000
0.000000 0.237576 0.000000
0.004696 0.236538 0.000000
0.022306 0.235496 0.000000
0.039304 0.234522 0.000000
0.069301 0.233272 0.000000
0.131258 0.231589 0.000000
0.199969 0.229318 0.000000
0.268229 0.226242 0.000000
0.335973 0.222061 0.000000
0.402970 0.216339 0.000000
0.468265 0.208445 0.000000
0.528760 0.197445 0.000000
0.584789 0.181853 0.000000
0.636738 0.159202 0.000000
0.684741 0.125217 0.000000
0.728773 0.074493 0.000000
0.768701 0.032357 0.000000
0.804313 0.000000 0.000000
0.835346 0.000000 0.000000
0.861496 0.000000 0.000000
0.882432 0.000000 0.000000
0.897802 0.000000 0.000000
0.907239 0.000000 0.000000
0.910447 0.000000 0.000000
0.911349 0.000000 0.000000
0.912250 0.000000 0.000000
0.913151 0.000000 0.000000
0.914051 0.000000 0.000000
0.914951 0.000000 0.000000
0.915851 0.000000 0.000000
0.916750 0.000000 0.000000
0.000000 0.288964 0.000000
0.000000 0.288137 0.000000
0.000000 0.287307 0.000000
0.000000 0.286475 0.000000
0.005672 0.285639 0.000000
0.022057 0.284859 0.000000
0.044375 0.283860 0.000000
0.093065 0.282516 0.000000
0.171820 0.280706 0.000000
0.247780 0.278262 0.000000
0.320937 0.274952 0.000000
0.391985 0.270447 0.000000
0.460516 0.264275 0.000000
0.523439 0.255743 0.000000
0.581117 0.243798 0.000000
0.634203 0.226747 0.000000
0.683000 0.201685 0.000000
0.727588 0.163191 0.000000
0.767904 0.099796 0.000000
0.803788 0.033578 0.000000
0.835009 0.000000 0.000000
0.861289 0.000000 0.000000
0.882313 0.000000 0.000000
0.897741 0.000000 0.000000
0.907215 0.000000 0.000000
0.910445 0.000000 0.000000
0.911347 0.000000 0.000000
0.912249 0.000000 0.000000
0.913150 0.000000 0.000000
0.914050 0.000000 0.000000
0.914951 0.000000 0.000000
0.915850 0.000000 0.000000
0.916750 0.000000 0.000000
0.000000 0.341791 0.000000
0.000000 0.341137 0.000000
0.000000 0.340480 0.000000
0.000000 0.339822 0.000000
0.000000 0.339162 0.000000
0.000000 0.338546 0.000000
0.020714 0.337757 0.000000
0.051892 0.336697 0.000000
0.128138 0.335271 0.000000
0.217128 0.333348 0.000000
0.299106 0.330748 0.000000
0.376364 0.327220 0.000000
0.449561 0.322411 0.000000
0.516031 0.315813 0.000000
0.576056 0.306674 0.000000
0.630736 0.293834 0.000000
0.680631 0.275495 0.000000
0.725980 0.248410 0.000000
0.766827 0.206136 0.000000
0.803080 0.133818 0.000000
0.834556 0.035254 0.000000
0.861010 0.000000 0.000000
0.882152 0.000000 0.000000
0.897659 0.000000 0.000000
0.907184 0.000000 0.000000
0.910441 0.000000 0.000000
0.911345 0.000000 0.000000
0.912247 0.000000 0.000000
0.913148 0.000000 0.000000
0.914049 0.000000 0.000000
0.914950 0.000000 0.000000
0.915850 0.000000 0.000000
0.916750 0.000000 0.000000
0.000000 0.397144 0.000000
0.000000 0.396635 0.000000
0.000000 0.396125 0.000000
0.000000 0.395614 0.000000
0.000000 0.395101 0.000000
0.000000 0.394623 0.000000
0.000000 0.394012 0.000000
0.018917 0.393191 0.000000
0.063558 0.392089 0.000000
0.168281 0.390605 0.000000
0.266264 0.388604 0.000000
0.353569 0.385897 0.000000
0.433715 0.382222 0.000000
0.505554 0.377205 0.000000
0.569007 0.370309 0.000000
0.625956 0.360737 0.000000
0.677388 0.347246 0.000000
0.723793 0.327799 0.000000
0.765367 0.298795 0.000000
0.802122 0.253242 0.000000
0.833944 0.173011 0.000000
0.860634 0.037578 0.000000
0.881936 0.000000 0.000000
0.897549 0.000000 0.000000
0.907142 0.000000 0.000000
0.910437 0.000000 0.000000
0.911341 0.000000 0.000000
0.912245 0.000000 0.000000
0.913147 0.000000 0.000000
0.914048 0.000000 0.000000
0.914949 0.000000 0.000000
0.915849 0.000000 0.000000
0.916749 0.000000 0.000000
0.000000 0.454070 0.000000
0.000000 0.453689 0.000000
0.000000 0.453307 0.000000
0.000000 0.452925 0.000000
0.000000 0.452541 0.000000
0.000000 0.452184 0.000000
0.000000 0.451726 0.000000
0.000000 0.451113 0.000000
0.016512 0.450288 0.000000
0.083245 0.449178 0.000000
0.213238 0.447682 0.000000
0.318845 0.445660 0.000000
0.410209 0.442917 0.000000
0.490391 0.439178 0.000000
0.559027 0.434044 0.000000
0.619291 0.426935 0.000000
0.672913 0.417035 0.000000
0.720796 0.403054 0.000000
0.763378 0.382826 0.000000
0.800822 0.352468 0.000000
0.833116 0.303989 0.000000
0.860127 0.217024 0.000000
0.881644 0.040807 0.000000
0.897399 0.000000 0.000000
0.907085 0.000000 0.000000
0.910431 0.000000 0.000000
0.911337 0.000000 0.000000
0.912241 0.000000 0.000000
0.913144 0.000000 0.000000
0.914046 0.000000 0.000000
0.914947 0.000000 0.000000
0.915848 0.000000 0.000000
0.916748 0.000000 0.000000
0.000000 0.509398 0.000000
0.000000 0.509125 0.000000
0.000000 0.508851 0.000000
0.000000 0.508578 0.000000
0.000000 0.508303 0.000000
0.000000 0.508047 0.000000
0.000000 0.507721 0.000000
0.000000 0.507282 0.000000
0.000000 0.506694 0.000000
0.013295 0.505903 0.000000
0.115213 0.504839 0.000000
0.262085 0.503405 0.000000
0.374185 0.501466 0.000000
0.467651 0.498836 0.000000
0.544568 0.495249 0.000000
0.609844 0.490325 0.000000
0.666666 0.483498 0.000000
0.716655 0.473902 0.000000
0.760650 0.460141 0.000000
0.799050 0.439793 0.000000
0.831991 0.408471 0.000000
0.859440 0.357922 0.000000
0.881250 0.265014 0.000000
0.897198 0.045347 0.000000
0.907008 0.000000 0.000000
0.910423 0.000000 0.000000
0.911331 0.000000 0.000000
0.912237 0.000000 0.000000
0.913141 0.000000 0.000000
0.914044 0.000000 0.000000
0.914945 0.000000 0.000000
0.915847 0.000000 0.000000
0.916747 0.000000 0.000000
0.000000 0.562354 0.000000
0.000000 0.562159 0.000000
0.000000 0.561964 0.000000
0.000000 0.561769 0.000000
0.000000 0.561574 0.000000
0.000000 0.561391 0.000000
0.000000 0.561159 0.000000
0.000000 0.560847 0.000000
0.000000 0.560428 0.000000
0.000000 0.559867 0.000000
0.008991 0.559112 0.000000
0.153637 0.558097 0.000000
0.314393 0.556727 0.000000
0.431479 0.554876 0.000000
0.522852 0.552364 0.000000
0.596134 0.548938 0.000000
0.657798 0.544232 0.000000
0.710866 0.537704 0.000000
0.756875 0.528524 0.000000
0.796616 0.515346 0.000000
0.830455 0.495840 0.000000
0.858504 0.465501 0.000000
0.880714 0.414122 0.000000
0.896924 0.316603 0.000000
0.906902 0.052005 0.000000
0.910412 0.000000 0.000000
0.911323 0.000000 0.000000
0.912231 0.000000 0.000000
0.913136 0.000000 0.000000
0.914040 0.000000 0.000000
0.914943 0.000000 0.000000
0.915845 0.000000 0.000000
0.916746 0.000000 0.000000
0.000000 0.612757 0.000000
0.000000 0.612619 0.000000
0.000000 0.612481 0.000000
0.000000 0.612342 0.000000
0.000000 0.612204 0.000000
0.000000 0.612075 0.000000
0.000000 0.611910 0.000000
0.000000 0.611689 0.000000
0.000000 0.611394 0.000000
0.000000 0.610997 0.000000
0.000000 0.610464 0.000000
0.003233 0.609749 0.000000
0.197000 0.608786 0.000000
0.369542 0.607487 0.000000
0.488251 0.605730 0.000000
0.575498 0.603346 0.000000
0.644899 0.600092 0.000000
0.702630 0.595621 0.000000
0.751587 0.589415 0.000000
0.793242 0.580678 0.000000
0.828341 0.568121 0.000000
0.857224 0.549502 0.000000
0.879983 0.520480 0.000000
0.896552 0.471053 0.000000
0.906759 0.371136 0.000000
0.910398 0.062139 0.000000
0.911312 0.000000 0.000000
0.912223 0.000000 0.000000
0.913130 0.000000 0.000000
0.914036 0.000000 0.000000
0.914940 0.000000 0.000000
0.915842 0.000000 0.000000
0.916744 0.000000 0.000000
0.000000 0.660367 0.000000
0.000000 0.660270 0.000000
0.000000 0.660173 0.000000
0.000000 0.660076 0.000000
0.000000 0.659978 0.000000
0.000000 0.659888 0.000000
0.000000 0.659772 0.000000
0.000000 0.659617 0.000000
0.000000 0.659410 0.000000
0.000000 0.659132 0.000000
0.000000 0.658759 0.000000
0.000000 0.658258 0.000000
0.000000 0.657585 0.000000
0.244566 0.656679 0.000000
0.426698 0.655457 0.000000
0.542525 0.653804 0.000000
0.625429 0.651559 0.000000
0.690619 0.648494 0.000000
0.744045 0.644280 0.000000
0.788502 0.638424 0.000000
0.825402 0.630170 0.000000
0.855457 0.618288 0.000000
0.878978 0.600628 0.000000
0.896040 0.573015 0.000000
0.906560 0.525797 0.000000
0.910379 0.427790 0.000000
0.911298 0.078821 0.000000
0.912212 0.000000 0.000000
0.913123 0.000000 0.000000
0.914030 0.000000 0.000000
0.914935 0.000000 0.000000
0.915839 0.000000 0.000000
0.916742 0.000000 0.000000
0.000000 0.704902 0.000000
0.000000 0.704834 0.000000
0.000000 0.704767 0.000000
0.000000 0.704699 0.000000
0.000000 0.704632 0.000000
0.000000 0.704569 0.000000
0.000000 0.704489 0.000000
0.000000 0.704381 0.000000
0.000000 0.704237 0.000000
0.000000 0.704044 0.000000
0.000000 0.703785 0.000000
0.000000 0.703438 0.000000
0.000000 0.702973 0.000000
0.000000 0.702346 0.000000
0.295664 0.701503 0.000000
0.483667 0.700366 0.000000
0.594195 0.698826 0.000000
0.672419 0.696735 0.000000
0.733006 0.693878 0.000000
0.781718 0.689946 0.000000
0.821259 0.684475 0.000000
0.852990 0.676752 0.000000
0.877586 0.665609 0.000000
0.895332 0.648999 0.000000
0.906283 0.622922 0.000000
0.910353 0.578081 0.000000
0.911279 0.484320 0.000000
0.912198 0.106507 0.000000
0.913112 0.000000 0.000000
0.914022 0.000000 0.000000
0.914929 0.000000 0.000000
0.915835 0.000000 0.000000
0.916738 0.000000 0.000000
0.000000 0.746048 0.000000
0.000000 0.746002 0.000000
0.000000 0.745956 0.000000
0.000000 0.745909 0.000000
0.000000 0.745863 0.000000
0.000000 0.745820 0.000000
0.000000 0.745765 0.000000
0.000000 0.745691 0.000000
0.000000 0.745593 0.000000
0.000000 0.745461 0.000000
0.000000 0.745284 0.000000
0.000000 0.745046 0.000000
0.000000 0.744728 0.000000
0.000000 0.744301 0.000000
0.000000 0.743726 0.000000
0.349960 0.742952 0.000000
0.538150 0.741908 0.000000
0.643073 0.740493 0.000000
0.716197 0.738571 0.000000
0.771742 0.735942 0.000000
0.815302 0.732320 0.000000
0.849496 0.727274 0.000000
0.875630 0.720134 0.000000
0.894342 0.709805 0.000000
0.905893 0.694349 0.000000
0.910317 0.669959 0.000000
0.911253 0.627715 0.000000
0.912179 0.538491 0.000000
0.913098 0.141776 0.000000
0.914011 0.000000 0.000000
0.914921 0.000000 0.000000
0.915829 0.000000 0.000000
0.916734 0.000000 0.000000
0.000000 0.783468 0.000000
0.000000 0.783437 0.000000
0.000000 0.783406 0.000000
0.000000 0.783375 0.000000
0.000000 0.783344 0.000000
0.000000 0.783315 0.000000
0.000000 0.783278 0.000000
0.000000 0.783228 0.000000
0.000000 0.783162 0.000000
0.000000 0.783073 0.000000
0.000000 0.782954 0.000000
0.000000 0.782795 0.000000
0.000000 0.782581 0.000000
0.000000 0.782294 0.000000
0.000000 0.781909 0.000000
0.000000 0.781390 0.000000
0.406478 0.780692 0.000000
0.590041 0.779750 0.000000
0.688915 0.778473 0.000000
0.756458 0.776736 0.000000
0.806487 0.774358 0.000000
0.844437 0.771076 0.000000
0.872836 0.766495 0.000000
0.892935 0.759997 0.000000
0.905334 0.750562 0.000000
0.910265 0.736376 0.000000
0.911218 0.713840 0.000000
0.912153 0.674452 0.000000
0.913078 0.590163 0.000000
0.913997 0.182071 0.000000
0.914911 0.000000 0.000000
0.915821 0.000000 0.000000
0.916728 0.000000 0.000000
0.000000 0.816807 0.000000
0.000000 0.816787 0.000000
0.000000 0.816766 0.000000
0.000000 0.816746 0.000000
0.000000 0.816725 0.000000
0.000000 0.816706 0.000000
0.000000 0.816682 0.000000
0.000000 0.816649 0.000000
0.000000 0.816606 0.000000
0.000000 0.816548 0.000000
0.000000 0.816469 0.000000
0.000000 0.816365 0.000000
0.000000 0.816224 0.000000
0.000000 0.816036 0.000000
0.000000 0.815784 0.000000
0.000000 0.815444 0.000000
0.000000 0.814988 0.000000
0.463981 0.814373 0.000000
0.639157 0.813542 0.000000
0.731436 0.812415 0.000000
0.792868 0.810880 0.000000
0.836884 0.808776 0.000000
0.868748 0.805867 0.000000
0.890895 0.801796 0.000000
0.904515 0.796000 0.000000
0.910166 0.787544 0.000000
0.911170 0.774750 0.000000
0.912117 0.754253 0.000000
0.913052 0.718004 0.000000
0.913978 0.639130 0.000000
0.914896 0.226986 0.000000
0.915810 0.000000 0.000000
0.916720 0.000000 0.000000
0.000000 0.845696 0.000000
0.000000 0.845683 0.000000
0.000000 0.845670 0.000000
0.000000 0.845657 0.000000
0.000000 0.845644 0.000000
0.000000 0.845632 0.000000
0.000000 0.845617 0.000000
0.000000 0.845596 0.000000
0.000000 0.845568 0.000000
0.000000 0.845531 0.000000
0.000000 0.845481 0.000000
0.000000 0.845415 0.000000
0.000000 0.845326 0.000000
0.000000 0.845206 0.000000
0.000000 0.845046 0.000000
0.000000 0.844831 0.000000
0.000000 0.844541 0.000000
0.000000 0.844152 0.000000
0.519344 0.843627 0.000000
0.685260 0.842918 0.000000
0.770320 0.841954 0.000000
0.825076 0.840640 0.000000
0.862560 0.838834 0.000000
0.887852 0.836330 0.000000
0.903282 0.832814 0.000000
0.909974 0.827783 0.000000
0.911105 0.820396 0.000000
0.912070 0.809124 0.000000
0.913017 0.790857 0.000000
0.913952 0.758055 0.000000
0.914877 0.685135 0.000000
0.915796 0.275753 0.000000
0.916709 0.000000 0.000000
0.000000 0.869756 0.000000
0.000000 0.869748 0.000000
0.000000 0.869740 0.000000
0.000000 0.869732 0.000000
0.000000 0.869725 0.000000
0.000000 0.869717 0.000000
0.000000 0.869708 0.000000
0.000000 0.869695 0.000000
0.000000 0.869679 0.000000
0.000000 0.869656 0.000000
0.000000 0.869626 0.000000
0.000000 0.869586 0.000000
0.000000 0.869532 0.000000
0.000000 0.869459 0.000000
0.000000 0.869362 0.000000
0.000000 0.869232 0.000000
0.000000 0.869057 0.000000
0.000000 0.868822 0.000000
0.000000 0.868506 0.000000
0.572160 0.868079 0.000000
0.728066 0.867500 0.000000
0.805225 0.866713 0.000000
0.852716 0.865638 0.000000
0.883135 0.864155 0.000000
0.901360 0.862091 0.000000
0.909602 0.859176 0.000000
0.911016 0.854976 0.000000
0.912005 0.848750 0.000000
0.912970 0.839132 0.000000
0.913917 0.823297 0.000000
0.914851 0.794263 0.000000
0.915776 0.727883 0.000000
0.916695 0.328074 0.000000
0.000000 0.888601 0.000000
0.000000 0.888596 0.000000
0.000000 0.888592 0.000000
0.000000 0.888587 0.000000
0.000000 0.888583 0.000000
0.000000 0.888579 0.000000
0.000000 0.888574 0.000000
0.000000 0.888567 0.000000
0.000000 0.888557 0.000000
0.000000 0.888545 0.000000
0.000000 0.888528 0.000000
0.000000 0.888505 0.000000
0.000000 0.888475 0.000000
0.000000 0.888435 0.000000
0.000000 0.888380 0.000000
0.000000 0.888308 0.000000
0.000000 0.888210 0.000000
0.000000 0.888079 0.000000
0.000000 0.887902 0.000000
0.000000 0.887664 0.000000
0.622273 0.887342 0.000000
0.767262 0.886905 0.000000
0.835796 0.886309 0.000000
0.875411 0.885490 0.000000
0.898223 0.884356 0.000000
0.908877 0.882767 0.000000
0.910893 0.880501 0.000000
0.911916 0.877197 0.000000
0.912905 0.872227 0.000000
0.913869 0.864400 0.000000
0.914816 0.851203 0.000000
0.915750 0.826270 0.000000
0.916676 0.767049 0.000000
0.000000 0.901837 0.000000
0.000000 0.901835 0.000000
0.000000 0.901833 0.000000
0.000000 0.901831 0.000000
0.000000 0.901829 0.000000
0.000000 0.901827 0.000000
0.000000 0.901824 0.000000
0.000000 0.901821 0.000000
0.000000 0.901817 0.000000
0.000000 0.901811 0.000000
0.000000 0.901803 0.000000
0.000000 0.901792 0.000000
0.000000 0.901777 0.000000
0.000000 0.901758 0.000000
0.000000 0.901732 0.000000
0.000000 0.901697 0.000000
0.000000 0.901651 0.000000
0.000000 0.901588 0.000000
0.000000 0.901503 0.000000
0.000000 0.901390 0.000000
0.000000 0.901236 0.000000
0.669462 0.901026 0.000000
0.802508 0.900741 0.000000
0.861661 0.900350 0.000000
0.892777 0.899807 0.000000
0.907428 0.899048 0.000000
0.910720 0.897967 0.000000
0.911793 0.896399 0.000000
0.912816 0.894060 0.000000
0.913804 0.890440 0.000000
0.914768 0.884545 0.000000
0.915715 0.874195 0.000000
0.916650 0.853706 0.000000
0.000000 0.909070 0.000000
0.000000 0.909070 0.000000
0.000000 0.909069 0.000000
0.000000 0.909068 0.000000
0.000000 0.909068 0.000000
0.000000 0.909067 0.000000
0.000000 0.909066 0.000000
0.000000 0.909065 0.000000
0.000000 0.909064 0.000000
0.000000 0.909062 0.000000
0.000000 0.909060 0.000000
0.000000 0.909057 0.000000
0.000000 0.909052 0.000000
0.000000 0.909046 0.000000
0.000000 0.909039 0.000000
0.000000 0.909028 0.000000
0.000000 0.909014 0.000000
0.000000 0.908996 0.000000
0.000000 0.908970 0.000000
0.000000 0.908936 0.000000
0.000000 0.908889 0.000000
0.000000 0.908824 0.000000
0.713458 0.908736 0.000000
0.833450 0.908613 0.000000
0.882441 0.908440 0.000000
0.904421 0.908193 0.000000
0.910472 0.907834 0.000000
0.911620 0.907298 0.000000
0.912692 0.906476 0.000000
0.913715 0.905170 0.000000
0.914704 0.902998 0.000000
0.915668 0.899174 0.000000
0.916615 0.891887 0.000000
0.000000 0.910760 0.000000
0.000000 0.910760 0.000000
0.000000 0.910760 0.000000
0.000000 0.910760 0.000000
0.000000 0.910760 0.000000
0.000000 0.910760 0.000000
0.000000 0.910760 0.000000
0.000000 0.910760 0.000000
0.000000 0.910759 0.000000
0.000000 0.910759 0.000000
0.000000 0.910759 0.000000
0.000000 0.910758 0.000000
0.000000 0.910758 0.000000
0.000000 0.910757 0.000000
0.000000 0.910755 0.000000
0.000000 0.910754 0.000000
0.000000 0.910751 0.000000
0.000000 0.910748 0.000000
0.000000 0.910744 0.000000
0.000000 0.910739 0.000000
0.000000 0.910732 0.000000
0.000000 0.910722 0.000000
0.000000 0.910709 0.000000
