Postproduction/IWLTBAP - Humble/LUTs by IWLTBAP (CUBE)/UTILITY/Alexa Log-C to Rec.709/U-ALEXA-LOG-C-V3-LTR.cube
# Copyright: (C) Copyright 2010-2018 by IWLTBAP SAS
# Cannot be resold, shared or otherwise redistributed
# Website: https://luts.iwltbap.com
TITLE "Alexa Log-C Version 3 (Utility LOG to Rec.709)"
LUT_3D_SIZE 9
0.009379 0.009379 0.009379
0.114112 0.006306 0.008460
0.276800 0.001825 0.007120
0.494536 0.000000 0.002859
0.719387 0.000000 0.000000
0.894308 0.000000 0.000000
0.982249 0.000000 0.000000
0.998119 0.000000 0.000000
1.002800 0.000000 0.000000
0.000000 0.085228 0.000000
0.063683 0.078672 0.000000
0.248642 0.069929 0.000000
0.484510 0.047859 0.000000
0.716609 0.000033 0.000000
0.893752 0.000000 0.000000
0.982194 0.000000 0.000000
0.998117 0.000000 0.000000
1.002799 0.000000 0.000000
0.000000 0.239636 0.000000
0.022306 0.235496 0.000000
0.199969 0.229318 0.000000
0.468967 0.208445 0.000000
0.712456 0.125217 0.000000
0.892933 0.000000 0.000000
0.982114 0.000000 0.000000
0.998114 0.000000 0.000000
1.002798 0.000000 0.000000
0.000000 0.454343 0.000000
0.000000 0.452780 0.000000
0.016512 0.450481 0.000000
0.410209 0.442997 0.000000
0.698294 0.417035 0.000000
0.890266 0.303989 0.000000
0.981855 0.000000 0.000000
0.998105 0.000000 0.000000
1.002795 0.000000 0.000000
0.000000 0.683386 0.000000
0.000000 0.682927 0.000000
0.000000 0.682257 0.000000
0.000000 0.680107 0.000000
0.642503 0.673024 0.000000
0.881016 0.648016 0.000000
0.980996 0.530262 0.000000
0.998076 0.000000 0.000000
1.002787 0.000000 0.000000
0.000000 0.870664 0.000000
0.000000 0.870565 0.000000
0.000000 0.870421 0.000000
0.000000 0.869960 0.000000
0.000000 0.868464 0.000000
0.841520 0.863483 0.000000
0.977849 0.845346 0.000000
0.997981 0.751305 0.000000
1.002758 0.000000 0.000000
0.000000 0.973984 0.000000
0.000000 0.973972 0.000000
0.000000 0.973955 0.000000
0.000000 0.973900 0.000000
0.000000 0.973722 0.000000
0.000000 0.973144 0.000000
0.961982 0.971184 0.000000
0.997655 0.963616 0.000000
1.002667 0.914867 0.000000
0.000000 0.997308 0.000000
0.000000 0.997308 0.000000
0.000000 0.997307 0.000000
0.000000 0.997306 0.000000
0.000000 0.997302 0.000000
0.000000 0.997287 0.000000
0.000000 0.997240 0.000000
0.996261 0.997079 0.000000
1.002359 0.996411 0.000000
0.000000 1.002025 0.000000
0.000000 1.002025 0.000000
0.000000 1.002025 0.000000
0.000000 1.002025 0.000000
0.000000 1.002023 0.000000
0.000000 1.002019 0.000000
0.000000 1.002005 0.000000
0.000000 1.001958 0.000000
1.001174 1.001807 0.000000
0.005885 0.000000 0.077249
0.106027 0.000000 0.075408
0.272812 0.000000 0.072800
0.493070 0.000000 0.065032
0.718976 0.000000 0.045108
0.894226 0.000000 0.000000
0.982241 0.000000 0.000000
0.998119 0.000000 0.000000
1.002799 0.000000 0.000000
0.000000 0.062973 0.059472
0.058042 0.058042 0.058042
0.244118 0.051556 0.056018
0.482969 0.034302 0.050036
0.716190 0.000000 0.033748
0.893669 0.000000 0.000000
0.982186 0.000000 0.000000
0.998117 0.000000 0.000000
1.002799 0.000000 0.000000
0.000000 0.223736 0.040164
0.018812 0.219287 0.039102
0.194338 0.212633 0.037575
0.467309 0.190089 0.032955
0.712022 0.098819 0.019262
0.892849 0.000000 0.000000
0.982105 0.000000 0.000000
0.998114 0.000000 0.000000
1.002798 0.000000 0.000000
0.000000 0.448436 0.000000
0.000000 0.446829 0.000000
0.013018 0.444464 0.000000
0.408021 0.436754 0.000000
0.697815 0.409980 0.000000
0.890179 0.292093 0.000000
0.981847 0.000000 0.000000
0.998105 0.000000 0.000000
1.002795 0.000000 0.000000
0.000000 0.681665 0.000000
0.000000 0.681202 0.000000
0.000000 0.680524 0.000000
0.000000 0.678351 0.000000
0.641836 0.671191 0.000000
0.880917 0.645882 0.000000
0.980987 0.526197 0.000000
0.998076 0.000000 0.000000
1.002787 0.000000 0.000000
0.000000 0.870293 0.000000
0.000000 0.870194 0.000000
0.000000 0.870049 0.000000
0.000000 0.869586 0.000000
0.000000 0.868083 0.000000
0.841365 0.863079 0.000000
0.977838 0.844855 0.000000
0.997981 0.750284 0.000000
1.002758 0.000000 0.000000
0.000000 0.973940 0.000000
0.000000 0.973928 0.000000
0.000000 0.973910 0.000000
0.000000 0.973855 0.000000
0.000000 0.973678 0.000000
0.000000 0.973098 0.000000
0.961961 0.971134 0.000000
0.997655 0.963550 0.000000
1.002667 0.914666 0.000000
0.000000 0.997307 0.000000
0.000000 0.997307 0.000000
0.000000 0.997306 0.000000
0.000000 0.997305 0.000000
0.000000 0.997300 0.000000
0.000000 0.997286 0.000000
0.000000 0.997238 0.000000
0.996260 0.997078 0.000000
1.002359 0.996409 0.000000
0.000000 1.002025 0.000000
0.000000 1.002025 0.000000
0.000000 1.002025 0.000000
0.000000 1.002024 0.000000
0.000000 1.002023 0.000000
0.000000 1.002018 0.000000
0.000000 1.002004 0.000000
0.000000 1.001958 0.000000
1.001174 1.001806 0.000000
0.000791 0.000000 0.226913
0.093747 0.000000 0.225611
0.266868 0.000000 0.223699
0.490914 0.000000 0.217504
0.718374 0.000000 0.196425
0.894105 0.000000 0.112342
0.982229 0.000000 0.000000
0.998118 0.000000 0.000000
1.002799 0.000000 0.000000
0.000000 0.039932 0.212488
0.050721 0.036440 0.211098
0.237352 0.031686 0.209055
0.480702 0.017429 0.202439
0.715576 0.000000 0.179862
0.893547 0.000000 0.088961
0.982174 0.000000 0.000000
0.998116 0.000000 0.000000
1.002799 0.000000 0.000000
0.000000 0.198316 0.189665
0.013717 0.193335 0.188129
0.185872 0.185872 0.185872
0.464869 0.160395 0.178539
0.711388 0.063834 0.153404
0.892726 0.000000 0.060939
0.982093 0.000000 0.000000
0.998114 0.000000 0.000000
1.002798 0.000000 0.000000
0.000000 0.439514 0.097745
0.000000 0.437836 0.095465
0.007923 0.435363 0.092223
0.404791 0.427300 0.082684
0.697113 0.399264 0.057660
0.890051 0.273612 0.008935
0.981835 0.000000 0.000000
0.998105 0.000000 0.000000
1.002795 0.000000 0.000000
0.000000 0.679123 0.000000
0.000000 0.678653 0.000000
0.000000 0.677965 0.000000
0.000000 0.675758 0.000000
0.640860 0.668482 0.000000
0.880773 0.642723 0.000000
0.980974 0.520124 0.000000
0.998076 0.000000 0.000000
1.002786 0.000000 0.000000
0.000000 0.869750 0.000000
0.000000 0.869650 0.000000
0.000000 0.869504 0.000000
0.000000 0.869037 0.000000
0.000000 0.867525 0.000000
0.841139 0.862486 0.000000
0.977822 0.844134 0.000000
0.997981 0.748779 0.000000
1.002758 0.000000 0.000000
0.000000 0.973875 0.000000
0.000000 0.973863 0.000000
0.000000 0.973846 0.000000
0.000000 0.973790 0.000000
0.000000 0.973612 0.000000
0.000000 0.973031 0.000000
0.961930 0.971061 0.000000
0.997655 0.963452 0.000000
1.002667 0.914372 0.000000
0.000000 0.997305 0.000000
0.000000 0.997305 0.000000
0.000000 0.997305 0.000000
0.000000 0.997303 0.000000
0.000000 0.997299 0.000000
0.000000 0.997284 0.000000
0.000000 0.997237 0.000000
0.996259 0.997076 0.000000
1.002358 0.996406 0.000000
0.000000 1.002024 0.000000
0.000000 1.002024 0.000000
0.000000 1.002024 0.000000
0.000000 1.002024 0.000000
0.000000 1.002022 0.000000
0.000000 1.002018 0.000000
0.000000 1.002004 0.000000
0.000000 1.001957 0.000000
1.001173 1.001806 0.000000
0.000000 0.000000 0.440339
0.061364 0.000000 0.439840
0.246848 0.000000 0.439111
0.483896 0.000000 0.436776
0.716442 0.000000 0.429110
0.893719 0.000000 0.402560
0.982191 0.000000 0.286133
0.998117 0.000000 0.000000
1.002799 0.000000 0.000000
0.000000 0.000000 0.434913
0.031634 0.000000 0.434401
0.214355 0.000000 0.433653
0.473327 0.000000 0.431254
0.713605 0.000000 0.423384
0.893158 0.000000 0.396087
0.982136 0.000000 0.275134
0.998115 0.000000 0.000000
1.002798 0.000000 0.000000
0.000000 0.092377 0.426741
0.000000 0.085415 0.426209
0.156695 0.075988 0.425431
0.456915 0.052112 0.422939
0.709347 0.003191 0.414763
0.892333 0.000000 0.386294
0.982055 0.000000 0.258082
0.998112 0.000000 0.000000
1.002797 0.000000 0.000000
0.000000 0.408341 0.398516
0.000000 0.406401 0.397911
0.000000 0.403541 0.397026
0.394187 0.394187 0.394187
0.694864 0.361207 0.384837
0.889643 0.202179 0.351871
0.981796 0.000000 0.193191
0.998103 0.000000 0.000000
1.002795 0.000000 0.000000
0.000000 0.670771 0.271671
0.000000 0.670277 0.270605
0.000000 0.669553 0.269042
0.000000 0.667230 0.263997
0.637721 0.659553 0.247024
0.880312 0.632290 0.181952
0.980933 0.499495 0.000000
0.998074 0.000000 0.000000
1.002786 0.000000 0.000000
0.000000 0.867996 0.000000
0.000000 0.867894 0.000000
0.000000 0.867745 0.000000
0.000000 0.867268 0.000000
0.000000 0.865723 0.000000
0.840414 0.860574 0.000000
0.977771 0.841805 0.000000
0.997979 0.743847 0.000000
1.002758 0.000000 0.000000
0.000000 0.973667 0.000000
0.000000 0.973655 0.000000
0.000000 0.973638 0.000000
0.000000 0.973582 0.000000
0.000000 0.973402 0.000000
0.000000 0.972815 0.000000
0.961831 0.970826 0.000000
0.997653 0.963141 0.000000
1.002666 0.913427 0.000000
0.000000 0.997300 0.000000
0.000000 0.997300 0.000000
0.000000 0.997299 0.000000
0.000000 0.997298 0.000000
0.000000 0.997293 0.000000
0.000000 0.997279 0.000000
0.000000 0.997231 0.000000
0.996256 0.997070 0.000000
1.002358 0.996397 0.000000
0.000000 1.002023 0.000000
0.000000 1.002023 0.000000
0.000000 1.002023 0.000000
0.000000 1.002022 0.000000
0.000000 1.002021 0.000000
0.000000 1.002016 0.000000
0.000000 1.002002 0.000000
0.000000 1.001956 0.000000
1.001173 1.001804 0.000000
0.000000 0.000000 0.670584
0.003114 0.000000 0.670436
0.167171 0.000000 0.670220
0.459698 0.000000 0.669532
0.710056 0.000000 0.667307
0.892469 0.000000 0.659963
0.982068 0.000000 0.634000
0.998113 0.000000 0.510675
1.002798 0.000000 0.000000
0.000000 0.000000 0.668987
0.000000 0.000000 0.668837
0.120032 0.000000 0.668619
0.447815 0.000000 0.667924
0.707067 0.000000 0.665676
0.891898 0.000000 0.658257
0.982013 0.000000 0.632017
0.998111 0.000000 0.506829
1.002797 0.000000 0.000000
0.000000 0.000000 0.666629
0.000000 0.000000 0.666477
0.051365 0.000000 0.666256
0.429175 0.000000 0.665551
0.702590 0.000000 0.663270
0.891058 0.000000 0.655736
0.981931 0.000000 0.629086
0.998108 0.000000 0.501087
1.002796 0.000000 0.000000
0.000000 0.261360 0.658893
0.000000 0.257606 0.658734
0.000000 0.252016 0.658502
0.356282 0.233254 0.657762
0.687467 0.159821 0.655368
0.888321 0.000000 0.647457
0.981670 0.000000 0.619426
0.998099 0.000000 0.481638
1.002793 0.000000 0.000000
0.000000 0.640735 0.631408
0.000000 0.640144 0.631222
0.000000 0.639277 0.630950
0.000000 0.636494 0.630083
0.627276 0.627276 0.627276
0.878817 0.594024 0.617971
0.980800 0.414647 0.584383
0.998070 0.000000 0.403427
1.002785 0.000000 0.000000
0.000000 0.862117 0.496988
0.000000 0.862007 0.496609
0.000000 0.861847 0.496054
0.000000 0.861336 0.494279
0.000000 0.859680 0.488482
0.838057 0.854156 0.468731
0.977606 0.833935 0.389199
0.997975 0.726206 0.000000
1.002757 0.000000 0.000000
0.000000 0.972989 0.000000
0.000000 0.972976 0.000000
0.000000 0.972958 0.000000
0.000000 0.972901 0.000000
0.000000 0.972715 0.000000
0.000000 0.972110 0.000000
0.961512 0.970056 0.000000
0.997648 0.962124 0.000000
1.002665 0.910302 0.000000
0.000000 0.997283 0.000000
0.000000 0.997283 0.000000
0.000000 0.997282 0.000000
0.000000 0.997281 0.000000
0.000000 0.997276 0.000000
0.000000 0.997262 0.000000
0.000000 0.997214 0.000000
0.996247 0.997050 0.000000
1.002356 0.996369 0.000000
0.000000 1.002018 0.000000
0.000000 1.002018 0.000000
0.000000 1.002017 0.000000
0.000000 1.002017 0.000000
0.000000 1.002016 0.000000
0.000000 1.002011 0.000000
0.000000 1.001997 0.000000
0.000000 1.001950 0.000000
1.001171 1.001798 0.000000
0.000000 0.000000 0.861768
0.000000 0.000000 0.861736
0.000000 0.000000 0.861688
0.356030 0.000000 0.861535
0.687421 0.000000 0.861044
0.888312 0.000000 0.859452
0.981669 0.000000 0.854154
0.998099 0.000000 0.834873
1.002793 0.000000 0.735105
0.000000 0.000000 0.861414
0.000000 0.000000 0.861381
0.000000 0.000000 0.861333
0.336536 0.000000 0.861180
0.683984 0.000000 0.860687
0.887708 0.000000 0.859088
0.981612 0.000000 0.853768
0.998097 0.000000 0.834401
1.002793 0.000000 0.734077
0.000000 0.000000 0.860895
0.000000 0.000000 0.860862
0.000000 0.000000 0.860813
0.304623 0.000000 0.860659
0.678844 0.000000 0.860163
0.886819 0.000000 0.858555
0.981529 0.000000 0.853204
0.998094 0.000000 0.833710
1.002792 0.000000 0.732561
0.000000 0.000000 0.859224
0.000000 0.000000 0.859190
0.000000 0.000000 0.859141
0.156506 0.000000 0.858983
0.661345 0.000000 0.858478
0.883919 0.000000 0.856839
0.981260 0.000000 0.851384
0.998085 0.000000 0.831477
1.002789 0.000000 0.727602
0.000000 0.484385 0.853650
0.000000 0.483030 0.853615
0.000000 0.481038 0.853562
0.000000 0.474575 0.853395
0.588949 0.452444 0.852858
0.873828 0.360445 0.851116
0.980365 0.000000 0.845315
0.998056 0.000000 0.823928
1.002781 0.000000 0.710298
0.000000 0.840213 0.833225
0.000000 0.840075 0.833181
0.000000 0.839873 0.833116
0.000000 0.839228 0.832909
0.000000 0.837131 0.832244
0.830079 0.830079 0.830079
0.977068 0.803475 0.822773
0.997960 0.647344 0.795559
1.002752 0.000000 0.636383
0.000000 0.970667 0.723918
0.000000 0.970653 0.723814
0.000000 0.970633 0.723661
0.000000 0.970569 0.723175
0.000000 0.970364 0.721604
0.000000 0.969694 0.716449
0.960468 0.967418 0.698449
0.997632 0.958627 0.622323
1.002661 0.899151 0.000000
0.000000 0.997228 0.000000
0.000000 0.997227 0.000000
0.000000 0.997227 0.000000
0.000000 0.997225 0.000000
0.000000 0.997221 0.000000
0.000000 0.997205 0.000000
0.000000 0.997156 0.000000
0.996217 0.996985 0.000000
1.002352 0.996274 0.000000
0.000000 1.002001 0.000000
0.000000 1.002001 0.000000
0.000000 1.002001 0.000000
0.000000 1.002000 0.000000
0.000000 1.001999 0.000000
0.000000 1.001994 0.000000
0.000000 1.001980 0.000000
0.000000 1.001933 0.000000
1.001165 1.001781 0.000000
0.000000 0.000000 0.970500
0.000000 0.000000 0.970496
0.000000 0.000000 0.970490
0.000000 0.000000 0.970471
0.583935 0.000000 0.970409
0.873229 0.000000 0.970211
0.980313 0.000000 0.969565
0.998054 0.000000 0.967378
1.002780 0.000000 0.958996
0.000000 0.000000 0.970455
0.000000 0.000000 0.970451
0.000000 0.000000 0.970445
0.000000 0.000000 0.970426
0.577664 0.000000 0.970364
0.872496 0.000000 0.970166
0.980251 0.000000 0.969519
0.998052 0.000000 0.967327
1.002779 0.000000 0.958930
0.000000 0.000000 0.970391
0.000000 0.000000 0.970386
0.000000 0.000000 0.970380
0.000000 0.000000 0.970361
0.568128 0.000000 0.970299
0.871416 0.000000 0.970100
0.980159 0.000000 0.969451
0.998050 0.000000 0.967254
1.002779 0.000000 0.958834
0.000000 0.000000 0.970183
0.000000 0.000000 0.970179
0.000000 0.000000 0.970172
0.000000 0.000000 0.970153
0.534074 0.000000 0.970091
0.867882 0.000000 0.969890
0.979864 0.000000 0.969235
0.998040 0.000000 0.967019
1.002776 0.000000 0.958526
0.000000 0.000000 0.969505
0.000000 0.000000 0.969501
0.000000 0.000000 0.969494
0.000000 0.000000 0.969474
0.356029 0.000000 0.969410
0.855452 0.000000 0.969204
0.978877 0.000000 0.968531
0.998011 0.000000 0.966253
1.002767 0.000000 0.957520
0.000000 0.712484 0.967203
0.000000 0.712103 0.967198
0.000000 0.711545 0.967191
0.000000 0.709754 0.967169
0.000000 0.703847 0.967099
0.799316 0.683298 0.966874
0.975227 0.593240 0.966140
0.997913 0.000000 0.963654
1.002739 0.000000 0.954090
0.000000 0.961408 0.958303
0.000000 0.961389 0.958297
0.000000 0.961361 0.958288
0.000000 0.961273 0.958259
0.000000 0.960988 0.958166
0.000000 0.960057 0.957866
0.956888 0.956888 0.956888
0.997581 0.944445 0.953562
1.002647 0.845232 0.940509
0.000000 0.997037 0.897680
0.000000 0.997036 0.897660
0.000000 0.997036 0.897629
0.000000 0.997034 0.897533
0.000000 0.997029 0.897223
0.000000 0.997012 0.896222
0.000000 0.996954 0.892915
0.996119 0.996755 0.881195
1.002337 0.995949 0.826214
0.000000 1.001947 0.000000
0.000000 1.001947 0.000000
0.000000 1.001947 0.000000
0.000000 1.001946 0.000000
0.000000 1.001945 0.000000
0.000000 1.001940 0.000000
0.000000 1.001926 0.000000
0.000000 1.001878 0.000000
1.001144 1.001724 0.000000
0.000000 0.000000 0.997022
0.000000 0.000000 0.997022
0.000000 0.000000 0.997022
0.000000 0.000000 0.997021
0.000000 0.000000 0.997020
0.793948 0.000000 0.997014
0.974935 0.000000 0.996998
0.997906 0.000000 0.996942
1.002737 0.000000 0.996750
0.000000 0.000000 0.997021
0.000000 0.000000 0.997021
0.000000 0.000000 0.997021
0.000000 0.000000 0.997020
0.000000 0.000000 0.997018
0.792344 0.000000 0.997013
0.974849 0.000000 0.996996
0.997904 0.000000 0.996941
1.002736 0.000000 0.996749
0.000000 0.000000 0.997019
0.000000 0.000000 0.997019
0.000000 0.000000 0.997019
0.000000 0.000000 0.997018
0.000000 0.000000 0.997017
0.789981 0.000000 0.997012
0.974722 0.000000 0.996995
0.997901 0.000000 0.996939
1.002735 0.000000 0.996747
0.000000 0.000000 0.997014
0.000000 0.000000 0.997014
0.000000 0.000000 0.997013
0.000000 0.000000 0.997013
0.000000 0.000000 0.997011
0.782304 0.000000 0.997006
0.974315 0.000000 0.996989
0.997891 0.000000 0.996933
1.002732 0.000000 0.996740
0.000000 0.000000 0.996996
0.000000 0.000000 0.996996
0.000000 0.000000 0.996996
0.000000 0.000000 0.996995
0.000000 0.000000 0.996994
0.755151 0.000000 0.996988
0.972954 0.000000 0.996971
0.997860 0.000000 0.996915
1.002724 0.000000 0.996719
0.000000 0.000000 0.996938
0.000000 0.000000 0.996938
0.000000 0.000000 0.996938
0.000000 0.000000 0.996937
0.000000 0.000000 0.996935
0.588688 0.000000 0.996930
0.967957 0.000000 0.996912
0.997758 0.000000 0.996853
1.002695 0.000000 0.996651
0.000000 0.890293 0.996735
0.000000 0.890216 0.996735
0.000000 0.890104 0.996735
0.000000 0.889745 0.996735
0.000000 0.888585 0.996733
0.000000 0.884740 0.996726
0.942393 0.870969 0.996706
0.997414 0.802835 0.996641
1.002602 0.000000 0.996416
0.000000 0.996207 0.995919
0.000000 0.996207 0.995919
0.000000 0.996206 0.995919
0.000000 0.996203 0.995918
0.000000 0.996195 0.995915
0.000000 0.996168 0.995907
0.000000 0.996080 0.995879
0.995789 0.995789 0.995789
1.002288 0.994407 0.995466
0.000000 1.001769 0.983350
0.000000 1.001768 0.983348
0.000000 1.001768 0.983345
0.000000 1.001768 0.983336
0.000000 1.001766 0.983306
0.000000 1.001762 0.983210
0.000000 1.001746 0.982898
0.000000 1.001697 0.981856
1.001079 1.001535 0.977921
0.000000 0.000000 1.001755
0.000000 0.000000 1.001755
0.000000 0.000000 1.001755
0.000000 0.000000 1.001755
0.000000 0.000000 1.001755
0.000000 0.000000 1.001753
0.939492 0.000000 1.001749
0.997387 0.000000 1.001734
1.002595 0.000000 1.001687
0.000000 0.000000 1.001755
0.000000 0.000000 1.001755
0.000000 0.000000 1.001755
0.000000 0.000000 1.001755
0.000000 0.000000 1.001754
0.000000 0.000000 1.001753
0.939235 0.000000 1.001748
0.997385 0.000000 1.001734
1.002594 0.000000 1.001686
0.000000 0.000000 1.001754
0.000000 0.000000 1.001754
0.000000 0.000000 1.001754
0.000000 0.000000 1.001754
0.000000 0.000000 1.001754
0.000000 0.000000 1.001752
0.938859 0.000000 1.001748
0.997382 0.000000 1.001733
1.002593 0.000000 1.001686
0.000000 0.000000 1.001753
0.000000 0.000000 1.001753
0.000000 0.000000 1.001753
0.000000 0.000000 1.001753
0.000000 0.000000 1.001752
0.000000 0.000000 1.001751
0.937642 0.000000 1.001746
0.997371 0.000000 1.001732
1.002590 0.000000 1.001684
0.000000 0.000000 1.001748
0.000000 0.000000 1.001748
0.000000 0.000000 1.001748
0.000000 0.000000 1.001748
0.000000 0.000000 1.001748
0.000000 0.000000 1.001746
0.933512 0.000000 1.001742
0.997337 0.000000 1.001727
1.002581 0.000000 1.001679
0.000000 0.000000 1.001733
0.000000 0.000000 1.001733
0.000000 0.000000 1.001733
0.000000 0.000000 1.001733
0.000000 0.000000 1.001732
0.000000 0.000000 1.001731
0.917435 0.000000 1.001726
0.997225 0.000000 1.001711
1.002551 0.000000 1.001664
0.000000 0.000000 1.001683
0.000000 0.000000 1.001683
0.000000 0.000000 1.001683
0.000000 0.000000 1.001683
0.000000 0.000000 1.001683
0.000000 0.000000 1.001681
0.799101 0.000000 1.001676
0.996802 0.000000 1.001662
1.002455 0.000000 1.001613
0.000000 0.981006 1.001520
0.000000 0.980998 1.001520
0.000000 0.980986 1.001520
0.000000 0.980950 1.001520
0.000000 0.980833 1.001519
0.000000 0.980452 1.001518
0.000000 0.979159 1.001513
0.994125 0.974144 1.001497
1.002129 0.944132 1.001447
0.000000 1.001138 1.000947
0.000000 1.001137 1.000947
0.000000 1.001137 1.000947
0.000000 1.001137 1.000947
0.000000 1.001135 1.000946
0.000000 1.001129 1.000944
0.000000 1.001112 1.000939
0.000000 1.001054 1.000921
1.000863 1.000863 1.000863
