Postproduction/IWLTBAP - Humble/LUTs by IWLTBAP (CUBE)/UTILITY/Alexa Log-C to Rec.709/U-ALEXA-LOG-C-V1-LTR.cube
# Copyright: (C) Copyright 2010-2018 by IWLTBAP SAS
# Cannot be resold, shared or otherwise redistributed
# Website: https://luts.iwltbap.com
TITLE "Alexa Log-C Version 1 (Utility LOG to Rec.709)"
LUT_3D_SIZE 5
DOMAIN_MIN 0.000000 0.000000 0.000000
DOMAIN_MAX 0.903226 0.903226 0.903226
0.024353 0.024353 0.024353
0.156189 0.024353 0.025787
0.615173 0.024353 0.058990
0.922852 0.024353 0.137146
0.922852 0.024353 0.145844
0.024353 0.144714 0.024353
0.132141 0.142792 0.024353
0.612946 0.070007 0.045105
0.922852 0.024353 0.129211
0.922852 0.024353 0.138550
0.024353 0.582764 0.024353
0.024353 0.582550 0.024353
0.547180 0.576904 0.024353
0.922852 0.558807 0.024353
0.922852 0.555725 0.024353
0.024353 0.922852 0.024353
0.024353 0.922852 0.024353
0.024353 0.922852 0.024353
0.911407 0.922852 0.024353
0.922852 0.922852 0.024353
0.024353 0.922852 0.024353
0.024353 0.922852 0.024353
0.024353 0.922852 0.024353
0.896393 0.922852 0.024353
0.922852 0.922852 0.024353
0.024353 0.024353 0.134094
0.151611 0.024353 0.134766
0.614716 0.024353 0.151398
0.922852 0.024353 0.192261
0.922852 0.024353 0.197754
0.024353 0.128876 0.125702
0.126434 0.126434 0.126434
0.612396 0.041779 0.144318
0.922852 0.024353 0.187347
0.922852 0.024353 0.193024
0.024353 0.581116 0.024353
0.024353 0.580872 0.024353
0.546631 0.575348 0.024353
0.922852 0.557007 0.024353
0.922852 0.554047 0.024353
0.024353 0.922852 0.024353
0.024353 0.922852 0.024353
0.024353 0.922852 0.024353
0.911163 0.922852 0.024353
0.922852 0.922852 0.024353
0.024353 0.922852 0.024353
0.024353 0.922852 0.024353
0.024353 0.922852 0.024353
0.896149 0.922852 0.024353
0.922852 0.922852 0.024353
0.024353 0.024353 0.552277
0.024353 0.024353 0.552338
0.602142 0.024353 0.554352
0.922852 0.024353 0.560272
0.922852 0.024353 0.561218
0.024353 0.024353 0.551453
0.024353 0.024353 0.551544
0.599701 0.024353 0.553375
0.922852 0.024353 0.559509
0.922852 0.024353 0.560425
0.024353 0.537476 0.528656
0.024353 0.537231 0.528748
0.530914 0.530914 0.530914
0.922852 0.509521 0.537323
0.922852 0.505890 0.538483
0.024353 0.922852 0.441620
0.024353 0.922852 0.441711
0.024353 0.922852 0.444611
0.905090 0.922852 0.453430
0.922852 0.922852 0.454926
0.024353 0.922852 0.424347
0.024353 0.922852 0.424438
0.024353 0.922852 0.427551
0.889893 0.922852 0.436951
0.922852 0.922852 0.438385
0.024353 0.024353 0.919495
0.024353 0.024353 0.919525
0.558685 0.024353 0.920410
0.922852 0.024353 0.922668
0.922852 0.024353 0.922852
0.024353 0.024353 0.919159
0.024353 0.024353 0.919189
0.555878 0.024353 0.919952
0.922852 0.024353 0.922394
0.922852 0.024353 0.922729
0.024353 0.319855 0.910614
0.024353 0.319153 0.910645
0.474731 0.302856 0.911407
0.922852 0.238617 0.913849
0.922852 0.225220 0.914246
0.024353 0.896118 0.882141
0.024353 0.896027 0.882172
0.024353 0.893524 0.883057
0.885559 0.885559 0.885559
0.922852 0.884277 0.885925
0.024353 0.922852 0.877350
0.024353 0.922852 0.877380
0.024353 0.922852 0.878174
0.869751 0.922852 0.880829
0.922852 0.922852 0.881256
0.024353 0.024353 0.922852
0.024353 0.024353 0.922852
0.551025 0.024353 0.922852
0.922852 0.024353 0.922852
0.922852 0.024353 0.922852
0.024353 0.024353 0.922852
0.024353 0.024353 0.922852
0.548126 0.024353 0.922852
0.922852 0.024353 0.922852
0.922852 0.024353 0.922852
0.024353 0.248352 0.922852
0.024353 0.247314 0.922852
0.464355 0.221771 0.922852
0.922852 0.068237 0.922852
0.922852 0.024353 0.922852
0.024353 0.886536 0.922852
0.024353 0.886414 0.922852
0.024353 0.883972 0.922852
0.882263 0.875885 0.922852
0.922852 0.874420 0.922852
0.024353 0.922852 0.919281
0.024353 0.922852 0.919312
0.024353 0.922852 0.920044
0.866364 0.922852 0.922485
0.922852 0.922852 0.922852
