Postproduction/IWLTBAP - Humble/LUTs by IWLTBAP (CUBE)/UTILITY/Alexa Log-C to Rec.709/U-ALEXA-LOG-C-V2-LTR.cube
# Copyright: (C) Copyright 2010-2018 by IWLTBAP SAS
# Cannot be resold, shared or otherwise redistributed
# Website: https://luts.iwltbap.com
TITLE "Alexa Log-C Version 2 (Utility LOG to Rec.709)"
LUT_3D_SIZE 5
0.000000 0.000000 0.000000
0.294516 0.000000 0.000000
0.715764 0.000000 0.000000
0.907782 0.000000 0.000000
0.916751 0.000000 0.000000
0.000000 0.261156 0.000000
0.226264 0.251984 0.000000
0.710220 0.159729 0.000000
0.907716 0.000000 0.000000
0.916750 0.000000 0.000000
0.000000 0.686857 0.000000
0.000000 0.685932 0.000000
0.652766 0.678330 0.000000
0.907157 0.551471 0.000000
0.916742 0.000000 0.000000
0.000000 0.903271 0.000000
0.000000 0.903253 0.000000
0.000000 0.903117 0.000000
0.895793 0.901599 0.000000
0.916650 0.862916 0.000000
0.000000 0.916158 0.000000
0.000000 0.916157 0.000000
0.000000 0.916156 0.000000
0.000000 0.916142 0.000000
0.915504 0.915990 0.000000
0.000000 0.000000 0.249855
0.285512 0.000000 0.247016
0.714954 0.000000 0.223169
0.907772 0.000000 0.000000
0.916751 0.000000 0.000000
0.000000 0.224820 0.217264
0.213954 0.213954 0.213954
0.709368 0.092395 0.185456
0.907706 0.000000 0.000000
0.916750 0.000000 0.000000
0.000000 0.683360 0.000000
0.000000 0.682407 0.000000
0.651370 0.674565 0.000000
0.907145 0.541664 0.000000
0.916741 0.000000 0.000000
0.000000 0.903206 0.000000
0.000000 0.903189 0.000000
0.000000 0.903052 0.000000
0.895759 0.901524 0.000000
0.916650 0.862562 0.000000
0.000000 0.916157 0.000000
0.000000 0.916157 0.000000
0.000000 0.916155 0.000000
0.000000 0.916141 0.000000
0.915504 0.915989 0.000000
0.000000 0.000000 0.676309
0.197662 0.000000 0.676008
0.708305 0.000000 0.673588
0.907694 0.000000 0.645506
0.916750 0.000000 0.000000
0.000000 0.000000 0.673025
0.072018 0.000000 0.672715
0.702357 0.000000 0.670227
0.907627 0.000000 0.641277
0.916749 0.000000 0.000000
0.000000 0.651263 0.643278
0.000000 0.650021 0.642884
0.639714 0.639714 0.639714
0.907056 0.430868 0.601835
0.916740 0.000000 0.000000
0.000000 0.902683 0.000000
0.000000 0.902665 0.000000
0.000000 0.902520 0.000000
0.895485 0.900911 0.000000
0.916648 0.859647 0.000000
0.000000 0.916152 0.000000
0.000000 0.916151 0.000000
0.000000 0.916150 0.000000
0.000000 0.916136 0.000000
0.915502 0.915983 0.000000
0.000000 0.000000 0.901182
0.000000 0.000000 0.901176
0.601430 0.000000 0.901127
0.906802 0.000000 0.900609
0.916736 0.000000 0.893826
0.000000 0.000000 0.901116
0.000000 0.000000 0.901109
0.587011 0.000000 0.901060
0.906721 0.000000 0.900539
0.916735 0.000000 0.893718
0.000000 0.000000 0.900572
0.000000 0.000000 0.900566
0.369747 0.000000 0.900514
0.906035 0.000000 0.899970
0.916727 0.000000 0.892841
0.000000 0.895418 0.893364
0.000000 0.895387 0.893354
0.000000 0.895142 0.893272
0.892417 0.892417 0.892417
0.916634 0.812519 0.881087
0.000000 0.916097 0.000000
0.000000 0.916097 0.000000
0.000000 0.916096 0.000000
0.000000 0.916081 0.000000
0.915482 0.915926 0.000000
0.000000 0.000000 0.915950
0.000000 0.000000 0.915950
0.000000 0.000000 0.915950
0.880373 0.000000 0.915945
0.916594 0.000000 0.915898
0.000000 0.000000 0.915950
0.000000 0.000000 0.915950
0.000000 0.000000 0.915949
0.879928 0.000000 0.915945
0.916593 0.000000 0.915897
0.000000 0.000000 0.915945
0.000000 0.000000 0.915945
0.000000 0.000000 0.915944
0.876157 0.000000 0.915940
0.916584 0.000000 0.915892
0.000000 0.000000 0.915895
0.000000 0.000000 0.915895
0.000000 0.000000 0.915895
0.779108 0.000000 0.915890
0.916487 0.000000 0.915841
0.000000 0.915476 0.915330
0.000000 0.915476 0.915330
0.000000 0.915474 0.915330
0.000000 0.915456 0.915324
0.915266 0.915266 0.915266
