Postproduction/IWLTBAP - Humble/LUTs by IWLTBAP (CUBE)/UTILITY/Alexa Log-C to Rec.709/U-ALEXA-LOG-C-V4-LTR.cube
# Copyright: (C) Copyright 2010-2018 by IWLTBAP SAS
# Cannot be resold, shared or otherwise redistributed
# Website: https://luts.iwltbap.com
TITLE "Alexa Log-C Version 4 (Utility LOG to Rec.709)"
LUT_3D_SIZE 5
0.009379 0.009379 0.009379
0.276800 0.001825 0.007120
0.690577 0.000000 0.000000
0.907318 0.000000 0.000000
0.916751 0.000000 0.000000
0.000000 0.239636 0.000000
0.199969 0.229318 0.000000
0.684741 0.125217 0.000000
0.907239 0.000000 0.000000
0.916750 0.000000 0.000000
0.000000 0.660367 0.000000
0.000000 0.659410 0.000000
0.625429 0.651559 0.000000
0.906560 0.525797 0.000000
0.916742 0.000000 0.000000
0.000000 0.901837 0.000000
0.000000 0.901817 0.000000
0.000000 0.901651 0.000000
0.892777 0.899807 0.000000
0.916650 0.853706 0.000000
0.000000 0.916158 0.000000
0.000000 0.916157 0.000000
0.000000 0.916156 0.000000
0.000000 0.916142 0.000000
0.915504 0.915990 0.000000
0.000791 0.000000 0.226913
0.266868 0.000000 0.223699
0.689723 0.000000 0.196425
0.907306 0.000000 0.000000
0.916751 0.000000 0.000000
0.000000 0.198316 0.189665
0.185872 0.185872 0.185872
0.683845 0.063834 0.153404
0.907227 0.000000 0.000000
0.916750 0.000000 0.000000
0.000000 0.656749 0.000000
0.000000 0.655765 0.000000
0.624013 0.647685 0.000000
0.906546 0.516471 0.000000
0.916741 0.000000 0.000000
0.000000 0.901760 0.000000
0.000000 0.901739 0.000000
0.000000 0.901572 0.000000
0.892736 0.899716 0.000000
0.916650 0.853292 0.000000
0.000000 0.916157 0.000000
0.000000 0.916157 0.000000
0.000000 0.916155 0.000000
0.000000 0.916141 0.000000
0.915504 0.915989 0.000000
0.000000 0.000000 0.649479
0.167171 0.000000 0.649168
0.682730 0.000000 0.646681
0.907212 0.000000 0.618082
0.916750 0.000000 0.000000
0.000000 0.000000 0.646102
0.051365 0.000000 0.645784
0.676498 0.000000 0.643232
0.907130 0.000000 0.613817
0.916749 0.000000 0.000000
0.000000 0.623905 0.615833
0.000000 0.622647 0.615436
0.612244 0.612244 0.612244
0.906437 0.414647 0.574568
0.916740 0.000000 0.000000
0.000000 0.901123 0.000000
0.000000 0.901101 0.000000
0.000000 0.900926 0.000000
0.892406 0.898972 0.000000
0.916648 0.849886 0.000000
0.000000 0.916152 0.000000
0.000000 0.916151 0.000000
0.000000 0.916150 0.000000
0.000000 0.916136 0.000000
0.915502 0.915983 0.000000
0.000000 0.000000 0.899302
0.000000 0.000000 0.899294
0.574170 0.000000 0.899234
0.906130 0.000000 0.898606
0.916736 0.000000 0.890403
0.000000 0.000000 0.899221
0.000000 0.000000 0.899213
0.560058 0.000000 0.899153
0.906032 0.000000 0.898521
0.916735 0.000000 0.890273
0.000000 0.000000 0.898561
0.000000 0.000000 0.898553
0.356029 0.000000 0.898491
0.905198 0.000000 0.897831
0.916727 0.000000 0.889217
0.000000 0.892324 0.889847
0.000000 0.892287 0.889835
0.000000 0.891990 0.889737
0.888707 0.888707 0.888707
0.916634 0.795906 0.875149
0.000000 0.916097 0.000000
0.000000 0.916097 0.000000
0.000000 0.916096 0.000000
0.000000 0.916081 0.000000
0.915482 0.915926 0.000000
0.000000 0.000000 0.915950
0.000000 0.000000 0.915950
0.000000 0.000000 0.915950
0.874299 0.000000 0.915945
0.916594 0.000000 0.915898
0.000000 0.000000 0.915950
0.000000 0.000000 0.915950
0.000000 0.000000 0.915949
0.873770 0.000000 0.915945
0.916593 0.000000 0.915897
0.000000 0.000000 0.915945
0.000000 0.000000 0.915945
0.000000 0.000000 0.915944
0.869296 0.000000 0.915940
0.916584 0.000000 0.915892
0.000000 0.000000 0.915895
0.000000 0.000000 0.915895
0.000000 0.000000 0.915895
0.758759 0.000000 0.915890
0.916487 0.000000 0.915841
0.000000 0.915476 0.915330
0.000000 0.915476 0.915330
0.000000 0.915474 0.915330
0.000000 0.915456 0.915324
0.915266 0.915266 0.915266
