Postproduction/IWLTBAP - Humble/LUTs by IWLTBAP (CUBE)/UTILITY/Alexa Log-C to Rec.709/U-ALEXA-LOG-C-V3-LTR.cube
# Copyright: (C) Copyright 2010-2018 by IWLTBAP SAS
# Cannot be resold, shared or otherwise redistributed
# Website: https://luts.iwltbap.com
TITLE "Alexa Log-C Version 3 (Utility LOG to Rec.709)"
LUT_3D_SIZE 5
0.009379 0.009379 0.009379
0.276800 0.001825 0.007120
0.719387 0.000000 0.000000
0.982249 0.000000 0.000000
1.002800 0.000000 0.000000
0.000000 0.239636 0.000000
0.199969 0.229318 0.000000
0.712456 0.125217 0.000000
0.982114 0.000000 0.000000
1.002798 0.000000 0.000000
0.000000 0.683386 0.000000
0.000000 0.682257 0.000000
0.642503 0.673024 0.000000
0.980996 0.530262 0.000000
1.002787 0.000000 0.000000
0.000000 0.973984 0.000000
0.000000 0.973955 0.000000
0.000000 0.973722 0.000000
0.961982 0.971184 0.000000
1.002667 0.914867 0.000000
0.000000 1.002025 0.000000
0.000000 1.002025 0.000000
0.000000 1.002023 0.000000
0.000000 1.002005 0.000000
1.001174 1.001807 0.000000
0.000791 0.000000 0.226913
0.266868 0.000000 0.223699
0.718374 0.000000 0.196425
0.982229 0.000000 0.000000
1.002799 0.000000 0.000000
0.000000 0.198316 0.189665
0.185872 0.185872 0.185872
0.711388 0.063834 0.153404
0.982093 0.000000 0.000000
1.002798 0.000000 0.000000
0.000000 0.679123 0.000000
0.000000 0.677965 0.000000
0.640860 0.668482 0.000000
0.980974 0.520124 0.000000
1.002786 0.000000 0.000000
0.000000 0.973875 0.000000
0.000000 0.973846 0.000000
0.000000 0.973612 0.000000
0.961930 0.971061 0.000000
1.002667 0.914372 0.000000
0.000000 1.002024 0.000000
0.000000 1.002024 0.000000
0.000000 1.002022 0.000000
0.000000 1.002004 0.000000
1.001173 1.001806 0.000000
0.000000 0.000000 0.670584
0.167171 0.000000 0.670220
0.710056 0.000000 0.667307
0.982068 0.000000 0.634000
1.002798 0.000000 0.000000
0.000000 0.000000 0.666629
0.051365 0.000000 0.666256
0.702590 0.000000 0.663270
0.981931 0.000000 0.629086
1.002796 0.000000 0.000000
0.000000 0.640735 0.631408
0.000000 0.639277 0.630950
0.627276 0.627276 0.627276
0.980800 0.414647 0.584383
1.002785 0.000000 0.000000
0.000000 0.972989 0.000000
0.000000 0.972958 0.000000
0.000000 0.972715 0.000000
0.961512 0.970056 0.000000
1.002665 0.910302 0.000000
0.000000 1.002018 0.000000
0.000000 1.002017 0.000000
0.000000 1.002016 0.000000
0.000000 1.001997 0.000000
1.001171 1.001798 0.000000
0.000000 0.000000 0.970500
0.000000 0.000000 0.970490
0.583935 0.000000 0.970409
0.980313 0.000000 0.969565
1.002780 0.000000 0.958996
0.000000 0.000000 0.970391
0.000000 0.000000 0.970380
0.568128 0.000000 0.970299
0.980159 0.000000 0.969451
1.002779 0.000000 0.958834
0.000000 0.000000 0.969505
0.000000 0.000000 0.969494
0.356029 0.000000 0.969410
0.978877 0.000000 0.968531
1.002767 0.000000 0.957520
0.000000 0.961408 0.958303
0.000000 0.961361 0.958288
0.000000 0.960988 0.958166
0.956888 0.956888 0.956888
1.002647 0.845232 0.940509
0.000000 1.001947 0.000000
0.000000 1.001947 0.000000
0.000000 1.001945 0.000000
0.000000 1.001926 0.000000
1.001144 1.001724 0.000000
0.000000 0.000000 1.001755
0.000000 0.000000 1.001755
0.000000 0.000000 1.001755
0.939492 0.000000 1.001749
1.002595 0.000000 1.001687
0.000000 0.000000 1.001754
0.000000 0.000000 1.001754
0.000000 0.000000 1.001754
0.938859 0.000000 1.001748
1.002593 0.000000 1.001686
0.000000 0.000000 1.001748
0.000000 0.000000 1.001748
0.000000 0.000000 1.001748
0.933512 0.000000 1.001742
1.002581 0.000000 1.001679
0.000000 0.000000 1.001683
0.000000 0.000000 1.001683
0.000000 0.000000 1.001683
0.799101 0.000000 1.001676
1.002455 0.000000 1.001613
0.000000 1.001138 1.000947
0.000000 1.001137 1.000947
0.000000 1.001135 1.000946
0.000000 1.001112 1.000939
1.000863 1.000863 1.000863
