Postproduction/IWLTBAP - Humble/LUTs by IWLTBAP (CUBE)/UTILITY/Alexa Log-C to Rec.709/U-ALEXA-LOG-C-V5-LTR.cube
# Copyright: (C) Copyright 2010-2018 by IWLTBAP SAS
# Cannot be resold, shared or otherwise redistributed
# Website: https://luts.iwltbap.com
TITLE "Alexa Log-C Version 5 (Utility LOG to Rec.709)"
LUT_3D_SIZE 32
0.000000 0.000000 0.000000
0.000000 0.000000 0.000000
0.000763 0.000000 0.000000
0.024658 0.000000 0.000000
0.049072 0.000000 0.000000
0.084869 0.000000 0.000000
0.117523 0.000000 0.000000
0.157349 0.000000 0.000000
0.202148 0.000000 0.000000
0.256165 0.000000 0.001129
0.321167 0.000000 0.003937
0.392883 0.000000 0.007843
0.464630 0.000000 0.011780
0.537994 0.000000 0.017334
0.612000 0.000000 0.025299
0.683716 0.000000 0.033264
0.751587 0.000000 0.041229
0.821167 0.000000 0.051361
0.888824 0.000000 0.063385
0.954102 0.000000 0.072998
0.998596 0.000000 0.080963
1.000000 0.000000 0.088928
1.000000 0.000000 0.096893
1.000000 0.000000 0.100952
1.000000 0.000000 0.101959
1.000000 0.000000 0.105896
1.000000 0.000000 0.105896
1.000000 0.000000 0.105896
1.000000 0.000000 0.109802
1.000000 0.000000 0.109802
1.000000 0.000000 0.109802
1.000000 0.000000 0.109802
0.000000 0.000000 0.000000
0.000000 0.000000 0.000000
0.000763 0.000000 0.000000
0.024658 0.000000 0.000000
0.049072 0.000000 0.000000
0.084869 0.000000 0.000000
0.117523 0.000000 0.000000
0.157349 0.000000 0.000000
0.202148 0.000000 0.000000
0.256165 0.000000 0.001129
0.321167 0.000000 0.003937
0.392883 0.000000 0.007843
0.464630 0.000000 0.011780
0.537994 0.000000 0.017334
0.612000 0.000000 0.025299
0.683716 0.000000 0.033264
0.751587 0.000000 0.041229
0.821167 0.000000 0.051361
0.888824 0.000000 0.063385
0.954102 0.000000 0.072998
0.998596 0.000000 0.080963
1.000000 0.000000 0.088928
1.000000 0.000000 0.096893
1.000000 0.000000 0.100952
1.000000 0.000000 0.101959
1.000000 0.000000 0.105896
1.000000 0.000000 0.105896
1.000000 0.000000 0.105896
1.000000 0.000000 0.109802
1.000000 0.000000 0.109802
1.000000 0.000000 0.109802
1.000000 0.000000 0.109802
0.000000 0.000519 0.000000
0.000000 0.000519 0.000000
0.000519 0.000519 0.000000
0.024414 0.000519 0.000000
0.049072 0.000519 0.000000
0.084625 0.000244 0.000000
0.117523 0.000244 0.000000
0.157349 0.000244 0.000000
0.202148 0.000000 0.000000
0.256165 0.000000 0.000885
0.321167 0.000000 0.003937
0.392883 0.000000 0.007843
0.464630 0.000000 0.011780
0.537720 0.000000 0.017334
0.612000 0.000000 0.025055
0.683716 0.000000 0.033264
0.751587 0.000000 0.041229
0.821167 0.000000 0.051361
0.888824 0.000000 0.063141
0.954102 0.000000 0.072998
0.998596 0.000000 0.080963
1.000000 0.000000 0.088928
1.000000 0.000000 0.096649
1.000000 0.000000 0.100952
1.000000 0.000000 0.101959
1.000000 0.000000 0.105896
1.000000 0.000000 0.105896
1.000000 0.000000 0.105896
1.000000 0.000000 0.109558
1.000000 0.000000 0.109558
1.000000 0.000000 0.109802
1.000000 0.000000 0.109802
0.000000 0.020752 0.000000
0.000000 0.020752 0.000000
0.000000 0.020477 0.000000
0.016449 0.020355 0.000000
0.044769 0.016815 0.000000
0.077301 0.016815 0.000000
0.116760 0.016815 0.000000
0.154327 0.012909 0.000000
0.201752 0.011902 0.000000
0.255005 0.007843 0.000000
0.319916 0.000763 0.001251
0.390350 0.000000 0.005310
0.464630 0.000000 0.009369
0.536346 0.000000 0.015686
0.609467 0.000000 0.021362
0.681824 0.000000 0.029358
0.751587 0.000000 0.038971
0.821167 0.000000 0.049225
0.888824 0.000000 0.061096
0.952576 0.000000 0.072998
0.997223 0.000000 0.080963
1.000000 0.000000 0.088928
1.000000 0.000000 0.094116
1.000000 0.000000 0.098053
1.000000 0.000000 0.101959
1.000000 0.000000 0.104736
1.000000 0.000000 0.105896
1.000000 0.000000 0.105896
1.000000 0.000000 0.105896
1.000000 0.000000 0.105896
1.000000 0.000000 0.105896
1.000000 0.000000 0.109436
0.000000 0.044647 0.000000
0.000000 0.044647 0.000000
0.000000 0.044647 0.000000
0.008484 0.041229 0.000000
0.036804 0.041229 0.000000
0.073242 0.041229 0.000000
0.109680 0.040741 0.000000
0.153442 0.037323 0.000000
0.198212 0.036316 0.000000
0.252228 0.032257 0.000000
0.317261 0.023773 0.000000
0.388977 0.012390 0.003937
0.464630 0.001007 0.007843
0.536346 0.000000 0.013397
0.608063 0.000000 0.020874
0.679779 0.000000 0.028839
0.751587 0.000000 0.037323
0.821167 0.000000 0.046936
0.888824 0.000000 0.058960
0.952576 0.000000 0.069061
0.997223 0.000000 0.080444
1.000000 0.000000 0.088440
1.000000 0.000000 0.092987
1.000000 0.000000 0.097015
1.000000 0.000000 0.101074
1.000000 0.000000 0.101959
1.000000 0.000000 0.104736
1.000000 0.000000 0.105896
1.000000 0.000000 0.105896
1.000000 0.000000 0.105896
1.000000 0.000000 0.105896
1.000000 0.000000 0.105896
0.000000 0.073120 0.000000
0.000000 0.073120 0.000000
0.000000 0.073120 0.000000
0.000366 0.073120 0.000000
0.024933 0.073120 0.000000
0.064636 0.073120 0.000000
0.105103 0.072998 0.000000
0.149506 0.069183 0.000000
0.194305 0.068817 0.000000
0.251587 0.064758 0.000000
0.316620 0.056793 0.000000
0.388977 0.047424 0.000000
0.461578 0.031494 0.004791
0.536346 0.015564 0.009491
0.608063 0.000641 0.016815
0.679779 0.000000 0.024780
0.751587 0.000000 0.033386
0.821167 0.000000 0.045288
0.888824 0.000000 0.054901
0.952576 0.000000 0.066925
0.997223 0.000000 0.077057
1.000000 0.000000 0.085022
1.000000 0.000000 0.090210
1.000000 0.000000 0.094116
1.000000 0.000000 0.098053
1.000000 0.000000 0.101318
1.000000 0.000000 0.101959
1.000000 0.000000 0.101959
1.000000 0.000000 0.101959
1.000000 0.000000 0.105011
1.000000 0.000000 0.105255
1.000000 0.000000 0.105896
0.000000 0.108917 0.000000
0.000000 0.108917 0.000000
0.000000 0.108917 0.000000
0.000000 0.108917 0.000000
0.012024 0.105743 0.000000
0.049316 0.105743 0.000000
0.093994 0.105743 0.000000
0.141815 0.104980 0.000000
0.190369 0.101837 0.000000
0.247559 0.100677 0.000000
0.313324 0.096649 0.000000
0.385681 0.088684 0.000000
0.460693 0.077545 0.000763
0.536346 0.063110 0.004791
0.608063 0.043152 0.012787
0.679779 0.018097 0.020752
0.751587 0.001526 0.029480
0.819397 0.000000 0.040619
0.888824 0.000000 0.050873
0.952576 0.000000 0.062866
0.997223 0.000000 0.073120
1.000000 0.000000 0.081085
1.000000 0.000000 0.088287
1.000000 0.000000 0.092346
1.000000 0.000000 0.096405
1.000000 0.000000 0.098053
1.000000 0.000000 0.098053
1.000000 0.000000 0.101196
1.000000 0.000000 0.101196
1.000000 0.000000 0.101196
1.000000 0.000000 0.101196
1.000000 0.000000 0.101959
0.000000 0.145599 0.000000
0.000000 0.145599 0.000000
0.000000 0.145599 0.000000
0.000000 0.145599 0.000000
0.000000 0.145599 0.000000
0.027710 0.145599 0.000000
0.080963 0.141663 0.000000
0.129913 0.141663 0.000000
0.182648 0.141663 0.000000
0.240723 0.137756 0.000000
0.309418 0.136475 0.000000
0.384155 0.129395 0.000000
0.457397 0.123840 0.000000
0.532410 0.113464 0.000000
0.605042 0.100677 0.004791
0.678894 0.083740 0.012787
0.749542 0.059540 0.022766
0.819397 0.028564 0.032654
0.887177 0.004425 0.044525
0.952576 0.000000 0.056427
0.997223 0.000000 0.068329
1.000000 0.000000 0.076294
1.000000 0.000000 0.082367
1.000000 0.000000 0.088287
1.000000 0.000000 0.090210
1.000000 0.000000 0.093231
1.000000 0.000000 0.094116
1.000000 0.000000 0.096649
1.000000 0.000000 0.097168
1.000000 0.000000 0.097168
1.000000 0.000000 0.097168
1.000000 0.000000 0.097168
0.000000 0.186462 0.000000
0.000000 0.186462 0.000000
0.000000 0.186462 0.000000
0.000000 0.186462 0.000000
0.000000 0.186462 0.000000
0.000000 0.186462 0.000000
0.048828 0.186462 0.000000
0.112823 0.185577 0.000000
0.169769 0.182526 0.000000
0.231750 0.182526 0.000000
0.304474 0.178619 0.000000
0.377594 0.174683 0.000000
0.453369 0.170258 0.000000
0.529144 0.165192 0.000000
0.604156 0.154327 0.000000
0.675873 0.145477 0.003784
0.747650 0.130524 0.012787
0.817230 0.113434 0.021881
0.884918 0.090546 0.033905
0.951569 0.058014 0.045929
0.997223 0.025116 0.057953
1.000000 0.010101 0.067291
1.000000 0.004028 0.075287
1.000000 0.000000 0.080322
1.000000 0.000000 0.083374
1.000000 0.000000 0.085266
1.000000 0.000000 0.088165
1.000000 0.000000 0.089172
1.000000 0.000000 0.089172
1.000000 0.000000 0.089172
1.000000 0.000000 0.089172
1.000000 0.000000 0.089172
0.000000 0.239319 0.000000
0.000000 0.239319 0.000000
0.000000 0.239319 0.000000
0.000000 0.239319 0.000000
0.000000 0.236542 0.000000
0.000000 0.236542 0.000000
0.000000 0.236542 0.000000
0.075134 0.235657 0.000000
0.145721 0.235413 0.000000
0.218597 0.235413 0.000000
0.292694 0.231476 0.000000
0.369629 0.231232 0.000000
0.449310 0.227173 0.000000
0.525085 0.220856 0.000000
0.600220 0.215179 0.000000
0.671936 0.207184 0.000000
0.743744 0.198334 0.000000
0.814331 0.187439 0.006592
0.883270 0.175446 0.016846
0.948669 0.160614 0.028870
0.995819 0.144440 0.042267
1.000000 0.128235 0.051361
1.000000 0.113434 0.059326
1.000000 0.101532 0.066162
1.000000 0.090790 0.070221
1.000000 0.081177 0.072235
1.000000 0.076477 0.076172
1.000000 0.073700 0.076172
1.000000 0.070923 0.076172
1.000000 0.069794 0.076172
1.000000 0.066986 0.076172
1.000000 0.063080 0.080078
0.000000 0.300293 0.000000
0.000000 0.300293 0.000000
0.000000 0.300293 0.000000
0.000000 0.300293 0.000000
0.000000 0.300293 0.000000
0.000000 0.297638 0.000000
0.000000 0.297638 0.000000
0.000000 0.297638 0.000000
0.103210 0.296387 0.000000
0.190491 0.296387 0.000000
0.275513 0.296387 0.000000
0.357849 0.292450 0.000000
0.440063 0.289795 0.000000
0.517120 0.288147 0.000000
0.592896 0.281952 0.000000
0.666748 0.276123 0.000000
0.739807 0.272095 0.000000
0.810272 0.264099 0.000000
0.880981 0.255127 0.000000
0.944733 0.245514 0.004944
0.995819 0.236267 0.015717
1.000000 0.226929 0.025055
1.000000 0.220215 0.033020
1.000000 0.215149 0.040985
1.000000 0.209442 0.045929
1.000000 0.205414 0.049866
1.000000 0.204651 0.049866
1.000000 0.203400 0.053772
1.000000 0.200714 0.053772
1.000000 0.200714 0.053772
1.000000 0.200714 0.053772
1.000000 0.200714 0.056427
0.000000 0.365448 0.000000
0.000000 0.365448 0.000000
0.000000 0.365448 0.000000
0.000000 0.365448 0.000000
0.000000 0.365448 0.000000
0.000000 0.365448 0.000000
0.000000 0.365448 0.000000
0.000000 0.365448 0.000000
0.001007 0.365448 0.000000
0.141541 0.364319 0.000000
0.247284 0.364044 0.000000
0.337982 0.361511 0.000000
0.424133 0.360016 0.000000
0.505219 0.357605 0.000000
0.583527 0.353668 0.000000
0.658783 0.349762 0.000000
0.734497 0.345184 0.000000
0.806244 0.341156 0.000000
0.874023 0.333191 0.000000
0.940826 0.327606 0.000000
0.994446 0.321167 0.000000
1.000000 0.314575 0.000000
1.000000 0.310516 0.001404
1.000000 0.306488 0.006592
1.000000 0.302429 0.009247
1.000000 0.301544 0.012665
1.000000 0.301544 0.012665
1.000000 0.299011 0.015198
1.000000 0.297638 0.015198
1.000000 0.297638 0.015198
1.000000 0.297638 0.016571
1.000000 0.297638 0.019104
0.000000 0.435638 0.000000
0.000000 0.435638 0.000000
0.000000 0.435638 0.000000
0.000000 0.435638 0.000000
0.000000 0.435638 0.000000
0.000000 0.435638 0.000000
0.000000 0.435638 0.000000
0.000000 0.435638 0.000000
0.000000 0.435638 0.000000
0.032623 0.433258 0.000000
0.199982 0.433258 0.000000
0.308533 0.431854 0.000000
0.404266 0.429321 0.000000
0.489532 0.429321 0.000000
0.571503 0.425415 0.000000
0.648804 0.423492 0.000000
0.723114 0.419464 0.000000
0.798248 0.415405 0.000000
0.867706 0.409729 0.000000
0.935394 0.405792 0.000000
0.991669 0.400848 0.000000
1.000000 0.396820 0.000000
1.000000 0.392761 0.000000
1.000000 0.391632 0.000000
1.000000 0.387695 0.000000
1.000000 0.387695 0.000000
1.000000 0.385925 0.000000
1.000000 0.385284 0.000000
1.000000 0.385284 0.000000
1.000000 0.383789 0.000000
1.000000 0.383789 0.000000
1.000000 0.383789 0.000000
0.000000 0.504974 0.000000
0.000000 0.504974 0.000000
0.000000 0.504974 0.000000
0.000000 0.504974 0.000000
0.000000 0.504974 0.000000
0.000000 0.504974 0.000000
0.000000 0.504974 0.000000
0.000000 0.504974 0.000000
0.000000 0.504974 0.000000
0.000000 0.503326 0.000000
0.110291 0.503326 0.000000
0.265625 0.501038 0.000000
0.376190 0.501038 0.000000
0.468048 0.499420 0.000000
0.555573 0.497131 0.000000
0.635254 0.495239 0.000000
0.713013 0.491180 0.000000
0.786377 0.489288 0.000000
0.858093 0.485352 0.000000
0.927429 0.481445 0.000000
0.984711 0.477509 0.000000
1.000000 0.473602 0.000000
1.000000 0.471313 0.000000
1.000000 0.469666 0.000000
1.000000 0.467407 0.000000
1.000000 0.467407 0.000000
1.000000 0.465759 0.000000
1.000000 0.465759 0.000000
1.000000 0.463470 0.000000
1.000000 0.463470 0.000000
1.000000 0.463470 0.000000
1.000000 0.463470 0.000000
0.000000 0.572784 0.000000
0.000000 0.572784 0.000000
0.000000 0.572784 0.000000
0.000000 0.572784 0.000000
0.000000 0.572784 0.000000
0.000000 0.572784 0.000000
0.000000 0.572784 0.000000
0.000000 0.572784 0.000000
0.000000 0.572784 0.000000
0.000000 0.572784 0.000000
0.000000 0.571503 0.000000
0.200745 0.571014 0.000000
0.337616 0.568848 0.000000
0.440063 0.568848 0.000000
0.531799 0.567078 0.000000
0.619324 0.564941 0.000000
0.699097 0.562897 0.000000
0.774872 0.561005 0.000000
0.848358 0.557098 0.000000
0.917938 0.553162 0.000000
0.976746 0.550629 0.000000
1.000000 0.549255 0.000000
1.000000 0.545319 0.000000
1.000000 0.545319 0.000000
1.000000 0.541412 0.000000
1.000000 0.541412 0.000000
1.000000 0.541412 0.000000
1.000000 0.541412 0.000000
1.000000 0.541412 0.000000
1.000000 0.541412 0.000000
1.000000 0.541412 0.000000
1.000000 0.539246 0.000000
0.000000 0.640564 0.000000
0.000000 0.640564 0.000000
0.000000 0.640564 0.000000
0.000000 0.640564 0.000000
0.000000 0.640564 0.000000
0.000000 0.640564 0.000000
0.000000 0.640564 0.000000
0.000000 0.640564 0.000000
0.000000 0.640564 0.000000
0.000000 0.640564 0.000000
0.000000 0.640564 0.000000
0.061310 0.638672 0.000000
0.281952 0.638672 0.000000
0.405670 0.636658 0.000000
0.507751 0.634888 0.000000
0.595551 0.634766 0.000000
0.681274 0.632721 0.000000
0.760681 0.630585 0.000000
0.836334 0.626923 0.000000
0.907562 0.624878 0.000000
0.966888 0.622345 0.000000
1.000000 0.620972 0.000000
1.000000 0.618195 0.000000
1.000000 0.617035 0.000000
1.000000 0.617035 0.000000
1.000000 0.613892 0.000000
1.000000 0.613129 0.000000
1.000000 0.613129 0.000000
1.000000 0.613129 0.000000
1.000000 0.613129 0.000000
1.000000 0.613129 0.000000
1.000000 0.613129 0.000000
0.000000 0.708435 0.000000
0.000000 0.708435 0.000000
0.000000 0.708435 0.000000
0.000000 0.708435 0.000000
0.000000 0.708435 0.000000
0.000000 0.708435 0.000000
0.000000 0.708435 0.000000
0.000000 0.708435 0.000000
0.000000 0.708435 0.000000
0.000000 0.706421 0.000000
0.000000 0.706421 0.000000
0.000000 0.706421 0.000000
0.191742 0.706421 0.000000
0.356781 0.704529 0.000000
0.471649 0.702759 0.000000
0.571472 0.702484 0.000000
0.659363 0.700592 0.000000
0.742981 0.698578 0.000000
0.820374 0.696686 0.000000
0.892120 0.694275 0.000000
0.954865 0.692749 0.000000
0.997467 0.690094 0.000000
1.000000 0.688843 0.000000
1.000000 0.686798 0.000000
1.000000 0.685791 0.000000
1.000000 0.684906 0.000000
1.000000 0.684906 0.000000
1.000000 0.684906 0.000000
1.000000 0.684906 0.000000
1.000000 0.684906 0.000000
1.000000 0.684906 0.000000
1.000000 0.684906 0.000000
0.000000 0.774109 0.000000
0.000000 0.774109 0.000000
0.000000 0.774109 0.000000
0.000000 0.774109 0.000000
0.000000 0.774109 0.000000
0.000000 0.774109 0.000000
0.000000 0.774109 0.000000
0.000000 0.774109 0.000000
0.000000 0.774109 0.000000
0.000000 0.774109 0.000000
0.000000 0.774109 0.000000
0.000000 0.772339 0.000000
0.027283 0.770172 0.000000
0.290344 0.770172 0.000000
0.429291 0.770172 0.000000
0.539337 0.770172 0.000000
0.635315 0.766266 0.000000
0.720947 0.766266 0.000000
0.802795 0.762329 0.000000
0.876160 0.762329 0.000000
0.941071 0.758423 0.000000
0.991547 0.758423 0.000000
1.000000 0.756653 0.000000
1.000000 0.754486 0.000000
1.000000 0.754486 0.000000
1.000000 0.754486 0.000000
1.000000 0.754486 0.000000
1.000000 0.754486 0.000000
1.000000 0.752716 0.000000
1.000000 0.752716 0.000000
1.000000 0.752716 0.000000
1.000000 0.752716 0.000000
0.000000 0.837860 0.000000
0.000000 0.837860 0.000000
0.000000 0.837860 0.000000
0.000000 0.837860 0.000000
0.000000 0.837860 0.000000
0.000000 0.837860 0.000000
0.000000 0.837860 0.000000
0.000000 0.837860 0.000000
0.000000 0.837860 0.000000
0.000000 0.837860 0.000000
0.000000 0.837860 0.000000
0.000000 0.837860 0.000000
0.000000 0.835571 0.000000
0.167969 0.833923 0.000000
0.373840 0.833923 0.000000
0.501007 0.833923 0.000000
0.603455 0.831909 0.000000
0.696930 0.830017 0.000000
0.780670 0.830017 0.000000
0.860229 0.826080 0.000000
0.923218 0.826080 0.000000
0.976105 0.822174 0.000000
1.000000 0.822174 0.000000
1.000000 0.822174 0.000000
1.000000 0.822174 0.000000
1.000000 0.821289 0.000000
1.000000 0.820526 0.000000
1.000000 0.820526 0.000000
1.000000 0.818237 0.000000
1.000000 0.818237 0.000000
1.000000 0.818237 0.000000
1.000000 0.818237 0.000000
0.000000 0.899200 0.000000
0.000000 0.899200 0.000000
0.000000 0.899200 0.000000
0.000000 0.899200 0.000000
0.000000 0.899200 0.000000
0.000000 0.899200 0.000000
0.000000 0.899200 0.000000
0.000000 0.899200 0.000000
0.000000 0.899200 0.000000
0.000000 0.899200 0.000000
0.000000 0.899200 0.000000
0.000000 0.897675 0.000000
0.000000 0.897675 0.000000
0.000000 0.897675 0.000000
0.296387 0.895264 0.000000
0.454559 0.895264 0.000000
0.569305 0.893768 0.000000
0.669617 0.891602 0.000000
0.759033 0.891357 0.000000
0.840363 0.889832 0.000000
0.907043 0.887421 0.000000
0.960175 0.887177 0.000000
0.997742 0.885925 0.000000
1.000000 0.885925 0.000000
1.000000 0.883514 0.000000
1.000000 0.883514 0.000000
1.000000 0.883514 0.000000
1.000000 0.883514 0.000000
1.000000 0.883514 0.000000
1.000000 0.883514 0.000000
1.000000 0.882111 0.000000
1.000000 0.881989 0.000000
0.000000 0.952454 0.000000
0.000000 0.952454 0.000000
0.000000 0.952454 0.000000
0.000000 0.952454 0.000000
0.000000 0.952454 0.000000
0.000000 0.952454 0.000000
0.000000 0.952454 0.000000
0.000000 0.952454 0.000000
0.000000 0.952454 0.000000
0.000000 0.952454 0.000000
0.000000 0.952454 0.000000
0.000000 0.952454 0.000000
0.000000 0.952454 0.000000
0.000000 0.948517 0.000000
0.171509 0.948517 0.000000
0.400543 0.948517 0.000000
0.533997 0.948517 0.000000
0.641388 0.944977 0.000000
0.735138 0.944611 0.000000
0.819000 0.944611 0.000000
0.889709 0.940674 0.000000
0.944214 0.940674 0.000000
0.985321 0.940674 0.000000
1.000000 0.940308 0.000000
1.000000 0.939301 0.000000
1.000000 0.936768 0.000000
1.000000 0.936768 0.000000
1.000000 0.936768 0.000000
1.000000 0.936768 0.000000
1.000000 0.936768 0.000000
1.000000 0.936768 0.000000
1.000000 0.936768 0.000000
0.000000 0.993683 0.000000
0.000000 0.993683 0.000000
0.000000 0.993683 0.000000
0.000000 0.993683 0.000000
0.000000 0.993683 0.000000
0.000000 0.993683 0.000000
0.000000 0.993683 0.000000
0.000000 0.993683 0.000000
0.000000 0.993683 0.000000
0.000000 0.993683 0.000000
0.000000 0.993683 0.000000
0.000000 0.993683 0.000000
0.000000 0.993683 0.000000
0.000000 0.993683 0.000000
0.056549 0.993683 0.000000
0.344971 0.991028 0.000000
0.499603 0.989777 0.000000
0.615601 0.989777 0.000000
0.713501 0.987488 0.000000
0.802795 0.985840 0.000000
0.873779 0.985840 0.000000
0.928284 0.985840 0.000000
0.972046 0.983063 0.000000
0.998993 0.981934 0.000000
1.000000 0.981934 0.000000
1.000000 0.981934 0.000000
1.000000 0.981934 0.000000
1.000000 0.981934 0.000000
1.000000 0.981934 0.000000
1.000000 0.981934 0.000000
1.000000 0.981934 0.000000
1.000000 0.981934 0.000000
0.000000 1.000000 0.000000
0.000000 1.000000 0.000000
0.000000 1.000000 0.000000
0.000000 1.000000 0.000000
0.000000 1.000000 0.000000
0.000000 1.000000 0.000000
0.000000 1.000000 0.000000
0.000000 1.000000 0.000000
0.000000 1.000000 0.000000
0.000000 1.000000 0.000000
0.000000 1.000000 0.000000
0.000000 1.000000 0.000000
0.000000 1.000000 0.000000
0.000000 1.000000 0.000000
0.000000 1.000000 0.000000
0.285767 1.000000 0.000000
0.467743 1.000000 0.000000
0.592590 1.000000 0.000000
0.696289 1.000000 0.000000
0.785980 1.000000 0.000000
0.860626 1.000000 0.000000
0.918915 1.000000 0.000000
0.960175 1.000000 0.000000
0.993164 1.000000 0.000000
1.000000 1.000000 0.000000
1.000000 1.000000 0.000000
1.000000 1.000000 0.000000
1.000000 1.000000 0.000000
1.000000 1.000000 0.000000
1.000000 1.000000 0.000000
1.000000 1.000000 0.000000
1.000000 1.000000 0.000000
0.000000 1.000000 0.000000
0.000000 1.000000 0.000000
0.000000 1.000000 0.000000
0.000000 1.000000 0.000000
0.000000 1.000000 0.000000
0.000000 1.000000 0.000000
0.000000 1.000000 0.000000
0.000000 1.000000 0.000000
0.000000 1.000000 0.000000
0.000000 1.000000 0.000000
0.000000 1.000000 0.000000
0.000000 1.000000 0.000000
0.000000 1.000000 0.000000
0.000000 1.000000 0.000000
0.000000 1.000000 0.000000
0.222961 1.000000 0.000000
0.440674 1.000000 0.000000
0.572601 1.000000 0.000000
0.682648 1.000000 0.000000
0.773590 1.000000 0.000000
0.848724 1.000000 0.000000
0.907166 1.000000 0.000000
0.952179 1.000000 0.000000
0.985199 1.000000 0.000000
1.000000 1.000000 0.000000
1.000000 1.000000 0.000000
1.000000 1.000000 0.000000
1.000000 1.000000 0.000000
1.000000 1.000000 0.000000
1.000000 1.000000 0.000000
1.000000 1.000000 0.000000
1.000000 1.000000 0.000000
0.000000 1.000000 0.000000
0.000000 1.000000 0.000000
0.000000 1.000000 0.000000
0.000000 1.000000 0.000000
0.000000 1.000000 0.000000
0.000000 1.000000 0.000000
0.000000 1.000000 0.000000
0.000000 1.000000 0.000000
0.000000 1.000000 0.000000
0.000000 1.000000 0.000000
0.000000 1.000000 0.000000
0.000000 1.000000 0.000000
0.000000 1.000000 0.000000
0.000000 1.000000 0.000000
0.000000 1.000000 0.000000
0.140900 1.000000 0.000000
0.417786 1.000000 0.000000
0.557800 1.000000 0.000000
0.669739 1.000000 0.000000
0.764618 1.000000 0.000000
0.843292 1.000000 0.000000
0.901855 1.000000 0.000000
0.944214 1.000000 0.000000
0.977234 1.000000 0.000000
0.999115 1.000000 0.000000
1.000000 1.000000 0.000000
1.000000 1.000000 0.000000
1.000000 1.000000 0.000000
1.000000 1.000000 0.000000
1.000000 1.000000 0.000000
1.000000 1.000000 0.000000
1.000000 1.000000 0.000000
0.000000 1.000000 0.000000
0.000000 1.000000 0.000000
0.000000 1.000000 0.000000
0.000000 1.000000 0.000000
0.000000 1.000000 0.000000
0.000000 1.000000 0.000000
0.000000 1.000000 0.000000
0.000000 1.000000 0.000000
0.000000 1.000000 0.000000
0.000000 1.000000 0.000000
0.000000 1.000000 0.000000
0.000000 1.000000 0.000000
0.000000 1.000000 0.000000
0.000000 1.000000 0.000000
0.000000 1.000000 0.000000
0.111725 1.000000 0.000000
0.399078 1.000000 0.000000
0.548950 1.000000 0.000000
0.661774 1.000000 0.000000
0.759033 1.000000 0.000000
0.835938 1.000000 0.000000
0.894379 1.000000 0.000000
0.940186 1.000000 0.000000
0.973175 1.000000 0.000000
0.997345 1.000000 0.000000
1.000000 1.000000 0.000000
1.000000 1.000000 0.000000
1.000000 1.000000 0.000000
1.000000 1.000000 0.000000
1.000000 1.000000 0.000000
1.000000 1.000000 0.000000
1.000000 1.000000 0.000000
0.000000 1.000000 0.000000
0.000000 1.000000 0.000000
0.000000 1.000000 0.000000
0.000000 1.000000 0.000000
0.000000 1.000000 0.000000
0.000000 1.000000 0.000000
0.000000 1.000000 0.000000
0.000000 1.000000 0.000000
0.000000 1.000000 0.000000
0.000000 1.000000 0.000000
0.000000 1.000000 0.000000
0.000000 1.000000 0.000000
0.000000 1.000000 0.000000
0.000000 1.000000 0.000000
0.000000 1.000000 0.000000
0.100372 1.000000 0.000000
0.388458 1.000000 0.000000
0.540985 1.000000 0.000000
0.657104 1.000000 0.000000
0.755005 1.000000 0.000000
0.832031 1.000000 0.000000
0.893127 1.000000 0.000000
0.936127 1.000000 0.000000
0.969513 1.000000 0.000000
0.994049 1.000000 0.000000
1.000000 1.000000 0.000000
1.000000 1.000000 0.000000
1.000000 1.000000 0.000000
1.000000 1.000000 0.000000
1.000000 1.000000 0.000000
1.000000 1.000000 0.000000
1.000000 1.000000 0.000000
0.000000 1.000000 0.000000
0.000000 1.000000 0.000000
0.000000 1.000000 0.000000
0.000000 1.000000 0.000000
0.000000 1.000000 0.000000
0.000000 1.000000 0.000000
0.000000 1.000000 0.000000
0.000000 1.000000 0.000000
0.000000 1.000000 0.000000
0.000000 1.000000 0.000000
0.000000 1.000000 0.000000
0.000000 1.000000 0.000000
0.000000 1.000000 0.000000
0.000000 1.000000 0.000000
0.000000 1.000000 0.000000
0.092804 1.000000 0.000000
0.382507 1.000000 0.000000
