Postproduction/IWLTBAP - Humble/LUTs by IWLTBAP (CUBE)/UTILITY/Alexa Log-C to Rec.709/U-ALEXA-LOG-C-V2-LTR.cube
# Copyright: (C) Copyright 2010-2018 by IWLTBAP SAS
# Cannot be resold, shared or otherwise redistributed
# Website: https://luts.iwltbap.com
TITLE "Alexa Log-C Version 2 (Utility LOG to Rec.709)"
LUT_3D_SIZE 9
0.000000 0.000000 0.000000
0.149247 0.000000 0.000000
0.294516 0.000000 0.000000
0.516285 0.000000 0.000000
0.715764 0.000000 0.000000
0.848119 0.000000 0.000000
0.907782 0.000000 0.000000
0.913154 0.000000 0.000000
0.916751 0.000000 0.000000
0.000000 0.119624 0.000000
0.092173 0.112016 0.000000
0.269182 0.100926 0.000000
0.506105 0.065531 0.000000
0.713543 0.000000 0.000000
0.847716 0.000000 0.000000
0.907756 0.000000 0.000000
0.913153 0.000000 0.000000
0.916751 0.000000 0.000000
0.000000 0.261156 0.000000
0.007479 0.257471 0.000000
0.226264 0.251984 0.000000
0.490012 0.233663 0.000000
0.710220 0.159729 0.000000
0.847124 0.000000 0.000000
0.907716 0.000000 0.000000
0.913151 0.000000 0.000000
0.916750 0.000000 0.000000
0.000000 0.474485 0.000000
0.000000 0.472804 0.000000
0.000000 0.470323 0.000000
0.426047 0.462181 0.000000
0.698926 0.433480 0.000000
0.845192 0.319569 0.000000
0.907589 0.000000 0.000000
0.913144 0.000000 0.000000
0.916748 0.000000 0.000000
0.000000 0.686857 0.000000
0.000000 0.686482 0.000000
0.000000 0.685932 0.000000
0.000000 0.684168 0.000000
0.652766 0.678330 0.000000
0.838485 0.657435 0.000000
0.907157 0.551471 0.000000
0.913123 0.000000 0.000000
0.916742 0.000000 0.000000
0.000000 0.830971 0.000000
0.000000 0.830900 0.000000
0.000000 0.830795 0.000000
0.000000 0.830460 0.000000
0.000000 0.829375 0.000000
0.809815 0.825764 0.000000
0.905473 0.812602 0.000000
0.913052 0.741559 0.000000
0.916720 0.000000 0.000000
0.000000 0.903271 0.000000
0.000000 0.903264 0.000000
0.000000 0.903253 0.000000
0.000000 0.903221 0.000000
0.000000 0.903117 0.000000
0.000000 0.902775 0.000000
0.895793 0.901599 0.000000
0.912816 0.896855 0.000000
0.916650 0.862916 0.000000
0.000000 0.912560 0.000000
0.000000 0.912560 0.000000
0.000000 0.912559 0.000000
0.000000 0.912558 0.000000
0.000000 0.912555 0.000000
0.000000 0.912544 0.000000
0.000000 0.912509 0.000000
0.911906 0.912392 0.000000
0.916413 0.911986 0.000000
0.000000 0.916158 0.000000
0.000000 0.916157 0.000000
0.000000 0.916157 0.000000
0.000000 0.916157 0.000000
0.000000 0.916156 0.000000
0.000000 0.916153 0.000000
0.000000 0.916142 0.000000
0.000000 0.916106 0.000000
0.915504 0.915990 0.000000
0.000000 0.000000 0.110295
0.141431 0.000000 0.108021
0.290893 0.000000 0.104705
0.514805 0.000000 0.094133
0.715435 0.000000 0.060227
0.848059 0.000000 0.000000
0.907778 0.000000 0.000000
0.913154 0.000000 0.000000
0.916751 0.000000 0.000000
0.000000 0.091126 0.085775
0.083493 0.083493 0.083493
0.265150 0.072365 0.080166
0.504528 0.036985 0.069584
0.713207 0.000000 0.035690
0.847656 0.000000 0.000000
0.907752 0.000000 0.000000
0.913153 0.000000 0.000000
0.916751 0.000000 0.000000
0.000000 0.247048 0.049998
0.000000 0.243135 0.047717
0.221346 0.237315 0.044389
0.488270 0.217635 0.033809
0.709874 0.134226 0.000000
0.847063 0.000000 0.000000
0.907712 0.000000 0.000000
0.913151 0.000000 0.000000
0.916750 0.000000 0.000000
0.000000 0.468108 0.000000
0.000000 0.466362 0.000000
0.000000 0.463784 0.000000
0.423684 0.455316 0.000000
0.698542 0.425800 0.000000
0.845128 0.308535 0.000000
0.907585 0.000000 0.000000
0.913144 0.000000 0.000000
0.916748 0.000000 0.000000
0.000000 0.685447 0.000000
0.000000 0.685067 0.000000
0.000000 0.684511 0.000000
0.000000 0.682725 0.000000
0.652200 0.676813 0.000000
0.838413 0.655631 0.000000
0.907152 0.547557 0.000000
0.913122 0.000000 0.000000
0.916741 0.000000 0.000000
0.000000 0.830702 0.000000
0.000000 0.830630 0.000000
0.000000 0.830525 0.000000
0.000000 0.830189 0.000000
0.000000 0.829099 0.000000
0.809702 0.825472 0.000000
0.905467 0.812244 0.000000
0.913052 0.740717 0.000000
0.916720 0.000000 0.000000
0.000000 0.903244 0.000000
0.000000 0.903238 0.000000
0.000000 0.903227 0.000000
0.000000 0.903195 0.000000
0.000000 0.903090 0.000000
0.000000 0.902748 0.000000
0.895779 0.901569 0.000000
0.912815 0.896812 0.000000
0.916650 0.862772 0.000000
0.000000 0.912559 0.000000
0.000000 0.912559 0.000000
0.000000 0.912559 0.000000
0.000000 0.912558 0.000000
0.000000 0.912554 0.000000
0.000000 0.912543 0.000000
0.000000 0.912508 0.000000
0.911906 0.912391 0.000000
0.916413 0.911985 0.000000
0.000000 0.916157 0.000000
0.000000 0.916157 0.000000
0.000000 0.916157 0.000000
0.000000 0.916157 0.000000
0.000000 0.916156 0.000000
0.000000 0.916152 0.000000
0.000000 0.916141 0.000000
0.000000 0.916106 0.000000
0.915504 0.915989 0.000000
0.000000 0.000000 0.249855
0.128960 0.000000 0.248704
0.285512 0.000000 0.247016
0.512623 0.000000 0.241573
0.714954 0.000000 0.223169
0.847972 0.000000 0.147553
0.907772 0.000000 0.000000
0.913154 0.000000 0.000000
0.916751 0.000000 0.000000
0.000000 0.049501 0.237189
0.070841 0.041869 0.235976
0.259122 0.030745 0.234195
0.502201 0.000000 0.228422
0.712716 0.000000 0.208715
0.847568 0.000000 0.123792
0.907746 0.000000 0.000000
0.913152 0.000000 0.000000
0.916751 0.000000 0.000000
0.000000 0.224820 0.217264
0.000000 0.220469 0.215924
0.213954 0.213954 0.213954
0.485698 0.191683 0.207566
0.709368 0.092395 0.185456
0.846973 0.000000 0.088058
0.907706 0.000000 0.000000
0.913150 0.000000 0.000000
0.916750 0.000000 0.000000
0.000000 0.458359 0.133128
0.000000 0.456510 0.130765
0.000000 0.453777 0.127336
0.420212 0.444804 0.116723
0.697980 0.414313 0.082873
0.845036 0.291619 0.000000
0.907579 0.000000 0.000000
0.913144 0.000000 0.000000
0.916748 0.000000 0.000000
0.000000 0.683360 0.000000
0.000000 0.682973 0.000000
0.000000 0.682407 0.000000
0.000000 0.680589 0.000000
0.651370 0.674565 0.000000
0.838309 0.652953 0.000000
0.907145 0.541664 0.000000
0.913122 0.000000 0.000000
0.916741 0.000000 0.000000
0.000000 0.830308 0.000000
0.000000 0.830235 0.000000
0.000000 0.830129 0.000000
0.000000 0.829791 0.000000
0.000000 0.828694 0.000000
0.809537 0.825042 0.000000
0.905458 0.811719 0.000000
0.913052 0.739476 0.000000
0.916720 0.000000 0.000000
0.000000 0.903206 0.000000
0.000000 0.903199 0.000000
0.000000 0.903189 0.000000
0.000000 0.903157 0.000000
0.000000 0.903052 0.000000
0.000000 0.902708 0.000000
0.895759 0.901524 0.000000
0.912815 0.896749 0.000000
0.916650 0.862562 0.000000
0.000000 0.912558 0.000000
0.000000 0.912558 0.000000
0.000000 0.912557 0.000000
0.000000 0.912556 0.000000
0.000000 0.912553 0.000000
0.000000 0.912542 0.000000
0.000000 0.912506 0.000000
0.911905 0.912390 0.000000
0.916413 0.911984 0.000000
0.000000 0.916157 0.000000
0.000000 0.916157 0.000000
0.000000 0.916157 0.000000
0.000000 0.916156 0.000000
0.000000 0.916155 0.000000
0.000000 0.916152 0.000000
0.000000 0.916141 0.000000
0.000000 0.916105 0.000000
0.915504 0.915989 0.000000
0.000000 0.000000 0.459266
0.088708 0.000000 0.458718
0.267583 0.000000 0.457916
0.505478 0.000000 0.455340
0.713409 0.000000 0.446819
0.847692 0.000000 0.417825
0.907754 0.000000 0.303046
0.913153 0.000000 0.000000
0.916751 0.000000 0.000000
0.000000 0.000000 0.453279
0.030618 0.000000 0.452711
0.238819 0.000000 0.451881
0.494570 0.000000 0.449212
0.711139 0.000000 0.440464
0.847286 0.000000 0.410944
0.907727 0.000000 0.293001
0.913151 0.000000 0.000000
0.916751 0.000000 0.000000
0.000000 0.127501 0.444182
0.000000 0.119835 0.443591
0.188394 0.108743 0.442729
0.477243 0.073371 0.439972
0.707740 0.000000 0.430995
0.846689 0.000000 0.400647
0.907688 0.000000 0.277610
0.913149 0.000000 0.000000
0.916750 0.000000 0.000000
0.000000 0.424029 0.413519
0.000000 0.421940 0.412877
0.000000 0.418873 0.411939
0.408937 0.408937 0.408937
0.696175 0.374936 0.399128
0.844740 0.228195 0.365609
0.907560 0.000000 0.220343
0.913143 0.000000 0.000000
0.916748 0.000000 0.000000
0.000000 0.676464 0.289858
0.000000 0.676054 0.288893
0.000000 0.675454 0.287478
0.000000 0.673524 0.282922
0.648692 0.667124 0.267740
0.837974 0.644037 0.210534
0.907124 0.521272 0.000000
0.913121 0.000000 0.000000
0.916741 0.000000 0.000000
0.000000 0.829036 0.000000
0.000000 0.828962 0.000000
0.000000 0.828854 0.000000
0.000000 0.828508 0.000000
0.000000 0.827388 0.000000
0.809010 0.823656 0.000000
0.905430 0.810023 0.000000
0.913051 0.735421 0.000000
0.916719 0.000000 0.000000
0.000000 0.903084 0.000000
0.000000 0.903077 0.000000
0.000000 0.903067 0.000000
0.000000 0.903034 0.000000
0.000000 0.902928 0.000000
0.000000 0.902580 0.000000
0.895694 0.901381 0.000000
0.912814 0.896548 0.000000
0.916649 0.861886 0.000000
0.000000 0.912554 0.000000
0.000000 0.912554 0.000000
0.000000 0.912553 0.000000
0.000000 0.912552 0.000000
0.000000 0.912549 0.000000
0.000000 0.912538 0.000000
0.000000 0.912502 0.000000
0.911904 0.912386 0.000000
0.916413 0.911979 0.000000
0.000000 0.916156 0.000000
0.000000 0.916156 0.000000
0.000000 0.916155 0.000000
0.000000 0.916155 0.000000
0.000000 0.916154 0.000000
0.000000 0.916151 0.000000
0.000000 0.916140 0.000000
0.000000 0.916104 0.000000
0.915503 0.915988 0.000000
0.000000 0.000000 0.676309
0.000000 0.000000 0.676187
0.197662 0.000000 0.676008
0.480214 0.000000 0.675437
0.708305 0.000000 0.673588
0.846787 0.000000 0.667467
0.907694 0.000000 0.645506
0.913150 0.000000 0.532395
0.916750 0.000000 0.000000
0.000000 0.000000 0.674984
0.000000 0.000000 0.674860
0.154867 0.000000 0.674679
0.467434 0.000000 0.674101
0.705924 0.000000 0.672232
0.846374 0.000000 0.666040
0.907667 0.000000 0.643802
0.913148 0.000000 0.528588
0.916750 0.000000 0.000000
0.000000 0.000000 0.673025
0.000000 0.000000 0.672899
0.072018 0.000000 0.672715
0.446891 0.000000 0.672128
0.702357 0.000000 0.670227
0.845765 0.000000 0.663929
0.907627 0.000000 0.641277
0.913146 0.000000 0.522866
0.916749 0.000000 0.000000
0.000000 0.280550 0.666572
0.000000 0.277184 0.666439
0.000000 0.272190 0.666245
0.369999 0.255478 0.665626
0.690189 0.191173 0.663620
0.843782 0.000000 0.656963
0.907497 0.000000 0.632900
0.913139 0.000000 0.503163
0.916747 0.000000 0.000000
0.000000 0.651263 0.643278
0.000000 0.650759 0.643118
0.000000 0.650021 0.642884
0.000000 0.647644 0.642137
0.639714 0.639714 0.639714
0.836889 0.610491 0.631631
0.907056 0.430868 0.601835
0.913118 0.000000 0.418752
0.916740 0.000000 0.000000
0.000000 0.824774 0.518754
0.000000 0.824695 0.518373
0.000000 0.824579 0.517814
0.000000 0.824209 0.516025
0.000000 0.823008 0.510154
0.807293 0.819004 0.489765
0.905339 0.804296 0.403687
0.913047 0.721209 0.000000
0.916718 0.000000 0.000000
0.000000 0.902683 0.000000
0.000000 0.902676 0.000000
0.000000 0.902665 0.000000
0.000000 0.902631 0.000000
0.000000 0.902520 0.000000
0.000000 0.902158 0.000000
0.895485 0.900911 0.000000
0.912810 0.895885 0.000000
0.916648 0.859647 0.000000
0.000000 0.912541 0.000000
0.000000 0.912541 0.000000
0.000000 0.912541 0.000000
0.000000 0.912539 0.000000
0.000000 0.912536 0.000000
0.000000 0.912525 0.000000
0.000000 0.912489 0.000000
0.911899 0.912372 0.000000
0.916412 0.911963 0.000000
0.000000 0.916152 0.000000
0.000000 0.916152 0.000000
0.000000 0.916151 0.000000
0.000000 0.916151 0.000000
0.000000 0.916150 0.000000
0.000000 0.916147 0.000000
0.000000 0.916136 0.000000
0.000000 0.916100 0.000000
0.915502 0.915983 0.000000
0.000000 0.000000 0.824522
0.000000 0.000000 0.824498
0.000000 0.000000 0.824463
0.369748 0.000000 0.824353
0.690152 0.000000 0.823997
0.843776 0.000000 0.822843
0.907497 0.000000 0.819002
0.913139 0.000000 0.804977
0.916747 0.000000 0.728335
0.000000 0.000000 0.824265
0.000000 0.000000 0.824241
0.000000 0.000000 0.824206
0.350550 0.000000 0.824095
0.687347 0.000000 0.823738
0.843338 0.000000 0.822580
0.907469 0.000000 0.818722
0.913138 0.000000 0.804635
0.916746 0.000000 0.727509
0.000000 0.000000 0.823889
0.000000 0.000000 0.823865
0.000000 0.000000 0.823830
0.320161 0.000000 0.823718
0.683131 0.000000 0.823359
0.842694 0.000000 0.822193
0.907427 0.000000 0.818313
0.913136 0.000000 0.804133
0.916746 0.000000 0.726292
0.000000 0.000000 0.822678
0.000000 0.000000 0.822653
0.000000 0.000000 0.822617
0.188226 0.000000 0.822504
0.668621 0.000000 0.822137
0.840591 0.000000 0.820950
0.907291 0.000000 0.816992
0.913129 0.000000 0.802512
0.916744 0.000000 0.722324
0.000000 0.505978 0.818637
0.000000 0.504591 0.818611
0.000000 0.502546 0.818573
0.000000 0.495868 0.818452
0.605947 0.472441 0.818062
0.833267 0.374170 0.816797
0.906829 0.000000 0.812579
0.913107 0.000000 0.797068
0.916737 0.000000 0.708499
0.000000 0.808863 0.803781
0.000000 0.808763 0.803749
0.000000 0.808616 0.803701
0.000000 0.808146 0.803551
0.000000 0.806619 0.803068
0.801500 0.801500 0.801500
0.905039 0.782294 0.796239
0.913037 0.656867 0.776514
0.916715 0.000000 0.647548
0.000000 0.901284 0.719382
0.000000 0.901276 0.719298
0.000000 0.901264 0.719176
0.000000 0.901225 0.718788
0.000000 0.901099 0.717534
0.000000 0.900689 0.713415
0.894800 0.899275 0.699050
0.912799 0.893580 0.635420
0.916645 0.851621 0.000000
0.000000 0.912500 0.000000
0.000000 0.912499 0.000000
0.000000 0.912499 0.000000
0.000000 0.912498 0.000000
0.000000 0.912494 0.000000
0.000000 0.912483 0.000000
0.000000 0.912447 0.000000
0.911884 0.912328 0.000000
0.916408 0.911913 0.000000
0.000000 0.916139 0.000000
0.000000 0.916139 0.000000
0.000000 0.916139 0.000000
0.000000 0.916138 0.000000
0.000000 0.916137 0.000000
0.000000 0.916134 0.000000
0.000000 0.916123 0.000000
0.000000 0.916087 0.000000
0.915497 0.915970 0.000000
0.000000 0.000000 0.901182
0.000000 0.000000 0.901180
0.000000 0.000000 0.901176
0.000000 0.000000 0.901165
0.601430 0.000000 0.901127
0.832833 0.000000 0.901006
0.906802 0.000000 0.900609
0.913106 0.000000 0.899250
0.916736 0.000000 0.893826
0.000000 0.000000 0.901155
0.000000 0.000000 0.901153
0.000000 0.000000 0.901149
0.000000 0.000000 0.901137
0.595741 0.000000 0.901100
0.832301 0.000000 0.900978
0.906770 0.000000 0.900581
0.913105 0.000000 0.899219
0.916736 0.000000 0.893782
0.000000 0.000000 0.901116
0.000000 0.000000 0.901113
0.000000 0.000000 0.901109
0.000000 0.000000 0.901098
0.587011 0.000000 0.901060
0.831517 0.000000 0.900938
0.906721 0.000000 0.900539
0.913103 0.000000 0.899173
0.916735 0.000000 0.893718
0.000000 0.000000 0.900989
0.000000 0.000000 0.900986
0.000000 0.000000 0.900982
0.000000 0.000000 0.900970
0.555120 0.000000 0.900932
0.828953 0.000000 0.900809
0.906565 0.000000 0.900406
0.913096 0.000000 0.899025
0.916733 0.000000 0.893513
0.000000 0.000000 0.900572
0.000000 0.000000 0.900570
0.000000 0.000000 0.900566
0.000000 0.000000 0.900553
0.369747 0.000000 0.900514
0.819943 0.000000 0.900387
0.906035 0.000000 0.899970
0.913074 0.000000 0.898542
0.916727 0.000000 0.892841
0.000000 0.710243 0.899140
0.000000 0.709939 0.899137
0.000000 0.709493 0.899133
0.000000 0.708065 0.899119
0.000000 0.703358 0.899075
0.779264 0.686785 0.898934
0.903993 0.609791 0.898470
0.913002 0.000000 0.896880
0.916705 0.000000 0.890526
0.000000 0.895418 0.893364
0.000000 0.895405 0.893360
0.000000 0.895387 0.893354
0.000000 0.895329 0.893335
0.000000 0.895142 0.893272
0.000000 0.894528 0.893072
0.892417 0.892417 0.892417
0.912762 0.883844 0.890166
0.916634 0.812519 0.881087
0.000000 0.912363 0.850558
0.000000 0.912363 0.850543
0.000000 0.912362 0.850522
0.000000 0.912361 0.850452
0.000000 0.912357 0.850228
0.000000 0.912346 0.849504
0.000000 0.912308 0.847111
0.911834 0.912183 0.838615
0.916396 0.911747 0.798711
0.000000 0.916097 0.000000
0.000000 0.916097 0.000000
0.000000 0.916097 0.000000
0.000000 0.916097 0.000000
0.000000 0.916096 0.000000
0.000000 0.916092 0.000000
0.000000 0.916081 0.000000
0.000000 0.916045 0.000000
0.915482 0.915926 0.000000
0.000000 0.000000 0.912353
0.000000 0.000000 0.912353
0.000000 0.000000 0.912353
0.000000 0.000000 0.912352
0.000000 0.000000 0.912351
0.775327 0.000000 0.912348
0.903825 0.000000 0.912336
0.912997 0.000000 0.912300
0.916703 0.000000 0.912181
0.000000 0.000000 0.912352
0.000000 0.000000 0.912352
0.000000 0.000000 0.912352
0.000000 0.000000 0.912351
0.000000 0.000000 0.912350
0.774140 0.000000 0.912347
0.903775 0.000000 0.912336
0.912996 0.000000 0.912299
0.916703 0.000000 0.912180
0.000000 0.000000 0.912351
0.000000 0.000000 0.912351
0.000000 0.000000 0.912351
0.000000 0.000000 0.912350
0.000000 0.000000 0.912349
0.772379 0.000000 0.912346
0.903701 0.000000 0.912334
0.912993 0.000000 0.912298
0.916702 0.000000 0.912179
0.000000 0.000000 0.912347
0.000000 0.000000 0.912347
0.000000 0.000000 0.912347
0.000000 0.000000 0.912347
0.000000 0.000000 0.912345
0.766529 0.000000 0.912342
0.903464 0.000000 0.912331
0.912986 0.000000 0.912294
0.916700 0.000000 0.912175
0.000000 0.000000 0.912335
0.000000 0.000000 0.912335
0.000000 0.000000 0.912335
0.000000 0.000000 0.912335
0.000000 0.000000 0.912334
0.744730 0.000000 0.912330
0.902662 0.000000 0.912319
0.912964 0.000000 0.912282
0.916693 0.000000 0.912162
0.000000 0.000000 0.912297
0.000000 0.000000 0.912297
0.000000 0.000000 0.912297
0.000000 0.000000 0.912297
0.000000 0.000000 0.912296
0.605712 0.000000 0.912292
0.899613 0.000000 0.912281
0.912890 0.000000 0.912244
0.916671 0.000000 0.912122
0.000000 0.845211 0.912172
0.000000 0.845155 0.912172
0.000000 0.845074 0.912172
0.000000 0.844814 0.912171
0.000000 0.843973 0.912170
0.000000 0.841187 0.912166
0.882409 0.831192 0.912154
0.912640 0.781828 0.912116
0.916600 0.000000 0.911989
0.000000 0.911878 0.911732
0.000000 0.911878 0.911732
0.000000 0.911878 0.911732
0.000000 0.911876 0.911731
0.000000 0.911872 0.911730
0.000000 0.911858 0.911726
0.000000 0.911814 0.911712
0.911667 0.911667 0.911667
0.916359 0.911145 0.911520
0.000000 0.915961 0.908298
0.000000 0.915960 0.908297
0.000000 0.915960 0.908296
0.000000 0.915960 0.908292
0.000000 0.915959 0.908278
0.000000 0.915955 0.908234
0.000000 0.915943 0.908091
0.000000 0.915906 0.907590
0.915432 0.915781 0.905513
0.000000 0.000000 0.915950
0.000000 0.000000 0.915950
0.000000 0.000000 0.915950
0.000000 0.000000 0.915950
0.000000 0.000000 0.915950
0.000000 0.000000 0.915949
0.880373 0.000000 0.915945
0.912620 0.000000 0.915934
0.916594 0.000000 0.915898
0.000000 0.000000 0.915950
0.000000 0.000000 0.915950
0.000000 0.000000 0.915950
0.000000 0.000000 0.915950
0.000000 0.000000 0.915950
0.000000 0.000000 0.915948
0.880192 0.000000 0.915945
0.912618 0.000000 0.915934
0.916594 0.000000 0.915897
0.000000 0.000000 0.915950
0.000000 0.000000 0.915950
0.000000 0.000000 0.915950
0.000000 0.000000 0.915950
0.000000 0.000000 0.915949
0.000000 0.000000 0.915948
0.879928 0.000000 0.915945
0.912615 0.000000 0.915933
0.916593 0.000000 0.915897
0.000000 0.000000 0.915949
0.000000 0.000000 0.915949
0.000000 0.000000 0.915949
0.000000 0.000000 0.915948
0.000000 0.000000 0.915948
0.000000 0.000000 0.915947
0.879071 0.000000 0.915943
0.912607 0.000000 0.915932
0.916591 0.000000 0.915896
0.000000 0.000000 0.915945
0.000000 0.000000 0.915945
0.000000 0.000000 0.915945
0.000000 0.000000 0.915945
0.000000 0.000000 0.915944
0.000000 0.000000 0.915943
0.876157 0.000000 0.915940
0.912582 0.000000 0.915929
0.916584 0.000000 0.915892
0.000000 0.000000 0.915933
0.000000 0.000000 0.915933
0.000000 0.000000 0.915933
0.000000 0.000000 0.915933
0.000000 0.000000 0.915933
0.000000 0.000000 0.915932
0.864751 0.000000 0.915928
0.912498 0.000000 0.915917
0.916561 0.000000 0.915880
0.000000 0.000000 0.915895
0.000000 0.000000 0.915895
0.000000 0.000000 0.915895
0.000000 0.000000 0.915895
0.000000 0.000000 0.915895
0.000000 0.000000 0.915893
0.779108 0.000000 0.915890
0.912212 0.000000 0.915878
0.916487 0.000000 0.915841
0.000000 0.907161 0.915770
0.000000 0.907157 0.915770
0.000000 0.907152 0.915770
0.000000 0.907133 0.915770
0.000000 0.907073 0.915769
0.000000 0.906875 0.915768
0.000000 0.906188 0.915764
0.911066 0.903364 0.915752
0.916237 0.883625 0.915714
0.000000 0.915476 0.915330
0.000000 0.915476 0.915330
0.000000 0.915476 0.915330
0.000000 0.915476 0.915330
0.000000 0.915474 0.915330
0.000000 0.915470 0.915328
0.000000 0.915456 0.915324
0.000000 0.915412 0.915310
0.915266 0.915266 0.915266
