Postproduction/IWLTBAP - Humble/LUTs by IWLTBAP (CUBE)/UTILITY/Alexa Log-C to Rec.709/U-ALEXA-LOG-C-V5-LTR.cube
# Copyright: (C) Copyright 2010-2018 by IWLTBAP SAS
# Cannot be resold, shared or otherwise redistributed
# Website: https://luts.iwltbap.com
TITLE "Alexa Log-C Version 5 (Utility LOG to Rec.709)"
LUT_3D_SIZE 5
DOMAIN_MIN 0.000000 0.000000 0.000000
DOMAIN_MAX 0.903226 0.903226 0.903226
0.000000 0.000000 0.000000
0.157349 0.000000 0.000000
0.612000 0.000000 0.025299
1.000000 0.000000 0.088928
1.000000 0.000000 0.109802
0.000000 0.145599 0.000000
0.129913 0.141663 0.000000
0.605042 0.100677 0.004791
1.000000 0.000000 0.076294
1.000000 0.000000 0.097168
0.000000 0.572784 0.000000
0.000000 0.572784 0.000000
0.531799 0.567078 0.000000
1.000000 0.549255 0.000000
1.000000 0.541412 0.000000
0.000000 0.993683 0.000000
0.000000 0.993683 0.000000
0.056549 0.993683 0.000000
0.928284 0.985840 0.000000
1.000000 0.981934 0.000000
0.000000 1.000000 0.000000
0.000000 1.000000 0.000000
0.000000 1.000000 0.000000
0.889191 1.000000 0.000000
1.000000 1.000000 0.000000
0.000000 0.000000 0.132935
0.153442 0.000000 0.133820
0.608063 0.000000 0.145599
1.000000 0.000000 0.173950
1.000000 0.000000 0.183929
0.000000 0.125977 0.122070
0.122070 0.122070 0.122070
0.604156 0.073242 0.136871
1.000000 0.000000 0.167358
1.000000 0.000000 0.179108
0.000000 0.571014 0.000000
0.000000 0.568848 0.000000
0.531799 0.563171 0.000000
1.000000 0.545319 0.000000
1.000000 0.537476 0.006073
0.000000 0.993683 0.000000
0.000000 0.993683 0.000000
0.053925 0.989777 0.000000
0.928284 0.981934 0.000000
1.000000 0.979279 0.000000
0.000000 1.000000 0.000000
0.000000 1.000000 0.000000
0.000000 1.000000 0.000000
0.889191 1.000000 0.000000
1.000000 1.000000 0.000000
0.000000 0.000000 0.539642
0.023529 0.000000 0.539642
0.596313 0.000000 0.539642
1.000000 0.000000 0.547485
1.000000 0.000000 0.551392
0.000000 0.000000 0.535706
0.000000 0.000000 0.536591
0.591492 0.000000 0.539642
1.000000 0.000000 0.547485
1.000000 0.000000 0.547485
0.000000 0.522186 0.512177
0.000000 0.520020 0.512177
0.516113 0.516113 0.516113
1.000000 0.492584 0.520905
1.000000 0.484741 0.523956
0.000000 0.974091 0.424622
0.000000 0.972321 0.424622
0.000000 0.972321 0.428558
0.921326 0.963562 0.436401
1.000000 0.960541 0.440308
0.000000 1.000000 0.383759
0.000000 1.000000 0.383759
0.000000 1.000000 0.387695
0.881348 1.000000 0.397675
1.000000 1.000000 0.401611
0.000000 0.000000 0.938782
0.000000 0.000000 0.938782
0.550110 0.000000 0.940033
1.000000 0.000000 0.942719
1.000000 0.000000 0.943970
0.000000 0.000000 0.938782
0.000000 0.000000 0.938782
0.546204 0.000000 0.938782
1.000000 0.000000 0.942719
1.000000 0.000000 0.942719
0.000000 0.313507 0.928284
0.000000 0.313507 0.928284
0.458160 0.299591 0.928284
0.996216 0.247314 0.930939
1.000000 0.224274 0.932190
0.000000 0.911346 0.895660
0.000000 0.911346 0.895660
0.000000 0.908661 0.896912
0.899567 0.899567 0.899567
1.000000 0.895660 0.900818
0.000000 1.000000 0.883881
0.000000 1.000000 0.883881
0.000000 1.000000 0.883881
0.857819 1.000000 0.887817
1.000000 1.000000 0.887817
0.000000 0.000000 1.000000
0.000000 0.000000 1.000000
0.533173 0.000000 1.000000
1.000000 0.000000 1.000000
1.000000 0.000000 1.000000
0.000000 0.000000 1.000000
0.000000 0.000000 1.000000
0.526215 0.000000 1.000000
1.000000 0.000000 1.000000
1.000000 0.000000 1.000000
0.000000 0.109375 1.000000
0.000000 0.105438 1.000000
0.433350 0.091919 1.000000
0.991028 0.047729 1.000000
1.000000 0.019440 1.000000
0.000000 0.886536 1.000000
0.000000 0.886536 1.000000
0.000000 0.882629 1.000000
0.891724 0.874786 1.000000
1.000000 0.870850 1.000000
0.000000 1.000000 0.988220
0.000000 1.000000 0.988220
0.000000 1.000000 0.991791
0.846069 0.996063 0.992157
0.992157 0.992157 0.992157
