Postproduction/IWLTBAP - Humble/LUTs by IWLTBAP (CUBE)/UTILITY/Alexa Log-C to Rec.709/U-ALEXA-LOG-C-V1-LTR.cube
# Copyright: (C) Copyright 2010-2018 by IWLTBAP SAS
# Cannot be resold, shared or otherwise redistributed
# Website: https://luts.iwltbap.com
TITLE "Alexa Log-C Version 1 (Utility LOG to Rec.709)"
LUT_3D_SIZE 8
DOMAIN_MIN 0.000000 0.000000 0.000000
DOMAIN_MAX 0.903226 0.903226 0.903226
0.024353 0.024353 0.024353
0.037933 0.024353 0.024475
0.201569 0.024353 0.026764
0.466125 0.024353 0.041779
0.756775 0.024353 0.082947
0.922852 0.024353 0.130707
0.922852 0.024353 0.145844
0.922852 0.024353 0.145844
0.024353 0.036316 0.024353
0.034607 0.036011 0.024353
0.200500 0.029114 0.025635
0.465881 0.024353 0.040741
0.756683 0.024353 0.082062
0.922852 0.024353 0.130127
0.922852 0.024353 0.145325
0.922852 0.024353 0.145325
0.024353 0.188171 0.024353
0.024353 0.188080 0.024353
0.173370 0.185730 0.024353
0.459717 0.169037 0.024353
0.754059 0.092102 0.060333
0.922852 0.024353 0.115723
0.922852 0.024353 0.133148
0.922852 0.024353 0.133148
0.024353 0.440674 0.024353
0.024353 0.440643 0.024353
0.024353 0.440094 0.024353
0.412689 0.436157 0.024353
0.736237 0.423615 0.024353
0.922852 0.403320 0.024353
0.922852 0.393890 0.024353
0.922852 0.393890 0.024353
0.024353 0.717682 0.024353
0.024353 0.717682 0.024353
0.024353 0.717468 0.024353
0.036591 0.715759 0.024353
0.674866 0.710693 0.024353
0.922852 0.702911 0.024353
0.922852 0.699493 0.024353
0.922852 0.699493 0.024353
0.024353 0.922852 0.024353
0.024353 0.922852 0.024353
0.024353 0.922852 0.024353
0.024353 0.922852 0.024353
0.555847 0.922852 0.024353
0.882690 0.922852 0.024353
0.922852 0.922852 0.024353
0.922852 0.922852 0.024353
0.024353 0.922852 0.024353
0.024353 0.922852 0.024353
0.024353 0.922852 0.024353
0.024353 0.922852 0.024353
0.486053 0.922852 0.024353
0.855316 0.922852 0.024353
0.922852 0.922852 0.024353
0.922852 0.922852 0.024353
0.024353 0.922852 0.024353
0.024353 0.922852 0.024353
0.024353 0.922852 0.024353
0.024353 0.922852 0.024353
0.486053 0.922852 0.024353
0.855316 0.922852 0.024353
0.922852 0.922852 0.024353
0.922852 0.922852 0.024353
0.024353 0.024353 0.034821
0.037292 0.024353 0.034912
0.201355 0.024353 0.036987
0.466064 0.024353 0.051147
0.756775 0.024353 0.091461
0.922852 0.024353 0.135925
0.922852 0.024353 0.150421
0.922852 0.024353 0.150421
0.024353 0.034210 0.033783
0.033875 0.033875 0.033875
0.200134 0.026611 0.035980
0.465820 0.024353 0.050079
0.756653 0.024353 0.090576
0.922852 0.024353 0.135376
0.922852 0.024353 0.149902
0.922852 0.024353 0.149902
0.024353 0.187469 0.024353
0.024353 0.187378 0.024353
0.173126 0.184998 0.024353
0.459656 0.168182 0.025726
0.754028 0.090149 0.069183
0.922852 0.024353 0.121704
0.922852 0.024353 0.138275
0.922852 0.024353 0.138275
0.024353 0.440491 0.024353
0.024353 0.440460 0.024353
0.024353 0.439911 0.024353
0.412628 0.435974 0.024353
0.736237 0.423431 0.024353
0.922852 0.403107 0.024353
0.922852 0.393616 0.024353
0.922852 0.393616 0.024353
0.024353 0.717621 0.024353
0.024353 0.717590 0.024353
0.024353 0.717377 0.024353
0.035889 0.715668 0.024353
0.674835 0.710632 0.024353
0.922852 0.702850 0.024353
0.922852 0.699402 0.024353
0.922852 0.699402 0.024353
0.024353 0.922852 0.024353
0.024353 0.922852 0.024353
0.024353 0.922852 0.024353
0.024353 0.922852 0.024353
0.555817 0.922852 0.024353
0.882660 0.922852 0.024353
0.922852 0.922852 0.024353
0.922852 0.922852 0.024353
0.024353 0.922852 0.024353
0.024353 0.922852 0.024353
0.024353 0.922852 0.024353
0.024353 0.922852 0.024353
0.485992 0.922852 0.024353
0.855316 0.922852 0.024353
0.922852 0.922852 0.024353
0.922852 0.922852 0.024353
0.024353 0.922852 0.024353
0.024353 0.922852 0.024353
0.024353 0.922852 0.024353
0.024353 0.922852 0.024353
0.485992 0.922852 0.024353
0.855316 0.922852 0.024353
0.922852 0.922852 0.024353
0.922852 0.922852 0.024353
0.024353 0.024353 0.175598
0.024353 0.024353 0.175629
0.196198 0.024353 0.176361
0.464813 0.024353 0.181610
0.756226 0.024353 0.196747
0.922852 0.024353 0.216522
0.922852 0.024353 0.224457
0.922852 0.024353 0.224457
0.024353 0.024353 0.175201
0.024353 0.024353 0.175232
0.194916 0.024353 0.176025
0.464569 0.024353 0.181244
0.756104 0.024353 0.196411
0.922852 0.024353 0.216278
0.922852 0.024353 0.224152
0.922852 0.024353 0.224152
0.024353 0.169556 0.165833
0.024353 0.169403 0.165863
0.166718 0.166718 0.166718
0.458221 0.147034 0.172333
0.753510 0.045685 0.188446
0.922852 0.024353 0.209595
0.922852 0.024353 0.217712
0.922852 0.024353 0.217712
0.024353 0.436249 0.063782
0.024353 0.436218 0.063843
0.024353 0.435669 0.065948
0.411133 0.431671 0.078735
0.735626 0.418915 0.113922
0.922852 0.398193 0.150818
0.922852 0.388489 0.163635
0.922852 0.388489 0.163635
0.024353 0.715790 0.024353
0.024353 0.715759 0.024353
0.024353 0.715515 0.024353
0.024353 0.713959 0.024353
0.674042 0.708893 0.024353
0.922852 0.700989 0.024353
0.922852 0.697662 0.024353
0.922852 0.697662 0.024353
0.024353 0.922852 0.024353
0.024353 0.922852 0.024353
0.024353 0.922852 0.024353
0.024353 0.922852 0.024353
0.554932 0.922852 0.024353
0.882294 0.922852 0.024353
0.922852 0.922852 0.024353
0.922852 0.922852 0.024353
0.024353 0.922852 0.024353
0.024353 0.922852 0.024353
0.024353 0.922852 0.024353
0.024353 0.922852 0.024353
0.484833 0.922852 0.024353
0.854919 0.922852 0.024353
0.922852 0.922852 0.024353
0.922852 0.922852 0.024353
0.024353 0.922852 0.024353
0.024353 0.922852 0.024353
0.024353 0.922852 0.024353
0.024353 0.922852 0.024353
0.484833 0.922852 0.024353
0.854919 0.922852 0.024353
0.922852 0.922852 0.024353
0.922852 0.922852 0.024353
0.024353 0.024353 0.416748
0.024353 0.024353 0.416748
0.154083 0.024353 0.416962
0.455963 0.024353 0.418365
0.752563 0.024353 0.422607
0.922852 0.024353 0.428650
0.922852 0.024353 0.431366
0.922852 0.024353 0.431366
0.024353 0.024353 0.416656
0.024353 0.024353 0.416656
0.152527 0.024353 0.416870
0.455688 0.024353 0.418213
0.752472 0.024353 0.422424
0.922852 0.024353 0.428558
0.922852 0.024353 0.431274
0.922852 0.024353 0.431274
0.024353 0.024353 0.414490
0.024353 0.024353 0.414490
0.108551 0.024353 0.414673
0.449127 0.024353 0.415985
0.749847 0.024353 0.420197
0.922852 0.024353 0.426392
0.922852 0.024353 0.429016
0.922852 0.024353 0.429016
0.024353 0.405090 0.398285
0.024353 0.405090 0.398285
0.024353 0.404449 0.398499
0.399902 0.399902 0.399902
0.731720 0.385193 0.404388
0.922852 0.360962 0.411133
0.922852 0.349701 0.413818
0.922852 0.349701 0.413818
0.024353 0.703583 0.339203
0.024353 0.703583 0.339203
0.024353 0.703369 0.339478
0.024353 0.701752 0.341522
0.669525 0.696381 0.347290
0.922852 0.688354 0.355835
0.922852 0.684753 0.359436
0.922852 0.684753 0.359436
0.024353 0.922852 0.185852
0.024353 0.922852 0.185883
0.024353 0.922852 0.186584
0.024353 0.922852 0.191559
0.548370 0.922852 0.205536
0.879669 0.920013 0.224274
0.922852 0.917999 0.231812
0.922852 0.917999 0.231812
0.024353 0.922852 0.024353
0.024353 0.922852 0.024353
0.024353 0.922852 0.024353
0.024353 0.922852 0.024353
0.476562 0.922852 0.024353
0.851959 0.922852 0.076752
0.922852 0.922852 0.101532
0.922852 0.922852 0.101532
0.024353 0.922852 0.024353
0.024353 0.922852 0.024353
0.024353 0.922852 0.024353
0.024353 0.922852 0.024353
0.476562 0.922852 0.024353
0.851959 0.922852 0.076752
0.922852 0.922852 0.101532
0.922852 0.922852 0.101532
0.024353 0.024353 0.680969
0.024353 0.024353 0.680969
0.024353 0.024353 0.681061
0.426025 0.024353 0.681610
0.741058 0.024353 0.683441
0.922852 0.024353 0.686127
0.922852 0.024353 0.687225
0.922852 0.024353 0.687225
0.024353 0.024353 0.680939
0.024353 0.024353 0.680939
0.024353 0.024353 0.681030
0.425720 0.024353 0.681580
0.740936 0.024353 0.683411
0.922852 0.024353 0.686096
0.922852 0.024353 0.687195
0.922852 0.024353 0.687195
0.024353 0.024353 0.680023
0.024353 0.024353 0.680023
0.024353 0.024353 0.680115
0.418549 0.024353 0.680634
0.738190 0.024353 0.682495
0.922852 0.024353 0.685028
0.922852 0.024353 0.686279
0.922852 0.024353 0.686279
0.024353 0.264709 0.673492
0.024353 0.264679 0.673492
0.024353 0.263367 0.673553
0.361572 0.253967 0.674133
0.719513 0.220520 0.675995
0.922852 0.147156 0.678741
0.922852 0.089691 0.679810
0.922852 0.089691 0.679810
0.024353 0.663300 0.652618
0.024353 0.663269 0.652618
0.024353 0.662994 0.652679
0.024353 0.661041 0.653320
0.655273 0.655273 0.655273
0.922852 0.646088 0.657990
0.922852 0.642120 0.659332
0.922852 0.642120 0.659332
0.024353 0.905701 0.618378
0.024353 0.905701 0.618378
0.024353 0.905579 0.618469
0.024353 0.904419 0.619171
0.527496 0.901123 0.621277
0.870941 0.896179 0.624481
0.922852 0.893951 0.625763
0.922852 0.893951 0.625763
0.024353 0.922852 0.602417
0.024353 0.922852 0.602417
0.024353 0.922852 0.602539
0.024353 0.922852 0.603210
0.449188 0.922852 0.605469
0.842896 0.922852 0.608795
0.922852 0.922852 0.610138
0.922852 0.922852 0.610138
0.024353 0.922852 0.602417
0.024353 0.922852 0.602417
0.024353 0.922852 0.602539
0.024353 0.922852 0.603210
0.449188 0.922852 0.605469
0.842896 0.922852 0.608795
0.922852 0.922852 0.610138
0.922852 0.922852 0.610138
0.024353 0.024353 0.890747
0.024353 0.024353 0.890747
0.024353 0.024353 0.890808
0.372589 0.024353 0.891144
0.722870 0.024353 0.892120
0.922852 0.024353 0.893677
0.922852 0.024353 0.894501
0.922852 0.024353 0.894501
0.024353 0.024353 0.890717
0.024353 0.024353 0.890717
0.024353 0.024353 0.890778
0.372192 0.024353 0.891113
0.722748 0.024353 0.892120
0.922852 0.024353 0.893677
0.922852 0.024353 0.894501
0.922852 0.024353 0.894501
0.024353 0.024353 0.890015
0.024353 0.024353 0.890015
0.024353 0.024353 0.890045
0.362976 0.024353 0.890533
0.719910 0.024353 0.891571
0.922852 0.024353 0.893127
0.922852 0.024353 0.893799
0.922852 0.024353 0.893799
0.024353 0.024353 0.886078
0.024353 0.024353 0.886078
0.024353 0.024353 0.886139
0.285217 0.024353 0.886475
0.700348 0.024353 0.887665
0.922852 0.024353 0.889221
0.922852 0.024353 0.889893
0.922852 0.024353 0.889893
0.024353 0.591797 0.873749
0.024353 0.591766 0.873749
0.024353 0.591431 0.873810
0.024353 0.589233 0.874146
0.632324 0.581970 0.875214
0.918243 0.570679 0.876953
0.922852 0.565643 0.877655
0.922852 0.565643 0.877655
0.024353 0.867950 0.854370
0.024353 0.867950 0.854370
0.024353 0.867676 0.854431
0.024353 0.866577 0.854797
0.492523 0.863068 0.855896
0.857697 0.857697 0.857697
0.922852 0.855286 0.858429
0.922852 0.855286 0.858429
0.024353 0.922852 0.845764
0.024353 0.922852 0.845764
0.024353 0.922852 0.845825
0.024353 0.922852 0.846161
0.401123 0.922852 0.847290
0.828705 0.922852 0.849030
0.922852 0.922852 0.849884
0.922852 0.922852 0.849884
0.024353 0.922852 0.845764
0.024353 0.922852 0.845764
0.024353 0.922852 0.845825
0.024353 0.922852 0.846161
0.401123 0.922852 0.847290
0.828705 0.922852 0.849030
0.922852 0.922852 0.849884
0.922852 0.922852 0.849884
0.024353 0.024353 0.922852
0.024353 0.024353 0.922852
0.024353 0.024353 0.922852
0.344666 0.024353 0.922852
0.714783 0.024353 0.922852
0.922852 0.024353 0.922852
0.922852 0.024353 0.922852
0.922852 0.024353 0.922852
0.024353 0.024353 0.922852
0.024353 0.024353 0.922852
0.024353 0.024353 0.922852
0.344177 0.024353 0.922852
0.714661 0.024353 0.922852
0.922852 0.024353 0.922852
0.922852 0.024353 0.922852
0.922852 0.024353 0.922852
0.024353 0.024353 0.922852
0.024353 0.024353 0.922852
0.024353 0.024353 0.922852
0.333679 0.024353 0.922852
0.711731 0.024353 0.922852
0.922852 0.024353 0.922852
0.922852 0.024353 0.922852
0.922852 0.024353 0.922852
0.024353 0.024353 0.922852
0.024353 0.024353 0.922852
0.024353 0.024353 0.922852
0.238617 0.024353 0.922852
0.691742 0.024353 0.922852
0.922852 0.024353 0.922852
0.922852 0.024353 0.922852
0.922852 0.024353 0.922852
0.024353 0.555359 0.922852
0.024353 0.555328 0.922852
0.024353 0.554993 0.922852
0.024353 0.552307 0.922852
0.621796 0.544189 0.922852
0.913147 0.531433 0.922852
0.922852 0.525604 0.922852
0.922852 0.525604 0.922852
0.024353 0.850616 0.922852
0.024353 0.850616 0.922852
0.024353 0.850433 0.922852
0.024353 0.849274 0.922852
0.475952 0.845581 0.922852
0.851715 0.839874 0.922852
0.922852 0.837402 0.922852
0.922852 0.837402 0.922852
0.024353 0.922852 0.919281
0.024353 0.922852 0.919281
0.024353 0.922852 0.919312
0.024353 0.922852 0.919647
0.376801 0.922852 0.920776
0.822357 0.922852 0.922241
0.922852 0.922852 0.922852
0.922852 0.922852 0.922852
0.024353 0.922852 0.919281
0.024353 0.922852 0.919281
0.024353 0.922852 0.919312
0.024353 0.922852 0.919647
0.376801 0.922852 0.920776
0.822357 0.922852 0.922241
0.922852 0.922852 0.922852
0.922852 0.922852 0.922852
0.024353 0.024353 0.922852
0.024353 0.024353 0.922852
0.024353 0.024353 0.922852
0.344666 0.024353 0.922852
0.714783 0.024353 0.922852
0.922852 0.024353 0.922852
0.922852 0.024353 0.922852
0.922852 0.024353 0.922852
0.024353 0.024353 0.922852
0.024353 0.024353 0.922852
0.024353 0.024353 0.922852
0.344177 0.024353 0.922852
0.714661 0.024353 0.922852
0.922852 0.024353 0.922852
0.922852 0.024353 0.922852
0.922852 0.024353 0.922852
0.024353 0.024353 0.922852
0.024353 0.024353 0.922852
0.024353 0.024353 0.922852
0.333679 0.024353 0.922852
0.711731 0.024353 0.922852
0.922852 0.024353 0.922852
0.922852 0.024353 0.922852
0.922852 0.024353 0.922852
0.024353 0.024353 0.922852
0.024353 0.024353 0.922852
0.024353 0.024353 0.922852
0.238617 0.024353 0.922852
0.691742 0.024353 0.922852
0.922852 0.024353 0.922852
0.922852 0.024353 0.922852
0.922852 0.024353 0.922852
0.024353 0.555359 0.922852
0.024353 0.555328 0.922852
0.024353 0.554993 0.922852
0.024353 0.552307 0.922852
0.621796 0.544189 0.922852
0.913147 0.531433 0.922852
0.922852 0.525604 0.922852
0.922852 0.525604 0.922852
0.024353 0.850616 0.922852
0.024353 0.850616 0.922852
0.024353 0.850433 0.922852
0.024353 0.849274 0.922852
0.475952 0.845581 0.922852
0.851715 0.839874 0.922852
0.922852 0.837402 0.922852
0.922852 0.837402 0.922852
0.024353 0.922852 0.919281
0.024353 0.922852 0.919281
0.024353 0.922852 0.919312
0.024353 0.922852 0.919647
0.376801 0.922852 0.920776
0.822357 0.922852 0.922241
0.922852 0.922852 0.922852
0.922852 0.922852 0.922852
0.024353 0.922852 0.919281
0.024353 0.922852 0.919281
0.024353 0.922852 0.919312
0.024353 0.922852 0.919647
0.376801 0.922852 0.920776
0.822357 0.922852 0.922241
0.922852 0.922852 0.922852
0.922852 0.922852 0.922852
