Postproduction/IWLTBAP - Humble/LUTs by IWLTBAP (CUBE)/UTILITY/Alexa Log-C to Rec.709/U-ALEXA-LOG-C-V1-LTR.cube
# Copyright: (C) Copyright 2010-2018 by IWLTBAP SAS
# Cannot be resold, shared or otherwise redistributed
# Website: https://luts.iwltbap.com
TITLE "Alexa Log-C Version 1 (Utility LOG to Rec.709)"
LUT_3D_SIZE 32
0.024353 0.024353 0.024353
0.024353 0.024353 0.024353
0.024353 0.024353 0.024353
0.024353 0.024353 0.024353
0.037933 0.024353 0.024475
0.073822 0.024353 0.024780
0.113983 0.024353 0.025177
0.156189 0.024353 0.025787
0.201569 0.024353 0.026764
0.252594 0.024353 0.028534
0.316315 0.024353 0.031189
0.389435 0.024353 0.035645
0.466125 0.024353 0.041779
0.541473 0.024353 0.049469
0.615173 0.024353 0.058990
0.687042 0.024353 0.070068
0.756775 0.024353 0.082947
0.824127 0.024353 0.096893
0.888611 0.024353 0.110382
0.922852 0.024353 0.121857
0.922852 0.024353 0.130707
0.922852 0.024353 0.137146
0.922852 0.024353 0.141724
0.922852 0.024353 0.144806
0.922852 0.024353 0.145844
0.922852 0.024353 0.145844
0.922852 0.024353 0.145844
0.922852 0.024353 0.145844
0.922852 0.024353 0.145844
0.922852 0.024353 0.145844
0.922852 0.024353 0.145844
0.922852 0.024353 0.145844
0.024353 0.024353 0.024353
0.024353 0.024353 0.024353
0.024353 0.024353 0.024353
0.024353 0.024353 0.024353
0.037933 0.024353 0.024475
0.073822 0.024353 0.024780
0.113983 0.024353 0.025177
0.156189 0.024353 0.025787
0.201569 0.024353 0.026764
0.252594 0.024353 0.028534
0.316315 0.024353 0.031189
0.389435 0.024353 0.035645
0.466125 0.024353 0.041779
0.541473 0.024353 0.049469
0.615173 0.024353 0.058990
0.687042 0.024353 0.070068
0.756775 0.024353 0.082947
0.824127 0.024353 0.096893
0.888611 0.024353 0.110382
0.922852 0.024353 0.121857
0.922852 0.024353 0.130707
0.922852 0.024353 0.137146
0.922852 0.024353 0.141724
0.922852 0.024353 0.144806
0.922852 0.024353 0.145844
0.922852 0.024353 0.145844
0.922852 0.024353 0.145844
0.922852 0.024353 0.145844
0.922852 0.024353 0.145844
0.922852 0.024353 0.145844
0.922852 0.024353 0.145844
0.922852 0.024353 0.145844
0.024353 0.024353 0.024353
0.024353 0.024353 0.024353
0.024353 0.024353 0.024353
0.024353 0.024353 0.024353
0.037933 0.024353 0.024475
0.073822 0.024353 0.024780
0.113983 0.024353 0.025177
0.156189 0.024353 0.025787
0.201569 0.024353 0.026764
0.252594 0.024353 0.028534
0.316315 0.024353 0.031189
0.389435 0.024353 0.035645
0.466125 0.024353 0.041779
0.541473 0.024353 0.049469
0.615173 0.024353 0.058990
0.687042 0.024353 0.070068
0.756775 0.024353 0.082947
0.824127 0.024353 0.096893
0.888611 0.024353 0.110382
0.922852 0.024353 0.121857
0.922852 0.024353 0.130707
0.922852 0.024353 0.137146
0.922852 0.024353 0.141724
0.922852 0.024353 0.144806
0.922852 0.024353 0.145844
0.922852 0.024353 0.145844
0.922852 0.024353 0.145844
0.922852 0.024353 0.145844
0.922852 0.024353 0.145844
0.922852 0.024353 0.145844
0.922852 0.024353 0.145844
0.922852 0.024353 0.145844
0.024353 0.024353 0.024353
0.024353 0.024353 0.024353
0.024353 0.024353 0.024353
0.024353 0.024353 0.024353
0.037933 0.024353 0.024475
0.073822 0.024353 0.024780
0.113983 0.024353 0.025177
0.156189 0.024353 0.025787
0.201569 0.024353 0.026764
0.252594 0.024353 0.028534
0.316315 0.024353 0.031189
0.389435 0.024353 0.035645
0.466125 0.024353 0.041779
0.541473 0.024353 0.049469
0.615173 0.024353 0.058990
0.687042 0.024353 0.070068
0.756775 0.024353 0.082947
0.824127 0.024353 0.096893
0.888611 0.024353 0.110382
0.922852 0.024353 0.121857
0.922852 0.024353 0.130707
0.922852 0.024353 0.137146
0.922852 0.024353 0.141724
0.922852 0.024353 0.144806
0.922852 0.024353 0.145844
0.922852 0.024353 0.145844
0.922852 0.024353 0.145844
0.922852 0.024353 0.145844
0.922852 0.024353 0.145844
0.922852 0.024353 0.145844
0.922852 0.024353 0.145844
0.922852 0.024353 0.145844
0.024353 0.036316 0.024353
0.024353 0.036316 0.024353
0.024353 0.036316 0.024353
0.024353 0.036316 0.024353
0.034607 0.036011 0.024353
0.070709 0.035156 0.024353
0.111755 0.034058 0.024353
0.154510 0.031982 0.024658
0.200500 0.029114 0.025635
0.251678 0.024353 0.027161
0.315765 0.024353 0.030090
0.389099 0.024353 0.034546
0.465881 0.024353 0.040741
0.541290 0.024353 0.048492
0.614990 0.024353 0.058044
0.686920 0.024353 0.069183
0.756683 0.024353 0.082062
0.824036 0.024353 0.096130
0.888550 0.024353 0.109619
0.922852 0.024353 0.121216
0.922852 0.024353 0.130127
0.922852 0.024353 0.136597
0.922852 0.024353 0.141205
0.922852 0.024353 0.144318
0.922852 0.024353 0.145325
0.922852 0.024353 0.145325
0.922852 0.024353 0.145325
0.922852 0.024353 0.145325
0.922852 0.024353 0.145325
0.922852 0.024353 0.145325
0.922852 0.024353 0.145325
0.922852 0.024353 0.145325
0.024353 0.067596 0.024353
0.024353 0.067596 0.024353
0.024353 0.067596 0.024353
0.024353 0.067596 0.024353
0.024353 0.067322 0.024353
0.061371 0.066559 0.024353
0.104431 0.065399 0.024353
0.149811 0.063812 0.024353
0.197266 0.061310 0.024353
0.249512 0.057068 0.024353
0.314148 0.049316 0.026581
0.388031 0.036407 0.031219
0.465088 0.024353 0.037537
0.540741 0.024353 0.045624
0.614532 0.024353 0.054993
0.686554 0.024353 0.066467
0.756348 0.024353 0.079193
0.823761 0.024353 0.093414
0.888336 0.024353 0.107391
0.922852 0.024353 0.119385
0.922852 0.024353 0.128387
0.922852 0.024353 0.135010
0.922852 0.024353 0.139648
0.922852 0.024353 0.142853
0.922852 0.024353 0.143860
0.922852 0.024353 0.143860
0.922852 0.024353 0.143860
0.922852 0.024353 0.143860
0.922852 0.024353 0.143860
0.922852 0.024353 0.143860
0.922852 0.024353 0.143860
0.922852 0.024353 0.143860
0.024353 0.104431 0.024353
0.024353 0.104431 0.024353
0.024353 0.104431 0.024353
0.024353 0.104431 0.024353
0.024353 0.104218 0.024353
0.048492 0.103577 0.024353
0.093903 0.102783 0.024353
0.143372 0.101501 0.024353
0.192841 0.099213 0.024353
0.246429 0.095764 0.024353
0.312134 0.088837 0.024353
0.386627 0.077240 0.026703
0.464081 0.059662 0.033264
0.539917 0.035431 0.041504
0.613922 0.024353 0.051300
0.686035 0.024353 0.062622
0.755920 0.024353 0.075500
0.823364 0.024353 0.089874
0.887970 0.024353 0.104370
0.922852 0.024353 0.116699
0.922852 0.024353 0.125977
0.922852 0.024353 0.132660
0.922852 0.024353 0.137573
0.922852 0.024353 0.140656
0.922852 0.024353 0.141663
0.922852 0.024353 0.141663
0.922852 0.024353 0.141663
0.922852 0.024353 0.141663
0.922852 0.024353 0.141663
0.922852 0.024353 0.141663
0.922852 0.024353 0.141663
0.922852 0.024353 0.141663
0.024353 0.144714 0.024353
0.024353 0.144714 0.024353
0.024353 0.144714 0.024353
0.024353 0.144714 0.024353
0.024353 0.144592 0.024353
0.026825 0.144196 0.024353
0.075195 0.143646 0.024353
0.132141 0.142792 0.024353
0.185638 0.141205 0.024353
0.241547 0.139008 0.024353
0.308777 0.134766 0.024353
0.384247 0.127319 0.024353
0.462311 0.115631 0.026337
0.538696 0.097504 0.035034
0.612946 0.070007 0.045105
0.685059 0.033875 0.056641
0.755249 0.024353 0.069672
0.822723 0.024353 0.084259
0.887512 0.024353 0.099457
0.922852 0.024353 0.112396
0.922852 0.024353 0.122070
0.922852 0.024353 0.129211
0.922852 0.024353 0.134125
0.922852 0.024353 0.137268
0.922852 0.024353 0.138550
0.922852 0.024353 0.138550
0.922852 0.024353 0.138550
0.922852 0.024353 0.138550
0.922852 0.024353 0.138550
0.922852 0.024353 0.138550
0.922852 0.024353 0.138550
0.922852 0.024353 0.138550
0.024353 0.188171 0.024353
0.024353 0.188171 0.024353
0.024353 0.188171 0.024353
0.024353 0.188171 0.024353
0.024353 0.188080 0.024353
0.024353 0.187805 0.024353
0.043915 0.187439 0.024353
0.111725 0.186646 0.024353
0.173370 0.185730 0.024353
0.233521 0.184204 0.024353
0.303467 0.181305 0.024353
0.380524 0.176453 0.024353
0.459717 0.169037 0.024353
0.536560 0.158691 0.024353
0.611237 0.144226 0.034882
0.683807 0.123627 0.046906
0.754059 0.092102 0.060333
0.821777 0.045776 0.075104
0.886597 0.024353 0.091248
0.922852 0.024353 0.105316
0.922852 0.024353 0.115723
0.922852 0.024353 0.123077
0.922852 0.024353 0.128510
0.922852 0.024353 0.131805
0.922852 0.024353 0.133148
0.922852 0.024353 0.133148
0.922852 0.024353 0.133148
0.922852 0.024353 0.133148
0.922852 0.024353 0.133148
0.922852 0.024353 0.133148
0.922852 0.024353 0.133148
0.922852 0.024353 0.133148
0.024353 0.236877 0.024353
0.024353 0.236877 0.024353
0.024353 0.236877 0.024353
0.024353 0.236877 0.024353
0.024353 0.236786 0.024353
0.024353 0.236572 0.024353
0.024353 0.236328 0.024353
0.067444 0.235901 0.024353
0.150818 0.235199 0.024353
0.219635 0.234009 0.024353
0.294342 0.232117 0.024353
0.374573 0.228760 0.024353
0.455414 0.223816 0.024353
0.533264 0.216980 0.024353
0.608765 0.208038 0.024353
0.681641 0.196564 0.030457
0.752350 0.181335 0.044983
0.820312 0.161652 0.060181
0.885284 0.134766 0.076813
0.922852 0.098877 0.092468
0.922852 0.057281 0.104248
0.922852 0.024353 0.112762
0.922852 0.024353 0.118530
0.922852 0.024353 0.122345
0.922852 0.024353 0.123749
0.922852 0.024353 0.123749
0.922852 0.024353 0.123749
0.922852 0.024353 0.123749
0.922852 0.024353 0.123749
0.922852 0.024353 0.123749
0.922852 0.024353 0.123749
0.922852 0.024353 0.123749
0.024353 0.297638 0.024353
0.024353 0.297638 0.024353
0.024353 0.297638 0.024353
0.024353 0.297638 0.024353
0.024353 0.297607 0.024353
0.024353 0.297455 0.024353
0.024353 0.297302 0.024353
0.024353 0.296967 0.024353
0.092834 0.296539 0.024353
0.190948 0.295807 0.024353
0.277252 0.294312 0.024353
0.363281 0.292145 0.024353
0.447479 0.288757 0.024353
0.527405 0.284302 0.024353
0.603943 0.278564 0.024353
0.677826 0.271301 0.024353
0.749176 0.262390 0.024353
0.817566 0.251495 0.031799
0.883057 0.238586 0.049896
0.922852 0.224670 0.066650
0.922852 0.211792 0.080048
0.922852 0.200745 0.090820
0.922852 0.191772 0.098053
0.922852 0.185181 0.102783
0.922852 0.182922 0.104309
0.922852 0.182922 0.104309
0.922852 0.182922 0.104309
0.922852 0.182922 0.104309
0.922852 0.182922 0.104309
0.922852 0.182922 0.104309
0.922852 0.182922 0.104309
0.922852 0.182922 0.104309
0.024353 0.367523 0.024353
0.024353 0.367523 0.024353
0.024353 0.367523 0.024353
0.024353 0.367523 0.024353
0.024353 0.367493 0.024353
0.024353 0.367401 0.024353
0.024353 0.367279 0.024353
0.024353 0.367065 0.024353
0.024353 0.366760 0.024353
0.122375 0.366241 0.024353
0.244904 0.365173 0.024353
0.343475 0.363647 0.024353
0.433838 0.361420 0.024353
0.517273 0.358307 0.024353
0.596130 0.354401 0.024353
0.671600 0.349579 0.024353
0.743958 0.343689 0.024353
0.813141 0.336975 0.024353
0.879120 0.329041 0.024353
0.922852 0.320953 0.024353
0.922852 0.313782 0.035278
0.922852 0.308014 0.047180
0.922852 0.303528 0.055786
0.922852 0.300323 0.061462
0.922852 0.299286 0.063354
0.922852 0.299286 0.063354
0.922852 0.299286 0.063354
0.922852 0.299286 0.063354
0.922852 0.299286 0.063354
0.922852 0.299286 0.063354
0.922852 0.299286 0.063354
0.922852 0.299286 0.063354
0.024353 0.440674 0.024353
0.024353 0.440674 0.024353
0.024353 0.440674 0.024353
0.024353 0.440674 0.024353
0.024353 0.440643 0.024353
0.024353 0.440582 0.024353
0.024353 0.440491 0.024353
0.024353 0.440338 0.024353
0.024353 0.440094 0.024353
0.024353 0.439728 0.024353
0.180237 0.439056 0.024353
0.310730 0.437775 0.024353
0.412689 0.436157 0.024353
0.501984 0.433899 0.024353
0.584381 0.431183 0.024353
0.662140 0.427704 0.024353
0.736237 0.423615 0.024353
0.806549 0.418915 0.024353
0.873505 0.413391 0.024353
0.922852 0.408020 0.024353
0.922852 0.403320 0.024353
0.922852 0.399506 0.024353
0.922852 0.396606 0.024353
0.922852 0.394684 0.024353
0.922852 0.393890 0.024353
0.922852 0.393890 0.024353
0.922852 0.393890 0.024353
0.922852 0.393890 0.024353
0.922852 0.393890 0.024353
0.922852 0.393890 0.024353
0.922852 0.393890 0.024353
0.922852 0.393890 0.024353
0.024353 0.512512 0.024353
0.024353 0.512512 0.024353
0.024353 0.512512 0.024353
0.024353 0.512512 0.024353
0.024353 0.512512 0.024353
0.024353 0.512451 0.024353
0.024353 0.512390 0.024353
0.024353 0.512268 0.024353
0.024353 0.512085 0.024353
0.024353 0.511810 0.024353
0.024353 0.511261 0.024353
0.256744 0.510315 0.024353
0.381927 0.509064 0.024353
0.480713 0.507416 0.024353
0.568390 0.505219 0.024353
0.649475 0.502747 0.024353
0.725830 0.499634 0.024353
0.797852 0.496063 0.024353
0.865997 0.492065 0.024353
0.922852 0.488068 0.024353
0.922852 0.484619 0.024353
0.922852 0.481842 0.024353
0.922852 0.479828 0.024353
0.922852 0.478271 0.024353
0.922852 0.477814 0.024353
0.922852 0.477814 0.024353
0.922852 0.477814 0.024353
0.922852 0.477814 0.024353
0.922852 0.477814 0.024353
0.922852 0.477814 0.024353
0.922852 0.477814 0.024353
0.922852 0.477814 0.024353
0.024353 0.582764 0.024353
0.024353 0.582764 0.024353
0.024353 0.582764 0.024353
0.024353 0.582764 0.024353
0.024353 0.582733 0.024353
0.024353 0.582703 0.024353
0.024353 0.582642 0.024353
0.024353 0.582550 0.024353
0.024353 0.582397 0.024353
0.024353 0.582153 0.024353
0.024353 0.581757 0.024353
0.141174 0.580902 0.024353
0.335876 0.579956 0.024353
0.451508 0.578674 0.024353
0.547180 0.576904 0.024353
0.632996 0.574951 0.024353
0.712372 0.572479 0.024353
0.786682 0.569794 0.024353
0.856323 0.566650 0.024353
0.915955 0.563538 0.024353
0.922852 0.560852 0.024353
0.922852 0.558807 0.024353
0.922852 0.557129 0.024353
0.922852 0.556061 0.024353
0.922852 0.555725 0.024353
0.922852 0.555725 0.024353
0.922852 0.555725 0.024353
0.922852 0.555725 0.024353
0.922852 0.555725 0.024353
0.922852 0.555725 0.024353
0.922852 0.555725 0.024353
0.922852 0.555725 0.024353
0.024353 0.651184 0.024353
0.024353 0.651184 0.024353
0.024353 0.651184 0.024353
0.024353 0.651184 0.024353
0.024353 0.651154 0.024353
0.024353 0.651093 0.024353
0.024353 0.651001 0.024353
0.024353 0.650909 0.024353
0.024353 0.650787 0.024353
0.024353 0.650604 0.024353
0.024353 0.650299 0.024353
0.024353 0.649719 0.024353
0.260681 0.648956 0.024353
0.411041 0.647919 0.024353
0.519348 0.646423 0.024353
0.611847 0.644836 0.024353
0.695557 0.642822 0.024353
0.772675 0.640656 0.024353
0.844452 0.638092 0.024353
0.905640 0.635590 0.024353
0.922852 0.633514 0.024353
0.922852 0.631744 0.024353
0.922852 0.630463 0.024353
0.922852 0.629639 0.024353
0.922852 0.629333 0.024353
0.922852 0.629333 0.024353
0.922852 0.629333 0.024353
0.922852 0.629333 0.024353
0.922852 0.629333 0.024353
0.922852 0.629333 0.024353
0.922852 0.629333 0.024353
0.922852 0.629333 0.024353
0.024353 0.717682 0.024353
0.024353 0.717682 0.024353
0.024353 0.717682 0.024353
0.024353 0.717682 0.024353
0.024353 0.717682 0.024353
0.024353 0.717651 0.024353
0.024353 0.717590 0.024353
0.024353 0.717529 0.024353
0.024353 0.717468 0.024353
0.024353 0.717285 0.024353
0.024353 0.717010 0.024353
0.024353 0.716492 0.024353
0.036591 0.715759 0.024353
0.352234 0.714844 0.024353
0.482819 0.713776 0.024353
0.585449 0.712311 0.024353
0.674866 0.710693 0.024353
0.755768 0.708893 0.024353
0.830139 0.706757 0.024353
0.893005 0.704651 0.024353
0.922852 0.702911 0.024353
0.922852 0.701599 0.024353
0.922852 0.700409 0.024353
0.922852 0.699738 0.024353
0.922852 0.699493 0.024353
0.922852 0.699493 0.024353
0.922852 0.699493 0.024353
0.922852 0.699493 0.024353
0.922852 0.699493 0.024353
0.922852 0.699493 0.024353
0.922852 0.699493 0.024353
0.922852 0.699493 0.024353
0.024353 0.781830 0.024353
0.024353 0.781830 0.024353
0.024353 0.781830 0.024353
0.024353 0.781830 0.024353
0.024353 0.781830 0.024353
0.024353 0.781799 0.024353
0.024353 0.781769 0.024353
0.024353 0.781738 0.024353
0.024353 0.781647 0.024353
0.024353 0.781494 0.024353
0.024353 0.781158 0.024353
0.024353 0.780701 0.024353
0.024353 0.780121 0.024353
0.254608 0.779419 0.024353
0.433929 0.778473 0.024353
0.552094 0.777191 0.024353
0.649567 0.775848 0.024353
0.735382 0.774323 0.024353
0.813293 0.772461 0.024353
0.878296 0.770782 0.024353
0.922852 0.769196 0.024353
0.922852 0.768066 0.024353
0.922852 0.767212 0.024353
0.922852 0.766663 0.024353
0.922852 0.766418 0.024353
0.922852 0.766418 0.024353
0.922852 0.766418 0.024353
0.922852 0.766418 0.024353
0.922852 0.766418 0.024353
0.922852 0.766418 0.024353
0.922852 0.766418 0.024353
0.922852 0.766418 0.024353
0.024353 0.843292 0.024353
0.024353 0.843292 0.024353
0.024353 0.843292 0.024353
0.024353 0.843292 0.024353
0.024353 0.843292 0.024353
0.024353 0.843262 0.024353
0.024353 0.843231 0.024353
0.024353 0.843170 0.024353
0.024353 0.843109 0.024353
0.024353 0.842987 0.024353
0.024353 0.842773 0.024353
0.024353 0.842438 0.024353
0.024353 0.841949 0.024353
0.024353 0.841156 0.024353
0.365082 0.840363 0.024353
0.510284 0.839355 0.024353
0.619202 0.838226 0.024353
0.711578 0.836731 0.024353
0.793671 0.835297 0.024353
0.861420 0.833649 0.024353
0.911774 0.832458 0.024353
0.922852 0.831451 0.024353
0.922852 0.830719 0.024353
0.922852 0.830048 0.024353
0.922852 0.829895 0.024353
0.922852 0.829895 0.024353
0.922852 0.829895 0.024353
0.922852 0.829895 0.024353
0.922852 0.829895 0.024353
0.922852 0.829895 0.024353
0.922852 0.829895 0.024353
0.922852 0.829895 0.024353
0.024353 0.896576 0.024353
0.024353 0.896576 0.024353
0.024353 0.896576 0.024353
0.024353 0.896576 0.024353
0.024353 0.896576 0.024353
0.024353 0.896545 0.024353
0.024353 0.896515 0.024353
0.024353 0.896484 0.024353
0.024353 0.896423 0.024353
0.024353 0.896301 0.024353
0.024353 0.896118 0.024353
0.024353 0.895813 0.024353
0.024353 0.895355 0.024353
0.024353 0.894806 0.024353
0.264343 0.893921 0.024353
0.462097 0.893066 0.024353
0.586517 0.892059 0.024353
0.686646 0.890900 0.024353
0.773285 0.889404 0.024353
0.844055 0.888123 0.024353
0.896271 0.886993 0.024353
0.922852 0.885986 0.024353
0.922852 0.885315 0.024353
0.922852 0.884888 0.024353
0.922852 0.884766 0.024353
0.922852 0.884766 0.024353
0.922852 0.884766 0.024353
0.922852 0.884766 0.024353
0.922852 0.884766 0.024353
0.922852 0.884766 0.024353
0.922852 0.884766 0.024353
0.922852 0.884766 0.024353
0.024353 0.922852 0.024353
0.024353 0.922852 0.024353
0.024353 0.922852 0.024353
0.024353 0.922852 0.024353
0.024353 0.922852 0.024353
0.024353 0.922852 0.024353
0.024353 0.922852 0.024353
0.024353 0.922852 0.024353
0.024353 0.922852 0.024353
0.024353 0.922852 0.024353
0.024353 0.922852 0.024353
0.024353 0.922852 0.024353
0.024353 0.922852 0.024353
0.024353 0.922852 0.024353
0.024353 0.922852 0.024353
0.413025 0.922852 0.024353
0.555847 0.922852 0.024353
0.664032 0.922852 0.024353
0.755432 0.922852 0.024353
0.828857 0.922852 0.024353
0.882690 0.922852 0.024353
0.921600 0.922852 0.024353
0.922852 0.922852 0.024353
0.922852 0.922852 0.024353
0.922852 0.922852 0.024353
0.922852 0.922852 0.024353
0.922852 0.922852 0.024353
0.922852 0.922852 0.024353
0.922852 0.922852 0.024353
0.922852 0.922852 0.024353
0.922852 0.922852 0.024353
0.922852 0.922852 0.024353
0.024353 0.922852 0.024353
0.024353 0.922852 0.024353
0.024353 0.922852 0.024353
0.024353 0.922852 0.024353
0.024353 0.922852 0.024353
0.024353 0.922852 0.024353
0.024353 0.922852 0.024353
0.024353 0.922852 0.024353
0.024353 0.922852 0.024353
0.024353 0.922852 0.024353
0.024353 0.922852 0.024353
0.024353 0.922852 0.024353
0.024353 0.922852 0.024353
0.024353 0.922852 0.024353
0.024353 0.922852 0.024353
0.365326 0.922852 0.024353
0.529114 0.922852 0.024353
0.645020 0.922852 0.024353
0.740540 0.922852 0.024353
0.816437 0.922852 0.024353
0.871674 0.922852 0.024353
0.911407 0.922852 0.024353
0.922852 0.922852 0.024353
0.922852 0.922852 0.024353
0.922852 0.922852 0.024353
0.922852 0.922852 0.024353
0.922852 0.922852 0.024353
0.922852 0.922852 0.024353
0.922852 0.922852 0.024353
0.922852 0.922852 0.024353
0.922852 0.922852 0.024353
0.922852 0.922852 0.024353
0.024353 0.922852 0.024353
0.024353 0.922852 0.024353
0.024353 0.922852 0.024353
0.024353 0.922852 0.024353
0.024353 0.922852 0.024353
0.024353 0.922852 0.024353
0.024353 0.922852 0.024353
0.024353 0.922852 0.024353
0.024353 0.922852 0.024353
0.024353 0.922852 0.024353
0.024353 0.922852 0.024353
0.024353 0.922852 0.024353
0.024353 0.922852 0.024353
0.024353 0.922852 0.024353
0.024353 0.922852 0.024353
0.321503 0.922852 0.024353
0.507660 0.922852 0.024353
0.630188 0.922852 0.024353
0.729126 0.922852 0.024353
0.806854 0.922852 0.024353
0.863251 0.922852 0.024353
0.903656 0.922852 0.024353
0.922852 0.922852 0.024353
0.922852 0.922852 0.024353
0.922852 0.922852 0.024353
0.922852 0.922852 0.024353
0.922852 0.922852 0.024353
0.922852 0.922852 0.024353
0.922852 0.922852 0.024353
0.922852 0.922852 0.024353
0.922852 0.922852 0.024353
0.922852 0.922852 0.024353
0.024353 0.922852 0.024353
0.024353 0.922852 0.024353
0.024353 0.922852 0.024353
0.024353 0.922852 0.024353
0.024353 0.922852 0.024353
0.024353 0.922852 0.024353
0.024353 0.922852 0.024353
0.024353 0.922852 0.024353
0.024353 0.922852 0.024353
0.024353 0.922852 0.024353
0.024353 0.922852 0.024353
0.024353 0.922852 0.024353
0.024353 0.922852 0.024353
0.024353 0.922852 0.024353
0.024353 0.922852 0.024353
0.284363 0.922852 0.024353
0.491852 0.922852 0.024353
0.619568 0.922852 0.024353
0.721069 0.922852 0.024353
0.800323 0.922852 0.024353
0.857452 0.922852 0.024353
0.898346 0.922852 0.024353
0.922852 0.922852 0.024353
0.922852 0.922852 0.024353
0.922852 0.922852 0.024353
0.922852 0.922852 0.024353
0.922852 0.922852 0.024353
0.922852 0.922852 0.024353
0.922852 0.922852 0.024353
0.922852 0.922852 0.024353
0.922852 0.922852 0.024353
0.922852 0.922852 0.024353
0.024353 0.922852 0.024353
0.024353 0.922852 0.024353
0.024353 0.922852 0.024353
0.024353 0.922852 0.024353
0.024353 0.922852 0.024353
0.024353 0.922852 0.024353
0.024353 0.922852 0.024353
0.024353 0.922852 0.024353
0.024353 0.922852 0.024353
0.024353 0.922852 0.024353
0.024353 0.922852 0.024353
0.024353 0.922852 0.024353
0.024353 0.922852 0.024353
0.024353 0.922852 0.024353
0.024353 0.922852 0.024353
0.269379 0.922852 0.024353
0.486053 0.922852 0.024353
0.615784 0.922852 0.024353
0.718201 0.922852 0.024353
0.797913 0.922852 0.024353
0.855316 0.922852 0.024353
0.896393 0.922852 0.024353
0.922852 0.922852 0.024353
0.922852 0.922852 0.024353
0.922852 0.922852 0.024353
0.922852 0.922852 0.024353
0.922852 0.922852 0.024353
0.922852 0.922852 0.024353
0.922852 0.922852 0.024353
0.922852 0.922852 0.024353
0.922852 0.922852 0.024353
0.922852 0.922852 0.024353
0.024353 0.922852 0.024353
0.024353 0.922852 0.024353
0.024353 0.922852 0.024353
0.024353 0.922852 0.024353
0.024353 0.922852 0.024353
0.024353 0.922852 0.024353
0.024353 0.922852 0.024353
0.024353 0.922852 0.024353
0.024353 0.922852 0.024353
0.024353 0.922852 0.024353
0.024353 0.922852 0.024353
0.024353 0.922852 0.024353
0.024353 0.922852 0.024353
0.024353 0.922852 0.024353
0.024353 0.922852 0.024353
0.269379 0.922852 0.024353
0.486053 0.922852 0.024353
0.615784 0.922852 0.024353
0.718201 0.922852 0.024353
0.797913 0.922852 0.024353
0.855316 0.922852 0.024353
0.896393 0.922852 0.024353
0.922852 0.922852 0.024353
0.922852 0.922852 0.024353
0.922852 0.922852 0.024353
0.922852 0.922852 0.024353
0.922852 0.922852 0.024353
0.922852 0.922852 0.024353
0.922852 0.922852 0.024353
0.922852 0.922852 0.024353
0.922852 0.922852 0.024353
0.922852 0.922852 0.024353
0.024353 0.922852 0.024353
0.024353 0.922852 0.024353
0.024353 0.922852 0.024353
0.024353 0.922852 0.024353
0.024353 0.922852 0.024353
0.024353 0.922852 0.024353
0.024353 0.922852 0.024353
0.024353 0.922852 0.024353
0.024353 0.922852 0.024353
0.024353 0.922852 0.024353
0.024353 0.922852 0.024353
0.024353 0.922852 0.024353
0.024353 0.922852 0.024353
0.024353 0.922852 0.024353
0.024353 0.922852 0.024353
0.269379 0.922852 0.024353
0.486053 0.922852 0.024353
0.615784 0.922852 0.024353
0.718201 0.922852 0.024353
0.797913 0.922852 0.024353
0.855316 0.922852 0.024353
0.896393 0.922852 0.024353
0.922852 0.922852 0.024353
0.922852 0.922852 0.024353
0.922852 0.922852 0.024353
0.922852 0.922852 0.024353
0.922852 0.922852 0.024353
0.922852 0.922852 0.024353
0.922852 0.922852 0.024353
0.922852 0.922852 0.024353
0.922852 0.922852 0.024353
0.922852 0.922852 0.024353
0.024353 0.922852 0.024353
0.024353 0.922852 0.024353
0.024353 0.922852 0.024353
0.024353 0.922852 0.024353
0.024353 0.922852 0.024353
0.024353 0.922852 0.024353
0.024353 0.922852 0.024353
0.024353 0.922852 0.024353
0.024353 0.922852 0.024353
0.024353 0.922852 0.024353
0.024353 0.922852 0.024353
0.024353 0.922852 0.024353
0.024353 0.922852 0.024353
0.024353 0.922852 0.024353
0.024353 0.922852 0.024353
0.269379 0.922852 0.024353
0.486053 0.922852 0.024353
