Postproduction/IWLTBAP - Humble/LUTs by IWLTBAP (CUBE)/UTILITY/Alexa Log-C to Rec.709/U-ALEXA-LOG-C-V2-LTR.cube
# Copyright: (C) Copyright 2010-2018 by IWLTBAP SAS
# Cannot be resold, shared or otherwise redistributed
# Website: https://luts.iwltbap.com
TITLE "Alexa Log-C Version 2 (Utility LOG to Rec.709)"
LUT_3D_SIZE 33
0.000000 0.000000 0.000000
0.019101 0.000000 0.000000
0.062815 0.000000 0.000000
0.106532 0.000000 0.000000
0.149247 0.000000 0.000000
0.181416 0.000000 0.000000
0.214976 0.000000 0.000000
0.252489 0.000000 0.000000
0.294516 0.000000 0.000000
0.341847 0.000000 0.000000
0.395384 0.000000 0.000000
0.455798 0.000000 0.000000
0.516285 0.000000 0.000000
0.572401 0.000000 0.000000
0.624313 0.000000 0.000000
0.672098 0.000000 0.000000
0.715764 0.000000 0.000000
0.755276 0.000000 0.000000
0.790569 0.000000 0.000000
0.821551 0.000000 0.000000
0.848119 0.000000 0.000000
0.870154 0.000000 0.000000
0.887531 0.000000 0.000000
0.900119 0.000000 0.000000
0.907782 0.000000 0.000000
0.910456 0.000000 0.000000
0.911355 0.000000 0.000000
0.912255 0.000000 0.000000
0.913154 0.000000 0.000000
0.914054 0.000000 0.000000
0.914953 0.000000 0.000000
0.915852 0.000000 0.000000
0.916751 0.000000 0.000000
0.000000 0.011457 0.000000
0.004584 0.009551 0.000000
0.048295 0.007644 0.000000
0.092019 0.005737 0.000000
0.136042 0.003830 0.000000
0.170686 0.002056 0.000000
0.206201 0.000000 0.000000
0.245148 0.000000 0.000000
0.288420 0.000000 0.000000
0.336706 0.000000 0.000000
0.391043 0.000000 0.000000
0.452207 0.000000 0.000000
0.513800 0.000000 0.000000
0.570683 0.000000 0.000000
0.623130 0.000000 0.000000
0.671287 0.000000 0.000000
0.715213 0.000000 0.000000
0.754906 0.000000 0.000000
0.790324 0.000000 0.000000
0.821392 0.000000 0.000000
0.848019 0.000000 0.000000
0.870093 0.000000 0.000000
0.887497 0.000000 0.000000
0.900102 0.000000 0.000000
0.907775 0.000000 0.000000
0.910455 0.000000 0.000000
0.911355 0.000000 0.000000
0.912254 0.000000 0.000000
0.913154 0.000000 0.000000
0.914054 0.000000 0.000000
0.914953 0.000000 0.000000
0.915852 0.000000 0.000000
0.916751 0.000000 0.000000
0.000000 0.047524 0.000000
0.000000 0.045616 0.000000
0.033772 0.043708 0.000000
0.077491 0.041800 0.000000
0.121170 0.039892 0.000000
0.159182 0.038117 0.000000
0.197014 0.035852 0.000000
0.237587 0.032822 0.000000
0.282169 0.028769 0.000000
0.331472 0.023347 0.000000
0.386646 0.016092 0.000000
0.448541 0.006386 0.000000
0.511276 0.000000 0.000000
0.568944 0.000000 0.000000
0.621936 0.000000 0.000000
0.670471 0.000000 0.000000
0.714659 0.000000 0.000000
0.754534 0.000000 0.000000
0.790078 0.000000 0.000000
0.821233 0.000000 0.000000
0.847918 0.000000 0.000000
0.870032 0.000000 0.000000
0.887462 0.000000 0.000000
0.900084 0.000000 0.000000
0.907769 0.000000 0.000000
0.910454 0.000000 0.000000
0.911354 0.000000 0.000000
0.912254 0.000000 0.000000
0.913154 0.000000 0.000000
0.914053 0.000000 0.000000
0.914953 0.000000 0.000000
0.915852 0.000000 0.000000
0.916751 0.000000 0.000000
0.000000 0.083596 0.000000
0.000000 0.081689 0.000000
0.019254 0.079781 0.000000
0.062968 0.077873 0.000000
0.106685 0.075965 0.000000
0.146650 0.074189 0.000000
0.187281 0.071924 0.000000
0.229757 0.068893 0.000000
0.275765 0.064839 0.000000
0.326141 0.059416 0.000000
0.382189 0.052160 0.000000
0.444810 0.042449 0.000000
0.508711 0.029460 0.000000
0.567185 0.012087 0.000000
0.620731 0.000000 0.000000
0.669649 0.000000 0.000000
0.714102 0.000000 0.000000
0.754161 0.000000 0.000000
0.789831 0.000000 0.000000
0.821073 0.000000 0.000000
0.847817 0.000000 0.000000
0.869971 0.000000 0.000000
0.887428 0.000000 0.000000
0.900067 0.000000 0.000000
0.907762 0.000000 0.000000
0.910453 0.000000 0.000000
0.911353 0.000000 0.000000
0.912254 0.000000 0.000000
0.913153 0.000000 0.000000
0.914053 0.000000 0.000000
0.914952 0.000000 0.000000
0.915852 0.000000 0.000000
0.916751 0.000000 0.000000
0.000000 0.119624 0.000000
0.000000 0.117715 0.000000
0.004737 0.115812 0.000000
0.048448 0.113913 0.000000
0.092173 0.112016 0.000000
0.133016 0.110249 0.000000
0.176941 0.107990 0.000000
0.221600 0.104970 0.000000
0.269182 0.100926 0.000000
0.320709 0.095501 0.000000
0.377671 0.088234 0.000000
0.441041 0.078522 0.000000
0.506105 0.065531 0.000000
0.565405 0.048154 0.000000
0.619515 0.024903 0.000000
0.668821 0.000000 0.000000
0.713543 0.000000 0.000000
0.753787 0.000000 0.000000
0.789584 0.000000 0.000000
0.820913 0.000000 0.000000
0.847716 0.000000 0.000000
0.869910 0.000000 0.000000
0.887393 0.000000 0.000000
0.900049 0.000000 0.000000
0.907756 0.000000 0.000000
0.910452 0.000000 0.000000
0.911353 0.000000 0.000000
0.912253 0.000000 0.000000
0.913153 0.000000 0.000000
0.914053 0.000000 0.000000
0.914952 0.000000 0.000000
0.915852 0.000000 0.000000
0.916751 0.000000 0.000000
0.000000 0.151879 0.000000
0.000000 0.150200 0.000000
0.000000 0.148497 0.000000
0.034934 0.146778 0.000000
0.078654 0.145052 0.000000
0.119289 0.143447 0.000000
0.166691 0.141416 0.000000
0.213703 0.138756 0.000000
0.262865 0.134717 0.000000
0.315562 0.129086 0.000000
0.373412 0.121756 0.000000
0.437500 0.112065 0.000000
0.503642 0.099111 0.000000
0.563729 0.081718 0.000000
0.618374 0.058466 0.000000
0.668046 0.027359 0.000000
0.713020 0.000000 0.000000
0.753437 0.000000 0.000000
0.789353 0.000000 0.000000
0.820764 0.000000 0.000000
0.847622 0.000000 0.000000
0.869853 0.000000 0.000000
0.887361 0.000000 0.000000
0.900033 0.000000 0.000000
0.907749 0.000000 0.000000
0.910451 0.000000 0.000000
0.911352 0.000000 0.000000
0.912253 0.000000 0.000000
0.913153 0.000000 0.000000
0.914052 0.000000 0.000000
0.914952 0.000000 0.000000
0.915852 0.000000 0.000000
0.916751 0.000000 0.000000
0.000000 0.185047 0.000000
0.000000 0.183707 0.000000
0.000000 0.182356 0.000000
0.017695 0.180994 0.000000
0.061408 0.179621 0.000000
0.102099 0.178333 0.000000
0.152550 0.176674 0.000000
0.203177 0.174428 0.000000
0.254512 0.171373 0.000000
0.308852 0.167191 0.000000
0.367898 0.161419 0.000000
0.432929 0.153341 0.000000
0.500443 0.141745 0.000000
0.561563 0.124515 0.000000
0.616903 0.101313 0.000000
0.667050 0.070191 0.000000
0.712348 0.028575 0.000000
0.752988 0.000000 0.000000
0.789058 0.000000 0.000000
0.820573 0.000000 0.000000
0.847502 0.000000 0.000000
0.869781 0.000000 0.000000
0.887319 0.000000 0.000000
0.900012 0.000000 0.000000
0.907741 0.000000 0.000000
0.910450 0.000000 0.000000
0.911351 0.000000 0.000000
0.912252 0.000000 0.000000
0.913152 0.000000 0.000000
0.914052 0.000000 0.000000
0.914952 0.000000 0.000000
0.915851 0.000000 0.000000
0.916751 0.000000 0.000000
0.000000 0.221117 0.000000
0.000000 0.220018 0.000000
0.000000 0.218913 0.000000
0.000000 0.217802 0.000000
0.038337 0.216685 0.000000
0.079018 0.215640 0.000000
0.131035 0.214299 0.000000
0.188044 0.212490 0.000000
0.242847 0.210047 0.000000
0.299614 0.206737 0.000000
0.360371 0.202221 0.000000
0.426725 0.195986 0.000000
0.496062 0.187252 0.000000
0.558614 0.174796 0.000000
0.614910 0.156462 0.000000
0.665704 0.127495 0.000000
0.711443 0.085884 0.000000
0.752385 0.030201 0.000000
0.788660 0.000000 0.000000
0.820316 0.000000 0.000000
0.847340 0.000000 0.000000
0.869683 0.000000 0.000000
0.887264 0.000000 0.000000
0.899984 0.000000 0.000000
0.907731 0.000000 0.000000
0.910449 0.000000 0.000000
0.911350 0.000000 0.000000
0.912251 0.000000 0.000000
0.913152 0.000000 0.000000
0.914052 0.000000 0.000000
0.914952 0.000000 0.000000
0.915851 0.000000 0.000000
0.916751 0.000000 0.000000
0.000000 0.261156 0.000000
0.000000 0.260241 0.000000
0.000000 0.259322 0.000000
0.000000 0.258398 0.000000
0.007479 0.257471 0.000000
0.048152 0.256604 0.000000
0.100080 0.255494 0.000000
0.165333 0.253999 0.000000
0.226264 0.251984 0.000000
0.286742 0.249262 0.000000
0.350002 0.245573 0.000000
0.418264 0.240553 0.000000
0.490012 0.233663 0.000000
0.554575 0.224059 0.000000
0.612197 0.210448 0.000000
0.663879 0.190624 0.000000
0.710220 0.159729 0.000000
0.751572 0.106870 0.000000
0.788126 0.032376 0.000000
0.819971 0.000000 0.000000
0.847124 0.000000 0.000000
0.869552 0.000000 0.000000
0.887189 0.000000 0.000000
0.899946 0.000000 0.000000
0.907716 0.000000 0.000000
0.910447 0.000000 0.000000
0.911349 0.000000 0.000000
0.912250 0.000000 0.000000
0.913151 0.000000 0.000000
0.914051 0.000000 0.000000
0.914951 0.000000 0.000000
0.915851 0.000000 0.000000
0.916750 0.000000 0.000000
0.000000 0.305649 0.000000
0.000000 0.304888 0.000000
0.000000 0.304125 0.000000
0.000000 0.303360 0.000000
0.000000 0.302593 0.000000
0.006862 0.301877 0.000000
0.058769 0.300961 0.000000
0.128235 0.299731 0.000000
0.201724 0.298077 0.000000
0.268413 0.295847 0.000000
0.335552 0.292835 0.000000
0.406615 0.288749 0.000000
0.481553 0.283172 0.000000
0.548997 0.275518 0.000000
0.608481 0.264865 0.000000
0.661395 0.249708 0.000000
0.708563 0.227763 0.000000
0.750472 0.194157 0.000000
0.787405 0.135221 0.000000
0.819507 0.035288 0.000000
0.846832 0.000000 0.000000
0.869376 0.000000 0.000000
0.887090 0.000000 0.000000
0.899896 0.000000 0.000000
0.907697 0.000000 0.000000
0.910445 0.000000 0.000000
0.911347 0.000000 0.000000
0.912249 0.000000 0.000000
0.913150 0.000000 0.000000
0.914050 0.000000 0.000000
0.914951 0.000000 0.000000
0.915850 0.000000 0.000000
0.916750 0.000000 0.000000
0.000000 0.355678 0.000000
0.000000 0.355038 0.000000
0.000000 0.354396 0.000000
0.000000 0.353753 0.000000
0.000000 0.353108 0.000000
0.000000 0.352507 0.000000
0.003528 0.351738 0.000000
0.072975 0.350706 0.000000
0.162445 0.349321 0.000000
0.241243 0.347457 0.000000
0.315025 0.344946 0.000000
0.390359 0.341555 0.000000
0.469521 0.336956 0.000000
0.541200 0.330687 0.000000
0.603348 0.322079 0.000000
0.657991 0.310142 0.000000
0.706304 0.293329 0.000000
0.748981 0.268975 0.000000
0.786431 0.231650 0.000000
0.818880 0.167692 0.000000
0.846439 0.039183 0.000000
0.869139 0.000000 0.000000
0.886955 0.000000 0.000000
0.899828 0.000000 0.000000
0.907671 0.000000 0.000000
0.910441 0.000000 0.000000
0.911345 0.000000 0.000000
0.912247 0.000000 0.000000
0.913148 0.000000 0.000000
0.914049 0.000000 0.000000
0.914950 0.000000 0.000000
0.915850 0.000000 0.000000
0.916750 0.000000 0.000000
0.000000 0.412063 0.000000
0.000000 0.411524 0.000000
0.000000 0.410984 0.000000
0.000000 0.410444 0.000000
0.000000 0.409902 0.000000
0.000000 0.409397 0.000000
0.000000 0.408752 0.000000
0.000000 0.407886 0.000000
0.091989 0.406725 0.000000
0.198635 0.405164 0.000000
0.284967 0.403064 0.000000
0.367295 0.400234 0.000000
0.451958 0.396410 0.000000
0.530108 0.391224 0.000000
0.596169 0.384159 0.000000
0.653287 0.374464 0.000000
0.703208 0.361037 0.000000
0.746949 0.342111 0.000000
0.785108 0.314736 0.000000
0.818033 0.273284 0.000000
0.845909 0.202761 0.000000
0.868820 0.044396 0.000000
0.886775 0.000000 0.000000
0.899737 0.000000 0.000000
0.907637 0.000000 0.000000
0.910437 0.000000 0.000000
0.911341 0.000000 0.000000
0.912245 0.000000 0.000000
0.913147 0.000000 0.000000
0.914048 0.000000 0.000000
0.914949 0.000000 0.000000
0.915849 0.000000 0.000000
0.916749 0.000000 0.000000
0.000000 0.474485 0.000000
0.000000 0.474066 0.000000
0.000000 0.473646 0.000000
0.000000 0.473226 0.000000
0.000000 0.472804 0.000000
0.000000 0.472410 0.000000
0.000000 0.471907 0.000000
0.000000 0.471231 0.000000
0.000000 0.470323 0.000000
0.117367 0.469100 0.000000
0.237843 0.467449 0.000000
0.333563 0.465216 0.000000
0.426047 0.462181 0.000000
0.513922 0.458034 0.000000
0.585953 0.452325 0.000000
0.646703 0.444398 0.000000
0.698926 0.433480 0.000000
0.744161 0.418353 0.000000
0.783304 0.397036 0.000000
0.816882 0.366202 0.000000
0.845192 0.319569 0.000000
0.868388 0.241152 0.000000
0.886531 0.051370 0.000000
0.899614 0.000000 0.000000
0.907589 0.000000 0.000000
0.910431 0.000000 0.000000
0.911337 0.000000 0.000000
0.912241 0.000000 0.000000
0.913144 0.000000 0.000000
0.914046 0.000000 0.000000
0.914947 0.000000 0.000000
0.915848 0.000000 0.000000
0.916748 0.000000 0.000000
0.000000 0.534186 0.000000
0.000000 0.533897 0.000000
0.000000 0.533607 0.000000
0.000000 0.533317 0.000000
0.000000 0.533026 0.000000
0.000000 0.532755 0.000000
0.000000 0.532408 0.000000
0.000000 0.531943 0.000000
0.000000 0.531318 0.000000
0.000000 0.530479 0.000000
0.150297 0.529349 0.000000
0.281202 0.527824 0.000000
0.388122 0.525760 0.000000
0.489343 0.522956 0.000000
0.571038 0.519125 0.000000
0.637327 0.513850 0.000000
0.692927 0.506510 0.000000
0.740300 0.496136 0.000000
0.780827 0.481143 0.000000
0.815310 0.458717 0.000000
0.844216 0.424170 0.000000
0.867804 0.371639 0.000000
0.886201 0.283838 0.000000
0.899448 0.060697 0.000000
0.907526 0.000000 0.000000
0.910423 0.000000 0.000000
0.911331 0.000000 0.000000
0.912237 0.000000 0.000000
0.913141 0.000000 0.000000
0.914044 0.000000 0.000000
0.914945 0.000000 0.000000
0.915847 0.000000 0.000000
0.916747 0.000000 0.000000
0.000000 0.589366 0.000000
0.000000 0.589166 0.000000
0.000000 0.588966 0.000000
0.000000 0.588766 0.000000
0.000000 0.588565 0.000000
0.000000 0.588379 0.000000
0.000000 0.588140 0.000000
0.000000 0.587820 0.000000
0.000000 0.587391 0.000000
0.000000 0.586815 0.000000
0.000000 0.586040 0.000000
0.185664 0.584997 0.000000
0.329343 0.583590 0.000000
0.449464 0.581685 0.000000
0.548381 0.579096 0.000000
0.623623 0.575560 0.000000
0.684374 0.570689 0.000000
0.734886 0.563910 0.000000
0.777393 0.554328 0.000000
0.813150 0.540477 0.000000
0.842882 0.519756 0.000000
0.867008 0.487000 0.000000
0.885753 0.430295 0.000000
0.899222 0.331435 0.000000
0.907439 0.073177 0.000000
0.910412 0.000000 0.000000
0.911323 0.000000 0.000000
0.912231 0.000000 0.000000
0.913136 0.000000 0.000000
0.914040 0.000000 0.000000
0.914943 0.000000 0.000000
0.915845 0.000000 0.000000
0.916746 0.000000 0.000000
0.000000 0.640224 0.000000
0.000000 0.640087 0.000000
0.000000 0.639949 0.000000
0.000000 0.639812 0.000000
0.000000 0.639674 0.000000
0.000000 0.639546 0.000000
0.000000 0.639382 0.000000
0.000000 0.639163 0.000000
0.000000 0.638869 0.000000
0.000000 0.638474 0.000000
0.000000 0.637944 0.000000
0.000000 0.637232 0.000000
0.223670 0.636273 0.000000
0.383378 0.634979 0.000000
0.511624 0.633227 0.000000
0.602780 0.630846 0.000000
0.671853 0.627591 0.000000
0.727152 0.623108 0.000000
0.772568 0.616866 0.000000
0.810148 0.608037 0.000000
0.841044 0.595264 0.000000
0.865917 0.576143 0.000000
0.885141 0.545887 0.000000
0.898914 0.493044 0.000000
0.907320 0.385002 0.000000
0.910398 0.089881 0.000000
0.911312 0.000000 0.000000
0.912223 0.000000 0.000000
0.913130 0.000000 0.000000
0.914036 0.000000 0.000000
0.914940 0.000000 0.000000
0.915842 0.000000 0.000000
0.916744 0.000000 0.000000
0.000000 0.686857 0.000000
0.000000 0.686763 0.000000
0.000000 0.686669 0.000000
0.000000 0.686575 0.000000
0.000000 0.686482 0.000000
0.000000 0.686394 0.000000
0.000000 0.686282 0.000000
0.000000 0.686133 0.000000
0.000000 0.685932 0.000000
0.000000 0.685664 0.000000
0.000000 0.685303 0.000000
0.000000 0.684819 0.000000
0.000000 0.684168 0.000000
0.265550 0.683292 0.000000
0.444134 0.682109 0.000000
0.568920 0.680507 0.000000
0.652766 0.678330 0.000000
0.715804 0.675352 0.000000
0.765659 0.671249 0.000000
0.805921 0.665530 0.000000
0.838485 0.657435 0.000000
0.864410 0.645710 0.000000
0.884300 0.628128 0.000000
0.898492 0.600255 0.000000
0.907157 0.551471 0.000000
0.910379 0.445348 0.000000
0.911298 0.112195 0.000000
0.912212 0.000000 0.000000
0.913123 0.000000 0.000000
0.914030 0.000000 0.000000
0.914935 0.000000 0.000000
0.915839 0.000000 0.000000
0.916742 0.000000 0.000000
0.000000 0.729289 0.000000
0.000000 0.729226 0.000000
0.000000 0.729163 0.000000
0.000000 0.729099 0.000000
0.000000 0.729036 0.000000
0.000000 0.728976 0.000000
0.000000 0.728901 0.000000
0.000000 0.728800 0.000000
0.000000 0.728664 0.000000
0.000000 0.728483 0.000000
0.000000 0.728239 0.000000
0.000000 0.727913 0.000000
0.000000 0.727475 0.000000
0.000000 0.726885 0.000000
0.311834 0.726091 0.000000
0.506692 0.725019 0.000000
0.621676 0.723567 0.000000
0.698452 0.721593 0.000000
0.755489 0.718891 0.000000
0.799850 0.715165 0.000000
0.834869 0.709968 0.000000
0.862304 0.702600 0.000000
0.883133 0.691910 0.000000
0.897907 0.675843 0.000000
0.906929 0.650293 0.000000
0.910353 0.605403 0.000000
0.911279 0.507396 0.000000
0.912198 0.141902 0.000000
0.913112 0.000000 0.000000
0.914022 0.000000 0.000000
0.914929 0.000000 0.000000
0.915835 0.000000 0.000000
0.916738 0.000000 0.000000
0.000000 0.767497 0.000000
0.000000 0.767454 0.000000
0.000000 0.767412 0.000000
0.000000 0.767369 0.000000
0.000000 0.767327 0.000000
0.000000 0.767288 0.000000
0.000000 0.767237 0.000000
0.000000 0.767169 0.000000
0.000000 0.767079 0.000000
0.000000 0.766958 0.000000
0.000000 0.766795 0.000000
0.000000 0.766578 0.000000
0.000000 0.766286 0.000000
0.000000 0.765893 0.000000
0.000000 0.765366 0.000000
0.363716 0.764655 0.000000
0.564374 0.763695 0.000000
0.670072 0.762394 0.000000
0.739873 0.760624 0.000000
0.790874 0.758201 0.000000
0.829651 0.754855 0.000000
0.859313 0.750181 0.000000
0.881491 0.743545 0.000000
0.897088 0.733892 0.000000
0.906608 0.719337 0.000000
0.910317 0.696091 0.000000
0.911253 0.655019 0.000000
0.912179 0.564728 0.000000
0.913098 0.174971 0.000000
0.914011 0.000000 0.000000
0.914921 0.000000 0.000000
0.915829 0.000000 0.000000
0.916734 0.000000 0.000000
0.000000 0.801419 0.000000
0.000000 0.801391 0.000000
0.000000 0.801363 0.000000
0.000000 0.801335 0.000000
0.000000 0.801307 0.000000
0.000000 0.801281 0.000000
0.000000 0.801248 0.000000
0.000000 0.801204 0.000000
0.000000 0.801144 0.000000
0.000000 0.801065 0.000000
0.000000 0.800958 0.000000
0.000000 0.800815 0.000000
0.000000 0.800623 0.000000
0.000000 0.800366 0.000000
0.000000 0.800021 0.000000
0.000000 0.799556 0.000000
0.422023 0.798930 0.000000
0.617496 0.798083 0.000000
0.714187 0.796936 0.000000
0.777012 0.795374 0.000000
0.821892 0.793233 0.000000
0.854969 0.790273 0.000000
0.879142 0.786130 0.000000
0.895924 0.780234 0.000000
0.906147 0.771630 0.000000
0.910266 0.758601 0.000000
0.911218 0.737670 0.000000
0.912153 0.700399 0.000000
0.913078 0.617619 0.000000
0.913997 0.210638 0.000000
0.914911 0.000000 0.000000
0.915821 0.000000 0.000000
0.916728 0.000000 0.000000
0.000000 0.830971 0.000000
0.000000 0.830953 0.000000
0.000000 0.830936 0.000000
0.000000 0.830918 0.000000
0.000000 0.830900 0.000000
0.000000 0.830883 0.000000
0.000000 0.830862 0.000000
0.000000 0.830833 0.000000
0.000000 0.830795 0.000000
0.000000 0.830744 0.000000
0.000000 0.830675 0.000000
0.000000 0.830583 0.000000
0.000000 0.830460 0.000000
0.000000 0.830295 0.000000
0.000000 0.830074 0.000000
0.000000 0.829776 0.000000
0.000000 0.829375 0.000000
0.485341 0.828835 0.000000
0.666247 0.828105 0.000000
0.754037 0.827115 0.000000
0.809815 0.825764 0.000000
0.848454 0.823911 0.000000
0.875694 0.821344 0.000000
0.894233 0.817744 0.000000
0.905473 0.812602 0.000000
0.910174 0.805066 0.000000
0.911170 0.793586 0.000000
0.912117 0.775002 0.000000
0.913052 0.741559 0.000000
0.913978 0.666221 0.000000
0.914896 0.249920 0.000000
0.915810 0.000000 0.000000
0.916720 0.000000 0.000000
0.000000 0.856052 0.000000
0.000000 0.856041 0.000000
0.000000 0.856030 0.000000
0.000000 0.856018 0.000000
0.000000 0.856007 0.000000
0.000000 0.855997 0.000000
0.000000 0.855983 0.000000
0.000000 0.855966 0.000000
0.000000 0.855942 0.000000
0.000000 0.855910 0.000000
0.000000 0.855867 0.000000
0.000000 0.855810 0.000000
0.000000 0.855733 0.000000
0.000000 0.855631 0.000000
0.000000 0.855493 0.000000
0.000000 0.855308 0.000000
0.000000 0.855059 0.000000
0.000000 0.854724 0.000000
0.544691 0.854273 0.000000
0.710714 0.853662 0.000000
0.789589 0.852832 0.000000
0.838201 0.851698 0.000000
0.870455 0.850140 0.000000
0.891706 0.847976 0.000000
0.904459 0.844930 0.000000
0.910004 0.840559 0.000000
0.911105 0.834114 0.000000
0.912070 0.824217 0.000000
0.913017 0.808023 0.000000
0.913952 0.778467 0.000000
0.914877 0.710596 0.000000
0.915796 0.293563 0.000000
0.916709 0.000000 0.000000
0.000000 0.876546 0.000000
0.000000 0.876539 0.000000
0.000000 0.876532 0.000000
0.000000 0.876526 0.000000
0.000000 0.876519 0.000000
0.000000 0.876513 0.000000
0.000000 0.876505 0.000000
0.000000 0.876494 0.000000
0.000000 0.876480 0.000000
0.000000 0.876461 0.000000
0.000000 0.876436 0.000000
0.000000 0.876402 0.000000
0.000000 0.876356 0.000000
0.000000 0.876295 0.000000
0.000000 0.876213 0.000000
0.000000 0.876103 0.000000
0.000000 0.875956 0.000000
0.000000 0.875757 0.000000
0.000000 0.875490 0.000000
0.599384 0.875129 0.000000
0.750916 0.874640 0.000000
0.820777 0.873975 0.000000
0.862069 0.873064 0.000000
0.887777 0.871808 0.000000
0.902877 0.870057 0.000000
0.909685 0.867579 0.000000
0.911016 0.864000 0.000000
0.912005 0.858673 0.000000
0.912970 0.850398 0.000000
0.913917 0.836649 0.000000
0.914851 0.811057 0.000000
0.915776 0.750746 0.000000
0.916695 0.342374 0.000000
0.000000 0.892329 0.000000
0.000000 0.892325 0.000000
0.000000 0.892321 0.000000
0.000000 0.892318 0.000000
0.000000 0.892314 0.000000
0.000000 0.892311 0.000000
0.000000 0.892306 0.000000
0.000000 0.892300 0.000000
0.000000 0.892293 0.000000
0.000000 0.892282 0.000000
0.000000 0.892268 0.000000
0.000000 0.892249 0.000000
0.000000 0.892224 0.000000
0.000000 0.892191 0.000000
0.000000 0.892146 0.000000
0.000000 0.892085 0.000000
0.000000 0.892004 0.000000
0.000000 0.891895 0.000000
0.000000 0.891748 0.000000
0.000000 0.891550 0.000000
0.649652 0.891282 0.000000
0.786824 0.890919 0.000000
0.847514 0.890422 0.000000
0.881308 0.889741 0.000000
0.900293 0.888795 0.000000
0.909075 0.887469 0.000000
0.910893 0.885575 0.000000
0.911916 0.882807 0.000000
0.912905 0.878629 0.000000
0.913869 0.872016 0.000000
0.914816 0.860775 0.000000
0.915750 0.839242 0.000000
0.916676 0.786632 0.000000
0.000000 0.903271 0.000000
0.000000 0.903269 0.000000
0.000000 0.903267 0.000000
0.000000 0.903265 0.000000
0.000000 0.903264 0.000000
0.000000 0.903262 0.000000
0.000000 0.903260 0.000000
0.000000 0.903257 0.000000
0.000000 0.903253 0.000000
0.000000 0.903248 0.000000
0.000000 0.903242 0.000000
0.000000 0.903233 0.000000
0.000000 0.903221 0.000000
0.000000 0.903205 0.000000
0.000000 0.903184 0.000000
0.000000 0.903155 0.000000
0.000000 0.903117 0.000000
0.000000 0.903065 0.000000
0.000000 0.902996 0.000000
0.000000 0.902902 0.000000
0.000000 0.902775 0.000000
0.695615 0.902603 0.000000
0.818375 0.902368 0.000000
0.869692 0.902046 0.000000
0.895793 0.901599 0.000000
0.907873 0.900973 0.000000
0.910720 0.900082 0.000000
0.911793 0.898788 0.000000
0.912816 0.896855 0.000000
0.913804 0.893856 0.000000
0.914768 0.888952 0.000000
0.915715 0.880285 0.000000
0.916650 0.862916 0.000000
0.000000 0.909236 0.000000
0.000000 0.909236 0.000000
0.000000 0.909235 0.000000
0.000000 0.909235 0.000000
0.000000 0.909234 0.000000
0.000000 0.909234 0.000000
0.000000 0.909233 0.000000
0.000000 0.909232 0.000000
0.000000 0.909231 0.000000
0.000000 0.909230 0.000000
0.000000 0.909228 0.000000
0.000000 0.909225 0.000000
0.000000 0.909221 0.000000
0.000000 0.909217 0.000000
0.000000 0.909210 0.000000
0.000000 0.909201 0.000000
0.000000 0.909190 0.000000
0.000000 0.909174 0.000000
0.000000 0.909153 0.000000
0.000000 0.909124 0.000000
0.000000 0.909085 0.000000
0.000000 0.909031 0.000000
0.737313 0.908957 0.000000
0.845482 0.908855 0.000000
0.887197 0.908711 0.000000
0.905396 0.908506 0.000000
0.910472 0.908208 0.000000
0.911620 0.907765 0.000000
0.912692 0.907088 0.000000
0.913715 0.906012 0.000000
0.914704 0.904226 0.000000
0.915668 0.901078 0.000000
0.916615 0.895056 0.000000
0.000000 0.910760 0.000000
0.000000 0.910760 0.000000
0.000000 0.910760 0.000000
0.000000 0.910760 0.000000
0.000000 0.910760 0.000000
0.000000 0.910760 0.000000
0.000000 0.910760 0.000000
0.000000 0.910760 0.000000
0.000000 0.910759 0.000000
0.000000 0.910759 0.000000
0.000000 0.910759 0.000000
0.000000 0.910758 0.000000
0.000000 0.910758 0.000000
0.000000 0.910757 0.000000
0.000000 0.910755 0.000000
0.000000 0.910754 0.000000
0.000000 0.910751 0.000000
0.000000 0.910748 0.000000
0.000000 0.910744 0.000000
0.000000 0.910739 0.000000
0.000000 0.910732 0.000000
0.000000 0.910722 0.000000
0.000000 0.910709 0.000000
