Postproduction/IWLTBAP - Humble/LUTs by IWLTBAP (CUBE)/UTILITY/Alexa Log-C to Rec.709/U-ALEXA-LOG-C-V3-LTR.cube
# Copyright: (C) Copyright 2010-2018 by IWLTBAP SAS
# Cannot be resold, shared or otherwise redistributed
# Website: https://luts.iwltbap.com
TITLE "Alexa Log-C Version 3 (Utility LOG to Rec.709)"
LUT_3D_SIZE 33
0.009379 0.009379 0.009379
0.026989 0.008611 0.009149
0.046435 0.007843 0.008920
0.074227 0.007074 0.008690
0.114112 0.006306 0.008460
0.148901 0.005591 0.008247
0.187044 0.004679 0.007974
0.229886 0.003458 0.007609
0.276800 0.001825 0.007120
0.327524 0.000000 0.006467
0.381233 0.000000 0.005593
0.437190 0.000000 0.004424
0.494536 0.000000 0.002859
0.552386 0.000000 0.000766
0.609622 0.000000 0.000000
0.665515 0.000000 0.000000
0.719387 0.000000 0.000000
0.768133 0.000000 0.000000
0.814875 0.000000 0.000000
0.857670 0.000000 0.000000
0.894308 0.000000 0.000000
0.925030 0.000000 0.000000
0.949734 0.000000 0.000000
0.968772 0.000000 0.000000
0.982249 0.000000 0.000000
0.990731 0.000000 0.000000
0.995036 0.000000 0.000000
0.996871 0.000000 0.000000
0.998119 0.000000 0.000000
0.999283 0.000000 0.000000
1.000455 0.000000 0.000000
1.001627 0.000000 0.000000
1.002800 0.000000 0.000000
0.003530 0.023909 0.006908
0.021139 0.023140 0.006679
0.039370 0.022372 0.006449
0.063578 0.021604 0.006219
0.100608 0.020836 0.005989
0.137080 0.020121 0.005776
0.176969 0.019208 0.005503
0.221579 0.017988 0.005138
0.270084 0.016355 0.004650
0.322149 0.014170 0.003996
0.377029 0.011247 0.003122
0.433947 0.007336 0.001953
0.492076 0.002104 0.000389
0.550550 0.000000 0.000000
0.608278 0.000000 0.000000
0.664541 0.000000 0.000000
0.718698 0.000000 0.000000
0.767674 0.000000 0.000000
0.814535 0.000000 0.000000
0.857450 0.000000 0.000000
0.894170 0.000000 0.000000
0.924944 0.000000 0.000000
0.949684 0.000000 0.000000
0.968744 0.000000 0.000000
0.982235 0.000000 0.000000
0.990725 0.000000 0.000000
0.995034 0.000000 0.000000
0.996870 0.000000 0.000000
0.998119 0.000000 0.000000
0.999283 0.000000 0.000000
1.000455 0.000000 0.000000
1.001627 0.000000 0.000000
1.002799 0.000000 0.000000
0.000000 0.039013 0.004438
0.015290 0.038135 0.004208
0.032939 0.037266 0.003978
0.054442 0.036409 0.003748
0.086601 0.035564 0.003519
0.124632 0.034790 0.003305
0.166433 0.033817 0.003032
0.212944 0.032542 0.002667
0.263161 0.030884 0.002179
0.316642 0.028699 0.001526
0.372744 0.025776 0.000652
0.430652 0.021865 0.000000
0.489585 0.016633 0.000000
0.548696 0.009633 0.000000
0.606923 0.000267 0.000000
0.663562 0.000000 0.000000
0.718005 0.000000 0.000000
0.767213 0.000000 0.000000
0.814194 0.000000 0.000000
0.857231 0.000000 0.000000
0.894031 0.000000 0.000000
0.924858 0.000000 0.000000
0.949634 0.000000 0.000000
0.968715 0.000000 0.000000
0.982221 0.000000 0.000000
0.990719 0.000000 0.000000
0.995032 0.000000 0.000000
0.996870 0.000000 0.000000
0.998118 0.000000 0.000000
0.999283 0.000000 0.000000
1.000455 0.000000 0.000000
1.001627 0.000000 0.000000
1.002799 0.000000 0.000000
0.000000 0.058106 0.001967
0.009441 0.056936 0.001737
0.027050 0.055788 0.001507
0.046515 0.054664 0.001278
0.074347 0.053567 0.001048
0.111402 0.052567 0.000834
0.155447 0.051313 0.000561
0.203967 0.049661 0.000196
0.256019 0.047493 0.000000
0.311000 0.044699 0.000000
0.368374 0.041179 0.000000
0.427306 0.036700 0.000000
0.487063 0.031163 0.000000
0.546822 0.024162 0.000000
0.605558 0.014797 0.000000
0.662576 0.002267 0.000000
0.717309 0.000000 0.000000
0.766750 0.000000 0.000000
0.813852 0.000000 0.000000
0.857010 0.000000 0.000000
0.893892 0.000000 0.000000
0.924772 0.000000 0.000000
0.949584 0.000000 0.000000
0.968687 0.000000 0.000000
0.982208 0.000000 0.000000
0.990713 0.000000 0.000000
0.995030 0.000000 0.000000
0.996869 0.000000 0.000000
0.998118 0.000000 0.000000
0.999282 0.000000 0.000000
1.000455 0.000000 0.000000
1.001627 0.000000 0.000000
1.002799 0.000000 0.000000
0.000000 0.085228 0.000000
0.003592 0.083548 0.000000
0.021201 0.081895 0.000000
0.039441 0.080269 0.000000
0.063683 0.078672 0.000000
0.097637 0.077211 0.000000
0.143946 0.075384 0.000000
0.194630 0.073005 0.000000
0.248642 0.069929 0.000000
0.305210 0.065991 0.000000
0.363918 0.061054 0.000000
0.423907 0.055043 0.000000
0.484510 0.047859 0.000000
0.544930 0.039305 0.000000
0.604182 0.029327 0.000000
0.661585 0.016797 0.000000
0.716609 0.000033 0.000000
0.766286 0.000000 0.000000
0.813509 0.000000 0.000000
0.856789 0.000000 0.000000
0.893752 0.000000 0.000000
0.924686 0.000000 0.000000
0.949534 0.000000 0.000000
0.968659 0.000000 0.000000
0.982194 0.000000 0.000000
0.990707 0.000000 0.000000
0.995029 0.000000 0.000000
0.996868 0.000000 0.000000
0.998117 0.000000 0.000000
0.999282 0.000000 0.000000
1.000454 0.000000 0.000000
1.001627 0.000000 0.000000
1.002799 0.000000 0.000000
0.000000 0.116876 0.000000
0.000000 0.115111 0.000000
0.015758 0.113328 0.000000
0.033428 0.111536 0.000000
0.055120 0.109745 0.000000
0.084932 0.108090 0.000000
0.132731 0.106012 0.000000
0.185586 0.103320 0.000000
0.241554 0.099300 0.000000
0.299684 0.093866 0.000000
0.359691 0.087125 0.000000
0.420697 0.078712 0.000000
0.482105 0.068588 0.000000
0.543151 0.056954 0.000000
0.602892 0.044224 0.000000
0.660657 0.030316 0.000000
0.715956 0.013552 0.000000
0.765852 0.000000 0.000000
0.813189 0.000000 0.000000
0.856583 0.000000 0.000000
0.893622 0.000000 0.000000
0.924606 0.000000 0.000000
0.949487 0.000000 0.000000
0.968632 0.000000 0.000000
0.982181 0.000000 0.000000
0.990701 0.000000 0.000000
0.995027 0.000000 0.000000
0.996867 0.000000 0.000000
0.998117 0.000000 0.000000
0.999282 0.000000 0.000000
1.000454 0.000000 0.000000
1.001627 0.000000 0.000000
1.002799 0.000000 0.000000
0.000000 0.152947 0.000000
0.000000 0.151452 0.000000
0.008812 0.149947 0.000000
0.026422 0.148433 0.000000
0.045710 0.146909 0.000000
0.070809 0.145483 0.000000
0.117584 0.143652 0.000000
0.173489 0.141179 0.000000
0.232167 0.137831 0.000000
0.292437 0.133274 0.000000
0.354174 0.127033 0.000000
0.416533 0.118418 0.000000
0.478995 0.106348 0.000000
0.540857 0.089620 0.000000
0.601231 0.070218 0.000000
0.659464 0.050366 0.000000
0.715117 0.030806 0.000000
0.765297 0.008378 0.000000
0.812780 0.000000 0.000000
0.856319 0.000000 0.000000
0.893456 0.000000 0.000000
0.924503 0.000000 0.000000
0.949428 0.000000 0.000000
0.968599 0.000000 0.000000
0.982165 0.000000 0.000000
0.990694 0.000000 0.000000
0.995025 0.000000 0.000000
0.996866 0.000000 0.000000
0.998116 0.000000 0.000000
0.999281 0.000000 0.000000
1.000454 0.000000 0.000000
1.001626 0.000000 0.000000
1.002799 0.000000 0.000000
0.000000 0.194077 0.000000
0.000000 0.192818 0.000000
0.000000 0.191553 0.000000
0.017129 0.190281 0.000000
0.034885 0.189001 0.000000
0.055335 0.187804 0.000000
0.095724 0.186268 0.000000
0.156302 0.184196 0.000000
0.218958 0.181393 0.000000
0.282388 0.177586 0.000000
0.346571 0.172390 0.000000
0.410835 0.165265 0.000000
0.474762 0.155414 0.000000
0.537745 0.141584 0.000000
0.598986 0.121727 0.000000
0.657855 0.092371 0.000000
0.713986 0.059541 0.000000
0.764549 0.031464 0.000000
0.812230 0.001455 0.000000
0.855965 0.000000 0.000000
0.893233 0.000000 0.000000
0.924365 0.000000 0.000000
0.949348 0.000000 0.000000
0.968554 0.000000 0.000000
0.982143 0.000000 0.000000
0.990684 0.000000 0.000000
0.995022 0.000000 0.000000
0.996865 0.000000 0.000000
0.998115 0.000000 0.000000
0.999281 0.000000 0.000000
1.000453 0.000000 0.000000
1.001626 0.000000 0.000000
1.002798 0.000000 0.000000
0.000000 0.239636 0.000000
0.000000 0.238609 0.000000
0.000000 0.237576 0.000000
0.004696 0.236538 0.000000
0.022306 0.235496 0.000000
0.039304 0.234522 0.000000
0.069301 0.233272 0.000000
0.131258 0.231589 0.000000
0.199969 0.229318 0.000000
0.268229 0.226242 0.000000
0.335973 0.222061 0.000000
0.402970 0.216339 0.000000
0.468967 0.208445 0.000000
0.533504 0.197445 0.000000
0.595937 0.181853 0.000000
0.655677 0.159202 0.000000
0.712456 0.125217 0.000000
0.763542 0.074493 0.000000
0.811491 0.032357 0.000000
0.855490 0.000000 0.000000
0.892933 0.000000 0.000000
0.924181 0.000000 0.000000
0.949241 0.000000 0.000000
0.968493 0.000000 0.000000
0.982114 0.000000 0.000000
0.990671 0.000000 0.000000
0.995018 0.000000 0.000000
0.996864 0.000000 0.000000
0.998114 0.000000 0.000000
0.999280 0.000000 0.000000
1.000453 0.000000 0.000000
1.001626 0.000000 0.000000
1.002798 0.000000 0.000000
0.000000 0.288964 0.000000
0.000000 0.288137 0.000000
0.000000 0.287307 0.000000
0.000000 0.286475 0.000000
0.005672 0.285639 0.000000
0.022057 0.284859 0.000000
0.044375 0.283860 0.000000
0.093065 0.282516 0.000000
0.171820 0.280706 0.000000
0.247780 0.278262 0.000000
0.320937 0.274952 0.000000
0.391985 0.270447 0.000000
0.460957 0.264275 0.000000
0.527690 0.255743 0.000000
0.591776 0.243798 0.000000
0.652718 0.226747 0.000000
0.710378 0.201685 0.000000
0.762180 0.163191 0.000000
0.810496 0.099796 0.000000
0.854850 0.033578 0.000000
0.892531 0.000000 0.000000
0.923933 0.000000 0.000000
0.949097 0.000000 0.000000
0.968412 0.000000 0.000000
0.982074 0.000000 0.000000
0.990653 0.000000 0.000000
0.995013 0.000000 0.000000
0.996861 0.000000 0.000000
0.998113 0.000000 0.000000
0.999279 0.000000 0.000000
1.000452 0.000000 0.000000
1.001625 0.000000 0.000000
1.002798 0.000000 0.000000
0.000000 0.341791 0.000000
0.000000 0.341137 0.000000
0.000000 0.340480 0.000000
0.000000 0.339822 0.000000
0.000000 0.339162 0.000000
0.000000 0.338546 0.000000
0.020714 0.337757 0.000000
0.051892 0.336697 0.000000
0.128138 0.335271 0.000000
0.217128 0.333348 0.000000
0.299106 0.330748 0.000000
0.376364 0.327220 0.000000
0.449740 0.322411 0.000000
0.519648 0.315813 0.000000
0.586060 0.306674 0.000000
0.648676 0.293834 0.000000
0.707545 0.275495 0.000000
0.760342 0.248410 0.000000
0.809154 0.206136 0.000000
0.853986 0.133818 0.000000
0.891989 0.035254 0.000000
0.923599 0.000000 0.000000
0.948904 0.000000 0.000000
0.968303 0.000000 0.000000
0.982022 0.000000 0.000000
0.990630 0.000000 0.000000
0.995006 0.000000 0.000000
0.996858 0.000000 0.000000
0.998111 0.000000 0.000000
0.999278 0.000000 0.000000
1.000451 0.000000 0.000000
1.001624 0.000000 0.000000
1.002797 0.000000 0.000000
0.000000 0.397144 0.000000
0.000000 0.396635 0.000000
0.000000 0.396125 0.000000
0.000000 0.395614 0.000000
0.000000 0.395101 0.000000
0.000000 0.394623 0.000000
0.000000 0.394012 0.000000
0.018917 0.393191 0.000000
0.063558 0.392089 0.000000
0.168281 0.390605 0.000000
0.266264 0.388604 0.000000
0.353569 0.385897 0.000000
0.433722 0.382222 0.000000
0.508363 0.377205 0.000000
0.578134 0.370309 0.000000
0.643116 0.360737 0.000000
0.703658 0.347246 0.000000
0.757853 0.327799 0.000000
0.807340 0.298795 0.000000
0.852818 0.253242 0.000000
0.891257 0.173011 0.000000
0.923149 0.037578 0.000000
0.948644 0.000000 0.000000
0.968157 0.000000 0.000000
0.981951 0.000000 0.000000
0.990598 0.000000 0.000000
0.994997 0.000000 0.000000
0.996854 0.000000 0.000000
0.998109 0.000000 0.000000
0.999276 0.000000 0.000000
1.000450 0.000000 0.000000
1.001623 0.000000 0.000000
1.002796 0.000000 0.000000
0.000000 0.454343 0.000000
0.000000 0.453953 0.000000
0.000000 0.453563 0.000000
0.000000 0.453172 0.000000
0.000000 0.452780 0.000000
0.000000 0.452415 0.000000
0.000000 0.451948 0.000000
0.000000 0.451322 0.000000
0.016512 0.450481 0.000000
0.083245 0.449351 0.000000
0.213238 0.447829 0.000000
0.318845 0.445776 0.000000
0.410209 0.442997 0.000000
0.492197 0.439219 0.000000
0.566980 0.434053 0.000000
0.635396 0.426935 0.000000
0.698294 0.417035 0.000000
0.754460 0.403054 0.000000
0.804863 0.382826 0.000000
0.851232 0.352468 0.000000
0.890266 0.303989 0.000000
0.922542 0.217024 0.000000
0.948294 0.040807 0.000000
0.967959 0.000000 0.000000
0.981855 0.000000 0.000000
0.990556 0.000000 0.000000
0.994985 0.000000 0.000000
0.996849 0.000000 0.000000
0.998105 0.000000 0.000000
0.999273 0.000000 0.000000
1.000448 0.000000 0.000000
1.001622 0.000000 0.000000
1.002795 0.000000 0.000000
0.000000 0.512491 0.000000
0.000000 0.512198 0.000000
0.000000 0.511904 0.000000
0.000000 0.511609 0.000000
0.000000 0.511314 0.000000
0.000000 0.511039 0.000000
0.000000 0.510688 0.000000
0.000000 0.510217 0.000000
0.000000 0.509585 0.000000
0.013295 0.508737 0.000000
0.115213 0.507596 0.000000
0.262085 0.506060 0.000000
0.374185 0.503986 0.000000
0.468330 0.501177 0.000000
0.550930 0.497357 0.000000
0.624519 0.492126 0.000000
0.690838 0.484905 0.000000
0.749779 0.474833 0.000000
0.801459 0.460572 0.000000
0.849069 0.439840 0.000000
0.888920 0.408471 0.000000
0.921720 0.357922 0.000000
0.947820 0.265014 0.000000
0.967693 0.045347 0.000000
0.981727 0.000000 0.000000
0.990499 0.000000 0.000000
0.994968 0.000000 0.000000
0.996842 0.000000 0.000000
0.998101 0.000000 0.000000
0.999270 0.000000 0.000000
1.000446 0.000000 0.000000
1.001620 0.000000 0.000000
1.002794 0.000000 0.000000
0.000000 0.570690 0.000000
0.000000 0.570473 0.000000
0.000000 0.570255 0.000000
0.000000 0.570037 0.000000
0.000000 0.569819 0.000000
0.000000 0.569616 0.000000
0.000000 0.569356 0.000000
0.000000 0.569008 0.000000
0.000000 0.568541 0.000000
0.000000 0.567915 0.000000
0.008991 0.567074 0.000000
0.153637 0.565943 0.000000
0.314393 0.564418 0.000000
0.431480 0.562359 0.000000
0.527050 0.559569 0.000000
0.608839 0.555768 0.000000
0.680357 0.550557 0.000000
0.743194 0.543343 0.000000
0.796757 0.533245 0.000000
0.846099 0.518907 0.000000
0.887079 0.497985 0.000000
0.920601 0.466103 0.000000
0.947177 0.414122 0.000000
0.967333 0.316603 0.000000
0.981553 0.052005 0.000000
0.990422 0.000000 0.000000
0.994946 0.000000 0.000000
0.996832 0.000000 0.000000
0.998095 0.000000 0.000000
0.999266 0.000000 0.000000
1.000442 0.000000 0.000000
1.001618 0.000000 0.000000
1.002792 0.000000 0.000000
0.000000 0.627866 0.000000
0.000000 0.627708 0.000000
0.000000 0.627549 0.000000
0.000000 0.627390 0.000000
0.000000 0.627230 0.000000
0.000000 0.627082 0.000000
0.000000 0.626893 0.000000
0.000000 0.626639 0.000000
0.000000 0.626299 0.000000
0.000000 0.625843 0.000000
0.000000 0.625232 0.000000
0.003233 0.624410 0.000000
0.197000 0.623304 0.000000
0.369542 0.621815 0.000000
0.489929 0.619802 0.000000
0.585430 0.617072 0.000000
0.665221 0.613354 0.000000
0.733633 0.608254 0.000000
0.790232 0.601189 0.000000
0.841977 0.591279 0.000000
0.884544 0.577141 0.000000
0.919070 0.556394 0.000000
0.946301 0.524471 0.000000
0.966843 0.471863 0.000000
0.981317 0.371136 0.000000
0.990318 0.062139 0.000000
0.994916 0.000000 0.000000
0.996819 0.000000 0.000000
0.998087 0.000000 0.000000
0.999260 0.000000 0.000000
1.000438 0.000000 0.000000
1.001615 0.000000 0.000000
1.002790 0.000000 0.000000
0.000000 0.683386 0.000000
0.000000 0.683271 0.000000
0.000000 0.683157 0.000000
0.000000 0.683042 0.000000
0.000000 0.682927 0.000000
0.000000 0.682821 0.000000
0.000000 0.682684 0.000000
0.000000 0.682502 0.000000
0.000000 0.682257 0.000000
0.000000 0.681929 0.000000
0.000000 0.681489 0.000000
0.000000 0.680899 0.000000
0.000000 0.680107 0.000000
0.244566 0.679040 0.000000
0.426698 0.677603 0.000000
0.548670 0.675660 0.000000
0.642503 0.673024 0.000000
0.719437 0.669430 0.000000
0.781186 0.664495 0.000000
0.836171 0.657648 0.000000
0.881016 0.648016 0.000000
0.916958 0.634238 0.000000
0.945097 0.613966 0.000000
0.966174 0.582636 0.000000
0.980996 0.530262 0.000000
0.990176 0.427790 0.000000
0.994876 0.078821 0.000000
0.996802 0.000000 0.000000
0.998076 0.000000 0.000000
0.999252 0.000000 0.000000
1.000432 0.000000 0.000000
1.001610 0.000000 0.000000
1.002787 0.000000 0.000000
0.000000 0.736291 0.000000
0.000000 0.736212 0.000000
0.000000 0.736133 0.000000
0.000000 0.736054 0.000000
0.000000 0.735976 0.000000
0.000000 0.735902 0.000000
0.000000 0.735808 0.000000
0.000000 0.735683 0.000000
0.000000 0.735514 0.000000
0.000000 0.735289 0.000000
0.000000 0.734986 0.000000
0.000000 0.734580 0.000000
0.000000 0.734034 0.000000
0.000000 0.733300 0.000000
0.295664 0.732310 0.000000
0.485084 0.730972 0.000000
0.606629 0.729158 0.000000
0.697702 0.726687 0.000000
0.768397 0.723304 0.000000
0.827795 0.718638 0.000000
0.876034 0.712140 0.000000
0.914011 0.702896 0.000000
0.943428 0.689584 0.000000
0.965255 0.670022 0.000000
0.980555 0.639596 0.000000
0.989982 0.588344 0.000000
0.994821 0.485773 0.000000
0.996779 0.106507 0.000000
0.998062 0.000000 0.000000
0.999242 0.000000 0.000000
1.000425 0.000000 0.000000
1.001604 0.000000 0.000000
1.002782 0.000000 0.000000
0.000000 0.783554 0.000000
0.000000 0.783499 0.000000
0.000000 0.783445 0.000000
0.000000 0.783390 0.000000
0.000000 0.783335 0.000000
0.000000 0.783284 0.000000
0.000000 0.783218 0.000000
0.000000 0.783131 0.000000
0.000000 0.783014 0.000000
0.000000 0.782857 0.000000
0.000000 0.782648 0.000000
0.000000 0.782367 0.000000
0.000000 0.781991 0.000000
0.000000 0.781487 0.000000
0.000000 0.780810 0.000000
0.349960 0.779902 0.000000
0.543835 0.778680 0.000000
0.663083 0.777032 0.000000
0.749261 0.774803 0.000000
0.815299 0.771771 0.000000
0.868845 0.767610 0.000000
0.909836 0.761821 0.000000
0.941084 0.753712 0.000000
0.963978 0.741976 0.000000
0.979944 0.723862 0.000000
0.989715 0.694760 0.000000
0.994745 0.645159 0.000000
0.996747 0.544211 0.000000
0.998043 0.141776 0.000000
0.999228 0.000000 0.000000
1.000414 0.000000 0.000000
1.001597 0.000000 0.000000
1.002777 0.000000 0.000000
0.000000 0.829968 0.000000
0.000000 0.829929 0.000000
0.000000 0.829891 0.000000
0.000000 0.829852 0.000000
0.000000 0.829813 0.000000
0.000000 0.829777 0.000000
0.000000 0.829732 0.000000
0.000000 0.829670 0.000000
0.000000 0.829588 0.000000
0.000000 0.829478 0.000000
0.000000 0.829331 0.000000
0.000000 0.829133 0.000000
0.000000 0.828868 0.000000
0.000000 0.828511 0.000000
0.000000 0.828033 0.000000
0.000000 0.827388 0.000000
0.406478 0.826518 0.000000
0.601901 0.825342 0.000000
0.717415 0.823745 0.000000
0.796238 0.821567 0.000000
0.858140 0.818582 0.000000
0.903793 0.814464 0.000000
0.937742 0.808742 0.000000
0.962183 0.800645 0.000000
0.979084 0.788982 0.000000
0.989342 0.772269 0.000000
0.994640 0.746588 0.000000
0.996703 0.700137 0.000000
0.998017 0.602040 0.000000
0.999208 0.182071 0.000000
1.000400 0.000000 0.000000
1.001586 0.000000 0.000000
1.002769 0.000000 0.000000
0.000000 0.870664 0.000000
0.000000 0.870639 0.000000
0.000000 0.870615 0.000000
0.000000 0.870590 0.000000
0.000000 0.870565 0.000000
0.000000 0.870542 0.000000
0.000000 0.870513 0.000000
0.000000 0.870473 0.000000
0.000000 0.870421 0.000000
0.000000 0.870350 0.000000
0.000000 0.870256 0.000000
0.000000 0.870129 0.000000
0.000000 0.869960 0.000000
0.000000 0.869732 0.000000
0.000000 0.869427 0.000000
0.000000 0.869016 0.000000
0.000000 0.868464 0.000000
0.464531 0.867719 0.000000
0.658504 0.866713 0.000000
0.766596 0.865346 0.000000
0.841520 0.863483 0.000000
0.894772 0.860926 0.000000
0.932856 0.857384 0.000000
0.959611 0.852420 0.000000
0.977849 0.845346 0.000000
0.988814 0.834994 0.000000
0.994490 0.819075 0.000000
0.996644 0.793508 0.000000
0.997981 0.751305 0.000000
0.999183 0.658473 0.000000
1.000382 0.226986 0.000000
1.001572 0.000000 0.000000
1.002758 0.000000 0.000000
0.000000 0.905297 0.000000
0.000000 0.905281 0.000000
0.000000 0.905266 0.000000
0.000000 0.905250 0.000000
0.000000 0.905235 0.000000
0.000000 0.905220 0.000000
0.000000 0.905202 0.000000
0.000000 0.905177 0.000000
0.000000 0.905144 0.000000
0.000000 0.905100 0.000000
0.000000 0.905040 0.000000
0.000000 0.904961 0.000000
0.000000 0.904854 0.000000
0.000000 0.904711 0.000000
0.000000 0.904520 0.000000
0.000000 0.904263 0.000000
0.000000 0.903918 0.000000
0.000000 0.903453 0.000000
0.523238 0.902826 0.000000
0.713074 0.901978 0.000000
0.813516 0.900827 0.000000
0.880624 0.899258 0.000000
0.925454 0.897101 0.000000
0.955832 0.894110 0.000000
0.976040 0.889905 0.000000
0.988051 0.883874 0.000000
0.994270 0.874994 0.000000
0.996561 0.861348 0.000000
0.997934 0.839060 0.000000
0.999148 0.798224 0.000000
1.000356 0.712926 0.000000
1.001554 0.275753 0.000000
1.002745 0.000000 0.000000
0.000000 0.934061 0.000000
0.000000 0.934052 0.000000
0.000000 0.934043 0.000000
0.000000 0.934033 0.000000
0.000000 0.934024 0.000000
0.000000 0.934015 0.000000
0.000000 0.934004 0.000000
0.000000 0.933989 0.000000
0.000000 0.933969 0.000000
0.000000 0.933942 0.000000
0.000000 0.933906 0.000000
0.000000 0.933858 0.000000
0.000000 0.933793 0.000000
0.000000 0.933707 0.000000
0.000000 0.933591 0.000000
0.000000 0.933435 0.000000
0.000000 0.933226 0.000000
0.000000 0.932946 0.000000
0.000000 0.932567 0.000000
0.581674 0.932057 0.000000
0.762729 0.931365 0.000000
0.856602 0.930425 0.000000
0.913684 0.929138 0.000000
0.950088 0.927364 0.000000
0.973317 0.924893 0.000000
0.986921 0.921404 0.000000
0.993927 0.916383 0.000000
0.996445 0.908945 0.000000
0.997868 0.897458 0.000000
0.999102 0.878486 0.000000
1.000323 0.843225 0.000000
1.001529 0.762519 0.000000
1.002726 0.328074 0.000000
0.000000 0.956756 0.000000
0.000000 0.956751 0.000000
0.000000 0.956745 0.000000
0.000000 0.956740 0.000000
0.000000 0.956735 0.000000
0.000000 0.956729 0.000000
0.000000 0.956723 0.000000
0.000000 0.956714 0.000000
0.000000 0.956703 0.000000
0.000000 0.956687 0.000000
0.000000 0.956666 0.000000
0.000000 0.956638 0.000000
0.000000 0.956601 0.000000
0.000000 0.956551 0.000000
0.000000 0.956484 0.000000
0.000000 0.956394 0.000000
0.000000 0.956274 0.000000
0.000000 0.956112 0.000000
0.000000 0.955894 0.000000
0.000000 0.955601 0.000000
0.638844 0.955205 0.000000
0.809695 0.954668 0.000000
0.893472 0.953938 0.000000
0.940823 0.952939 0.000000
0.969052 0.951562 0.000000
0.985194 0.949643 0.000000
0.993365 0.946922 0.000000
0.996279 0.942962 0.000000
0.997779 0.937014 0.000000
0.999040 0.927657 0.000000
1.000277 0.911875 0.000000
1.001495 0.882059 0.000000
1.002701 0.809431 0.000000
0.000000 0.973984 0.000000
0.000000 0.973981 0.000000
0.000000 0.973978 0.000000
0.000000 0.973975 0.000000
0.000000 0.973972 0.000000
0.000000 0.973969 0.000000
0.000000 0.973966 0.000000
0.000000 0.973961 0.000000
0.000000 0.973955 0.000000
0.000000 0.973946 0.000000
0.000000 0.973935 0.000000
0.000000 0.973920 0.000000
0.000000 0.973900 0.000000
0.000000 0.973873 0.000000
0.000000 0.973836 0.000000
0.000000 0.973788 0.000000
0.000000 0.973722 0.000000
0.000000 0.973635 0.000000
0.000000 0.973517 0.000000
0.000000 0.973358 0.000000
0.000000 0.973144 0.000000
0.694167 0.972855 0.000000
0.853289 0.972461 0.000000
0.924379 0.971923 0.000000
0.961982 0.971184 0.000000
0.982438 0.970158 0.000000
0.992433 0.968712 0.000000
0.996039 0.966643 0.000000
0.997655 0.963616 0.000000
0.998956 0.959043 0.000000
1.000215 0.951790 0.000000
1.001449 0.939367 0.000000
1.002667 0.914867 0.000000
0.000000 0.985618 0.000000
0.000000 0.985616 0.000000
0.000000 0.985615 0.000000
0.000000 0.985614 0.000000
0.000000 0.985612 0.000000
0.000000 0.985611 0.000000
0.000000 0.985609 0.000000
0.000000 0.985607 0.000000
0.000000 0.985604 0.000000
0.000000 0.985600 0.000000
0.000000 0.985595 0.000000
0.000000 0.985587 0.000000
0.000000 0.985578 0.000000
0.000000 0.985565 0.000000
0.000000 0.985548 0.000000
0.000000 0.985524 0.000000
0.000000 0.985493 0.000000
0.000000 0.985452 0.000000
0.000000 0.985396 0.000000
0.000000 0.985321 0.000000
0.000000 0.985219 0.000000
0.000000 0.985082 0.000000
0.746153 0.984896 0.000000
0.890666 0.984643 0.000000
0.949251 0.984297 0.000000
0.977709 0.983819 0.000000
0.990846 0.983152 0.000000
0.995689 0.982214 0.000000
0.997485 0.980862 0.000000
0.998842 0.978835 0.000000
1.000130 0.975631 0.000000
1.001387 0.970328 0.000000
1.002621 0.960857 0.000000
0.000000 0.992666 0.000000
0.000000 0.992665 0.000000
0.000000 0.992665 0.000000
0.000000 0.992664 0.000000
0.000000 0.992664 0.000000
0.000000 0.992663 0.000000
0.000000 0.992663 0.000000
0.000000 0.992662 0.000000
0.000000 0.992660 0.000000
0.000000 0.992659 0.000000
0.000000 0.992657 0.000000
0.000000 0.992654 0.000000
0.000000 0.992650 0.000000
0.000000 0.992644 0.000000
0.000000 0.992637 0.000000
0.000000 0.992628 0.000000
0.000000 0.992615 0.000000
0.000000 0.992598 0.000000
0.000000 0.992575 0.000000
0.000000 0.992544 0.000000
0.000000 0.992502 0.000000
0.000000 0.992446 0.000000
0.000000 0.992369 0.000000
