Postproduction/IWLTBAP - Humble/LUTs by IWLTBAP (CUBE)/UTILITY/Alexa Log-C to Rec.709/U-ALEXA-LOG-C-V4-LTR.cube
# Copyright: (C) Copyright 2010-2018 by IWLTBAP SAS
# Cannot be resold, shared or otherwise redistributed
# Website: https://luts.iwltbap.com
TITLE "Alexa Log-C Version 4 (Utility LOG to Rec.709)"
LUT_3D_SIZE 9
0.009379 0.009379 0.009379
0.114112 0.006306 0.008460
0.276800 0.001825 0.007120
0.492595 0.000000 0.002859
0.690577 0.000000 0.000000
0.836496 0.000000 0.000000
0.907318 0.000000 0.000000
0.913154 0.000000 0.000000
0.916751 0.000000 0.000000
0.000000 0.085228 0.000000
0.063683 0.078672 0.000000
0.248642 0.069929 0.000000
0.483122 0.047859 0.000000
0.688236 0.000033 0.000000
0.836030 0.000000 0.000000
0.907286 0.000000 0.000000
0.913153 0.000000 0.000000
0.916751 0.000000 0.000000
0.000000 0.239636 0.000000
0.022306 0.235496 0.000000
0.199969 0.229318 0.000000
0.468265 0.208445 0.000000
0.684741 0.125217 0.000000
0.835346 0.000000 0.000000
0.907239 0.000000 0.000000
0.913151 0.000000 0.000000
0.916750 0.000000 0.000000
0.000000 0.454070 0.000000
0.000000 0.452541 0.000000
0.016512 0.450288 0.000000
0.410209 0.442917 0.000000
0.672913 0.417035 0.000000
0.833116 0.303989 0.000000
0.907085 0.000000 0.000000
0.913144 0.000000 0.000000
0.916748 0.000000 0.000000
0.000000 0.660367 0.000000
0.000000 0.659978 0.000000
0.000000 0.659410 0.000000
0.000000 0.657585 0.000000
0.625429 0.651559 0.000000
0.825402 0.630170 0.000000
0.906560 0.525797 0.000000
0.913123 0.000000 0.000000
0.916742 0.000000 0.000000
0.000000 0.816807 0.000000
0.000000 0.816725 0.000000
0.000000 0.816606 0.000000
0.000000 0.816224 0.000000
0.000000 0.814988 0.000000
0.792868 0.810880 0.000000
0.904515 0.796000 0.000000
0.913052 0.718004 0.000000
0.916720 0.000000 0.000000
0.000000 0.901837 0.000000
0.000000 0.901829 0.000000
0.000000 0.901817 0.000000
0.000000 0.901777 0.000000
0.000000 0.901651 0.000000
0.000000 0.901236 0.000000
0.892777 0.899807 0.000000
0.912816 0.894060 0.000000
0.916650 0.853706 0.000000
0.000000 0.912560 0.000000
0.000000 0.912560 0.000000
0.000000 0.912559 0.000000
0.000000 0.912558 0.000000
0.000000 0.912555 0.000000
0.000000 0.912544 0.000000
0.000000 0.912509 0.000000
0.911906 0.912392 0.000000
0.916413 0.911986 0.000000
0.000000 0.916158 0.000000
0.000000 0.916157 0.000000
0.000000 0.916157 0.000000
0.000000 0.916157 0.000000
0.000000 0.916156 0.000000
0.000000 0.916153 0.000000
0.000000 0.916142 0.000000
0.000000 0.916106 0.000000
0.915504 0.915990 0.000000
0.005885 0.000000 0.077249
0.106027 0.000000 0.075408
0.272812 0.000000 0.072800
0.491215 0.000000 0.065032
0.690230 0.000000 0.045108
0.836427 0.000000 0.000000
0.907313 0.000000 0.000000
0.913154 0.000000 0.000000
0.916751 0.000000 0.000000
0.000000 0.062973 0.059472
0.058042 0.058042 0.058042
0.244118 0.051556 0.056018
0.481660 0.034302 0.050036
0.687883 0.000000 0.033748
0.835961 0.000000 0.000000
0.907281 0.000000 0.000000
0.913153 0.000000 0.000000
0.916751 0.000000 0.000000
0.000000 0.223736 0.040164
0.018812 0.219287 0.039102
0.194338 0.212633 0.037575
0.466667 0.190089 0.032955
0.684377 0.098819 0.019262
0.835275 0.000000 0.000000
0.907234 0.000000 0.000000
0.913151 0.000000 0.000000
0.916750 0.000000 0.000000
0.000000 0.448280 0.000000
0.000000 0.446698 0.000000
0.013018 0.444366 0.000000
0.408021 0.436731 0.000000
0.672513 0.409980 0.000000
0.833043 0.292093 0.000000
0.907080 0.000000 0.000000
0.913144 0.000000 0.000000
0.916748 0.000000 0.000000
0.000000 0.658907 0.000000
0.000000 0.658514 0.000000
0.000000 0.657939 0.000000
0.000000 0.656093 0.000000
0.624854 0.649997 0.000000
0.825320 0.628336 0.000000
0.906554 0.522068 0.000000
0.913122 0.000000 0.000000
0.916741 0.000000 0.000000
0.000000 0.816500 0.000000
0.000000 0.816418 0.000000
0.000000 0.816298 0.000000
0.000000 0.815915 0.000000
0.000000 0.814673 0.000000
0.792741 0.810548 0.000000
0.904508 0.795597 0.000000
0.913052 0.717102 0.000000
0.916720 0.000000 0.000000
0.000000 0.901806 0.000000
0.000000 0.901797 0.000000
0.000000 0.901785 0.000000
0.000000 0.901746 0.000000
0.000000 0.901619 0.000000
0.000000 0.901202 0.000000
0.892760 0.899770 0.000000
0.912815 0.894008 0.000000
0.916650 0.853538 0.000000
0.000000 0.912559 0.000000
0.000000 0.912559 0.000000
0.000000 0.912559 0.000000
0.000000 0.912558 0.000000
0.000000 0.912554 0.000000
0.000000 0.912543 0.000000
0.000000 0.912508 0.000000
0.911906 0.912391 0.000000
0.916413 0.911985 0.000000
0.000000 0.916157 0.000000
0.000000 0.916157 0.000000
0.000000 0.916157 0.000000
0.000000 0.916157 0.000000
0.000000 0.916156 0.000000
0.000000 0.916152 0.000000
0.000000 0.916141 0.000000
0.000000 0.916106 0.000000
0.915504 0.915989 0.000000
0.000791 0.000000 0.226913
0.093747 0.000000 0.225611
0.266868 0.000000 0.223699
0.489181 0.000000 0.217504
0.689723 0.000000 0.196425
0.836325 0.000000 0.112342
0.907306 0.000000 0.000000
0.913154 0.000000 0.000000
0.916751 0.000000 0.000000
0.000000 0.039932 0.212488
0.050721 0.036440 0.211098
0.237352 0.031686 0.209055
0.479505 0.017429 0.202439
0.687366 0.000000 0.179862
0.835859 0.000000 0.088961
0.907274 0.000000 0.000000
0.913152 0.000000 0.000000
0.916751 0.000000 0.000000
0.000000 0.198316 0.189665
0.013717 0.193335 0.188129
0.185872 0.185872 0.185872
0.464308 0.160395 0.178539
0.683845 0.063834 0.153404
0.835172 0.000000 0.060939
0.907227 0.000000 0.000000
0.913150 0.000000 0.000000
0.916750 0.000000 0.000000
0.000000 0.439470 0.097745
0.000000 0.437805 0.095465
0.007923 0.435349 0.092223
0.404791 0.427300 0.082684
0.671927 0.399264 0.057660
0.832936 0.273612 0.008935
0.907073 0.000000 0.000000
0.913144 0.000000 0.000000
0.916748 0.000000 0.000000
0.000000 0.656749 0.000000
0.000000 0.656350 0.000000
0.000000 0.655765 0.000000
0.000000 0.653888 0.000000
0.624013 0.647685 0.000000
0.825199 0.625618 0.000000
0.906546 0.516471 0.000000
0.913122 0.000000 0.000000
0.916741 0.000000 0.000000
0.000000 0.816051 0.000000
0.000000 0.815968 0.000000
0.000000 0.815847 0.000000
0.000000 0.815462 0.000000
0.000000 0.814212 0.000000
0.792556 0.810060 0.000000
0.904497 0.795007 0.000000
0.913052 0.715772 0.000000
0.916720 0.000000 0.000000
0.000000 0.901760 0.000000
0.000000 0.901751 0.000000
0.000000 0.901739 0.000000
0.000000 0.901699 0.000000
0.000000 0.901572 0.000000
0.000000 0.901154 0.000000
0.892736 0.899716 0.000000
0.912815 0.893932 0.000000
0.916650 0.853292 0.000000
0.000000 0.912558 0.000000
0.000000 0.912558 0.000000
0.000000 0.912557 0.000000
0.000000 0.912556 0.000000
0.000000 0.912553 0.000000
0.000000 0.912542 0.000000
0.000000 0.912506 0.000000
0.911905 0.912390 0.000000
0.916413 0.911984 0.000000
0.000000 0.916157 0.000000
0.000000 0.916157 0.000000
0.000000 0.916157 0.000000
0.000000 0.916156 0.000000
0.000000 0.916155 0.000000
0.000000 0.916152 0.000000
0.000000 0.916141 0.000000
0.000000 0.916105 0.000000
0.915504 0.915989 0.000000
0.000000 0.000000 0.440287
0.061364 0.000000 0.439793
0.246848 0.000000 0.439071
0.482541 0.000000 0.436753
0.688095 0.000000 0.429110
0.836003 0.000000 0.402560
0.907284 0.000000 0.286133
0.913153 0.000000 0.000000
0.916751 0.000000 0.000000
0.000000 0.000000 0.434901
0.031634 0.000000 0.434391
0.214355 0.000000 0.433646
0.472458 0.000000 0.431254
0.685706 0.000000 0.423384
0.835534 0.000000 0.396087
0.907252 0.000000 0.275134
0.913151 0.000000 0.000000
0.916751 0.000000 0.000000
0.000000 0.092377 0.426741
0.000000 0.085415 0.426209
0.156695 0.075988 0.425431
0.456581 0.052112 0.422939
0.682137 0.003191 0.414763
0.834843 0.000000 0.386294
0.907204 0.000000 0.258082
0.913149 0.000000 0.000000
0.916750 0.000000 0.000000
0.000000 0.408341 0.398516
0.000000 0.406401 0.397911
0.000000 0.403541 0.397026
0.394187 0.394187 0.394187
0.670046 0.361207 0.384837
0.832595 0.202179 0.351871
0.907049 0.000000 0.193191
0.913143 0.000000 0.000000
0.916748 0.000000 0.000000
0.000000 0.649638 0.271671
0.000000 0.649216 0.270605
0.000000 0.648599 0.269042
0.000000 0.646615 0.263997
0.621302 0.640054 0.247024
0.824816 0.616599 0.181952
0.906521 0.497258 0.000000
0.913121 0.000000 0.000000
0.916741 0.000000 0.000000
0.000000 0.814601 0.000000
0.000000 0.814517 0.000000
0.000000 0.814394 0.000000
0.000000 0.814000 0.000000
0.000000 0.812726 0.000000
0.791964 0.808487 0.000000
0.904463 0.793100 0.000000
0.913051 0.711436 0.000000
0.916719 0.000000 0.000000
0.000000 0.901611 0.000000
0.000000 0.901603 0.000000
0.000000 0.901590 0.000000
0.000000 0.901550 0.000000
0.000000 0.901421 0.000000
0.000000 0.900998 0.000000
0.892658 0.899543 0.000000
0.912814 0.893689 0.000000
0.916649 0.852502 0.000000
0.000000 0.912554 0.000000
0.000000 0.912554 0.000000
0.000000 0.912553 0.000000
0.000000 0.912552 0.000000
0.000000 0.912549 0.000000
0.000000 0.912538 0.000000
0.000000 0.912502 0.000000
0.911904 0.912386 0.000000
0.916413 0.911979 0.000000
0.000000 0.916156 0.000000
0.000000 0.916156 0.000000
0.000000 0.916155 0.000000
0.000000 0.916155 0.000000
0.000000 0.916154 0.000000
0.000000 0.916151 0.000000
0.000000 0.916140 0.000000
0.000000 0.916104 0.000000
0.915503 0.915988 0.000000
0.000000 0.000000 0.649479
0.003114 0.000000 0.649352
0.167171 0.000000 0.649168
0.459292 0.000000 0.648581
0.682730 0.000000 0.646681
0.834957 0.000000 0.640405
0.907212 0.000000 0.618082
0.913150 0.000000 0.507708
0.916750 0.000000 0.000000
0.000000 0.000000 0.648115
0.000000 0.000000 0.647988
0.120032 0.000000 0.647802
0.447669 0.000000 0.647208
0.680232 0.000000 0.645289
0.834480 0.000000 0.638945
0.907179 0.000000 0.616362
0.913148 0.000000 0.504123
0.916750 0.000000 0.000000
0.000000 0.000000 0.646102
0.000000 0.000000 0.645973
0.051365 0.000000 0.645784
0.429175 0.000000 0.645181
0.676498 0.000000 0.643232
0.833778 0.000000 0.636788
0.907130 0.000000 0.613817
0.913146 0.000000 0.498751
0.916749 0.000000 0.000000
0.000000 0.261360 0.639490
0.000000 0.257606 0.639354
0.000000 0.252016 0.639155
0.356282 0.233254 0.638522
0.663821 0.159821 0.636473
0.831491 0.000000 0.629690
0.906973 0.000000 0.605402
0.913139 0.000000 0.480395
0.916747 0.000000 0.000000
0.000000 0.623905 0.615833
0.000000 0.623395 0.615672
0.000000 0.622647 0.615436
0.000000 0.620242 0.614683
0.612244 0.612244 0.612244
0.823572 0.583102 0.604131
0.906437 0.414647 0.574568
0.913118 0.000000 0.403427
0.916740 0.000000 0.000000
0.000000 0.809756 0.494903
0.000000 0.809666 0.494546
0.000000 0.809534 0.494024
0.000000 0.809114 0.492353
0.000000 0.807752 0.486884
0.790038 0.803219 0.468038
0.904352 0.786683 0.389199
0.913047 0.696329 0.000000
0.916718 0.000000 0.000000
0.000000 0.901123 0.000000
0.000000 0.901115 0.000000
0.000000 0.901101 0.000000
0.000000 0.901060 0.000000
0.000000 0.900926 0.000000
0.000000 0.900485 0.000000
0.892406 0.898972 0.000000
0.912810 0.892888 0.000000
0.916648 0.849886 0.000000
0.000000 0.912541 0.000000
0.000000 0.912541 0.000000
0.000000 0.912541 0.000000
0.000000 0.912539 0.000000
0.000000 0.912536 0.000000
0.000000 0.912525 0.000000
0.000000 0.912489 0.000000
0.911899 0.912372 0.000000
0.916412 0.911963 0.000000
0.000000 0.916152 0.000000
0.000000 0.916152 0.000000
0.000000 0.916151 0.000000
0.000000 0.916151 0.000000
0.000000 0.916150 0.000000
0.000000 0.916147 0.000000
0.000000 0.916136 0.000000
0.000000 0.916100 0.000000
0.915502 0.915983 0.000000
0.000000 0.000000 0.809469
0.000000 0.000000 0.809442
0.000000 0.000000 0.809403
0.356030 0.000000 0.809277
0.663783 0.000000 0.808873
0.831484 0.000000 0.807565
0.906973 0.000000 0.803217
0.913139 0.000000 0.787445
0.916747 0.000000 0.703887
0.000000 0.000000 0.809178
0.000000 0.000000 0.809151
0.000000 0.000000 0.809111
0.336536 0.000000 0.808985
0.660874 0.000000 0.808580
0.830980 0.000000 0.807267
0.906938 0.000000 0.802901
0.913138 0.000000 0.787062
0.916746 0.000000 0.703009
0.000000 0.000000 0.808751
0.000000 0.000000 0.808724
0.000000 0.000000 0.808684
0.304623 0.000000 0.808557
0.656512 0.000000 0.808150
0.830238 0.000000 0.806829
0.906888 0.000000 0.802438
0.913136 0.000000 0.786500
0.916746 0.000000 0.701717
0.000000 0.000000 0.807378
0.000000 0.000000 0.807350
0.000000 0.000000 0.807309
0.156506 0.000000 0.807180
0.641586 0.000000 0.806765
0.827820 0.000000 0.805420
0.906723 0.000000 0.800947
0.913129 0.000000 0.784689
0.916744 0.000000 0.697509
0.000000 0.483005 0.802805
0.000000 0.481718 0.802775
0.000000 0.479824 0.802732
0.000000 0.473655 0.802595
0.578616 0.452212 0.802155
0.819428 0.360445 0.800727
0.906163 0.000000 0.795974
0.913107 0.000000 0.778619
0.916737 0.000000 0.682933
0.000000 0.791799 0.786107
0.000000 0.791686 0.786071
0.000000 0.791521 0.786018
0.000000 0.790994 0.785850
0.000000 0.789283 0.785311
0.783559 0.783559 0.783559
0.903987 0.762265 0.777698
0.913037 0.629593 0.755911
0.916715 0.000000 0.620145
0.000000 0.899425 0.694396
0.000000 0.899415 0.694308
0.000000 0.899400 0.694180
0.000000 0.899353 0.693769
0.000000 0.899201 0.692445
0.000000 0.898702 0.688102
0.891578 0.896989 0.673043
0.912799 0.890107 0.607930
0.916645 0.840550 0.000000
0.000000 0.912500 0.000000
0.000000 0.912499 0.000000
0.000000 0.912499 0.000000
0.000000 0.912498 0.000000
0.000000 0.912494 0.000000
0.000000 0.912483 0.000000
0.000000 0.912447 0.000000
0.911884 0.912328 0.000000
0.916408 0.911913 0.000000
0.000000 0.916139 0.000000
0.000000 0.916139 0.000000
0.000000 0.916139 0.000000
0.000000 0.916138 0.000000
0.000000 0.916137 0.000000
0.000000 0.916134 0.000000
0.000000 0.916123 0.000000
0.000000 0.916087 0.000000
0.915497 0.915970 0.000000
0.000000 0.000000 0.899302
0.000000 0.000000 0.899299
0.000000 0.000000 0.899294
0.000000 0.000000 0.899280
0.574170 0.000000 0.899234
0.818932 0.000000 0.899087
0.906130 0.000000 0.898606
0.913106 0.000000 0.896958
0.916736 0.000000 0.890403
0.000000 0.000000 0.899269
0.000000 0.000000 0.899266
0.000000 0.000000 0.899261
0.000000 0.000000 0.899247
0.568587 0.000000 0.899201
0.818325 0.000000 0.899054
0.906090 0.000000 0.898572
0.913105 0.000000 0.896920
0.916736 0.000000 0.890351
0.000000 0.000000 0.899221
0.000000 0.000000 0.899217
0.000000 0.000000 0.899213
0.000000 0.000000 0.899199
0.560058 0.000000 0.899153
0.817430 0.000000 0.899005
0.906032 0.000000 0.898521
0.913103 0.000000 0.896864
0.916735 0.000000 0.890273
0.000000 0.000000 0.899066
0.000000 0.000000 0.899063
0.000000 0.000000 0.899059
0.000000 0.000000 0.899044
0.529280 0.000000 0.898998
0.814507 0.000000 0.898849
0.905842 0.000000 0.898360
0.913096 0.000000 0.896686
0.916733 0.000000 0.890026
0.000000 0.000000 0.898561
0.000000 0.000000 0.898558
0.000000 0.000000 0.898553
0.000000 0.000000 0.898538
0.356029 0.000000 0.898491
0.804282 0.000000 0.898336
0.905198 0.000000 0.897831
0.913074 0.000000 0.896100
0.916727 0.000000 0.889217
0.000000 0.684765 0.896825
0.000000 0.684445 0.896822
0.000000 0.683977 0.896817
0.000000 0.682477 0.896800
0.000000 0.677545 0.896747
0.758931 0.660292 0.896575
0.902716 0.582410 0.896013
0.913002 0.000000 0.894090
0.916705 0.000000 0.886433
0.000000 0.892324 0.889847
0.000000 0.892308 0.889842
0.000000 0.892287 0.889835
0.000000 0.892216 0.889812
0.000000 0.891990 0.889737
0.000000 0.891250 0.889496
0.888707 0.888707 0.888707
0.912762 0.878435 0.886001
0.916634 0.795906 0.875149
0.000000 0.912363 0.839319
0.000000 0.912363 0.839301
0.000000 0.912362 0.839276
0.000000 0.912361 0.839195
0.000000 0.912357 0.838936
0.000000 0.912346 0.838097
0.000000 0.912308 0.835331
0.911834 0.912183 0.825551
0.916396 0.911747 0.780448
0.000000 0.916097 0.000000
0.000000 0.916097 0.000000
0.000000 0.916097 0.000000
0.000000 0.916097 0.000000
0.000000 0.916096 0.000000
0.000000 0.916092 0.000000
0.000000 0.916081 0.000000
0.000000 0.916045 0.000000
0.915482 0.915926 0.000000
0.000000 0.000000 0.912353
0.000000 0.000000 0.912353
0.000000 0.000000 0.912353
0.000000 0.000000 0.912352
0.000000 0.000000 0.912351
0.754610 0.000000 0.912348
0.902511 0.000000 0.912336
0.912997 0.000000 0.912300
0.916703 0.000000 0.912181
0.000000 0.000000 0.912352
0.000000 0.000000 0.912352
0.000000 0.000000 0.912352
0.000000 0.000000 0.912351
0.000000 0.000000 0.912350
0.753309 0.000000 0.912347
0.902450 0.000000 0.912336
0.912996 0.000000 0.912299
0.916703 0.000000 0.912180
0.000000 0.000000 0.912351
0.000000 0.000000 0.912351
0.000000 0.000000 0.912351
0.000000 0.000000 0.912350
0.000000 0.000000 0.912349
0.751381 0.000000 0.912346
0.902361 0.000000 0.912334
0.912993 0.000000 0.912298
0.916702 0.000000 0.912179
0.000000 0.000000 0.912347
0.000000 0.000000 0.912347
0.000000 0.000000 0.912347
0.000000 0.000000 0.912347
0.000000 0.000000 0.912345
0.744993 0.000000 0.912342
0.902073 0.000000 0.912331
0.912986 0.000000 0.912294
0.916700 0.000000 0.912175
0.000000 0.000000 0.912335
0.000000 0.000000 0.912335
0.000000 0.000000 0.912335
0.000000 0.000000 0.912335
0.000000 0.000000 0.912334
0.721407 0.000000 0.912330
0.901098 0.000000 0.912319
0.912964 0.000000 0.912282
0.916693 0.000000 0.912162
0.000000 0.000000 0.912297
0.000000 0.000000 0.912297
0.000000 0.000000 0.912297
0.000000 0.000000 0.912297
0.000000 0.000000 0.912296
0.578385 0.000000 0.912292
0.897398 0.000000 0.912281
0.912890 0.000000 0.912244
0.916671 0.000000 0.912122
0.000000 0.833138 0.912172
0.000000 0.833074 0.912172
0.000000 0.832980 0.912172
0.000000 0.832680 0.912171
0.000000 0.831711 0.912170
0.000000 0.828505 0.912166
0.876722 0.817059 0.912154
0.912640 0.761752 0.912116
0.916600 0.000000 0.911989
0.000000 0.911878 0.911732
0.000000 0.911878 0.911732
0.000000 0.911878 0.911732
0.000000 0.911876 0.911731
0.000000 0.911872 0.911730
0.000000 0.911858 0.911726
0.000000 0.911814 0.911712
0.911667 0.911667 0.911667
0.916359 0.911145 0.911520
0.000000 0.915961 0.907942
0.000000 0.915960 0.907941
0.000000 0.915960 0.907939
0.000000 0.915960 0.907934
0.000000 0.915959 0.907918
0.000000 0.915955 0.907865
0.000000 0.915943 0.907692
0.000000 0.915906 0.907085
0.915432 0.915781 0.904563
0.000000 0.000000 0.915950
0.000000 0.000000 0.915950
0.000000 0.000000 0.915950
0.000000 0.000000 0.915950
0.000000 0.000000 0.915950
0.000000 0.000000 0.915949
0.874299 0.000000 0.915945
0.912620 0.000000 0.915934
0.916594 0.000000 0.915898
0.000000 0.000000 0.915950
0.000000 0.000000 0.915950
0.000000 0.000000 0.915950
0.000000 0.000000 0.915950
0.000000 0.000000 0.915950
0.000000 0.000000 0.915948
0.874085 0.000000 0.915945
0.912618 0.000000 0.915934
0.916594 0.000000 0.915897
0.000000 0.000000 0.915950
0.000000 0.000000 0.915950
0.000000 0.000000 0.915950
0.000000 0.000000 0.915950
0.000000 0.000000 0.915949
0.000000 0.000000 0.915948
0.873770 0.000000 0.915945
0.912615 0.000000 0.915933
0.916593 0.000000 0.915897
0.000000 0.000000 0.915949
0.000000 0.000000 0.915949
0.000000 0.000000 0.915949
0.000000 0.000000 0.915948
0.000000 0.000000 0.915948
0.000000 0.000000 0.915947
0.872752 0.000000 0.915943
0.912607 0.000000 0.915932
0.916591 0.000000 0.915896
0.000000 0.000000 0.915945
0.000000 0.000000 0.915945
0.000000 0.000000 0.915945
0.000000 0.000000 0.915945
0.000000 0.000000 0.915944
0.000000 0.000000 0.915943
0.869296 0.000000 0.915940
0.912582 0.000000 0.915929
0.916584 0.000000 0.915892
0.000000 0.000000 0.915933
0.000000 0.000000 0.915933
0.000000 0.000000 0.915933
0.000000 0.000000 0.915933
0.000000 0.000000 0.915933
0.000000 0.000000 0.915932
0.855856 0.000000 0.915928
0.912498 0.000000 0.915917
0.916561 0.000000 0.915880
0.000000 0.000000 0.915895
0.000000 0.000000 0.915895
0.000000 0.000000 0.915895
0.000000 0.000000 0.915895
0.000000 0.000000 0.915895
0.000000 0.000000 0.915893
0.758759 0.000000 0.915890
0.912212 0.000000 0.915878
0.916487 0.000000 0.915841
0.000000 0.906566 0.915770
0.000000 0.906561 0.915770
0.000000 0.906554 0.915770
0.000000 0.906531 0.915770
0.000000 0.906458 0.915769
0.000000 0.906218 0.915768
0.000000 0.905384 0.915764
0.911066 0.901952 0.915752
0.916237 0.878173 0.915714
0.000000 0.915476 0.915330
0.000000 0.915476 0.915330
0.000000 0.915476 0.915330
0.000000 0.915476 0.915330
0.000000 0.915474 0.915330
0.000000 0.915470 0.915328
0.000000 0.915456 0.915324
0.000000 0.915412 0.915310
0.915266 0.915266 0.915266
