Postproduction/IWLTBAP - Humble/LUTs by IWLTBAP (CUBE)/UTILITY/Alexa Log-C to Rec.709/U-ALEXA-LOG-C-V5-LTR.cube
# Copyright: (C) Copyright 2010-2018 by IWLTBAP SAS
# Cannot be resold, shared or otherwise redistributed
# Website: https://luts.iwltbap.com
TITLE "Alexa Log-C Version 5 (Utility LOG to Rec.709)"
LUT_3D_SIZE 8
DOMAIN_MIN 0.000000 0.000000 0.000000
DOMAIN_MAX 0.903226 0.903226 0.903226
0.000000 0.000000 0.000000
0.049072 0.000000 0.000000
0.202148 0.000000 0.000000
0.464630 0.000000 0.011780
0.751587 0.000000 0.041229
0.998596 0.000000 0.080963
1.000000 0.000000 0.101959
1.000000 0.000000 0.109802
0.000000 0.044647 0.000000
0.036804 0.041229 0.000000
0.198212 0.036316 0.000000
0.464630 0.001007 0.007843
0.751587 0.000000 0.037323
0.997223 0.000000 0.080444
1.000000 0.000000 0.101074
1.000000 0.000000 0.105896
0.000000 0.186462 0.000000
0.000000 0.186462 0.000000
0.169769 0.182526 0.000000
0.453369 0.170258 0.000000
0.747650 0.130524 0.012787
0.997223 0.025116 0.057953
1.000000 0.000000 0.083374
1.000000 0.000000 0.089172
0.000000 0.435638 0.000000
0.000000 0.435638 0.000000
0.000000 0.435638 0.000000
0.404266 0.429321 0.000000
0.723114 0.419464 0.000000
0.991669 0.400848 0.000000
1.000000 0.387695 0.000000
1.000000 0.385284 0.000000
0.000000 0.708435 0.000000
0.000000 0.708435 0.000000
0.000000 0.708435 0.000000
0.191742 0.706421 0.000000
0.659363 0.700592 0.000000
0.954865 0.692749 0.000000
1.000000 0.685791 0.000000
1.000000 0.684906 0.000000
0.000000 0.952454 0.000000
0.000000 0.952454 0.000000
0.000000 0.952454 0.000000
0.000000 0.952454 0.000000
0.533997 0.948517 0.000000
0.889709 0.940674 0.000000
1.000000 0.939301 0.000000
1.000000 0.936768 0.000000
0.000000 1.000000 0.000000
0.000000 1.000000 0.000000
0.000000 1.000000 0.000000
0.000000 1.000000 0.000000
0.417786 1.000000 0.000000
0.843292 1.000000 0.000000
0.999115 1.000000 0.000000
1.000000 1.000000 0.000000
0.000000 1.000000 0.000000
0.000000 1.000000 0.000000
0.000000 1.000000 0.000000
0.000000 1.000000 0.000000
0.378082 1.000000 0.000000
0.828094 1.000000 0.000000
0.990387 1.000000 0.000000
1.000000 1.000000 0.000000
0.000000 0.000000 0.036804
0.049072 0.000000 0.036804
0.202148 0.000000 0.040741
0.464630 0.000000 0.050079
0.751587 0.000000 0.077545
0.998596 0.000000 0.109436
1.000000 0.000000 0.126495
1.000000 0.000000 0.129913
0.000000 0.032898 0.032898
0.032898 0.032898 0.032898
0.198212 0.027954 0.036804
0.464630 0.000000 0.046173
0.751587 0.000000 0.073639
0.997223 0.000000 0.105499
1.000000 0.000000 0.122589
1.000000 0.000000 0.126495
0.000000 0.182526 0.007843
0.000000 0.182526 0.008362
0.169769 0.181519 0.011261
0.453369 0.166840 0.023529
0.747650 0.126099 0.052490
0.997223 0.019836 0.088806
1.000000 0.000000 0.109802
1.000000 0.000000 0.113739
0.000000 0.433258 0.000000
0.000000 0.433258 0.000000
0.000000 0.433258 0.000000
0.404266 0.429321 0.000000
0.723114 0.417572 0.000000
0.991669 0.400848 0.000000
1.000000 0.387695 0.003937
1.000000 0.383789 0.007233
0.000000 0.707947 0.000000
0.000000 0.706421 0.000000
0.000000 0.706421 0.000000
0.189331 0.706421 0.000000
0.659363 0.698578 0.000000
0.954865 0.690735 0.000000
1.000000 0.684906 0.000000
1.000000 0.684906 0.000000
0.000000 0.952454 0.000000
0.000000 0.952454 0.000000
0.000000 0.952454 0.000000
0.000000 0.950562 0.000000
0.531982 0.948517 0.000000
0.889709 0.940674 0.000000
1.000000 0.936768 0.000000
1.000000 0.936768 0.000000
0.000000 1.000000 0.000000
0.000000 1.000000 0.000000
0.000000 1.000000 0.000000
0.000000 1.000000 0.000000
0.417786 1.000000 0.000000
0.840759 1.000000 0.000000
0.999115 1.000000 0.000000
1.000000 1.000000 0.000000
0.000000 1.000000 0.000000
0.000000 1.000000 0.000000
0.000000 1.000000 0.000000
0.000000 1.000000 0.000000
0.378082 1.000000 0.000000
0.828094 1.000000 0.000000
0.990387 1.000000 0.000000
1.000000 1.000000 0.000000
0.000000 0.000000 0.170776
0.031891 0.000000 0.170776
0.194305 0.000000 0.173676
0.464630 0.000000 0.177612
0.751587 0.000000 0.187469
0.997223 0.000000 0.202637
1.000000 0.000000 0.211884
1.000000 0.000000 0.212891
0.000000 0.000000 0.170258
0.016205 0.000000 0.170776
0.190369 0.000000 0.170776
0.460693 0.000000 0.175201
0.751587 0.000000 0.185455
0.997223 0.000000 0.201141
1.000000 0.000000 0.210999
1.000000 0.000000 0.212402
0.000000 0.165833 0.161926
0.000000 0.165833 0.161926
0.161926 0.161926 0.161926
0.452850 0.145721 0.165833
0.746643 0.097137 0.177612
0.997223 0.000000 0.193298
1.000000 0.000000 0.204041
1.000000 0.000000 0.204041
0.000000 0.428314 0.092712
0.000000 0.428314 0.092712
0.000000 0.428314 0.096130
0.400360 0.423889 0.102081
0.722626 0.412109 0.119659
0.991669 0.393005 0.143707
1.000000 0.379852 0.155457
1.000000 0.376434 0.158386
0.000000 0.704529 0.000000
0.000000 0.704529 0.000000
0.000000 0.704529 0.000000
0.184875 0.702484 0.000000
0.659363 0.696686 0.000000
0.954865 0.688843 0.000000
1.000000 0.682892 0.000000
1.000000 0.681000 0.000000
0.000000 0.950043 0.000000
0.000000 0.950043 0.000000
0.000000 0.948517 0.000000
0.000000 0.948517 0.000000
0.531464 0.944611 0.000000
0.889709 0.940674 0.000000
1.000000 0.936768 0.000000
1.000000 0.936768 0.000000
0.000000 1.000000 0.000000
0.000000 1.000000 0.000000
0.000000 1.000000 0.000000
0.000000 1.000000 0.000000
0.413849 1.000000 0.000000
0.840759 1.000000 0.000000
0.999115 1.000000 0.000000
1.000000 1.000000 0.000000
0.000000 1.000000 0.000000
0.000000 1.000000 0.000000
0.000000 1.000000 0.000000
0.000000 1.000000 0.000000
0.374146 1.000000 0.000000
0.827087 1.000000 0.000000
0.990387 1.000000 0.000000
1.000000 1.000000 0.000000
0.000000 0.000000 0.408203
0.000000 0.000000 0.408203
0.164307 0.000000 0.408203
0.452850 0.000000 0.409729
0.747650 0.000000 0.413635
0.997223 0.000000 0.419952
1.000000 0.000000 0.423889
1.000000 0.000000 0.423889
0.000000 0.000000 0.408203
0.000000 0.000000 0.408203
0.157990 0.000000 0.408203
0.452850 0.000000 0.409210
0.746155 0.000000 0.412109
0.997223 0.000000 0.419952
1.000000 0.000000 0.423889
1.000000 0.000000 0.423889
0.000000 0.000000 0.404266
0.000000 0.000000 0.404266
0.121185 0.000000 0.404266
0.441589 0.000000 0.405792
0.742218 0.000000 0.410217
0.995819 0.000000 0.416046
1.000000 0.000000 0.419952
1.000000 0.000000 0.419952
0.000000 0.396423 0.388580
0.000000 0.396423 0.388580
0.000000 0.392517 0.388580
0.388580 0.388580 0.388580
0.718689 0.376312 0.392517
0.988770 0.354797 0.398834
1.000000 0.340637 0.402771
1.000000 0.336731 0.404266
0.000000 0.689209 0.336578
0.000000 0.689209 0.336578
0.000000 0.687317 0.337585
0.145477 0.687317 0.339996
0.651520 0.681366 0.344421
0.950928 0.671631 0.352264
1.000000 0.667725 0.356201
1.000000 0.663788 0.356201
0.000000 0.940674 0.228790
0.000000 0.940674 0.228790
0.000000 0.940674 0.228790
0.000000 0.939178 0.232697
0.523621 0.935242 0.240540
0.885773 0.929932 0.251801
1.000000 0.926025 0.259644
1.000000 0.924988 0.259644
0.000000 1.000000 0.074371
0.000000 1.000000 0.074371
0.000000 1.000000 0.075256
0.000000 1.000000 0.083099
0.402618 1.000000 0.105530
0.836823 1.000000 0.134766
0.998230 1.000000 0.149445
1.000000 1.000000 0.152740
0.000000 1.000000 0.053040
0.000000 1.000000 0.053040
0.000000 1.000000 0.053040
0.000000 1.000000 0.054535
0.360870 1.000000 0.060608
0.823181 1.000000 0.071472
0.986481 1.000000 0.095642
1.000000 1.000000 0.101990
0.000000 0.000000 0.667206
0.000000 0.000000 0.667206
0.019836 0.000000 0.667206
0.428284 0.000000 0.667206
0.735901 0.000000 0.671112
0.994446 0.000000 0.671112
1.000000 0.000000 0.675049
1.000000 0.000000 0.675049
0.000000 0.000000 0.667206
0.000000 0.000000 0.667206
0.010620 0.000000 0.667206
0.424896 0.000000 0.667206
0.733856 0.000000 0.669098
0.994446 0.000000 0.671112
1.000000 0.000000 0.675049
1.000000 0.000000 0.675049
0.000000 0.000000 0.665161
0.000000 0.000000 0.665161
0.000000 0.000000 0.665161
0.415527 0.000000 0.667206
0.729950 0.000000 0.667206
0.993042 0.000000 0.671112
1.000000 0.000000 0.671112
1.000000 0.000000 0.673004
0.000000 0.284546 0.655945
0.000000 0.282654 0.655945
0.000000 0.282166 0.655945
0.356201 0.274323 0.657837
0.705414 0.253662 0.659363
0.980927 0.214935 0.663269
1.000000 0.183167 0.663269
1.000000 0.173920 0.665680
0.000000 0.647583 0.635834
0.000000 0.647583 0.635834
0.000000 0.646576 0.635834
0.036377 0.643677 0.635834
0.637726 0.637726 0.637726
0.943085 0.627991 0.640259
1.000000 0.620148 0.643677
1.000000 0.620148 0.643677
0.000000 0.915131 0.599518
0.000000 0.915131 0.599518
0.000000 0.915131 0.599518
0.000000 0.913727 0.600037
0.503510 0.909821 0.600037
0.875916 0.903351 0.603943
1.000000 0.899445 0.607880
1.000000 0.899445 0.607880
0.000000 1.000000 0.573212
0.000000 1.000000 0.573212
0.000000 1.000000 0.573212
0.000000 1.000000 0.573212
0.370850 1.000000 0.574097
0.827606 1.000000 0.578522
0.990387 1.000000 0.581940
1.000000 1.000000 0.581940
0.000000 1.000000 0.565369
0.000000 1.000000 0.565369
0.000000 1.000000 0.565369
0.000000 1.000000 0.565369
0.323822 1.000000 0.569305
0.812927 1.000000 0.573212
0.978638 1.000000 0.573212
1.000000 1.000000 0.575104
0.000000 0.000000 0.897552
0.000000 0.000000 0.897552
0.000000 0.000000 0.897552
0.380341 0.000000 0.898926
0.715790 0.000000 0.901459
0.987732 0.000000 0.901459
1.000000 0.000000 0.902863
1.000000 0.000000 0.902863
0.000000 0.000000 0.897552
0.000000 0.000000 0.897552
0.000000 0.000000 0.897552
0.378845 0.000000 0.897552
0.715271 0.000000 0.901459
0.987732 0.000000 0.901459
1.000000 0.000000 0.902863
1.000000 0.000000 0.902863
0.000000 0.000000 0.897552
0.000000 0.000000 0.897552
0.000000 0.000000 0.897552
0.366577 0.000000 0.897552
0.708435 0.000000 0.898926
0.983826 0.000000 0.901459
1.000000 0.000000 0.901459
1.000000 0.000000 0.901459
0.000000 0.000000 0.892120
0.000000 0.000000 0.892120
0.000000 0.000000 0.892120
0.294464 0.000000 0.893616
0.683899 0.000000 0.893616
0.969147 0.000000 0.896027
1.000000 0.000000 0.897552
1.000000 0.000000 0.897552
0.000000 0.570190 0.877930
0.000000 0.570190 0.877930
0.000000 0.569672 0.879333
0.000000 0.566254 0.879822
0.612305 0.558411 0.879822
0.927399 0.546143 0.881866
1.000000 0.540344 0.883759
1.000000 0.536407 0.883759
0.000000 0.871490 0.855804
0.000000 0.871490 0.855804
0.000000 0.871490 0.855804
0.000000 0.870087 0.858337
0.465820 0.866180 0.858337
0.859711 0.859711 0.859711
1.000000 0.855804 0.862244
1.000000 0.854401 0.862244
0.000000 1.000000 0.842651
0.000000 1.000000 0.842651
0.000000 1.000000 0.842651
0.000000 1.000000 0.842651
0.311310 0.999115 0.842651
0.809387 0.995697 0.846558
0.976105 0.991791 0.846558
1.000000 0.991791 0.846558
0.000000 1.000000 0.838715
0.000000 1.000000 0.838715
0.000000 1.000000 0.838715
0.000000 1.000000 0.838715
0.242157 1.000000 0.838715
0.795715 1.000000 0.842651
0.966858 1.000000 0.842651
1.000000 1.000000 0.842651
0.000000 0.000000 1.000000
0.000000 0.000000 1.000000
0.000000 0.000000 1.000000
0.345184 0.000000 1.000000
0.702637 0.000000 1.000000
0.978516 0.000000 1.000000
1.000000 0.000000 1.000000
1.000000 0.000000 1.000000
0.000000 0.000000 1.000000
0.000000 0.000000 1.000000
0.000000 0.000000 1.000000
0.343658 0.000000 1.000000
0.700592 0.000000 1.000000
0.978516 0.000000 1.000000
1.000000 0.000000 1.000000
1.000000 0.000000 1.000000
0.000000 0.000000 1.000000
0.000000 0.000000 1.000000
0.000000 0.000000 1.000000
0.328491 0.000000 1.000000
0.695679 0.000000 1.000000
0.975464 0.000000 1.000000
1.000000 0.000000 1.000000
1.000000 0.000000 1.000000
0.000000 0.000000 1.000000
0.000000 0.000000 1.000000
0.000000 0.000000 1.000000
0.240814 0.000000 1.000000
0.669739 0.000000 1.000000
0.961304 0.000000 1.000000
1.000000 0.000000 1.000000
1.000000 0.000000 1.000000
0.000000 0.509583 0.994324
0.000000 0.509583 0.994324
0.000000 0.509583 0.994324
0.000000 0.506195 0.994324
0.595612 0.497833 0.996216
0.919556 0.483673 0.998230
1.000000 0.474426 0.998230
1.000000 0.470520 0.998230
0.000000 0.842133 0.976105
0.000000 0.842133 0.976105
0.000000 0.841248 0.976105
0.000000 0.840759 0.976105
0.441925 0.836823 0.978638
0.850494 0.829498 0.980011
1.000000 0.825562 0.980011
1.000000 0.825073 0.980011
0.000000 0.982544 0.963837
0.000000 0.982544 0.963837
0.000000 0.982544 0.963837
0.000000 0.979523 0.965332
0.259705 0.978638 0.966858
0.800140 0.971680 0.966858
0.967743 0.967743 0.967743
1.000000 0.966858 0.970795
0.000000 1.000000 0.962952
0.000000 1.000000 0.962952
0.000000 1.000000 0.962952
0.000000 1.000000 0.962952
0.142700 1.000000 0.962952
0.786102 1.000000 0.962952
0.958130 1.000000 0.966858
0.996063 1.000000 0.966858
0.000000 0.000000 1.000000
0.000000 0.000000 1.000000
0.000000 0.000000 1.000000
0.334930 0.000000 1.000000
0.698700 0.000000 1.000000
0.975983 0.000000 1.000000
1.000000 0.000000 1.000000
1.000000 0.000000 1.000000
0.000000 0.000000 1.000000
0.000000 0.000000 1.000000
0.000000 0.000000 1.000000
0.332520 0.000000 1.000000
0.698700 0.000000 1.000000
0.975983 0.000000 1.000000
1.000000 0.000000 1.000000
1.000000 0.000000 1.000000
0.000000 0.000000 1.000000
0.000000 0.000000 1.000000
0.000000 0.000000 1.000000
0.319763 0.000000 1.000000
0.692749 0.000000 1.000000
0.973572 0.000000 1.000000
1.000000 0.000000 1.000000
1.000000 0.000000 1.000000
0.000000 0.000000 1.000000
0.000000 0.000000 1.000000
0.000000 0.000000 1.000000
0.223724 0.000000 1.000000
0.665833 0.000000 1.000000
0.957397 0.000000 1.000000
1.000000 0.000000 1.000000
1.000000 0.000000 1.000000
0.000000 0.493530 1.000000
0.000000 0.493530 1.000000
0.000000 0.491119 1.000000
0.000000 0.487732 1.000000
0.590790 0.479370 1.000000
0.917664 0.465210 1.000000
1.000000 0.452942 1.000000
1.000000 0.452057 1.000000
0.000000 0.833405 1.000000
0.000000 0.833405 1.000000
0.000000 0.833405 1.000000
0.000000 0.832397 1.000000
0.433594 0.828491 1.000000
0.846558 0.821655 1.000000
1.000000 0.817230 1.000000
1.000000 0.816345 1.000000
0.000000 0.974701 0.992157
0.000000 0.974701 0.992157
0.000000 0.974701 0.992157
0.000000 0.974701 0.992157
0.241394 0.970795 0.994690
0.796234 0.966858 0.996063
0.966858 0.962952 0.996063
1.000000 0.962067 0.996063
0.000000 1.000000 0.988220
0.000000 1.000000 0.988220
0.000000 1.000000 0.988220
0.000000 1.000000 0.991791
0.135864 1.000000 0.991791
0.782196 0.997101 0.992157
0.955109 0.995697 0.992157
0.992157 0.992157 0.992157
