Postproduction/IWLTBAP - Humble/LUTs by IWLTBAP (3DL)/BONUS/8700/F-8700-VLOG.3dl
# Copyright: (C) Copyright 2010-2017 by IWLTBAP SAS
# Cannot be resold, shared or otherwise redistributed
# Website: https://luts.iwltbap.com
0 64 128 192 256 320 384 448 512 576 640 704 768 832 896 960 1023
257 321 353
257 321 368
257 321 383
257 337 418
257 365 478
257 396 557
257 428 662
257 475 773
273 538 899
296 617 1065
343 751 1315
406 935 1742
490 1237 2341
514 1320 2492
530 1349 2523
530 1365 2569
530 1381 2585
257 336 353
257 336 369
257 337 385
257 350 430
257 369 478
257 396 568
257 444 662
257 491 780
273 554 915
305 633 1089
343 751 1331
406 956 1763
502 1253 2372
530 1336 2508
530 1351 2539
530 1381 2585
530 1381 2602
257 353 369
257 353 383
257 353 398
257 365 418
257 380 478
257 411 568
257 458 677
257 505 817
273 570 945
305 656 1125
343 781 1382
412 982 1821
502 1279 2404
530 1363 2538
530 1379 2571
530 1397 2616
544 1411 2634
273 398 385
273 398 401
270 398 417
270 398 444
270 411 494
257 433 572
257 465 662
257 523 785
273 586 956
296 681 1168
343 813 1457
423 1018 1902
502 1310 2456
530 1368 2567
530 1397 2604
530 1413 2634
546 1429 2666
285 478 414
273 490 433
273 490 449
273 491 481
273 462 523
273 474 597
273 504 676
269 544 789
273 616 933
305 705 1138
343 836 1475
414 1068 2015
515 1341 2518
530 1394 2598
530 1410 2632
530 1429 2666
546 1441 2694
289 589 434
289 589 450
289 600 480
289 616 542
285 604 601
273 555 632
273 557 715
273 598 816
289 656 956
310 732 1129
343 867 1428
403 1091 2007
502 1370 2574
530 1413 2634
530 1420 2661
530 1445 2698
530 1450 2714
305 695 444
299 695 465
289 711 497
289 742 574
289 759 669
289 726 738
289 666 765
289 674 863
302 709 980
321 774 1145
350 883 1401
406 1106 1919
467 1392 2570
504 1403 2643
504 1420 2674
504 1435 2704
504 1451 2726
305 821 459
305 837 490
305 860 537
298 885 616
298 924 741
303 931 845
305 867 894
305 793 921
314 800 1037
333 840 1190
359 936 1436
406 1121 1860
486 1460 2561
498 1528 2701
507 1544 2733
507 1560 2755
514 1567 2780
305 988 522
305 1004 538
305 1035 615
312 1081 717
321 1112 829
329 1146 951
337 1135 1062
337 1037 1092
337 931 1108
349 938 1266
372 1005 1488
423 1168 1897
486 1481 2511
515 1614 2756
523 1630 2780
530 1646 2811
530 1646 2826
328 1223 631
328 1248 688
337 1285 772
344 1311 859
359 1350 968
367 1395 1103
376 1416 1234
392 1385 1338
381 1234 1328
376 1097 1364
396 1131 1606
439 1255 1975
502 1550 2550
537 1677 2787
546 1693 2817
546 1709 2834
546 1725 2865
375 1552 843
375 1573 897
389 1614 978
391 1648 1065
407 1696 1188
424 1751 1340
440 1803 1493
456 1828 1650
462 1784 1763
455 1563 1723
440 1373 1780
477 1449 2170
534 1672 2650
562 1786 2856
568 1802 2888
568 1811 2903
568 1827 2929
460 2058 1196
460 2085 1255
476 2121 1343
485 2162 1442
492 2209 1559
508 2258 1704
531 2319 1883
549 2388 2102
567 2432 2298
572 2377 2397
568 2116 2365
543 1843 2444
587 1957 2863
611 2028 2998
615 2033 3014
615 2049 3034
615 2049 3050
586 2650 1859
597 2677 1926
602 2698 2001
614 2729 2082
618 2762 2175
633 2809 2293
646 2854 2433
662 2918 2619
680 2975 2830
695 2960 2950
711 2864 3017
691 2551 2957
668 2351 3074
674 2353 3152
674 2369 3168
678 2369 3184
678 2369 3200
626 2810 2088
626 2829 2166
641 2861 2230
642 2888 2306
658 2922 2401
658 2953 2512
674 3000 2648
691 3044 2814
707 3062 2972
723 3015 3052
723 2921 3091
707 2639 3042
691 2424 3123
691 2409 3164
691 2409 3182
691 2409 3197
691 2409 3212
626 2844 2088
628 2860 2166
642 2892 2230
642 2920 2306
658 2951 2401
674 2988 2516
685 3030 2648
700 3076 2814
716 3100 2987
723 3054 3075
730 2953 3116
718 2675 3074
691 2455 3140
691 2427 3180
691 2427 3196
691 2427 3212
691 2427 3228
626 2875 2088
642 2891 2166
642 2923 2230
655 2952 2306
658 2983 2401
674 3014 2516
691 3061 2648
707 3092 2814
723 3131 3003
739 3092 3106
739 2985 3137
723 2721 3105
707 2485 3156
692 2458 3196
692 2458 3212
691 2457 3214
691 2457 3228
626 2891 2088
642 2922 2166
642 2939 2230
658 2968 2306
658 2999 2401
674 3035 2516
691 3077 2648
707 3124 2814
723 3148 3003
739 3108 3122
739 3001 3154
734 2748 3126
707 2513 3172
707 2489 3212
707 2473 3212
707 2473 3228
707 2457 3228
257 321 353
257 321 369
257 336 383
257 337 418
257 365 478
257 396 557
257 434 662
257 482 773
273 538 899
305 617 1065
343 751 1315
406 935 1731
502 1237 2337
530 1320 2489
530 1349 2523
530 1365 2553
530 1381 2585
271 337 367
271 337 369
257 337 385
257 353 431
257 369 478
272 401 568
257 444 662
265 491 780
273 554 915
305 639 1081
352 757 1331
411 956 1763
502 1263 2368
530 1336 2508
530 1365 2539
530 1381 2585
545 1397 2602
272 353 369
272 353 384
272 365 398
272 367 428
273 383 478
273 413 572
258 458 687
258 506 817
281 570 953
312 656 1133
353 781 1377
422 984 1820
502 1282 2409
530 1365 2540
530 1381 2571
546 1397 2617
546 1413 2634
273 414 398
273 411 401
273 398 417
273 398 447
273 411 494
273 433 573
273 474 667
272 523 792
281 594 959
306 689 1184
354 813 1456
423 1029 1902
506 1311 2456
530 1368 2556
530 1397 2602
546 1413 2634
546 1429 2663
289 490 418
289 490 433
289 490 449
289 491 491
285 466 529
273 478 600
273 510 684
273 551 803
287 616 945
310 711 1140
343 845 1491
423 1068 2015
518 1344 2517
530 1394 2588
530 1410 2630
546 1429 2662
546 1441 2682
305 589 434
300 589 450
300 605 480
289 616 538
289 612 601
289 568 648
289 573 724
288 605 826
289 661 961
312 735 1134
350 869 1444
406 1099 2023
507 1373 2574
530 1413 2634
530 1429 2652
530 1445 2693
545 1461 2714
305 695 449
305 700 465
305 711 497
305 742 567
304 766 667
289 742 743
289 668 775
289 681 866
305 722 985
325 779 1158
357 899 1415
406 1117 1935
477 1398 2577
504 1413 2650
504 1430 2682
504 1445 2713
519 1461 2736
320 821 459
320 837 482
305 860 529
305 885 601
305 924 740
305 942 845
305 880 901
305 798 926
321 800 1041
337 851 1202
365 936 1443
406 1128 1876
486 1470 2575
507 1529 2709
508 1545 2740
514 1560 2771
514 1576 2787
321 988 522
321 1004 538
321 1034 613
321 1081 707
327 1112 819
335 1146 951
345 1146 1070
345 1050 1096
345 939 1120
357 951 1278
380 1012 1505
423 1184 1914
496 1489 2525
530 1614 2764
530 1630 2787
530 1646 2819
530 1662 2842
337 1223 631
337 1248 672
344 1279 757
344 1311 845
360 1350 954
376 1395 1103
389 1420 1234
392 1398 1348
392 1250 1344
385 1113 1375
404 1135 1615
439 1266 1986
509 1553 2564
546 1686 2803
546 1700 2827
546 1717 2849
553 1732 2882
375 1552 828
375 1573 881
391 1609 963
404 1647 1057
407 1696 1176
424 1751 1324
440 1803 1486
456 1836 1650
471 1792 1768
462 1579 1732
449 1380 1792
477 1456 2179
540 1675 2653
568 1796 2866
568 1811 2888
569 1817 2913
578 1833 2935
460 2058 1185
470 2085 1254
476 2121 1338
487 2162 1426
500 2209 1547
515 2256 1693
531 2319 1880
554 2388 2097
572 2437 2296
588 2388 2407
575 2128 2378
556 1854 2452
599 1968 2869
615 2033 2998
615 2049 3020
615 2053 3050
631 2065 3066
586 2646 1843
598 2677 1910
602 2697 1985
614 2729 2066
618 2761 2159
633 2804 2277
649 2854 2421
665 2918 2603
689 2975 2828
704 2964 2955
711 2869 3019
695 2563 2969
678 2360 3087
678 2369 3152
678 2369 3170
678 2372 3184
691 2372 3200
626 2810 2072
626 2829 2150
642 2859 2214
642 2888 2290
658 2919 2385
670 2953 2507
676 3000 2632
692 3047 2798
715 3069 2971
723 3028 3052
725 2924 3099
718 2644 3048
691 2436 3126
691 2424 3180
691 2425 3196
691 2425 3212
691 2425 3228
626 2842 2072
641 2860 2150
642 2891 2214
655 2920 2290
658 2951 2385
674 2988 2500
685 3030 2632
700 3076 2798
723 3101 2987
731 3062 3076
739 2955 3122
723 2691 3079
706 2468 3142
692 2443 3195
692 2443 3199
693 2441 3215
706 2441 3228
626 2875 2072
642 2891 2150
642 2921 2214
658 2952 2290
658 2971 2385
674 3014 2500
691 3061 2632
707 3101 2798
723 3131 2995
739 3092 3106
739 2985 3148
734 2731 3121
707 2501 3167
707 2474 3197
707 2473 3212
707 2458 3228
707 2458 3229
642 2891 2072
642 2922 2135
656 2939 2214
658 2968 2290
670 2999 2385
674 3035 2500
691 3077 2632
707 3124 2798
723 3148 3003
739 3108 3122
754 3007 3164
739 2753 3137
707 2517 3172
707 2489 3212
707 2489 3227
707 2473 3229
707 2473 3244
287 335 367
287 337 369
273 337 385
273 350 415
273 369 464
273 396 543
273 434 647
273 482 758
288 538 884
312 624 1056
359 751 1299
423 951 1731
502 1237 2341
530 1333 2476
530 1349 2523
544 1365 2553
546 1381 2585
287 350 369
287 350 382
286 350 385
273 353 417
273 369 477
273 403 554
273 444 657
280 491 773
289 554 908
312 640 1067
359 757 1315
423 967 1762
502 1253 2357
530 1347 2508
543 1367 2551
546 1381 2585
546 1397 2615
287 367 382
287 366 385
286 367 401
287 369 443
273 395 504
274 425 584
274 464 691
274 512 805
289 572 938
320 663 1110
359 782 1361
423 997 1809
518 1285 2404
543 1378 2552
546 1394 2585
546 1411 2628
546 1425 2648
289 415 401
289 415 413
289 414 428
289 413 450
288 416 509
284 448 596
273 487 692
273 539 828
289 608 1002
320 701 1196
359 820 1446
427 1029 1889
518 1317 2458
546 1393 2582
546 1413 2616
546 1429 2650
546 1445 2677
303 494 418
303 506 434
300 504 458
300 502 492
300 480 538
289 493 612
289 520 707
279 566 821
289 634 970
320 721 1186
355 853 1532
437 1075 2009
518 1345 2507
544 1400 2598
546 1415 2635
546 1445 2666
546 1445 2697
305 599 434
305 600 450
305 613 480
305 616 529
305 616 601
305 572 648
289 573 739
289 614 841
305 671 986
321 750 1157
359 885 1477
411 1108 2064
518 1373 2570
530 1413 2619
536 1429 2652
546 1445 2682
546 1461 2714
321 695 444
321 699 457
320 711 487
321 740 553
315 771 665
305 757 753
305 682 787
305 689 879
310 725 1000
333 788 1177
359 908 1439
423 1133 1972
483 1396 2588
514 1416 2660
520 1444 2692
520 1460 2723
520 1461 2746
321 821 451
321 830 474
321 851 512
321 879 591
321 926 708
320 944 844
320 901 917
320 808 942
325 815 1053
341 860 1215
373 952 1463
423 1147 1906
500 1476 2589
513 1531 2716
514 1546 2741
514 1560 2771
523 1576 2796
336 981 492
335 996 523
328 1028 578
328 1065 670
336 1112 803
337 1146 938
350 1156 1064
352 1066 1108
349 947 1124
365 954 1282
388 1021 1520
430 1198 1933
502 1505 2537
530 1630 2779
531 1646 2809
538 1661 2827
546 1677 2858
352 1209 601
352 1233 643
352 1270 725
353 1310 815
360 1356 941
376 1395 1076
392 1429 1235
401 1418 1354
392 1266 1360
392 1124 1391
412 1147 1634
451 1280 2007
518 1568 2579
546 1700 2816
552 1715 2833
554 1726 2864
562 1741 2882
385 1546 805
391 1577 868
391 1609 943
406 1652 1044
420 1692 1163
428 1745 1300
450 1803 1468
466 1844 1646
477 1818 1788
467 1600 1751
456 1398 1808
490 1468 2194
549 1690 2675
577 1802 2873
578 1818 2903
583 1832 2929
584 1848 2945
460 2058 1148
476 2074 1216
476 2107 1295
492 2151 1391
500 2194 1516
518 2256 1656
538 2319 1860
556 2393 2079
572 2443 2299
588 2393 2417
583 2147 2393
559 1867 2460
603 1973 2882
629 2049 3014
630 2055 3034
631 2065 3051
631 2079 3066
598 2646 1809
602 2662 1885
611 2692 1961
618 2724 2043
626 2758 2140
634 2801 2258
649 2848 2395
666 2913 2584
694 2981 2811
711 2974 2966
721 2879 3025
706 2577 2980
681 2367 3093
691 2383 3168
691 2383 3183
691 2385 3200
694 2385 3216
626 2797 2056
642 2828 2121
642 2857 2196
644 2877 2263
658 2919 2369
670 2953 2468
683 2998 2606
700 3045 2773
722 3070 2963
730 3031 3060
739 2938 3100
723 2659 3060
693 2440 3140
691 2425 3180
691 2425 3198
707 2425 3213
707 2425 3228
628 2830 2054
642 2860 2121
642 2889 2196
658 2909 2263
658 2941 2369
674 2984 2476
691 3020 2606
707 3075 2773
723 3101 2974
739 3062 3084
739 2970 3123
734 2702 3091
707 2471 3156
707 2443 3196
707 2443 3212
707 2443 3228
707 2443 3230
642 2875 2041
642 2891 2118
656 2921 2196
658 2939 2263
670 2971 2358
674 3014 2475
691 3051 2597
707 3098 2773
730 3131 2980
739 3106 3106
755 3001 3153
739 2747 3121
707 2501 3172
707 2474 3212
707 2474 3215
707 2473 3229
707 2473 3244
642 2891 2041
642 2922 2118
658 2939 2196
658 2968 2263
674 2999 2358
684 3030 2474
691 3067 2597
707 3115 2773
731 3164 2988
754 3124 3122
755 3017 3169
748 2769 3152
722 2529 3184
707 2505 3212
707 2489 3228
707 2489 3244
707 2489 3244
321 353 369
321 353 385
318 365 397
318 369 428
305 382 475
305 401 536
305 442 622
305 491 735
312 553 869
327 624 1033
359 741 1270
423 951 1713
505 1250 2325
543 1336 2490
546 1351 2523
546 1381 2569
546 1381 2585
321 369 382
321 369 385
319 367 401
318 379 433
305 385 475
305 413 541
305 444 630
305 497 744
318 554 885
328 639 1049
369 756 1299
426 958 1734
518 1268 2357
546 1349 2508
546 1367 2539
546 1394 2585
