Postproduction/IWLTBAP - Humble/LUTs by IWLTBAP (3DL)/BONUS/8700/F-8700-LOG.3dl
# Copyright: (C) Copyright 2016 by IWLTBAP
# Cannot be resold, shared or otherwise redistributed
# Website: http://luts.iwltbap.com
0 64 128 192 256 320 384 448 512 576 640 704 768 832 896 960 1023
147 169 191
148 188 253
148 213 327
147 242 413
144 274 512
147 313 632
153 361 763
162 414 908
175 477 1067
189 548 1247
205 626 1446
223 714 1669
242 810 1898
263 912 2137
284 1022 2370
306 1133 2573
327 1240 2768
161 244 219
160 233 268
160 253 347
158 283 434
155 316 535
159 359 655
166 411 794
175 469 946
189 537 1111
204 609 1302
220 691 1511
238 782 1738
258 882 1972
279 987 2215
300 1098 2431
321 1207 2640
342 1317 2821
176 337 236
174 350 323
173 313 366
171 330 457
168 364 564
172 410 685
180 464 829
190 526 984
204 597 1157
219 673 1354
236 761 1576
255 853 1808
274 955 2044
295 1063 2281
316 1171 2492
338 1283 2693
357 1383 2871
188 443 243
185 460 332
184 469 453
184 410 483
182 424 594
186 465 722
194 523 868
205 587 1028
220 660 1210
235 740 1411
253 830 1640
272 927 1875
292 1030 2115
313 1141 2345
333 1249 2552
354 1355 2750
374 1457 2925
199 537 254
191 567 317
191 627 474
197 603 596
198 527 629
203 547 763
210 590 910
222 653 1077
236 727 1268
252 810 1477
271 903 1710
290 1006 1950
310 1110 2192
332 1223 2413
351 1326 2615
372 1433 2801
392 1531 2969
208 652 261
197 692 314
192 767 437
214 834 662
222 763 771
223 672 807
229 688 959
239 729 1131
254 801 1331
271 886 1553
290 984 1786
309 1087 2026
330 1195 2267
350 1303 2480
371 1412 2680
391 1512 2863
410 1608 3021
215 789 267
202 826 311
192 909 392
224 1017 640
250 1058 903
252 924 971
251 828 1015
260 839 1198
274 888 1403
291 971 1633
310 1069 1870
330 1174 2113
350 1282 2340
371 1390 2550
391 1496 2747
411 1594 2915
430 1685 3069
224 933 284
210 979 328
200 1053 381
227 1181 568
275 1316 945
294 1293 1199
288 1090 1201
286 989 1273
298 1009 1490
313 1069 1720
332 1165 1962
351 1267 2196
372 1375 2416
392 1480 2620
412 1579 2805
431 1674 2974
449 1759 3115
240 1098 307
228 1143 352
217 1218 404
232 1339 511
288 1525 906
336 1656 1366
341 1506 1522
328 1253 1467
327 1180 1585
339 1206 1815
356 1272 2056
375 1368 2283
395 1471 2495
414 1570 2691
433 1663 2869
452 1754 3022
470 1838 3162
261 1282 332
250 1316 377
238 1393 431
244 1505 500
296 1699 837
366 1932 1451
399 1969 1855
387 1679 1818
373 1451 1783
372 1394 1928
385 1425 2156
401 1490 2374
420 1575 2576
438 1667 2762
456 1753 2928
474 1838 3076
490 1914 3207
285 1468 357
274 1499 403
259 1571 459
264 1677 524
308 1862 802
388 2129 1458
447 2312 2089
454 2159 2222
433 1840 2108
420 1671 2126
420 1630 2266
432 1660 2465
447 1712 2659
463 1780 2830
480 1850 2986
496 1923 3124
513 1995 3248
310 1659 382
300 1670 429
283 1744 488
287 1855 554
325 2016 799
408 2285 1457
483 2541 2224
510 2542 2533
499 2279 2481
478 2017 2387
468 1898 2443
467 1860 2571
477 1879 2743
491 1922 2903
505 1977 3051
520 2036 3180
535 2099 3290
337 1855 406
328 1844 454
307 1918 518
310 2023 589
350 2167 840
429 2417 1474
512 2702 2287
553 2796 2735
558 2637 2785
538 2379 2693
522 2188 2655
513 2100 2725
513 2067 2838
521 2077 2976
533 2118 3107
546 2160 3231
559 2211 3337
366 2042 431
358 2004 480
335 2075 547
339 2181 649
382 2317 923
453 2542 1510
535 2840 2306
588 2981 2878
602 2885 2984
595 2694 2968
576 2481 2886
564 2354 2894
557 2284 2963
555 2253 3051
564 2265 3173
574 2291 3283
585 2324 3382
396 2224 456
389 2169 506
365 2228 577
376 2329 740
416 2470 1025
474 2739 1505
557 3013 2293
620 3164 2968
640 3082 3137
642 2945 3167
628 2749 3113
614 2589 3064
604 2502 3098
598 2447 3158
596 2415 3233
603 2424 3339
612 2444 3428
429 2404 481
423 2357 531
400 2391 611
393 2550 746
427 2761 977
489 2981 1462
580 3193 2281
648 3326 2994
676 3269 3274
680 3138 3307
675 2978 3298
660 2816 3246
650 2695 3224
641 2632 3269
636 2586 3325
634 2555 3387
641 2564 3480
463 2795 505
459 2752 555
435 2755 633
402 2879 718
432 3046 934
507 3213 1442
602 3359 2274
673 3462 2996
712 3452 3388
717 3311 3430
716 3179 3441
706 3031 3413
693 2893 3372
684 2798 3369
676 2742 3414
672 2709 3464
670 2681 3524
196 190 198
193 207 256
193 232 334
191 262 419
188 293 514
183 326 623
187 372 750
196 427 896
208 489 1057
223 561 1235
240 639 1434
258 727 1655
277 822 1888
298 926 2129
319 1032 2354
341 1144 2565
364 1260 2763
208 256 221
205 246 276
204 271 357
200 302 449
194 334 550
190 373 669
196 425 809
206 485 965
220 552 1134
235 627 1327
252 709 1540
270 800 1767
290 903 2006
311 1010 2246
333 1122 2469
355 1231 2668
375 1336 2848
221 348 246
221 352 312
217 331 376
212 348 470
205 383 578
203 428 704
210 485 851
221 547 1010
235 618 1190
251 695 1389
268 785 1618
287 878 1845
306 980 2083
327 1086 2313
348 1194 2523
370 1305 2722
390 1406 2895
233 460 258
233 463 321
228 483 444
225 429 498
219 444 610
217 486 744
225 545 894
236 611 1056
251 686 1245
268 769 1453
285 859 1682
304 957 1917
324 1060 2156
345 1168 2380
366 1274 2583
386 1381 2770
406 1480 2945
244 573 266
241 569 317
234 622 436
231 634 609
232 553 649
233 570 782
241 615 940
253 679 1109
268 757 1305
285 841 1525
303 935 1754
322 1036 1993
342 1141 2229
363 1250 2447
384 1356 2650
404 1457 2829
424 1554 2995
254 680 278
248 692 316
235 750 404
241 839 638
253 806 796
253 701 834
259 715 988
271 758 1169
286 832 1372
303 920 1600
322 1018 1833
342 1120 2071
362 1226 2305
382 1333 2514
403 1441 2712
423 1542 2888
442 1630 3042
258 821 275
251 832 310
234 889 376
245 1005 589
278 1086 894
284 980 1008
282 861 1048
291 867 1234
306 920 1446
323 1004 1677
342 1104 1917
362 1211 2154
383 1317 2377
403 1424 2586
423 1526 2772
443 1621 2941
461 1710 3088
265 986 286
258 988 321
240 1044 377
246 1163 517
296 1313 891
325 1354 1220
322 1148 1249
318 1025 1312
329 1044 1536
345 1105 1766
364 1202 2007
384 1307 2242
404 1411 2454
424 1514 2653
444 1610 2835
463 1703 2999
481 1786 3136
283 1161 309
276 1156 344
259 1216 399
252 1322 481
304 1499 825
360 1678 1334
376 1594 1578
362 1317 1522
359 1222 1631
372 1248 1864
389 1313 2103
408 1408 2326
427 1510 2535
446 1605 2724
465 1698 2897
484 1785 3048
501 1866 3183
305 1353 333
298 1346 368
281 1400 424
268 1496 491
310 1666 756
384 1916 1358
431 2032 1873
425 1775 1895
407 1512 1836
405 1443 1977
417 1470 2201
434 1532 2413
452 1616 2612
470 1703 2794
488 1787 2956
505 1868 3100
522 1941 3227
329 1552 357
322 1537 392
306 1578 450
289 1675 519
321 1832 722
402 2091 1335
471 2327 2047
490 2247 2283
470 1926 2178
454 1731 2173
453 1679 2308
464 1705 2508
479 1756 2693
495 1818 2862
512 1888 3015
528 1955 3147
544 2023 3270
355 1758 380
348 1730 417
333 1756 476
312 1854 548
342 1995 741
420 2241 1330
502 2527 2135
540 2589 2551
536 2365 2547
513 2082 2440
502 1952 2484
500 1907 2612
509 1919 2782
522 1960 2933
536 2011 3076
552 2071 3198
566 2126 3311
383 1958 404
376 1929 442
363 1929 502
339 2026 583
371 2155 805
440 2374 1343
526 2665 2164
579 2818 2730
589 2693 2818
574 2442 2748
556 2240 2697
546 2148 2759
545 2111 2868
553 2122 3006
564 2151 3133
577 2193 3251
590 2238 3355
414 2158 428
406 2117 467
394 2086 528
370 2184 635
404 2312 895
465 2503 1388
548 2804 2174
612 2999 2845
630 2926 2999
628 2750 3006
610 2536 2931
597 2396 2924
589 2326 2988
588 2293 3079
594 2295 3194
604 2321 3304
615 2350 3401
446 2351 451
439 2304 491
428 2241 554
414 2335 726
438 2463 997
487 2696 1402
570 2987 2155
640 3170 2898
668 3118 3149
672 2989 3185
661 2797 3148
646 2631 3096
636 2539 3120
629 2484 3182
627 2449 3256
633 2453 3354
642 2469 3446
481 2564 475
474 2526 517
464 2471 579
446 2559 730
453 2749 965
502 2959 1358
590 3171 2136
665 3321 2895
703 3309 3280
709 3175 3321
706 3020 3323
693 2862 3278
681 2731 3248
672 2663 3288
667 2618 3342
664 2586 3407
670 2589 3495
521 2929 502
511 2908 542
503 2858 604
471 2894 697
458 3041 910
521 3204 1356
610 3348 2115
689 3459 2880
736 3488 3370
746 3351 3442
746 3221 3457
737 3068 3437
724 2929 3396
714 2825 3384
706 2770 3429
701 2732 3479
699 2705 3538
273 213 211
260 224 279
250 248 343
240 278 420
235 315 525
228 348 630
223 387 747
230 439 884
243 505 1046
257 574 1220
274 652 1418
291 737 1633
311 832 1863
332 935 2099
353 1042 2330
375 1151 2538
398 1265 2742
288 281 229
270 283 294
262 298 363
252 323 452
244 356 554
234 391 666
232 438 801
241 498 956
254 564 1121
270 641 1313
286 722 1520
305 811 1745
325 912 1981
346 1018 2219
368 1128 2443
390 1239 2640
411 1346 2834
293 368 238
284 364 311
275 354 387
264 373 484
253 406 596
241 447 727
242 501 874
254 566 1041
268 640 1222
284 717 1424
301 805 1652
320 901 1883
340 1003 2127
362 1113 2354
383 1219 2557
404 1326 2749
425 1431 2923
294 487 264
289 487 332
287 481 426
279 457 516
266 469 630
253 510 767
258 571 922
270 637 1091
285 714 1291
301 796 1503
319 887 1733
338 984 1965
358 1086 2201
379 1194 2418
399 1300 2622
420 1404 2805
441 1504 2973
296 611 265
296 617 336
294 613 418
285 658 599
279 586 674
268 593 808
274 643 971
287 711 1149
303 789 1351
319 876 1579
338 970 1805
357 1069 2044
377 1175 2273
397 1277 2484
418 1385 2680
438 1484 2858
457 1577 3015
300 735 263
302 734 335
297 741 398
286 828 583
287 846 814
287 733 862
293 743 1020
305 791 1212
321 868 1421
338 959 1652
357 1056 1883
377 1159 2122
397 1263 2347
417 1369 2553
438 1471 2748
458 1569 2918
476 1656 3065
305 863 272
303 875 325
296 886 379
283 978 527
306 1100 864
319 1039 1044
317 896 1085
326 905 1278
341 957 1497
358 1047 1729
378 1148 1973
398 1252 2207
418 1355 2418
438 1459 2622
458 1558 2807
477 1651 2971
495 1737 3112
314 1028 287
308 1044 323
300 1052 369
284 1139 477
316 1298 818
358 1402 1220
359 1219 1305
354 1069 1357
365 1085 1585
381 1149 1822
400 1245 2059
420 1350 2290
440 1452 2498
460 1553 2691
479 1647 2868
497 1735 3024
515 1818 3162
333 1216 310
327 1228 345
318 1228 389
297 1312 468
322 1468 745
385 1678 1272
414 1684 1628
401 1394 1588
396 1273 1682
408 1294 1919
425 1358 2157
444 1454 2370
463 1551 2576
482 1645 2761
501 1735 2931
518 1818 3074
535 1895 3202
355 1412 333
349 1426 368
341 1419 412
316 1497 482
327 1635 681
400 1882 1237
461 2071 1853
466 1880 1976
446 1582 1897
442 1499 2032
454 1521 2252
470 1582 2459
487 1657 2654
505 1740 2828
523 1824 2985
540 1903 3126
556 1970 3249
381 1622 356
375 1632 391
366 1613 436
342 1680 508
342 1809 674
415 2046 1201
495 2321 1969
527 2328 2329
511 2020 2255
493 1797 2228
490 1737 2359
501 1756 2555
515 1801 2733
530 1858 2896
547 1928 3043
562 1992 3174
577 2053 3288
409 1835 378
402 1844 415
393 1812 460
371 1859 535
367 1983 713
432 2196 1193
519 2495 2002
571 2627 2554
575 2447 2606
553 2161 2505
539 2008 2530
537 1960 2656
546 1968 2818
558 2004 2967
571 2051 3102
586 2106 3220
600 2159 3328
441 2041 401
432 2051 438
423 2014 485
404 2031 563
401 2150 785
455 2336 1228
540 2622 2012
606 2830 2698
623 2747 2843
613 2518 2806
594 2304 2744
583 2201 2799
581 2158 2902
588 2162 3039
599 2189 3161
611 2230 3272
623 2270 3374
483 2249 422
465 2250 461
456 2206 509
443 2192 603
439 2312 873
481 2471 1281
561 2756 2018
635 3001 2772
662 2965 3012
664 2810 3042
648 2596 2977
634 2444 2958
624 2368 3016
623 2335 3108
629 2336 3220
638 2353 3325
648 2380 3419
642 2454 438
529 2450 478
491 2400 534
487 2336 658
487 2468 967
506 2665 1326
581 2946 1992
659 3164 2778
698 3158 3157
704 3031 3203
697 2855 3188
682 2683 3133
671 2576 3146
663 2518 3203
661 2484 3279
667 2486 3372
675 2502 3462
813 2693 460
632 2707 498
531 2676 559
517 2611 645
517 2744 938
525 2940 1295
600 3142 1964
683 3308 2759
730 3346 3263
740 3215 3333
739 3067 3345
728 2910 3311
715 2771 3274
706 2696 3308
700 2648 3361
698 2619 3429
703 2615 3510
913 3032 487
700 3035 529
573 3022 587
555 2963 662
534 3040 848
555 3198 1303
619 3330 1942
705 3450 2737
759 3512 3316
777 3395 3454
777 3260 3471
771 3111 3459
758 2969 3423
748 2856 3403
738 2796 3443
734 2758 3494
732 2732 3553
413 236 212
400 237 283
383 255 354
341 287 429
295 329 524
279 371 638
267 411 759
265 457 888
277 520 1045
292 591 1217
309 668 1406
326 753 1617
346 845 1839
366 944 2066
388 1050 2297
409 1157 2505
433 1272 2717
442 302 226
407 311 297
380 322 378
345 350 459
304 382 559
288 417 675
274 455 797
276 512 943
289 580 1112
305 656 1301
322 737 1502
340 825 1724
360 925 1953
381 1025 2184
403 1135 2406
425 1245 2610
