Postproduction/IWLTBAP - Humble/LUTs by IWLTBAP (3DL)/BONUS/8700/F-8700-V2-LOG.3dl
# Copyright: (C) Copyright 2016 by IWLTBAP
# Cannot be resold, shared or otherwise redistributed
# Website: http://luts.iwltbap.com
0 128 256 384 512 640 768 896 1023
0 0 0
0 0 93
0 97 455
0 308 895
0 590 1504
36 1007 2374
106 1262 2831
107 1266 2839
107 1266 2839
0 44 15
0 21 81
0 118 415
0 308 846
0 549 1385
15 930 2213
103 1250 2808
107 1267 2839
107 1267 2839
0 301 50
0 305 78
0 264 377
0 392 830
0 637 1374
36 1014 2209
131 1361 2860
139 1392 2918
138 1387 2914
0 629 41
0 630 41
0 792 412
0 636 842
0 750 1372
62 1111 2182
166 1498 2916
184 1563 3033
183 1560 3031
0 992 44
0 996 45
0 1079 176
10 1417 1221
5 1004 1388
85 1204 2146
197 1616 2940
228 1730 3143
227 1728 3141
11 1475 120
11 1483 121
11 1514 158
57 1915 1020
185 2116 2147
148 1551 2198
240 1789 2979
287 1950 3276
286 1948 3275
150 2152 235
153 2164 237
156 2179 248
163 2365 862
321 2929 2505
374 2732 3014
329 2246 3094
370 2325 3444
370 2324 3445
326 2682 346
327 2683 346
327 2679 364
312 2736 1084
383 3255 2486
496 3320 3462
462 2787 3424
446 2652 3567
446 2653 3569
328 2686 347
328 2686 347
327 2677 379
312 2747 1115
378 3241 2440
496 3336 3460
464 2799 3423
447 2655 3570
447 2655 3570
0 0 0
0 1 103
0 122 444
0 317 875
0 591 1467
49 998 2338
117 1265 2827
114 1269 2838
111 1268 2838
0 34 3
0 19 73
0 111 389
0 287 813
0 519 1332
12 902 2158
100 1238 2788
108 1267 2840
108 1267 2839
0 301 52
0 302 74
0 270 381
0 395 834
0 640 1378
39 1019 2215
134 1370 2871
141 1396 2921
139 1391 2918
0 638 41
0 640 42
0 815 444
0 648 858
0 763 1392
66 1127 2209
171 1515 2940
186 1569 3037
185 1566 3035
0 1009 46
0 1013 46
0 1114 207
15 1444 1265
9 1025 1419
92 1229 2186
204 1642 2978
230 1740 3148
230 1737 3147
15 1506 125
16 1515 127
16 1558 183
73 1980 1113
196 2155 2202
158 1590 2252
249 1826 3023
291 1967 3285
290 1965 3284
160 2197 243
162 2208 244
167 2224 267
176 2429 954
337 2984 2598
384 2758 3058
340 2287 3143
377 2354 3457
376 2352 3456
328 2686 347
328 2686 347
326 2671 399
310 2765 1164
395 3289 2589
498 3299 3471
461 2774 3435
447 2655 3570
447 2655 3570
328 2686 347
328 2686 347
326 2666 417
310 2776 1195
389 3275 2541
497 3313 3467
462 2782 3431
447 2655 3570
447 2655 3570
551 115 5
472 121 123
215 196 409
10 353 820
24 600 1366
120 989 2218
189 1283 2777
186 1291 2797
180 1289 2801
383 116 16
346 120 65
132 166 336
0 304 744
2 530 1247
76 901 2066
161 1251 2743
167 1289 2815
163 1288 2818
370 332 6
360 340 29
138 396 449
15 509 960
38 750 1544
136 1136 2389
219 1475 3008
222 1491 3040
218 1484 3034
90 784 26
95 789 27
51 853 384
19 778 997
53 883 1554
151 1257 2387
243 1618 3065
253 1656 3133
252 1652 3130
31 1103 68
37 1112 68
41 1178 248
80 1549 1346
72 1130 1548
153 1338 2334
258 1735 3088
278 1809 3214
278 1807 3213
60 1595 132
67 1611 133
75 1642 206
117 2059 1174
237 2258 2310
196 1681 2361
282 1904 3105
318 2019 3321
318 2018 3321
222 2274 247
239 2291 249
215 2313 292
215 2505 1048
361 3049 2691
405 2802 3120
360 2344 3209
390 2397 3477
390 2395 3477
461 2733 334
475 2738 333
408 2760 403
345 2800 1220
416 3322 2667
509 3284 3484
468 2768 3455
455 2666 3579
455 2666 3579
493 2744 331
506 2749 330
422 2778 417
355 2807 1236
413 3304 2599
510 3305 3482
471 2781 3449
455 2665 3578
453 2663 3576
1292 195 0
1245 208 42
985 272 354
509 414 726
157 606 1224
182 946 2003
259 1282 2674
264 1320 2749
260 1319 2752
1114 183 0
1097 184 7
883 239 288
446 364 655
124 550 1131
154 884 1892
242 1255 2640
254 1317 2757
251 1315 2758
1254 368 0
1254 374 6
1111 533 402
520 623 862
204 784 1435
219 1130 2257
304 1495 2962
310 1523 3020
306 1517 3014
1366 687 0
1376 692 0
1264 841 178
537 997 1087
277 1074 1772
279 1405 2583
359 1753 3234
368 1788 3296
366 1785 3293
1151 1380 26
1170 1390 28
996 1455 121
393 1607 1055
300 1410 1828
300 1552 2572
387 1911 3273
403 1971 3379
402 1969 3377
1021 1933 95
1047 1950 96
964 1994 150
411 2118 872
400 2507 2455
348 1934 2617
417 2117 3304
444 2205 3478
444 2203 3477
1225 2636 220
1258 2656 221
1258 2705 262
698 2831 892
519 3061 2413
526 2988 3281
481 2529 3379
504 2558 3602
504 2556 3601
1571 3024 285
1590 3030 284
1561 3081 386
1062 3219 1037
630 3314 2300
612 3397 3567
573 2886 3564
560 2797 3681
559 2796 3680
1596 3032 284
1614 3037 284
1569 3093 404
1066 3224 1039
628 3279 2195
609 3430 3552
571 2914 3545
548 2783 3669
544 2777 3665
2052 320 20
2020 315 20
1865 392 315
1508 484 607
851 661 1041
327 939 1791
338 1258 2502
351 1345 2680
346 1343 2683
1864 288 4
1853 286 4
1760 342 238
1412 444 565
785 624 998
302 899 1726
325 1241 2483
344 1343 2685
341 1341 2687
2089 499 12
2094 502 14
2150 572 243
1688 776 787
1028 905 1232
413 1147 2056
412 1493 2825
415 1539 2923
410 1532 2917
2297 753 51
2308 758 52
2291 866 156
1988 1232 995
1240 1338 1612
543 1490 2477
517 1826 3221
516 1866 3304
512 1861 3300
2443 1133 44
2459 1142 45
2439 1262 120
2145 1642 592
1224 1840 1963
658 1837 2808
603 2103 3451
596 2150 3547
593 2146 3546
2312 2277 202
2332 2294 205
2302 2344 223
1875 2466 667
1140 2615 1999
711 2295 2904
645 2369 3493
628 2421 3641
627 2419 3640
2333 2986 206
2355 3002 208
2361 3025 239
2101 3104 899
1596 3190 1863
832 3276 3436
732 2769 3555
697 2758 3746
695 2756 3745
2509 3334 277
2523 3339 277
2513 3350 369
2332 3436 1109
1975 3574 1835
949 3646 3560
744 3072 3694
760 2982 3813
755 2979 3811
2473 3322 276
2473 3322 276
2446 3325 356
2238 3406 1059
1840 3531 1726
899 3637 3413
693 3090 3650
688 2928 3781
681 2922 3777
2960 459 151
2935 454 147
2926 520 249
2705 731 658
2409 804 888
1826 1048 1354
1036 1470 2371
829 1571 2697
778 1553 2695
2833 437 132
2827 436 131
2831 482 224
2634 698 628
2351 780 868
1773 1028 1343
980 1465 2393
818 1566 2695
782 1553 2694
3093 726 112
3100 731 111
3181 745 212
2994 1034 789
2658 1121 1108
2174 1337 1569
1311 1776 2730
1190 1822 2886
1147 1805 2880
3275 1041 105
3286 1048 106
3322 1174 150
3288 1492 862
2903 1738 1598
2474 1898 2119
1642 2190 3146
1535 2222 3270
1510 2212 3267
3364 1311 108
3377 1322 107
3389 1441 152
3288 1913 722
3065 2276 1945
2653 2399 2581
1959 2568 3415
1830 2595 3550
1816 2589 3548
3386 1992 141
3398 2011 144
3402 2100 196
3324 2482 477
3183 2810 1475
2827 3011 2923
2224 2958 3603
1950 2938 3762
1942 2935 3762
3269 3265 350
3284 3281 352
3301 3307 363
3249 3412 564
3089 3478 1716
2854 3563 2823
1975 3248 3659
1693 3157 3851
1684 3153 3850
3348 3623 360
3359 3626 363
3365 3637 375
3277 3695 904
3178 3755 1845
3034 3854 2728
1522 3550 3876
1576 3330 3907
1526 3315 3904
3261 3595 340
3250 3591 337
3239 3590 339
3129 3636 811
3002 3691 1694
2816 3802 2520
1254 3536 3834
1193 3201 3876
1170 3191 3875
3586 666 230
3577 662 230
3596 717 253
3622 1003 613
3356 1198 1064
3142 1281 1324
2931 1608 1875
2737 1829 2441
2707 1824 2449
3562 654 229
3563 655 229
3592 712 252
3637 1000 598
3383 1212 1069
3183 1298 1332
2978 1650 1937
2834 1850 2415
2815 1846 2420
3785 980 107
3790 987 105
3831 1003 173
3830 1313 744
3584 1560 1352
3399 1624 1633
3181 1967 2373
3140 2036 2561
3128 2029 2553
3930 1411 69
3938 1421 69
3952 1596 151
3995 1797 803
3813 2114 1774
3615 2234 2269
3429 2387 2862
3412 2395 3003
3410 2391 2999
3982 1761 98
3990 1774 99
3999 1918 185
3978 2349 699
3918 2588 1996
3735 2743 2733
3578 2771 3199
3551 2805 3418
3549 2802 3416
4006 2229 192
4013 2247 196
4021 2321 245
3999 2709 593
3938 3042 1749
3845 3247 2940
3706 3285 3487
3648 3326 3722
3647 3324 3722
3965 3049 357
3973 3065 360
3983 3095 373
3991 3305 558
3974 3504 866
3911 3657 2347
3765 3762 3577
3685 3772 3872
3682 3770 3872
3924 3776 489
3930 3775 490
3936 3779 498
3935 3861 626
3908 3934 1369
3850 3992 2493
3740 4027 3497
3593 3964 3969
3560 3951 3971
3834 3778 474
3832 3777 473
3832 3778 474
3823 3828 560
3785 3892 1258
3717 3947 2326
3604 3993 3345
3323 3866 3971
3300 3848 3971
3740 746 232
3740 746 232
3760 781 240
3836 1074 553
3631 1357 1139
3494 1443 1399
3348 1754 2002
3257 1930 2388
3257 1930 2388
3740 746 232
3740 746 232
3764 788 241
3833 1085 573
3627 1360 1146
3490 1445 1408
3335 1787 2071
3257 1930 2388
3257 1930 2388
3871 1016 101
3874 1023 99
3907 1038 161
3921 1342 715
3710 1626 1378
3562 1701 1677
3376 2030 2433
3333 2077 2573
3331 2073 2568
4016 1486 62
4018 1492 62
4023 1681 170
4069 1854 809
3918 2169 1797
3745 2326 2368
3593 2449 2916
3574 2447 2991
3572 2444 2988
4095 1898 110
4095 1906 111
4095 2066 223
4087 2461 740
4050 2671 2031
3901 2840 2823
3778 2860 3252
3759 2835 3351
3757 2832 3349
4095 2436 247
4095 2446 250
4095 2524 310
4095 2864 634
4095 3161 1738
4069 3326 2970
3958 3366 3513
3917 3349 3662
3916 3346 3661
4095 3089 383
4095 3100 384
4095 3123 399
4095 3302 614
4095 3489 978
4095 3664 2487
4094 3805 3567
4061 3786 3805
4061 3782 3804
4095 3556 452
4095 3556 452
4095 3559 456
4095 3656 595
4095 3777 785
4095 3892 1489
4095 3990 3160
4093 4085 3858
4091 4084 3861
4095 3561 453
4095 3561 453
4095 3561 453
4095 3630 550
4095 3756 737
4095 3877 1172
4095 3980 2923
4075 4083 3828
4062 4081 3867
3740 746 232
3740 746 232
3754 770 237
3840 1042 501
3642 1348 1116
3501 1438 1384
3353 1742 1979
3257 1930 2388
3257 1930 2388
3740 746 232
3740 746 232
3761 783 240
3838 1062 534
3635 1354 1131
3495 1442 1396
3337 1781 2059
3257 1930 2388
3257 1930 2388
3867 1005 104
3870 1013 102
3902 1027 161
3924 1321 681
3714 1615 1357
3565 1692 1658
3375 2025 2423
3332 2075 2570
3330 2072 2567
4015 1482 62
4017 1488 62
4022 1687 178
4069 1848 802
3919 2165 1789
3745 2323 2364
3592 2448 2916
3574 2446 2990
3572 2443 2987
4095 1897 109
4095 1905 111
4095 2084 237
4087 2465 748
4050 2673 2034
3902 2842 2826
3778 2862 3258
3759 2836 3352
3758 2833 3350
4095 2438 248
4095 2448 250
4095 2541 323
4095 2872 642
4095 3165 1745
4070 3329 2974
3958 3369 3518
3918 3351 3663
3917 3348 3662
4095 3092 383
4095 3103 385
4095 3128 403
4095 3309 621
4095 3492 978
4095 3665 2486
4094 3804 3566
4061 3782 3804
4059 3776 3802
4095 3556 452
4095 3556 452
4095 3557 454
4095 3644 578
4095 3766 765
4095 3882 1329
4095 3978 3067
4095 4082 3854
4095 4080 3860
4095 3556 452
4095 3556 452
4095 3556 452
4095 3618 540
4095 3742 725
4095 3863 1075
4095 3963 2814
4095 4076 3801
4095 4088 3861
