Postproduction/IWLTBAP - Humble/LUTs by IWLTBAP (3DL)/BONUS/8700/F-8700-STD.3dl
# Copyright: (C) Copyright 2016 by IWLTBAP
# Cannot be resold, shared or otherwise redistributed
# Website: http://luts.iwltbap.com
0 256 512 768 1023
253 317 352
249 474 772
295 664 1187
364 941 1830
455 1334 2618
309 777 411
299 765 901
347 889 1361
418 1183 2039
507 1564 2774
342 1174 417
408 1575 1425
397 1182 1524
463 1384 2210
550 1748 2899
428 1731 498
498 2230 1605
577 2301 2423
541 1822 2449
610 2018 3055
613 2491 626
596 2744 1718
729 3137 3080
728 2734 3121
700 2465 3232
928 480 383
607 573 757
428 722 1139
463 981 1749
549 1370 2556
1213 799 339
644 979 1063
528 1092 1630
550 1377 2322
628 1723 2978
1261 1472 393
631 1603 1131
598 1465 1824
605 1620 2484
680 1937 3094
1463 2145 467
756 2259 1177
742 2588 2627
692 2085 2712
743 2232 3228
1934 2888 577
1473 3079 1396
941 3225 2736
856 2922 3272
829 2639 3373
1675 560 362
1382 662 742
899 811 1101
583 1031 1679
625 1395 2488
2080 890 408
1860 1203 1025
1238 1328 1547
748 1473 2275
740 1800 2993
2439 1268 412
2199 1690 752
1432 1927 2054
926 1915 2747
889 2139 3270
2523 2476 568
2167 2605 1147
1739 2725 2194
1077 2431 2947
1012 2492 3381
2719 3167 584
2549 3250 1483
2434 3383 2138
1228 3242 3430
1160 2869 3479
2584 687 468
2464 881 827
2260 959 1025
1854 1182 1381
1120 1645 2525
2992 1146 456
3024 1455 947
2681 1707 1601
2412 1869 2017
1756 2202 3001
3219 1499 452
3136 2035 1004
2989 2353 2099
2770 2454 2600
2376 2691 3295
3312 2296 540
3296 2688 827
3227 2933 1788
3095 3107 2974
2857 3133 3467
3358 3379 700
3317 3468 1235
3266 3522 2147
3228 3570 2965
2952 3443 3569
3376 927 543
3448 1222 847
3259 1428 1280
3144 1492 1490
2968 1869 2244
3612 1513 425
3663 1784 954
3516 2086 1814
3376 2221 2284
3250 2314 2769
3716 1948 476
3687 2435 998
3645 2629 2179
3521 2755 2796
3436 2731 3134
3800 2531 605
3763 2881 953
3738 3105 2056
3673 3232 3013
3590 3256 3408
3832 3220 704
3856 3375 908
3867 3486 1140
3815 3567 2651
3694 3671 3478
