Postproduction/IWLTBAP - Humble/LUTs by IWLTBAP (3DL)/BONUS/8700/F-8700-V2-STD.3dl
# Copyright: (C) Copyright 2016 by IWLTBAP
# Cannot be resold, shared or otherwise redistributed
# Website: http://luts.iwltbap.com
0 64 128 192 256 320 384 448 512 576 640 704 768 832 896 960 1023
0 0 0
0 0 100
0 12 248
0 72 397
0 135 542
0 198 676
0 264 807
0 329 937
0 399 1083
0 473 1246
0 560 1438
0 659 1656
0 766 1887
3 886 2132
37 1010 2384
72 1138 2618
107 1266 2839
0 87 29
0 51 134
0 96 291
0 153 439
0 215 586
0 283 727
0 350 864
0 414 995
0 486 1147
0 563 1314
0 652 1511
0 748 1729
1 857 1958
26 976 2205
61 1099 2446
95 1223 2674
129 1351 2890
0 266 52
0 305 263
0 226 334
0 251 481
0 301 630
0 363 776
0 427 912
0 492 1050
0 563 1202
0 642 1372
0 731 1572
0 827 1789
15 936 2026
48 1055 2271
83 1181 2508
116 1306 2732
147 1423 2940
0 408 46
0 501 292
0 483 482
0 388 532
0 410 672
0 456 821
0 506 961
0 564 1104
0 634 1256
0 714 1433
0 805 1634
4 903 1850
35 1011 2084
68 1130 2327
101 1253 2561
133 1375 2781
165 1490 2987
0 548 41
0 661 279
0 727 590
0 633 684
0 544 724
0 560 858
0 596 1008
0 642 1153
0 700 1306
0 777 1484
0 867 1687
21 967 1907
53 1077 2141
85 1195 2378
118 1318 2606
149 1438 2827
182 1553 3026
0 677 41
0 797 264
0 915 634
0 903 844
0 762 864
0 682 910
0 693 1050
0 729 1200
0 774 1358
0 840 1536
9 926 1735
38 1028 1962
70 1142 2194
102 1257 2425
133 1377 2648
165 1497 2867
195 1608 3064
0 805 37
0 925 248
0 1069 651
0 1128 951
0 1030 1052
0 877 1038
0 811 1097
0 825 1242
0 859 1408
2 910 1587
25 988 1785
55 1088 2012
86 1202 2244
116 1318 2471
148 1437 2691
181 1555 2907
210 1664 3102
0 934 39
0 1051 240
0 1212 648
0 1323 1020
1 1301 1228
0 1135 1235
0 991 1218
0 941 1293
1 958 1453
17 997 1640
43 1060 1841
71 1153 2065
102 1264 2295
132 1380 2518
165 1499 2739
196 1614 2949
225 1722 3137
0 1066 52
0 1180 242
0 1348 635
5 1504 1064
35 1556 1367
42 1453 1467
32 1267 1431
22 1132 1424
22 1086 1518
39 1106 1692
63 1155 1900
90 1230 2124
120 1333 2350
150 1446 2569
181 1561 2789
213 1676 2997
242 1783 3176
0 1212 72
0 1328 258
0 1489 621
27 1676 1083
74 1789 1472
95 1779 1695
93 1618 1710
78 1423 1653
68 1295 1658
69 1254 1766
87 1278 1962
112 1337 2188
140 1420 2410
170 1523 2628
201 1635 2843
231 1746 3043
260 1848 3217
0 1375 102
0 1492 283
0 1641 606
50 1838 1077
109 2008 1554
143 2074 1876
155 2004 2001
146 1814 1970
130 1613 1906
119 1485 1926
121 1444 2050
139 1475 2261
165 1540 2475
192 1626 2692
222 1719 2896
251 1822 3089
280 1921 3262
27 1565 135
9 1672 315
8 1808 605
74 2002 1074
141 2200 1593
188 2332 2021
210 2347 2249
216 2231 2305
204 2028 2254
187 1822 2193
176 1703 2228
176 1662 2355
194 1695 2552
220 1760 2760
246 1835 2959
275 1924 3145
302 2011 3307
68 1764 170
55 1858 361
49 1989 637
101 2167 1084
169 2369 1608
226 2540 2111
260 2620 2444
275 2577 2574
277 2443 2592
262 2228 2528
243 2033 2475
232 1923 2522
233 1883 2646
252 1918 2835
275 1976 3028
301 2046 3206
325 2116 3361
112 1976 206
110 2045 426
103 2180 715
136 2333 1121
199 2523 1628
259 2705 2153
305 2837 2582
328 2853 2790
337 2775 2854
334 2615 2850
316 2401 2779
300 2230 2749
289 2139 2809
290 2104 2924
307 2130 3095
330 2181 3265
352 2240 3413
161 2205 244
172 2238 501
167 2371 815
177 2499 1190
231 2671 1669
290 2847 2185
341 2998 2646
375 3071 2957
389 3033 3061
395 2924 3097
388 2758 3078
371 2563 3016
355 2421 3010
345 2342 3070
346 2310 3173
361 2333 3326
381 2376 3465
217 2439 283
241 2415 579
238 2554 931
230 2660 1276
266 2809 1722
321 2981 2209
373 3142 2674
415 3251 3058
437 3239 3230
447 3165 3288
448 3040 3305
438 2871 3271
421 2702 3222
407 2593 3244
399 2530 3303
398 2495 3389
414 2521 3521
328 2686 347
316 2599 673
314 2719 1038
304 2849 1393
310 2994 1758
352 3167 2213
405 3318 2676
451 3429 3092
483 3445 3364
495 3374 3450
499 3270 3479
496 3132 3478
484 2977 3439
469 2833 3409
458 2753 3444
452 2700 3500
447 2655 3570
0 0 0
0 1 112
0 47 248
0 103 393
0 164 534
0 221 665
0 282 793
0 349 923
0 418 1068
0 495 1228
0 579 1411
0 676 1627
13 780 1859
47 899 2107
80 1024 2361
114 1154 2601
149 1284 2831
0 120 15
0 120 180
0 150 329
0 208 493
0 268 639
0 331 784
0 397 923
0 465 1067
0 536 1220
0 615 1397
0 705 1600
18 805 1824
49 914 2056
80 1031 2297
113 1156 2530
146 1281 2750
177 1401 2961
0 315 55
0 329 253
0 285 381
0 311 541
0 360 692
0 417 840
0 482 981
0 550 1128
0 623 1287
0 703 1467
14 793 1671
43 896 1895
73 1005 2131
104 1121 2369
135 1243 2593
166 1362 2810
197 1480 3012
0 484 63
0 507 250
0 551 517
0 458 596
0 470 737
0 511 883
0 563 1030
0 624 1175
0 697 1338
10 780 1526
35 872 1731
63 973 1956
93 1083 2191
123 1199 2424
154 1317 2643
185 1435 2860
214 1547 3052
0 627 68
0 649 232
0 766 569
0 713 741
0 613 789
0 616 924
0 654 1076
0 702 1223
4 764 1390
26 846 1578
53 939 1783
81 1043 2009
111 1153 2245
141 1267 2472
172 1386 2692
201 1501 2905
231 1611 3094
0 744 69
0 786 221
0 929 572
0 963 876
0 843 936
0 749 978
0 756 1120
2 789 1274
19 838 1442
43 910 1628
70 1002 1833
97 1105 2061
128 1217 2295
158 1331 2518
188 1449 2739
217 1563 2947
246 1669 3133
0 868 70
2 918 222
0 1069 556
4 1167 952
12 1118 1117
9 962 1117
7 879 1172
18 888 1320
37 926 1492
60 981 1678
86 1066 1885
114 1167 2114
143 1280 2345
173 1392 2562
203 1511 2783
233 1624 2986
261 1728 3168
13 1001 71
20 1049 230
12 1200 539
28 1346 990
52 1380 1272
54 1250 1328
45 1085 1306
43 1015 1375
58 1028 1539
78 1070 1729
103 1140 1940
131 1233 2169
160 1343 2395
189 1457 2611
220 1574 2827
249 1684 3028
277 1787 3205
32 1143 75
41 1188 237
32 1334 528
53 1515 1004
86 1606 1371
104 1565 1547
98 1389 1538
85 1225 1515
84 1165 1604
100 1183 1783
123 1234 1999
149 1311 2227
177 1414 2447
207 1526 2664
237 1639 2876
266 1748 3073
295 1848 3242
56 1300 84
62 1342 247
56 1480 522
75 1669 993
120 1821 1443
149 1865 1731
156 1756 1815
144 1554 1769
131 1397 1758
131 1340 1863
148 1363 2064
171 1423 2291
198 1506 2506
226 1605 2719
256 1713 2926
285 1817 3115
313 1914 3283
87 1477 105
90 1510 258
86 1646 531
98 1828 972
149 2017 1481
190 2128 1873
211 2114 2070
211 1959 2091
196 1747 2032
182 1591 2033
181 1538 2152
199 1566 2358
222 1630 2573
250 1712 2781
278 1803 2977
306 1900 3160
332 1990 3324
128 1681 133
122 1699 276
124 1825 563
129 1992 962
176 2191 1483
229 2355 1972
260 2417 2277
271 2337 2382
267 2164 2371
250 1948 2308
236 1807 2325
235 1756 2447
253 1786 2647
276 1846 2849
302 1920 3039
328 2008 3213
355 2088 3370
182 1907 163
164 1904 309
171 2014 613
169 2163 972
206 2350 1483
261 2539 2016
305 2661 2431
325 2652 2621
332 2545 2670
323 2353 2639
304 2143 2579
291 2022 2614
290 1976 2735
308 2005 2922
330 2059 3104
353 2124 3271
378 2196 3418
277 2144 187
216 2126 355
227 2202 681
223 2340 1026
241 2506 1494
291 2689 2032
341 2846 2511
374 2909 2811
387 2849 2903
389 2707 2924
376 2508 2878
358 2328 2840
346 2227 2893
346 2189 3006
361 2208 3170
381 2254 3325
404 2314 3469
467 2388 217
287 2371 422
291 2387 745
288 2520 1110
289 2660 1532
324 2827 2048
372 2989 2544
414 3102 2932
435 3088 3093
444 2995 3147
442 2840 3148
427 2650 3096
410 2504 3085
400 2423 3144
398 2386 3244
414 2403 3386
432 2444 3522
713 2626 250
377 2659 498
365 2574 826
360 2687 1204
353 2814 1591
368 2962 2061
405 3130 2558
450 3269 2994
481 3294 3246
493 3223 3326
496 3107 3352
489 2948 3335
474 2782 3292
460 2667 3305
451 2599 3364
449 2562 3448
464 2582 3575
932 2900 290
558 2999 561
451 2797 917
439 2850 1285
430 3002 1653
423 3158 2030
446 3310 2520
484 3437 2992
521 3490 3348
540 3428 3477
545 3328 3516
544 3198 3525
535 3047 3499
520 2900 3464
507 2812 3496
500 2757 3550
496 2717 3620
208 43 2
143 63 144
63 103 256
3 147 400
0 197 531
0 251 660
0 305 781
0 366 907
0 433 1048
0 509 1210
3 596 1390
24 693 1604
55 799 1835
85 911 2081
118 1033 2332
150 1164 2575
182 1290 2799
254 161 31
201 204 204
88 215 341
8 245 487
0 302 635
0 362 775
0 421 909
0 485 1051
0 555 1207
8 633 1381
32 722 1583
60 823 1806
90 933 2045
119 1050 2291
152 1176 2530
183 1303 2763
215 1426 2978
304 301 4
229 355 201
100 349 409
29 365 581
4 415 745
0 473 897
0 533 1042
2 597 1193
17 670 1356
39 749 1543
64 841 1751
92 947 1978
121 1058 2217
151 1175 2448
180 1293 2667
211 1414 2885
240 1529 3077
270 522 3
153 561 217
87 586 498
47 523 644
25 535 800
14 576 953
12 622 1099
20 679 1248
39 753 1418
61 837 1611
87 930 1821
114 1032 2051
143 1145 2286
172 1259 2510
201 1375 2727
230 1490 2932
259 1599 3119
203 708 3
106 736 218
82 763 484
57 789 776
44 690 862
35 686 1000
31 718 1147
39 760 1294
58 827 1469
81 909 1664
106 1003 1876
133 1109 2104
162 1220 2335
190 1333 2559
219 1446 2775
248 1558 2977
275 1662 3157
178 860 2
97 883 220
88 909 466
79 1019 860
58 932 1003
51 824 1056
51 822 1193
58 851 1346
76 902 1520
98 978 1712
123 1071 1929
150 1176 2157
179 1288 2385
207 1399 2604
236 1512 2820
264 1622 3019
291 1724 3193
186 980 3
107 1020 227
104 1045 462
103 1198 883
84 1198 1158
74 1047 1193
71 951 1244
78 953 1391
94 990 1568
115 1051 1762
139 1139 1978
166 1243 2207
195 1353 2434
223 1463 2649
252 1576 2862
280 1683 3056
307 1785 3228
220 1098 5
124 1153 235
122 1181 462
124 1353 874
118 1431 1265
113 1342 1396
105 1173 1387
101 1089 1452
113 1097 1616
133 1142 1814
157 1214 2030
184 1311 2258
212 1420 2482
241 1530 2698
269 1643 2907
296 1745 3096
323 1844 3264
255 1235 25
144 1293 242
143 1325 467
144 1497 853
151 1642 1328
157 1643 1587
155 1496 1627
143 1319 1603
140 1243 1685
154 1256 1872
176 1309 2089
202 1389 2312
230 1491 2533
258 1600 2749
287 1711 2953
314 1813 3138
340 1907 3302
308 1395 51
170 1463 242
168 1484 477
167 1647 835
181 1836 1351
198 1920 1736
209 1855 1884
202 1673 1873
189 1496 1852
185 1423 1954
201 1442 2155
224 1502 2374
250 1585 2592
278 1684 2802
306 1787 3000
334 1885 3182
359 1975 3343
382 1581 79
202 1661 236
199 1658 493
196 1810 829
211 2008 1336
239 2161 1837
257 2183 2102
264 2067 2175
253 1864 2139
238 1689 2130
235 1624 2242
252 1652 2443
275 1714 2657
301 1792 2861
328 1883 3051
355 1973 3229
379 2054 3385
491 1789 110
258 1873 241
236 1852 514
235 1986 845
245 2171 1315
276 2360 1875
303 2462 2274
319 2419 2433
321 2274 2461
306 2059 2409
291 1900 2415
288 1843 2531
305 1869 2731
327 1924 2927
352 2000 3109
377 2081 3278
401 2154 3427
622 2014 143
359 2110 257
286 2066 553
283 2168 887
288 2335 1312
312 2526 1875
345 2680 2382
370 2718 2651
379 2626 2727
377 2454 2725
359 2243 2673
344 2108 2701
343 2058 2817
358 2081 2997
379 2131 3171
401 2197 3332
425 2265 3471
773 2256 177
499 2360 292
350 2315 606
342 2353 946
341 2495 1343
354 2669 1861
383 2844 2409
413 2946 2803
430 2908 2940
436 2788 2983
428 2601 2959
411 2412 2920
397 2305 2967
396 2263 3076
410 2281 3233
430 2326 3384
449 2377 3522
952 2500 212
683 2634 339
437 2612 656
411 2543 1007
406 2655 1404
408 2805 1858
427 2976 2402
454 3116 2877
477 3133 3112
487 3055 3187
488 2910 3202
477 2730 3168
460 2577 3152
449 2493 3208
446 2453 3304
460 2470 3439
478 2503 3571
1158 2736 249
898 2904 413
592 2896 741
499 2748 1071
482 2812 1471
476 2944 1878
483 3112 2369
501 3272 2885
521 3331 3237
535 3272 3354
539 3164 3391
535 3016 3388
523 2852 3353
508 2737 3358
498 2662 3414
496 2624 3499
510 2640 3620
1369 2965 286
1149 3128 537
853 3135 841
622 3037 1145
565 3003 1527
552 3135 1894
549 3303 2313
556 3444 2841
567 3523 3302
579 3474 3493
586 3378 3548
586 3256 3563
579 3104 3543
565 2965 3514
553 2866 3537
544 2809 3592
541 2774 3662
481 105 10
398 110 157
341 129 264
196 188 396
73 239 534
24 285 661
11 337 780
7 393 901
6 454 1032
14 524 1190
35 609 1371
61 705 1584
89 810 1811
118 921 2054
149 1044 2304
181 1169 2547
212 1299 2779
531 208 32
488 259 205
381 285 356
222 312 483
88 341 624
49 391 765
40 451 900
37 509 1038
37 573 1189
48 646 1357
70 736 1557
95 836 1779
123 945 2018
152 1062 2264
183 1187 2508
213 1311 2736
