Postproduction/IWLTBAP - Humble/LUTs by IWLTBAP (3DL)/BONUS/8700/F-8700-V2-VLOG.3dl
# Copyright: (C) Copyright 2010-2017 by IWLTBAP SAS
# Cannot be resold, shared or otherwise redistributed
# Website: https://luts.iwltbap.com
0 64 128 192 256 320 384 448 512 576 640 704 768 832 896 960 1023
0 0 0
0 0 0
0 0 16
0 0 61
0 0 136
0 16 258
0 74 389
0 138 548
0 225 715
0 335 927
0 500 1257
26 764 1773
165 1144 2505
209 1253 2685
209 1271 2732
209 1301 2778
209 1317 2794
0 0 0
0 0 0
0 0 16
0 0 61
0 0 152
0 27 263
0 90 399
0 154 548
0 240 730
0 360 952
0 516 1272
42 785 1810
169 1172 2552
209 1272 2717
209 1301 2748
209 1317 2794
225 1333 2826
0 0 0
0 0 15
0 0 28
0 0 64
0 11 141
0 43 263
0 104 428
0 184 600
0 271 775
0 390 997
0 553 1329
42 826 1878
169 1192 2583
209 1299 2747
211 1319 2794
225 1347 2826
225 1363 2856
0 42 13
0 42 29
0 29 48
0 29 90
0 42 166
0 73 277
0 122 399
0 195 560
0 296 774
0 416 1054
0 596 1430
55 873 1976
181 1234 2643
209 1317 2781
213 1335 2812
225 1365 2858
225 1381 2891
0 153 32
0 153 75
0 149 106
0 149 150
0 124 217
0 141 308
0 180 419
0 239 569
0 327 755
0 453 1019
0 628 1454
50 928 2105
185 1278 2727
209 1335 2809
211 1361 2856
225 1381 2891
225 1397 2919
0 295 75
0 295 112
0 311 154
0 327 224
0 310 304
0 258 370
0 266 470
0 309 607
0 386 779
0 491 1008
0 665 1392
26 955 2106
181 1309 2785
209 1365 2858
209 1381 2892
214 1397 2923
225 1413 2955
0 438 106
0 453 144
0 478 191
0 509 277
0 512 387
0 479 488
0 405 544
0 415 654
0 468 821
0 550 1036
0 693 1357
26 983 1995
130 1330 2779
167 1355 2866
173 1373 2899
173 1397 2945
183 1413 2961
0 614 138
0 636 185
0 661 238
0 686 327
0 730 490
0 743 620
0 664 696
0 577 750
0 585 884
0 638 1085
0 755 1394
32 998 1918
151 1431 2775
170 1506 2935
177 1528 2975
186 1544 3012
186 1560 3037
0 835 217
0 851 241
0 882 340
0 928 465
0 976 608
0 1009 764
0 1002 901
0 897 952
0 759 996
0 766 1181
0 847 1462
53 1061 1972
153 1449 2712
201 1614 3003
209 1631 3036
209 1646 3068
217 1662 3091
0 1134 365
0 1159 437
0 1196 543
0 1238 656
0 1282 796
0 1332 963
4 1356 1125
7 1323 1253
7 1153 1271
0 980 1322
23 1009 1612
79 1168 2063
182 1532 2765
225 1702 3051
226 1716 3075
232 1733 3107
241 1748 3138
0 1542 640
6 1579 716
6 1620 814
22 1667 939
38 1720 1082
60 1779 1253
83 1834 1447
106 1869 1647
121 1812 1781
104 1570 1760
92 1324 1836
140 1412 2298
219 1685 2876
263 1834 3129
263 1849 3161
264 1865 3177
279 1881 3208
111 2175 1099
122 2206 1184
137 2242 1288
152 2286 1404
168 2348 1541
187 2400 1730
215 2474 1941
238 2553 2190
261 2600 2426
272 2540 2561
268 2231 2535
243 1909 2632
298 2038 3131
326 2119 3287
326 2139 3309
331 2150 3339
342 2155 3355
297 2883 1915
301 2914 1997
313 2946 2092
329 2975 2187
342 3019 2308
356 3070 2448
377 3125 2615
393 3193 2827
424 3252 3069
442 3241 3232
454 3123 3310
437 2768 3255
405 2524 3395
418 2529 3473
418 2533 3490
418 2533 3517
422 2545 3533
340 3070 2200
353 3102 2278
368 3134 2373
369 3164 2467
385 3199 2577
401 3242 2712
418 3289 2873
434 3336 3055
458 3359 3244
474 3320 3350
482 3181 3396
461 2863 3338
434 2601 3435
434 2585 3501
434 2585 3517
434 2602 3534
434 2602 3549
353 3115 2200
355 3133 2279
369 3165 2373
382 3197 2454
385 3240 2577
401 3277 2720
419 3320 2873
443 3367 3055
466 3397 3260
482 3351 3379
482 3228 3428
467 2911 3380
435 2647 3461
434 2620 3503
434 2618 3521
434 2618 3549
434 2618 3549
353 3148 2200
369 3179 2279
369 3210 2373
385 3228 2454
401 3272 2577
418 3308 2720
428 3350 2873
450 3397 3055
474 3437 3268
489 3397 3402
498 3268 3459
482 2957 3416
450 2690 3477
450 2651 3533
450 2651 3536
450 2635 3550
450 2635 3565
353 3164 2200
369 3195 2279
383 3226 2373
385 3257 2454
401 3288 2577
418 3335 2720
434 3382 2873
450 3430 3055
482 3453 3276
498 3414 3428
498 3290 3475
493 2989 3443
450 2710 3493
450 2682 3533
450 2666 3549
450 2665 3565
450 2650 3565
0 0 0
0 0 0
0 0 16
0 0 61
0 0 141
0 26 258
0 74 389
0 138 548
0 225 707
0 335 927
0 516 1241
42 764 1773
169 1144 2505
209 1256 2685
209 1285 2732
224 1301 2778
225 1317 2794
0 0 0
0 0 14
0 0 16
0 0 61
0 0 152
0 32 263
0 90 405
0 154 548
0 248 730
0 366 952
0 531 1272
42 785 1805
169 1175 2537
209 1272 2714
211 1301 2748
225 1317 2794
225 1333 2826
0 0 0
0 0 15
0 0 30
0 0 75
0 16 155
0 48 269
0 115 428
0 184 601
0 272 777
0 390 997
0 562 1324
56 826 1878
181 1202 2593
209 1301 2749
225 1319 2793
225 1349 2826
225 1365 2858
0 45 13
0 45 29
0 42 59
0 29 93
0 42 169
0 79 279
0 135 405
0 202 574
0 305 790
0 429 1063
0 596 1430
58 873 1976
185 1234 2641
214 1317 2766
225 1335 2812
225 1365 2858
225 1381 2888
0 153 32
0 153 75
0 163 106
0 149 156
0 136 217
0 152 311
0 187 433
0 246 584
0 335 765
0 461 1033
0 640 1471
58 928 2105
194 1278 2724
212 1335 2809
225 1361 2855
225 1381 2887
225 1397 2919
0 295 75
0 311 112
0 311 154
0 327 221
0 322 304
0 274 382
0 279 481
0 322 616
0 391 792
0 496 1013
0 680 1408
37 971 2121
185 1309 2782
209 1365 2858
215 1381 2886
225 1397 2923
225 1413 2955
0 448 106
0 454 129
0 479 185
0 509 277
0 519 387
0 495 497
0 419 559
0 422 670
0 473 824
0 554 1046
0 705 1375
42 998 2011
139 1343 2794
173 1365 2875
182 1382 2909
183 1403 2945
188 1419 2971
0 613 129
0 636 169
0 653 231
0 686 324
0 738 481
0 748 620
0 680 703
0 589 763
0 588 897
0 651 1097
0 766 1410
42 1007 1949
159 1434 2783
177 1512 2944
186 1529 2981
186 1553 3021
193 1569 3044
0 835 209
0 851 241
0 881 325
0 928 450
0 976 594
0 1017 764
0 1010 906
0 909 964
0 771 1007
0 778 1196
3 863 1478
58 1077 1988
167 1461 2726
209 1615 3013
209 1639 3044
217 1662 3076
225 1670 3099
0 1128 359
0 1159 415
0 1196 523
0 1238 640
0 1282 783
0 1338 961
7 1363 1122
22 1339 1265
22 1172 1286
7 996 1334
29 1025 1624
88 1184 2076
185 1548 2772
232 1709 3060
241 1726 3084
241 1742 3107
248 1764 3155
6 1542 625
6 1574 700
21 1612 798
27 1659 911
44 1716 1066
67 1779 1245
90 1841 1442
108 1884 1653
124 1828 1797
114 1586 1777
96 1337 1850
140 1426 2311
223 1701 2888
263 1849 3139
273 1865 3170
279 1871 3192
279 1897 3224
122 2164 1083
127 2202 1168
143 2238 1272
155 2284 1388
171 2339 1525
190 2396 1714
215 2474 1925
246 2553 2187
269 2608 2426
288 2546 2575
275 2247 2544
255 1924 2648
303 2046 3135
331 2135 3303
333 2150 3324
342 2155 3344
342 2171 3371
301 2879 1899
313 2910 1981
317 2941 2072
329 2975 2170
345 3019 2280
361 3066 2429
377 3125 2598
400 3195 2811
426 3258 3061
447 3241 3232
458 3129 3314
440 2783 3262
413 2531 3399
421 2533 3473
422 2545 3491
422 2549 3521
422 2549 3537
353 3070 2168
356 3102 2262
369 3134 2357
382 3164 2435
385 3198 2561
401 3242 2696
418 3289 2856
443 3336 3039
466 3366 3244
482 3320 3350
482 3196 3405
465 2879 3349
434 2617 3445
434 2602 3501
434 2602 3519
434 2602 3548
434 2602 3549
353 3115 2168
369 3133 2262
369 3165 2357
385 3197 2435
398 3230 2561
413 3277 2704
428 3320 2856
450 3367 3040
467 3405 3252
483 3367 3380
498 3237 3437
477 2926 3394
450 2659 3466
449 2620 3517
449 2620 3533
449 2620 3549
450 2620 3565
369 3148 2168
369 3179 2262
385 3196 2357
385 3228 2435
401 3272 2561
418 3308 2704
434 3350 2856
450 3406 3048
482 3437 3268
498 3397 3411
498 3274 3459
492 2973 3431
461 2694 3493
450 2667 3534
450 2663 3549
450 2651 3565
450 2651 3566
369 3164 2168
369 3195 2262
385 3226 2357
398 3257 2435
401 3288 2561
418 3335 2704
434 3382 2856
459 3430 3048
482 3453 3268
498 3430 3428
514 3306 3485
498 3005 3458
466 2722 3509
465 2682 3549
450 2682 3551
450 2666 3566
450 2666 3581
0 0 0
0 0 0
0 0 16
0 0 50
0 0 126
0 17 234
0 74 370
0 152 526
0 226 699
0 342 911
0 516 1226
52 769 1768
179 1148 2495
209 1256 2685
225 1285 2730
225 1301 2762
225 1317 2794
0 0 0
0 0 15
0 0 28
0 0 61
0 10 140
0 33 249
0 99 385
0 168 547
0 248 716
0 366 929
0 532 1262
58 795 1805
184 1176 2525
223 1282 2714
225 1302 2761
225 1330 2794
239 1346 2825
0 0 0
0 0 15
0 0 42
0 12 90
0 25 182
0 58 290
0 120 434
0 193 587
0 273 763
0 397 989
0 562 1310
67 832 1867
185 1208 2583
225 1313 2759
237 1333 2805
241 1361 2840
241 1377 2871
0 59 16
0 59 32
0 57 62
0 47 109
0 58 187
0 102 302
0 150 442
0 226 619
0 321 834
0 444 1089
0 609 1419
74 880 1963
197 1249 2644
225 1345 2794
239 1365 2840
241 1392 2886
241 1409 2907
0 169 44
0 179 66
0 179 106
0 167 156
0 151 229
0 164 330
0 203 453
0 262 609
0 358 797
0 479 1080
0 649 1514
73 937 2103
200 1281 2715
225 1349 2813
230 1370 2860
241 1397 2906
241 1413 2923
0 311 66
0 321 107
0 322 143
0 327 221
0 326 309
0 282 389
0 284 498
0 335 638
0 407 823
0 511 1046
0 698 1451
44 982 2167
197 1317 2782
223 1365 2844
225 1381 2877
229 1397 2923
240 1413 2940
0 448 91
0 454 114
0 470 175
0 496 247
0 528 386
0 511 497
0 435 572
0 437 687
0 483 842
0 570 1065
0 719 1403
56 1020 2056
147 1345 2811
190 1368 2885
198 1397 2924
199 1413 2955
199 1429 2987
0 606 114
0 621 147
0 651 206
0 692 301
0 740 451
0 761 613
0 708 726
0 599 778
0 600 912
0 654 1113
0 782 1432
56 1031 1980
165 1447 2804
186 1513 2951
192 1538 2991
201 1554 3027
202 1569 3052
0 820 179
0 844 218
0 875 289
0 927 417
0 976 569
0 1017 744
0 1024 911
0 923 975
0 779 1016
0 786 1205
10 878 1502
71 1093 2018
174 1478 2750
217 1638 3029
225 1647 3059
225 1670 3091
232 1693 3123
0 1119 328
0 1144 377
0 1182 483
0 1229 597
0 1284 762
0 1332 931
13 1375 1124
23 1361 1278
23 1192 1303
22 1012 1353
45 1040 1646
101 1200 2105
198 1563 2796
241 1719 3074
247 1740 3105
248 1749 3123
256 1772 3155
21 1542 587
22 1573 670
22 1612 772
35 1664 899
52 1714 1042
71 1782 1217
92 1841 1423
121 1888 1645
140 1856 1814
127 1609 1799
112 1362 1874
156 1442 2330
237 1716 2910
278 1856 3147
279 1871 3178
288 1890 3202
294 1902 3233
127 2164 1035
137 2195 1115
144 2229 1215
159 2274 1344
175 2332 1494
198 2395 1666
222 2474 1910
250 2553 2165
277 2614 2427
292 2559 2583
287 2269 2566
259 1940 2663
317 2062 3151
342 2154 3308
347 2165 3330
347 2172 3360
357 2182 3376
313 2879 1859
317 2910 1944
329 2941 2034
342 2973 2136
348 3011 2260
361 3063 2407
377 3121 2570
402 3190 2791
432 3260 3049
455 3256 3234
470 3139 3323
452 2787 3275
422 2540 3414
432 2549 3489
434 2549 3507
437 2560 3535
437 2565 3551
367 3070 2138
369 3101 2232
382 3132 2325
385 3164 2405
401 3198 2530
404 3242 2648
419 3289 2815
444 3336 3014
467 3375 3222
483 3336 3355
498 3207 3407
477 2881 3365
450 2626 3451
450 2602 3517
450 2618 3533
450 2618 3549
450 2618 3565
369 3101 2138
371 3133 2232
385 3165 2325
387 3195 2405
401 3230 2530
418 3273 2662
434 3320 2815
450 3367 3014
475 3406 3239
498 3367 3381
500 3244 3438
492 2936 3396
450 2664 3477
450 2636 3519
450 2636 3537
450 2636 3565
450 2634 3565
369 3148 2138
385 3165 2232
385 3196 2325
401 3228 2405
401 3272 2530
418 3303 2662
434 3350 2815
458 3397 3015
482 3437 3246
498 3414 3411
514 3289 3469
493 2984 3443
466 2706 3493
466 2667 3549
466 2667 3552
466 2666 3567
466 2666 3581
383 3164 2138
385 3195 2232
398 3226 2325
401 3257 2405
417 3288 2530
427 3335 2662
434 3372 2815
465 3430 3015
489 3469 3261
513 3437 3428
514 3306 3491
509 3021 3464
466 2726 3509
466 2698 3549
466 2682 3565
466 2682 3581
466 2682 3581
0 0 0
0 0 16
0 0 27
0 0 64
0 0 124
0 27 215
0 87 341
0 154 494
0 241 669
0 351 890
0 501 1195
58 771 1744
185 1159 2492
225 1271 2685
226 1298 2732
241 1317 2778
241 1333 2794
0 0 0
0 0 16
0 12 43
0 15 77
0 16 138
0 43 231
0 105 359
0 170 512
0 255 685
0 367 911
0 531 1231
73 787 1775
194 1176 2521
225 1288 2704
238 1317 2748
241 1333 2794
