Postproduction/IWLTBAP - Humble/LUTs by IWLTBAP (3DL)/BONUS/8700/F-8700-LOG.3dl
# Copyright: (C) Copyright 2016 by IWLTBAP
# Cannot be resold, shared or otherwise redistributed
# Website: http://luts.iwltbap.com
0 128 256 384 512 640 768 896 1023
147 169 191
148 213 327
144 274 512
153 361 763
175 477 1067
205 626 1446
242 810 1898
284 1022 2370
327 1240 2768
176 337 236
173 313 366
168 364 564
180 464 829
204 597 1157
236 761 1576
274 955 2044
316 1171 2492
357 1383 2871
199 537 254
191 627 474
198 527 629
210 590 910
236 727 1268
271 903 1710
310 1110 2192
351 1326 2615
392 1531 2969
215 789 267
192 909 392
250 1058 903
251 828 1015
274 888 1403
310 1069 1870
350 1282 2340
391 1496 2747
430 1685 3069
240 1098 307
217 1218 404
288 1525 906
341 1506 1522
327 1180 1585
356 1272 2056
395 1471 2495
433 1663 2869
470 1838 3162
285 1468 357
259 1571 459
308 1862 802
447 2312 2089
433 1840 2108
420 1630 2266
447 1712 2659
480 1850 2986
513 1995 3248
337 1855 406
307 1918 518
350 2167 840
512 2702 2287
558 2637 2785
522 2188 2655
513 2067 2838
533 2118 3107
559 2211 3337
396 2224 456
365 2228 577
416 2470 1025
557 3013 2293
640 3082 3137
628 2749 3113
604 2502 3098
596 2415 3233
612 2444 3428
463 2795 505
435 2755 633
432 3046 934
602 3359 2274
712 3452 3388
716 3179 3441
693 2893 3372
676 2742 3414
670 2681 3524
273 213 211
250 248 343
235 315 525
223 387 747
243 505 1046
274 652 1418
311 832 1863
353 1042 2330
398 1265 2742
293 368 238
275 354 387
253 406 596
242 501 874
268 640 1222
301 805 1652
340 1003 2127
383 1219 2557
425 1431 2923
296 611 265
294 613 418
279 586 674
274 643 971
303 789 1351
338 970 1805
377 1175 2273
418 1385 2680
457 1577 3015
305 863 272
296 886 379
306 1100 864
317 896 1085
341 957 1497
378 1148 1973
418 1355 2418
458 1558 2807
495 1737 3112
333 1216 310
318 1228 389
322 1468 745
414 1684 1628
396 1273 1682
425 1358 2157
463 1551 2576
501 1735 2931
535 1895 3202
381 1622 356
366 1613 436
342 1809 674
495 2321 1969
511 2020 2255
490 1737 2359
515 1801 2733
547 1928 3043
577 2053 3288
441 2041 401
423 2014 485
401 2150 785
540 2622 2012
623 2747 2843
594 2304 2744
581 2158 2902
599 2189 3161
623 2270 3374
642 2454 438
491 2400 534
487 2468 967
581 2946 1992
698 3158 3157
697 2855 3188
671 2576 3146
661 2484 3279
675 2502 3462
913 3032 487
573 3022 587
534 3040 848
619 3330 1942
759 3512 3316
777 3260 3471
758 2969 3423
738 2796 3443
732 2732 3553
599 265 210
550 273 351
454 326 526
321 436 764
313 541 1049
345 689 1405
381 860 1819
423 1061 2266
469 1282 2693
705 394 221
598 429 391
457 472 600
340 544 864
341 672 1198
374 837 1614
412 1025 2066
454 1233 2498
499 1455 2897
804 589 235
701 638 376
469 657 700
363 704 1037
377 855 1454
413 1038 1922
452 1239 2369
491 1439 2753
531 1628 3071
776 1001 259
567 1024 341
429 1053 680
403 991 1174
420 1049 1613
458 1246 2099
497 1446 2525
535 1632 2884
570 1796 3166
815 1404 299
581 1397 376
448 1421 617
486 1792 1635
479 1392 1801
507 1470 2276
545 1652 2682
579 1819 3003
611 1958 3249
991 1863 341
736 1840 419
489 1820 604
537 2253 1697
602 2223 2412
574 1861 2471
596 1908 2828
626 2018 3110
654 2130 3335
1231 2319 383
990 2291 463
587 2241 650
583 2523 1664
694 2841 2876
679 2430 2845
662 2261 2982
677 2277 3224
700 2349 3419
1523 2729 429
1310 2704 511
797 2757 724
664 2860 1670
757 3223 3094
775 2967 3249
750 2663 3200
738 2563 3330
750 2568 3505
1776 3237 479
1583 3235 563
1200 3255 685
765 3294 1617
803 3524 3088
848 3345 3498
836 3062 3480
814 2865 3477
806 2795 3587
1040 304 194
995 316 352
930 339 492
701 435 740
410 594 1045
419 735 1405
457 906 1805
496 1089 2211
544 1315 2663
1185 442 214
1175 459 323
1007 504 567
708 605 843
443 722 1181
449 869 1564
487 1054 2003
529 1256 2437
577 1485 2870
1412 617 261
1352 632 327
1182 738 641
744 811 994
494 907 1409
490 1070 1858
530 1271 2319
571 1477 2732
613 1675 3079
1679 878 286
1626 930 349
1431 1061 521
786 1145 1216
561 1173 1752
546 1337 2223
583 1534 2642
617 1705 2974
650 1857 3227
1834 1628 386
1687 1671 429
1323 1693 493
714 1767 1263
635 1585 1981
607 1604 2401
637 1767 2792
668 1915 3088
696 2038 3317
2021 2204 392
1797 2196 414
1420 2162 523
776 2195 1213
720 2408 2521
683 2005 2597
688 2028 2926
716 2130 3193
741 2219 3397
2184 2659 388
1979 2634 453
1664 2611 578
1006 2631 1272
827 2915 2791
773 2571 2948
755 2368 3062
765 2372 3289
786 2434 3472
2361 3041 424
2191 3024 503
1949 3022 705
1397 3073 1336
920 3209 2649
862 3081 3292
838 2757 3255
824 2645 3384
833 2640 3548
2509 3430 481
2366 3428 562
2191 3441 765
1833 3509 1321
1025 3468 2459
965 3485 3535
920 3165 3531
898 2936 3512
888 2859 3620
1565 351 236
1530 363 332
1447 402 535
1356 437 664
930 588 993
546 788 1373
532 938 1761
575 1132 2183
625 1370 2673
1763 506 270
1773 506 333
1679 555 557
1478 623 754
981 783 1112
592 942 1547
564 1073 1901
607 1287 2379
658 1528 2855
2058 703 320
2049 735 364
2049 745 503
1690 915 925
1170 1045 1306
670 1147 1788
630 1302 2219
652 1509 2677
698 1723 3071
2399 954 379
2397 991 414
2316 1058 484
2011 1316 1105
1390 1436 1652
784 1449 2168
739 1621 2624
715 1769 2980
740 1920 3258
2757 1343 358
2732 1424 395
2621 1607 515
2321 1866 870
1473 1967 2067
918 1833 2557
856 1940 2930
802 2028 3188
786 2112 3380
2792 2380 471
2701 2460 539
2570 2514 610
2213 2537 1064
1501 2566 2194
1021 2271 2746
955 2249 3057
884 2286 3289
838 2320 3458
2904 2899 505
2813 2913 551
2646 2927 597
2325 2903 1305
1832 2907 2120
1095 2881 3099
1059 2579 3164
984 2541 3370
896 2535 3529
2978 3251 501
2880 3262 535
2736 3273 641
2508 3252 1416
2177 3286 2019
1227 3311 3253
1047 2944 3358
1072 2804 3448
977 2747 3598
3057 3580 508
2956 3579 586
2821 3576 765
2660 3562 1487
2492 3605 1946
1481 3611 3022
1161 3377 3610
1047 3046 3555
1067 2968 3667
2227 425 292
2209 447 362
2088 484 528
2015 520 710
1879 591 848
1419 778 1179
946 1027 1698
701 1201 2175
709 1420 2670
2421 583 331
2445 570 397
2380 613 544
2231 723 788
2056 806 966
1625 996 1292
1069 1245 1878
774 1393 2394
757 1584 2842
2689 810 388
2695 857 425
2717 834 520
2546 1045 920
2291 1139 1175
1959 1315 1497
1256 1546 2194
875 1634 2673
836 1801 3061
3000 1108 424
3000 1148 439
2993 1233 479
2871 1452 991
2518 1657 1583
2232 1790 1937
1528 1918 2579
1051 1925 2961
944 2033 3260
3265 1451 406
3249 1492 423
3197 1669 506
3021 2010 1036
2723 2238 2021
2456 2308 2422
1919 2327 2892
1365 2255 3177
1060 2252 3395
3372 2055 382
3326 2160 453
3257 2362 613
3168 2564 815
2958 2723 1823
2670 2793 2703
2251 2689 3092
1698 2582 3321
1185 2470 3484
3291 2979 532
3270 3081 604
3233 3138 696
3137 3169 934
2945 3153 1960
2740 3146 2692
2381 3014 3208
1886 2857 3402
1279 2706 3547
3381 3410 568
3345 3420 630
3269 3427 700
3134 3425 1325
2987 3407 2052
2858 3421 2606
1925 3365 3456
1975 3104 3478
1443 2929 3616
3400 3664 566
3348 3666 626
3270 3680 766
3155 3663 1503
3056 3647 2053
2970 3674 2516
2115 3714 3362
1441 3313 3658
1583 3158 3684
2819 501 353
2813 534 423
2761 587 558
2615 645 744
2601 667 875
2496 792 1029
2194 1032 1291
1744 1274 2020
1243 1659 2739
2958 672 391
2970 642 454
2942 712 577
2908 855 810
2763 948 1006
2643 1063 1192
2420 1285 1458
1912 1557 2291
1452 1892 2933
3176 964 428
3192 992 445
3187 949 519
3191 1187 882
2943 1356 1271
2800 1439 1474
2668 1662 1859
2175 1887 2626
1767 2165 3127
3421 1281 416
3420 1317 424
3405 1430 457
3374 1603 924
3130 1887 1702
2986 1936 1933
2830 2112 2382
2464 2213 2946
2133 2465 3324
3584 1629 387
3563 1688 410
3518 1898 522
3437 2213 963
3283 2381 2013
3135 2471 2441
3020 2527 2764
2746 2601 3182
2465 2757 3458
3652 2122 395
3625 2201 458
3614 2370 611
3523 2613 911
3384 2805 2010
3261 2897 2684
3174 2909 2995
2964 2969 3318
2702 2999 3537
3663 2770 524
3645 2829 582
3635 2948 699
3579 3073 861
3498 3166 1444
3389 3219 2482
3253 3253 3110
3099 3226 3385
2862 3192 3595
3624 3442 608
3601 3480 687
3567 3510 773
3517 3531 1056
3446 3529 1840
3358 3517 2545
3271 3499 3074
3131 3456 3485
2942 3346 3644
3641 3726 639
3618 3733 698
3581 3742 773
3508 3735 1383
3430 3731 2022
3354 3719 2550
3298 3723 2974
2899 3799 3586
3012 3550 3699
3226 567 405
3224 615 476
3207 688 590
3142 761 771
3159 853 941
3096 901 1056
3029 1070 1230
2913 1395 1701
2646 1678 2597
3311 752 439
3314 710 499
3317 815 593
3391 1012 806
3257 1177 1108
3183 1218 1242
3111 1394 1514
3007 1702 2097
2828 1886 2869
3535 1127 411
3534 1124 422
3522 1065 497
3569 1319 833
3391 1575 1382
3306 1634 1577
3209 1804 1954
3101 2002 2462
2992 2119 3111
3705 1455 386
3694 1502 401
3672 1621 450
3677 1732 850
3533 2029 1728
3413 2156 2138
3336 2241 2432
3252 2288 2760
3158 2406 3311
3813 1838 377
3796 1905 416
3765 2083 536
3696 2379 923
3610 2490 1995
3506 2610 2531
3432 2657 2807
3367 2636 3044
3284 2730 3449
3894 2275 428
3870 2348 491
3832 2513 641
3754 2742 919
3667 2912 1944
3582 2962 2674
3511 2989 3005
3448 3006 3248
3373 3037 3525
3883 2782 541
3876 2826 597
3864 2908 711
3823 3039 926
3757 3158 1671
3664 3242 2584
3571 3285 3093
3522 3268 3323
3431 3306 3565
3880 3268 601
3874 3291 651
3872 3330 743
3861 3385 900
3823 3447 1101
3744 3483 2126
3658 3511 2913
3547 3536 3368
3478 3528 3587
3847 3729 712
3835 3751 783
3813 3777 855
3783 3787 1064
3724 3775 1830
3676 3772 2403
3609 3768 2927
3563 3756 3313
3480 3737 3631
3511 646 450
3505 698 520
3501 779 612
3575 940 783
3512 1137 1073
3472 1156 1167
3445 1229 1328
3388 1565 1913
3289 1760 2472
3574 845 482
3569 796 541
3633 965 567
3712 1206 817
3602 1413 1241
3551 1478 1432
3512 1564 1644
3438 1849 2245
3383 1946 2678
3796 1276 376
3785 1261 389
3770 1198 444
3829 1448 773
3702 1755 1473
3630 1886 1841
3582 1976 2115
3510 2126 2551
3480 2177 2921
3927 1649 369
3908 1703 395
3877 1818 474
3893 1875 795
3804 2139 1712
3692 2337 2313
3643 2416 2603
3584 2426 2831
3561 2444 3141
3992 2044 402
3987 2119 449
3963 2259 557
3906 2508 912
3856 2560 1917
3777 2678 2525
3694 2776 2915
3646 2753 3074
3625 2732 3311
3976 2440 469
3971 2502 534
3969 2622 658
3958 2812 905
3907 2960 1834
3837 2991 2619
3769 3039 3009
3711 3070 3248
3671 3017 3410
3950 2881 564
3948 2916 622
3953 2978 731
3958 3059 949
3943 3156 1666
3909 3246 2499
3839 3278 3029
3773 3289 3295
3720 3307 3516
3949 3252 611
3949 3270 663
3952 3289 730
3961 3319 904
3960 3357 1216
3936 3409 2339
3910 3484 2937
3829 3527 3312
3783 3501 3516
3972 3585 613
3967 3597 658
3971 3608 722
3980 3625 855
3987 3645 1029
3966 3655 1789
3935 3676 2696
3897 3719 3184
3791 3758 3532
