Postproduction/IWLTBAP - Humble/LUTs by IWLTBAP (3DL)/BONUS/8700/F-8700-V2-LOG.3dl
# Copyright: (C) Copyright 2016 by IWLTBAP
# Cannot be resold, shared or otherwise redistributed
# Website: http://luts.iwltbap.com
0 256 512 768 1023
0 0 0
0 97 455
0 590 1504
106 1262 2831
107 1266 2839
0 301 50
0 264 377
0 637 1374
131 1361 2860
138 1387 2914
0 992 44
0 1079 176
5 1004 1388
197 1616 2940
227 1728 3141
150 2152 235
156 2179 248
321 2929 2505
329 2246 3094
370 2324 3445
328 2686 347
327 2677 379
378 3241 2440
464 2799 3423
447 2655 3570
551 115 5
215 196 409
24 600 1366
189 1283 2777
180 1289 2801
370 332 6
138 396 449
38 750 1544
219 1475 3008
218 1484 3034
31 1103 68
41 1178 248
72 1130 1548
258 1735 3088
278 1807 3213
222 2274 247
215 2313 292
361 3049 2691
360 2344 3209
390 2395 3477
493 2744 331
422 2778 417
413 3304 2599
471 2781 3449
453 2663 3576
2052 320 20
1865 392 315
851 661 1041
338 1258 2502
346 1343 2683
2089 499 12
2150 572 243
1028 905 1232
412 1493 2825
410 1532 2917
2443 1133 44
2439 1262 120
1224 1840 1963
603 2103 3451
593 2146 3546
2333 2986 206
2361 3025 239
1596 3190 1863
732 2769 3555
695 2756 3745
2473 3322 276
2446 3325 356
1840 3531 1726
693 3090 3650
681 2922 3777
3586 666 230
3596 717 253
3356 1198 1064
2931 1608 1875
2707 1824 2449
3785 980 107
3831 1003 173
3584 1560 1352
3181 1967 2373
3128 2029 2553
3982 1761 98
3999 1918 185
3918 2588 1996
3578 2771 3199
3549 2802 3416
3965 3049 357
3983 3095 373
3974 3504 866
3765 3762 3577
3682 3770 3872
3834 3778 474
3832 3778 474
3785 3892 1258
3604 3993 3345
3300 3848 3971
3740 746 232
3754 770 237
3642 1348 1116
3353 1742 1979
3257 1930 2388
3867 1005 104
3902 1027 161
3714 1615 1357
3375 2025 2423
3330 2072 2567
4095 1897 109
4095 2084 237
4050 2673 2034
3778 2862 3258
3758 2833 3350
4095 3092 383
4095 3128 403
4095 3492 978
4094 3804 3566
4059 3776 3802
4095 3556 452
4095 3556 452
4095 3742 725
4095 3963 2814
4095 4088 3861
