Postproduction/IWLTBAP - Humble/LUTs by IWLTBAP (3DL)/BONUS/8700/F-8700-VLOG.3dl
# Copyright: (C) Copyright 2010-2017 by IWLTBAP SAS
# Cannot be resold, shared or otherwise redistributed
# Website: https://luts.iwltbap.com
0 256 512 768 1023
257 321 353
257 365 478
273 538 899
490 1237 2341
530 1381 2585
285 478 414
273 462 523
273 616 933
515 1341 2518
546 1441 2694
305 988 522
321 1112 829
337 931 1108
486 1481 2511
530 1646 2826
586 2650 1859
618 2762 2175
680 2975 2830
668 2351 3074
678 2369 3200
626 2891 2088
658 2999 2401
723 3148 3003
707 2513 3172
707 2457 3228
410 385 385
377 414 478
343 554 851
518 1244 2315
562 1397 2585
505 541 391
384 522 569
343 677 1040
544 1384 2523
578 1510 2755
353 972 446
380 1112 737
380 993 1177
518 1537 2602
554 1686 2883
614 2630 1730
631 2743 2070
697 2983 2774
695 2383 3109
707 2410 3232
658 2875 1947
674 2983 2288
739 3164 2963
732 2542 3197
723 2505 3260
1245 498 401
1110 552 558
871 626 819
576 1229 2116
634 1469 2585
1401 576 361
1281 675 586
937 754 908
608 1369 2329
664 1588 2744
2019 1028 393
2174 1187 465
861 1273 1363
669 1753 2944
695 1827 3055
678 2531 1325
672 2615 1584
886 2908 2234
792 2536 3237
767 2485 3290
731 2738 1606
723 2848 1827
895 3123 2429
811 2650 3276
795 2594 3332
3328 1044 658
3304 1136 815
3156 1273 1094
2886 1602 1747
2822 1847 2220
3413 1123 641
3392 1219 814
3236 1396 1161
2939 1755 1931
2887 1952 2357
3493 1339 438
3485 1310 459
3524 1960 1438
3147 2234 2521
3117 2264 2744
3762 3205 873
3761 3245 950
3766 3370 1276
3564 3551 3373
3558 3558 3485
3649 3509 955
3649 3529 1069
3629 3577 1768
3474 3661 3364
3408 3621 3549
3485 1172 739
3441 1269 899
3332 1397 1172
3148 1855 2023
3099 2072 2473
3533 1249 723
3501 1345 883
3396 1501 1220
3208 2018 2216
3160 2164 2569
3597 1590 522
3643 1638 638
3617 2023 1502
3328 2365 2612
3292 2385 2826
3838 3360 1602
3838 3392 1928
3818 3445 2469
3694 3558 3365
3677 3549 3457
3838 3533 2168
3822 3549 2401
3806 3581 2802
3738 3645 3324
3694 3677 3485
