Postproduction/IWLTBAP - Humble/LUTs by IWLTBAP (3DL)/BONUS/8700/F-8700-V2-STD.3dl
# Copyright: (C) Copyright 2016 by IWLTBAP
# Cannot be resold, shared or otherwise redistributed
# Website: http://luts.iwltbap.com
0 256 512 768 1023
0 0 0
0 135 542
0 399 1083
0 766 1887
107 1266 2839
0 548 41
0 544 724
0 700 1306
53 1077 2141
182 1553 3026
0 1066 52
35 1556 1367
22 1086 1518
120 1333 2350
242 1783 3176
68 1764 170
169 2369 1608
277 2443 2592
233 1883 2646
325 2116 3361
328 2686 347
310 2994 1758
483 3445 3364
484 2977 3439
447 2655 3570
747 142 0
326 271 522
67 477 1023
119 818 1787
241 1311 2764
1109 588 0
398 821 912
211 958 1632
242 1319 2478
348 1749 3266
1177 1440 22
369 1622 1024
309 1448 1893
321 1630 2683
420 2015 3407
1429 2270 126
552 2420 1080
507 2791 2834
442 2206 2962
505 2376 3566
2007 3162 280
1427 3379 1346
764 3553 2987
653 3202 3617
620 2865 3738
1698 257 0
1334 399 505
729 596 968
292 884 1703
347 1343 2682
2192 699 37
1921 1105 872
1160 1257 1533
519 1445 2427
509 1848 3286
2620 1210 50
2319 1736 561
1404 2008 2141
771 1998 2987
700 2260 3608
2721 2671 264
2304 2832 1010
1752 2978 2349
977 2631 3238
861 2687 3743
2963 3494 292
2757 3594 1448
2584 3742 2273
1144 3585 3800
1051 3142 3864
2800 431 126
2661 687 611
2407 795 879
1912 1076 1345
1026 1654 2716
3285 1030 107
3313 1424 778
2917 1730 1598
2575 1929 2129
1784 2320 3290
3554 1479 103
3455 2135 846
3276 2521 2203
3007 2644 2825
2532 2910 3638
3665 2464 232
3639 2935 618
3558 3224 1862
3397 3419 3264
3103 3445 3846
3720 3744 447
3670 3848 1141
3611 3913 2265
3549 3972 3254
3225 3819 3968
3740 746 232
3823 1122 639
3603 1382 1196
3465 1469 1469
3257 1930 2388
4018 1490 63
4074 1832 784
3904 2195 1864
3739 2359 2436
3590 2473 3019
4095 2030 139
4095 2618 857
4054 2856 2307
3912 3003 3050
3811 2978 3454
4095 2736 318
4095 3155 792
4095 3420 2155
4089 3571 3305
3994 3597 3774
4095 3556 452
4095 3739 721
4095 3869 1073
4095 3966 2876
4095 4088 3861
