Postproduction/IWLTBAP - Humble/LUTs by IWLTBAP (3DL)/BONUS/8700/F-8700-LOG.3dl
# Copyright: (C) Copyright 2016 by IWLTBAP
# Cannot be resold, shared or otherwise redistributed
# Website: http://luts.iwltbap.com
0 256 512 768 1023
147 169 191
144 274 512
175 477 1067
242 810 1898
327 1240 2768
199 537 254
198 527 629
236 727 1268
310 1110 2192
392 1531 2969
240 1098 307
288 1525 906
327 1180 1585
395 1471 2495
470 1838 3162
337 1855 406
350 2167 840
558 2637 2785
513 2067 2838
559 2211 3337
463 2795 505
432 3046 934
712 3452 3388
693 2893 3372
670 2681 3524
599 265 210
454 326 526
313 541 1049
381 860 1819
469 1282 2693
804 589 235
469 657 700
377 855 1454
452 1239 2369
531 1628 3071
815 1404 299
448 1421 617
479 1392 1801
545 1652 2682
611 1958 3249
1231 2319 383
587 2241 650
694 2841 2876
662 2261 2982
700 2349 3419
1776 3237 479
1200 3255 685
803 3524 3088
836 3062 3480
806 2795 3587
1565 351 236
1447 402 535
930 588 993
532 938 1761
625 1370 2673
2058 703 320
2049 745 503
1170 1045 1306
630 1302 2219
698 1723 3071
2757 1343 358
2621 1607 515
1473 1967 2067
856 1940 2930
786 2112 3380
2904 2899 505
2646 2927 597
1832 2907 2120
1059 2579 3164
896 2535 3529
3057 3580 508
2821 3576 765
2492 3605 1946
1161 3377 3610
1067 2968 3667
2819 501 353
2761 587 558
2601 667 875
2194 1032 1291
1243 1659 2739
3176 964 428
3187 949 519
2943 1356 1271
2668 1662 1859
1767 2165 3127
3584 1629 387
3518 1898 522
3283 2381 2013
3020 2527 2764
2465 2757 3458
3663 2770 524
3635 2948 699
3498 3166 1444
3253 3253 3110
2862 3192 3595
3641 3726 639
3581 3742 773
3430 3731 2022
3298 3723 2974
3012 3550 3699
3511 646 450
3501 779 612
3512 1137 1073
3445 1229 1328
3289 1760 2472
3796 1276 376
3770 1198 444
3702 1755 1473
3582 1976 2115
3480 2177 2921
3992 2044 402
3963 2259 557
3856 2560 1917
3694 2776 2915
3625 2732 3311
3950 2881 564
3953 2978 731
3943 3156 1666
3839 3278 3029
3720 3307 3516
3972 3585 613
3971 3608 722
3987 3645 1029
3935 3676 2696
3791 3758 3532
