Postproduction/IWLTBAP - Humble/LUTs by IWLTBAP (3DL)/BONUS/8700/F-8700-V2-VLOG.3dl
# Copyright: (C) Copyright 2010-2017 by IWLTBAP SAS
# Cannot be resold, shared or otherwise redistributed
# Website: https://luts.iwltbap.com
0 256 512 768 1023
0 0 0
0 0 136
0 225 715
165 1144 2505
209 1317 2794
0 153 32
0 124 217
0 327 755
185 1278 2727
225 1397 2919
0 835 217
0 976 608
0 759 996
153 1449 2712
217 1662 3091
297 2883 1915
342 3019 2308
424 3252 3069
405 2524 3395
422 2545 3533
353 3164 2200
401 3288 2577
482 3453 3276
450 2710 3493
450 2650 3565
56 12 0
19 31 150
0 247 650
200 1160 2468
253 1345 2806
188 220 16
31 206 262
0 410 889
233 1331 2731
282 1486 2999
0 811 108
5 987 507
6 844 1078
198 1524 2818
249 1702 3148
341 2862 1766
361 3000 2174
440 3260 3011
438 2562 3430
453 2589 3568
401 3148 2031
430 3276 2449
498 3469 3228
482 2751 3525
482 2698 3597
1124 201 56
992 239 245
670 353 602
289 1140 2240
361 1437 2810
1345 285 0
1196 416 285
757 519 722
336 1312 2494
399 1582 2999
2120 891 24
2298 1107 122
687 1194 1293
416 1794 3227
442 1875 3360
418 2754 1255
416 2843 1583
702 3200 2394
578 2745 3579
534 2680 3643
482 2987 1598
474 3111 1895
703 3441 2634
598 2875 3629
570 2802 3686
3681 907 405
3645 1013 594
3481 1194 960
3162 1607 1795
3083 1895 2349
3767 1008 385
3747 1126 596
3578 1334 1034
3216 1776 2010
3160 2020 2509
3878 1275 78
3864 1240 126
3913 2044 1403
3467 2366 2719
3429 2413 3003
4095 3547 682
4095 3588 782
4095 3739 1201
3965 3952 3740
3950 3956 3870
4047 3894 819
4044 3910 964
4029 3971 1772
3852 4073 3734
3774 4027 3934
3854 1060 514
3822 1184 707
3686 1341 1060
3465 1919 2112
3404 2168 2650
3918 1152 482
3886 1269 703
3766 1469 1116
3544 2116 2353
3485 2280 2778
4007 1582 209
4047 1638 383
4023 2120 1477
3694 2529 2832
3637 2553 3083
4095 3734 1614
4095 3766 2000
4095 3826 2648
4095 3960 3720
4095 3950 3842
4095 3934 2280
4095 3950 2577
4095 3983 3051
4095 4051 3677
4095 4079 3854
