Postproduction/IWLTBAP - Humble/LUTs by IWLTBAP (3DL)/BONUS/8700/F-8700-STD.3dl
# Copyright: (C) Copyright 2016 by IWLTBAP
# Cannot be resold, shared or otherwise redistributed
# Website: http://luts.iwltbap.com
0 64 128 192 256 320 384 448 512 576 640 704 768 832 896 960 1023
253 317 352
255 351 450
254 391 554
251 431 663
249 474 772
256 518 873
268 566 974
281 612 1073
295 664 1187
310 718 1314
326 784 1467
345 859 1643
364 941 1830
386 1034 2030
408 1131 2239
431 1231 2432
455 1334 2618
274 441 404
269 415 472
267 446 585
261 486 694
260 530 805
270 580 912
283 629 1019
296 675 1117
310 729 1238
325 786 1368
342 854 1526
360 927 1703
380 1011 1887
401 1104 2091
424 1201 2290
446 1299 2478
470 1402 2661
291 569 419
282 599 570
279 533 612
274 555 726
273 591 838
283 638 951
296 685 1055
309 733 1161
323 787 1280
339 846 1413
356 915 1575
374 988 1750
394 1073 1944
415 1166 2146
438 1266 2341
461 1365 2527
483 1460 2702
301 671 414
292 743 586
283 731 733
284 648 757
285 671 870
296 707 985
308 743 1093
321 787 1205
336 840 1323
351 901 1463
369 972 1626
387 1047 1800
407 1131 1991
428 1226 2192
451 1323 2385
473 1420 2568
495 1513 2742
309 777 411
297 863 573
297 921 818
300 840 882
299 765 901
308 784 1012
320 812 1130
333 846 1243
347 889 1361
362 949 1504
379 1019 1669
398 1097 1846
418 1183 2039
440 1277 2234
462 1375 2422
484 1470 2606
507 1564 2774
315 874 411
301 966 561
312 1063 846
326 1059 1015
323 934 1014
322 870 1044
332 885 1163
345 913 1279
358 946 1404
373 997 1547
390 1064 1705
408 1144 1892
430 1235 2083
451 1325 2273
473 1421 2457
495 1517 2639
517 1608 2806
320 972 408
308 1064 548
325 1181 858
348 1233 1096
352 1152 1173
347 1020 1145
346 969 1191
357 986 1313
369 1012 1444
384 1050 1587
400 1111 1745
419 1191 1933
440 1282 2124
461 1373 2310
483 1469 2492
506 1563 2672
527 1652 2838
329 1072 409
318 1162 542
337 1292 852
368 1384 1146
381 1370 1318
377 1222 1306
370 1104 1282
371 1070 1344
381 1088 1479
395 1117 1630
411 1167 1791
430 1241 1975
451 1331 2166
472 1423 2348
495 1519 2533
517 1611 2707
538 1699 2866
342 1174 417
332 1261 544
348 1397 838
386 1527 1181
408 1575 1425
412 1486 1501
404 1325 1457
397 1215 1446
397 1182 1524
409 1202 1670
424 1241 1840
443 1299 2024
463 1384 2210
484 1475 2390
506 1567 2574
529 1660 2748
550 1748 2899
358 1289 430
347 1380 556
359 1507 827
402 1665 1193
433 1758 1505
448 1757 1695
445 1610 1690
434 1444 1631
427 1343 1632
427 1314 1722
440 1338 1888
458 1386 2077
477 1451 2260
498 1535 2440
520 1627 2620
542 1717 2787
563 1801 2934
378 1417 451
367 1510 576
371 1629 811
417 1792 1180
458 1939 1576
480 1995 1836
489 1939 1938
481 1770 1898
469 1597 1832
461 1496 1849
462 1464 1953
476 1494 2137
494 1547 2312
514 1618 2493
535 1692 2662
556 1776 2823
577 1859 2971
401 1570 474
390 1657 599
387 1764 807
432 1925 1176
479 2093 1600
513 2207 1960
528 2223 2143
533 2124 2187
523 1947 2133
509 1767 2070
501 1675 2102
501 1642 2208
515 1674 2376
533 1727 2550
552 1787 2716
573 1860 2871
593 1933 3009
428 1731 498
419 1807 632
412 1911 831
450 2058 1182
498 2230 1605
540 2377 2031
564 2448 2309
575 2408 2406
577 2301 2423
564 2110 2357
550 1943 2303
541 1856 2346
541 1822 2449
556 1855 2612
573 1903 2774
592 1961 2923
610 2018 3055
458 1903 524
456 1958 681
450 2070 895
472 2194 1209
519 2355 1618
563 2509 2055
597 2629 2429
613 2638 2589
620 2574 2635
618 2439 2636
603 2249 2561
591 2106 2533
583 2034 2588
583 2005 2683
596 2028 2830
613 2071 2972
630 2120 3099
492 2091 551
500 2116 738
495 2228 975
500 2331 1265
541 2477 1651
585 2625 2080
623 2756 2470
649 2823 2740
658 2786 2806
663 2694 2839
657 2554 2822
643 2383 2758
631 2266 2755
624 2202 2807
624 2176 2892
636 2196 3024
651 2232 3142
530 2283 579
549 2260 797
547 2382 1069
537 2463 1332
566 2587 1695
607 2733 2097
646 2873 2485
678 2975 2826
694 2956 2954
701 2895 2995
702 2789 3012
694 2644 2980
680 2497 2929
670 2410 2953
664 2358 3004
663 2329 3076
675 2352 3189
613 2491 626
604 2413 870
603 2518 1154
594 2625 1434
596 2744 1718
629 2894 2098
670 3021 2483
705 3124 2843
729 3137 3080
737 3069 3134
740 2984 3158
738 2866 3158
728 2734 3121
717 2609 3091
708 2546 3124
704 2503 3172
700 2465 3232
360 374 378
329 384 458
309 414 553
303 452 660
298 495 766
295 534 865
300 578 963
312 627 1062
325 678 1175
340 735 1301
356 798 1444
374 873 1620
393 951 1807
414 1044 2010
437 1142 2220
460 1244 2418
484 1349 2612
369 463 395
345 463 506
328 483 613
318 525 737
310 569 846
309 614 957
319 664 1064
333 714 1177
346 766 1296
361 826 1436
378 895 1600
396 972 1783
416 1057 1972
437 1148 2171
459 1247 2362
482 1346 2544
504 1443 2722
356 604 422
356 613 560
343 577 649
331 598 771
321 635 885
322 677 1000
334 726 1108
347 777 1223
361 832 1348
376 893 1490
393 962 1655
412 1042 1838
432 1127 2031
453 1219 2228
474 1315 2411
496 1409 2592
518 1505 2763
359 729 427
364 745 554
349 786 763
343 701 807
333 716 920
335 746 1032
347 786 1147
360 832 1259
374 888 1386
390 952 1539
407 1024 1703
425 1102 1887
445 1189 2081
466 1280 2273
488 1374 2453
509 1468 2634
530 1559 2795
366 837 431
369 850 539
358 950 797
345 906 930
344 816 951
347 825 1063
359 856 1184
371 891 1296
385 939 1429
401 1003 1581
418 1075 1745
437 1157 1930
458 1244 2125
478 1333 2312
500 1429 2493
521 1520 2671
542 1610 2831
371 922 432
374 955 530
367 1072 794
364 1105 1043
364 999 1073
362 920 1096
371 933 1218
383 958 1338
396 995 1471
412 1051 1620
430 1124 1784
448 1205 1972
469 1294 2166
490 1385 2349
511 1479 2534
532 1571 2707
553 1656 2865
378 1019 432
383 1058 532
378 1179 776
384 1261 1099
392 1224 1227
387 1084 1207
386 1020 1249
395 1034 1374
408 1064 1512
423 1105 1659
440 1173 1827
459 1253 2016
480 1344 2208
500 1432 2385
522 1528 2570
543 1620 2739
564 1704 2893
389 1123 433
396 1159 540
390 1280 761
401 1401 1126
419 1436 1355
420 1321 1387
412 1178 1352
410 1126 1408
421 1142 1549
435 1174 1701
452 1230 1872
471 1305 2063
491 1393 2248
512 1485 2425
534 1579 2605
555 1667 2773
575 1752 2924
401 1233 434
410 1268 544
403 1384 752
417 1537 1135
441 1609 1426
454 1581 1572
448 1424 1546
438 1284 1515
437 1242 1591
449 1263 1742
465 1303 1920
483 1363 2111
503 1448 2290
524 1539 2471
546 1631 2648
567 1719 2812
588 1801 2955
416 1358 439
425 1389 552
419 1499 747
431 1655 1119
464 1785 1484
485 1826 1721
490 1732 1783
479 1553 1727
470 1423 1710
469 1382 1800
482 1405 1973
499 1454 2163
518 1521 2338
538 1601 2515
560 1689 2689
580 1774 2847
601 1854 2989
435 1497 453
443 1523 559
439 1634 754
445 1782 1097
484 1943 1514
514 2038 1835
529 2032 1996
529 1897 2007
516 1710 1940
505 1579 1937
504 1539 2038
518 1567 2217
535 1620 2394
555 1688 2568
575 1761 2731
596 1840 2884
615 1914 3024
461 1663 473
464 1675 569
466 1779 782
466 1915 1086
502 2083 1506
542 2225 1917
564 2282 2170
572 2210 2247
569 2065 2237
555 1873 2166
544 1760 2180
543 1718 2282
557 1747 2457
574 1796 2624
593 1857 2783
612 1930 2928
632 1996 3063
495 1848 494
493 1841 594
499 1934 823
494 2055 1089
522 2211 1504
564 2373 1946
597 2484 2302
611 2469 2447
617 2384 2486
610 2220 2456
594 2033 2390
584 1938 2423
583 1899 2523
597 1927 2686
613 1971 2838
630 2024 2978
649 2084 3102
559 2042 510
528 2021 626
539 2087 877
533 2201 1134
545 2338 1508
584 2494 1954
623 2631 2360
648 2690 2617
656 2634 2674
658 2514 2696
648 2341 2649
634 2187 2609
624 2107 2658
624 2075 2752
636 2093 2893
651 2130 3022
668 2181 3146
705 2243 531
576 2221 678
585 2235 923
582 2353 1206
579 2465 1537
607 2606 1966
644 2744 2378
678 2851 2722
692 2831 2836
699 2754 2879
698 2622 2883
685 2456 2827
672 2334 2817
665 2270 2869
663 2239 2953
675 2254 3075
689 2289 3191
900 2439 555
635 2464 736
639 2383 986
635 2490 1285
628 2593 1585
638 2714 1974
667 2859 2389
703 2989 2766
727 3007 2976
735 2942 3027
738 2846 3051
732 2709 3035
720 2565 2990
710 2471 3004
703 2416 3055
701 2385 3125
713 2403 3236
1075 2673 584
773 2761 783
698 2566 1059
695 2620 1348
688 2755 1645
679 2884 1935
697 3014 2354
727 3125 2753
758 3180 3072
771 3115 3160
775 3032 3188
774 2921 3197
767 2794 3173
755 2666 3137
746 2595 3168
740 2551 3214
737 2517 3274
523 412 387
478 426 482
421 453 559
365 482 666
351 517 763
344 556 861
340 595 953
343 639 1049
353 689 1159
367 745 1287
383 811 1427
400 885 1602
420 967 1788
440 1053 1989
462 1149 2195
485 1252 2396
507 1353 2584
556 492 406
520 524 524
439 529 621
380 550 729
367 593 842
360 637 949
358 680 1050
362 728 1162
374 780 1285
389 839 1421
405 907 1585
423 985 1764
443 1071 1960
463 1162 2163
486 1262 2360
508 1363 2555
531 1463 2737
593 591 381
537 632 519
446 625 674
398 637 803
383 676 930
377 720 1046
376 765 1159
382 813 1278
395 869 1405
410 929 1557
426 1000 1724
445 1083 1909
465 1170 2108
486 1263 2297
506 1356 2477
528 1453 2659
549 1546 2820
562 761 382
473 789 534
438 809 745
413 751 847
398 765 969
390 797 1087
389 830 1201
396 873 1315
409 931 1451
424 996 1608
441 1069 1776
460 1148 1966
480 1238 2161
500 1328 2344
521 1420 2524
541 1512 2693
562 1601 2852
504 903 380
440 922 534
436 938 722
420 970 964
411 875 1010
405 878 1123
402 905 1239
408 934 1350
422 988 1493
437 1052 1649
454 1124 1821
473 1209 2009
493 1297 2199
513 1387 2384
533 1477 2564
554 1567 2732
574 1651 2884
486 1021 365
438 1034 537
441 1047 705
436 1151 1029
419 1071 1131
416 975 1157
416 983 1274
420 1005 1393
433 1044 1534
448 1104 1687
466 1179 1866
485 1261 2053
505 1351 2241
525 1439 2421
546 1530 2601
566 1618 2767
585 1701 2914
492 1110 372
447 1140 543
453 1152 705
452 1287 1039
436 1289 1264
429 1151 1268
428 1073 1303
433 1082 1429
445 1113 1571
460 1160 1727
477 1231 1904
496 1314 2094
516 1402 2282
536 1489 2457
557 1581 2636
577 1667 2797
597 1751 2943
520 1199 383
458 1243 549
465 1258 705
466 1407 1025
460 1471 1349
458 1396 1444
451 1246 1416
448 1182 1468
458 1195 1609
472 1232 1769
489 1289 1947
508 1367 2136
528 1455 2320
549 1544 2499
570 1635 2674
589 1716 2831
609 1798 2974
544 1306 399
471 1350 554
480 1372 710
479 1516 1001
483 1640 1397
488 1643 1605
488 1515 1624
478 1358 1585
475 1303 1654
486 1319 1815
502 1362 1996
521 1426 2179
541 1510 2361
561 1598 2542
582 1689 2712
602 1772 2866
621 1849 3005
584 1432 416
488 1486 553
497 1499 718
495 1635 985
504 1798 1411
517 1868 1727
527 1816 1842
521 1655 1819
510 1502 1785
507 1446 1875
519 1467 2049
536 1517 2230
555 1584 2410
576 1665 2585
596 1749 2751
616 1829 2903
635 1904 3040
638 1582 435
506 1650 543
519 1637 733
515 1766 979
525 1933 1388
547 2066 1813
560 2085 2022
567 1988 2078
558 1809 2033
545 1657 2016
543 1608 2113
556 1638 2286
573 1690 2464
592 1753 2635
612 1827 2793
632 1900 2942
650 1967 3076
725 1749 456
542 1821 546
544 1793 748
543 1910 993
549 2063 1363
573 2226 1837
594 2318 2170
606 2277 2288
609 2161 2315
596 1966 2253
584 1834 2253
581 1789 2351
595 1815 2527
611 1859 2690
630 1923 2842
648 1990 2984
666 2050 3111
828 1932 479
618 2017 555
578 1965 777
578 2059 1030
580 2197 1356
598 2360 1828
624 2496 2264
644 2531 2480
651 2450 2530
650 2305 2530
635 2117 2470
623 2008 2496
622 1967 2593
634 1988 2749
649 2030 2895
666 2084 3029
684 2142 3147
948 2132 503
724 2223 580
620 2169 820
622 2207 1079
619 2329 1383
628 2475 1808
650 2626 2274
676 2723 2616
688 2682 2706
694 2584 2745
687 2421 2720
673 2256 2676
662 2171 2720
661 2136 2811
672 2153 2946
687 2191 3073
702 2233 3191
1088 2333 528
870 2455 612
675 2428 854
671 2354 1126
668 2463 1439
668 2586 1798
683 2731 2261
703 2861 2676
723 2871 2859
731 2805 2913
732 2681 2926
723 2525 2891
710 2395 2873
701 2327 2923
699 2294 3004
710 2310 3119
723 2337 3232
1249 2529 555
1043 2683 664
787 2673 920
731 2517 1172
725 2588 1498
720 2699 1815
724 2842 2223
738 2987 2672
755 3041 2976
766 2982 3052
770 2893 3083
767 2767 3081
757 2624 3044
746 2530 3048
738 2468 3097
736 2437 3169
747 2451 3274
1420 2721 582
1249 2866 764
1001 2877 999
815 2779 1232
785 2736 1544
780 2863 1835
776 3010 2165
781 3129 2623
788 3207 3038
800 3153 3178
805 3073 3215
806 2972 3229
800 2840 3210
790 2722 3181
780 2640 3202
774 2593 3249
771 2564 3309
725 455 393
662 456 491
624 469 566
513 513 662
425 548 766
395 580 862
389 619 953
386 660 1045
385 704 1146
392 757 1271
407 821 1413
424 894 1586
443 975 1768
462 1061 1967
484 1157 2172
506 1256 2372
529 1360 2568
760 526 407
732 563 523
651 582 635
531 601 726
433 619 833
414 658 942
410 703 1045
408 746 1152
407 793 1270
414 848 1400
429 918 1563
447 995 1742
466 1080 1937
486 1171 2140
508 1270 2343
529 1368 2529
