Postproduction/IWLTBAP - Humble/LUTs by IWLTBAP (3DL)/BONUS/8700/F-8700-V2-STD.3dl
# Copyright: (C) Copyright 2016 by IWLTBAP
# Cannot be resold, shared or otherwise redistributed
# Website: http://luts.iwltbap.com
0 128 256 384 512 640 768 896 1023
0 0 0
0 12 248
0 135 542
0 264 807
0 399 1083
0 560 1438
0 766 1887
37 1010 2384
107 1266 2839
0 266 52
0 226 334
0 301 630
0 427 912
0 563 1202
0 731 1572
15 936 2026
83 1181 2508
147 1423 2940
0 548 41
0 727 590
0 544 724
0 596 1008
0 700 1306
0 867 1687
53 1077 2141
118 1318 2606
182 1553 3026
0 805 37
0 1069 651
0 1030 1052
0 811 1097
0 859 1408
25 988 1785
86 1202 2244
148 1437 2691
210 1664 3102
0 1066 52
0 1348 635
35 1556 1367
32 1267 1431
22 1086 1518
63 1155 1900
120 1333 2350
181 1561 2789
242 1783 3176
0 1375 102
0 1641 606
109 2008 1554
155 2004 2001
130 1613 1906
121 1444 2050
165 1540 2475
222 1719 2896
280 1921 3262
68 1764 170
49 1989 637
169 2369 1608
260 2620 2444
277 2443 2592
243 2033 2475
233 1883 2646
275 1976 3028
325 2116 3361
161 2205 244
167 2371 815
231 2671 1669
341 2998 2646
389 3033 3061
388 2758 3078
355 2421 3010
346 2310 3173
381 2376 3465
328 2686 347
314 2719 1038
310 2994 1758
405 3318 2676
483 3445 3364
499 3270 3479
484 2977 3439
458 2753 3444
447 2655 3570
208 43 2
63 103 256
0 197 531
0 305 781
0 433 1048
3 596 1390
55 799 1835
118 1033 2332
182 1290 2799
304 301 4
100 349 409
4 415 745
0 533 1042
17 670 1356
64 841 1751
121 1058 2217
180 1293 2667
240 1529 3077
203 708 3
82 763 484
44 690 862
31 718 1147
58 827 1469
106 1003 1876
162 1220 2335
219 1446 2775
275 1662 3157
186 980 3
104 1045 462
84 1198 1158
71 951 1244
94 990 1568
139 1139 1978
195 1353 2434
252 1576 2862
307 1785 3228
255 1235 25
143 1325 467
151 1642 1328
155 1496 1627
140 1243 1685
176 1309 2089
230 1491 2533
287 1711 2953
340 1907 3302
382 1581 79
199 1658 493
211 2008 1336
257 2183 2102
253 1864 2139
235 1624 2242
275 1714 2657
328 1883 3051
379 2054 3385
622 2014 143
286 2066 553
288 2335 1312
345 2680 2382
379 2626 2727
359 2243 2673
343 2058 2817
379 2131 3171
425 2265 3471
952 2500 212
437 2612 656
406 2655 1404
427 2976 2402
477 3133 3112
488 2910 3202
460 2577 3152
446 2453 3304
478 2503 3571
1369 2965 286
853 3135 841
565 3003 1527
549 3303 2313
567 3523 3302
586 3378 3548
579 3104 3543
553 2866 3537
541 2774 3662
747 142 0
593 171 266
326 271 522
91 370 782
67 477 1023
71 619 1352
119 818 1787
178 1056 2279
241 1311 2764
929 339 0
752 491 427
368 527 718
157 593 1015
143 723 1336
142 875 1718
185 1086 2186
243 1328 2660
302 1568 3096
1109 588 0
915 753 317
398 821 912
229 839 1270
211 958 1632
205 1112 2031
242 1319 2478
297 1545 2907
348 1749 3266
1148 1080 9
768 1198 321
356 1290 1051
280 1139 1413
259 1157 1756
247 1274 2148
282 1475 2584
334 1689 2999
384 1882 3339
1177 1440 22
714 1549 344
369 1622 1024
339 1752 1792
309 1448 1893
297 1474 2271
321 1630 2683
372 1832 3085
420 2015 3407
1254 1816 60
786 1957 371
424 1982 1023
428 2323 2063
376 2085 2326
360 1808 2423
371 1864 2809
414 2015 3182
460 2172 3487
1429 2270 126
975 2430 446
552 2420 1080
514 2659 2043
507 2791 2834
458 2415 2831
442 2206 2962
465 2263 3286
505 2376 3566
1685 2734 200
1335 2890 619
892 2903 1212
641 2919 2021
640 3231 3074
581 3039 3296
546 2702 3261
535 2572 3406
556 2608 3653
2007 3162 280
1770 3296 879
1427 3379 1346
866 3318 2014
764 3553 2987
711 3504 3621
653 3202 3617
630 2958 3610
620 2865 3738
1251 190 0
1021 265 305
896 303 473
522 433 750
231 543 1029
178 662 1327
177 837 1739
227 1065 2223
292 1326 2729
1445 398 0
1330 561 393
1063 654 708
615 719 979
306 774 1288
268 930 1688
260 1116 2132
294 1336 2597
355 1590 3067
1690 593 0
1519 800 382
1235 999 915
729 993 1240
394 1024 1600
356 1191 2040
345 1379 2489
359 1579 2912
408 1791 3294
1889 860 0
1731 1077 204
1414 1304 747
754 1332 1476
473 1294 1874
439 1440 2325
424 1619 2749
421 1786 3114
455 1961 3425
1930 1477 107
1701 1666 244
1231 1773 791
704 1880 1666
530 1659 2056
502 1688 2465
483 1816 2873
473 1958 3215
497 2109 3503
2032 2019 164
1688 2101 271
1209 2213 887
783 2301 1678
622 2382 2511
580 2048 2631
563 2077 2999
540 2176 3317
545 2287 3576
2131 2501 147
1795 2556 398
1399 2678 1026
1021 2703 1709
753 2926 2780
670 2667 3028
656 2425 3141
632 2440 3425
604 2503 3654
2291 2939 196
2048 2992 656
1785 3096 1220
1486 3114 1791
926 3206 2744
811 3244 3418
713 2883 3400
731 2749 3535
689 2744 3744
2513 3336 275
2343 3392 947
2196 3505 1394
1974 3574 1806
1274 3564 2603
951 3668 3614
804 3348 3717
749 3074 3694
780 2997 3823
1698 257 0
1499 349 330
1334 399 505
1162 465 666
729 596 968
382 743 1333
292 884 1703
293 1080 2155
347 1343 2682
1940 497 0
1945 612 333
1607 783 745
1414 828 921
938 921 1236
504 1010 1638
406 1175 2084
403 1386 2561
425 1619 3037
2192 699 37
2117 881 305
1921 1105 872
1645 1221 1223
1160 1257 1533
638 1285 1963
519 1445 2427
513 1658 2895
509 1848 3286
2430 893 63
2347 1070 216
2111 1361 855
1839 1587 1453
1328 1586 1837
772 1567 2282
637 1712 2731
621 1900 3150
605 2057 3475
2620 1210 50
2505 1476 232
2319 1736 561
2016 1974 1303
1404 2008 2141
914 1908 2573
771 1998 2987
733 2138 3340
700 2260 3608
2624 2056 207
2471 2267 336
2261 2399 684
1928 2488 1422
1425 2572 2337
972 2305 2760
874 2292 3112
823 2384 3435
775 2467 3680
2721 2671 264
2546 2775 346
2304 2832 1010
2069 2920 1613
1752 2978 2349
1058 2941 3138
977 2631 3238
926 2630 3512
861 2687 3743
2841 3119 261
2667 3169 597
2517 3214 1281
2391 3298 1777
2204 3340 2332
1338 3408 3298
1016 3123 3524
1026 2918 3595
961 2905 3803
2963 3494 292
2843 3541 894
2757 3594 1448
2697 3674 1861
2584 3742 2273
1792 3763 3134
1144 3585 3800
1014 3253 3777
1051 3142 3864
2228 349 44
2169 433 322
1913 533 565
1792 577 692
1616 655 841
1159 793 1182
716 1025 1698
499 1176 2130
483 1410 2656
2504 630 60
2602 670 248
2341 906 732
2116 988 958
1944 1052 1132
1533 1180 1474
967 1368 2038
661 1491 2517
624 1717 3016
2742 843 89
2747 1004 220
2680 1223 790
2400 1408 1248
2206 1471 1464
1822 1580 1816
1231 1693 2362
844 1781 2836
760 1957 3264
2942 1040 107
2900 1250 228
2779 1560 837
2634 1768 1447
2414 1888 1815
2068 1958 2148
1500 2011 2664
1085 2065 3098
928 2183 3449
3130 1268 99
3082 1521 247
2956 1849 764
2770 2113 1520
2608 2319 2130
2310 2357 2490
1851 2372 2950
1467 2400 3322
1179 2441 3601
3245 1762 100
3168 2081 326
3079 2344 558
2981 2543 1204
2815 2729 2017
2544 2816 2777
2202 2752 3185
1884 2759 3499
1489 2738 3728
3185 2732 308
3130 2919 430
3086 3051 705
2998 3132 1431
2876 3182 2138
2686 3246 2837
2343 3107 3331
2083 3033 3584
1623 2976 3798
3297 3276 354
3253 3367 461
3173 3426 1039
3086 3461 1719
3032 3504 2288
2933 3566 2823
2194 3564 3596
2174 3303 3671
1828 3207 3864
3400 3639 373
3318 3696 718
3250 3730 1405
3215 3767 1875
3198 3811 2340
3139 3872 2789
2415 3908 3558
1638 3576 3904
1895 3429 3930
2800 431 126
2817 546 304
2661 687 611
2514 756 765
2407 795 879
2246 904 1061
1912 1076 1345
1432 1376 2003
1026 1654 2716
3087 799 101
3187 826 239
3087 1073 709
2842 1227 1061
2709 1265 1207
2543 1351 1409
2345 1507 1681
1800 1797 2441
1385 2009 3051
3285 1030 107
3310 1237 209
3313 1424 778
3121 1642 1314
2917 1730 1598
2774 1774 1770
2575 1929 2129
2115 2128 2776
1784 2320 3290
3427 1240 109
3411 1521 244
3355 1830 862
3290 1991 1500
3105 2139 1948
2958 2177 2153
2784 2284 2507
2416 2435 3053
2162 2611 3480
3554 1479 103
3503 1828 309
3455 2135 846
3356 2366 1595
3276 2521 2203
3151 2590 2516
3007 2644 2825
2734 2775 3294
2532 2910 3638
3659 1824 106
3614 2170 359
3576 2451 710
3498 2674 1517
3400 2868 2238
3333 3005 2777
3228 3034 3084
3042 3132 3477
2869 3202 3757
3665 2464 232
3652 2742 446
3639 2935 618
3612 3092 1001
3558 3224 1862
3495 3334 2641
3397 3419 3264
3269 3427 3597
3103 3445 3846
3650 3342 400
3645 3480 524
3627 3566 741
3600 3621 1427
3575 3667 2056
3533 3694 2718
3468 3721 3284
3318 3684 3709
3177 3612 3904
3720 3744 447
3704 3807 555
3670 3848 1141
3641 3880 1723
3611 3913 2265
3583 3936 2807
3549 3972 3254
3163 4041 3857
3225 3819 3968
3318 546 207
3387 713 319
3356 892 623
3180 1017 886
3084 1060 1008
2986 1114 1149
2871 1234 1344
2737 1426 1608
2389 1761 2547
3580 990 94
3657 1019 214
3628 1267 699
3460 1490 1163
3313 1577 1405
3218 1604 1538
3088 1708 1769
2957 1934 2227
2712 2088 2937
3714 1246 85
3724 1522 232
3766 1634 781
3652 1849 1366
3491 1997 1767
3382 2041 1956
3269 2118 2209
3146 2270 2614
2974 2360 3215
3808 1479 86
3786 1822 285
3778 2085 896
3751 2196 1556
3641 2350 2050
3513 2433 2359
3425 2476 2578
3322 2549 2900
3196 2637 3429
3875 1752 105
3856 2111 358
3835 2392 844
3777 2597 1658
3744 2703 2263
3651 2791 2655
3563 2822 2886
3479 2864 3177
3388 2948 3603
3939 2091 159
3925 2436 442
3891 2698 818
3851 2890 1611
3801 3056 2287
3764 3145 2839
3698 3172 3138
3628 3210 3406
3550 3274 3729
3986 2532 243
3990 2797 490
3962 2995 711
3936 3161 1338
3900 3304 2124
3848 3428 2799
3799 3511 3294
3750 3504 3528
3675 3581 3814
4003 3097 368
4010 3288 539
4006 3419 673
4005 3525 838
3986 3613 1470
3948 3688 2390
3892 3749 3144
3816 3807 3621
3765 3827 3877
3966 3780 501
3966 3867 623
3963 3921 899
3955 3958 1482
3942 3988 2055
3922 4016 2630
3887 4033 3185
3858 4050 3609
3771 4035 3932
3740 746 232
3813 889 283
3823 1122 639
3696 1301 1005
3603 1382 1196
3533 1419 1323
3465 1469 1469
3377 1675 1847
3257 1930 2388
3936 1197 61
3983 1235 176
3996 1447 670
3901 1694 1194
3775 1836 1568
3698 1904 1781
3636 1953 1969
3536 2129 2387
3435 2240 2763
4018 1490 63
4017 1793 281
4074 1832 784
4008 2016 1383
3904 2195 1864
3802 2311 2225
3739 2359 2436
3665 2449 2738
3590 2473 3019
4078 1743 81
4071 2089 336
4063 2310 967
4058 2374 1596
3991 2517 2124
3894 2637 2531
3828 2691 2777
3767 2726 3008
3707 2705 3245
4095 2030 139
4095 2373 413
4095 2618 857
4065 2789 1714
4054 2856 2307
3993 2939 2741
3912 3003 3050
3860 3023 3260
3811 2978 3454
4095 2360 228
4095 2673 499
4095 2896 823
4095 3063 1590
4087 3200 2303
4067 3252 2877
4010 3291 3218
3955 3319 3446
3904 3298 3636
4095 2736 318
4095 2975 569
4095 3155 792
4095 3300 1431
4095 3420 2155
4095 3522 2813
4089 3571 3305
4045 3574 3549
3994 3597 3774
4095 3128 387
4095 3292 590
4095 3410 759
4095 3510 978
4095 3606 1758
4095 3694 2594
4095 3782 3210
4095 3850 3619
4073 3825 3812
4095 3556 452
4095 3658 599
4095 3739 721
4095 3803 836
4095 3869 1073
4095 3917 2032
4095 3966 2876
4095 4025 3469
4095 4088 3861
