Postproduction/IWLTBAP - Humble/LUTs by IWLTBAP (3DL)/BONUS/8700/F-8700-VLOG.3dl
# Copyright: (C) Copyright 2010-2017 by IWLTBAP SAS
# Cannot be resold, shared or otherwise redistributed
# Website: https://luts.iwltbap.com
0 128 256 384 512 640 768 896 1023
257 321 353
257 321 383
257 365 478
257 428 662
273 538 899
343 751 1315
490 1237 2341
530 1349 2523
530 1381 2585
257 353 369
257 353 398
257 380 478
257 458 677
273 570 945
343 781 1382
502 1279 2404
530 1379 2571
544 1411 2634
285 478 414
273 490 449
273 462 523
273 504 676
273 616 933
343 836 1475
515 1341 2518
530 1410 2632
546 1441 2694
305 695 444
289 711 497
289 759 669
289 666 765
302 709 980
350 883 1401
467 1392 2570
504 1420 2674
504 1451 2726
305 988 522
305 1035 615
321 1112 829
337 1135 1062
337 931 1108
372 1005 1488
486 1481 2511
523 1630 2780
530 1646 2826
375 1552 843
389 1614 978
407 1696 1188
440 1803 1493
462 1784 1763
440 1373 1780
534 1672 2650
568 1802 2888
568 1827 2929
586 2650 1859
602 2698 2001
618 2762 2175
646 2854 2433
680 2975 2830
711 2864 3017
668 2351 3074
674 2369 3168
678 2369 3200
626 2844 2088
642 2892 2230
658 2951 2401
685 3030 2648
716 3100 2987
730 2953 3116
691 2455 3140
691 2427 3196
691 2427 3228
626 2891 2088
642 2939 2230
658 2999 2401
691 3077 2648
723 3148 3003
739 3001 3154
707 2513 3172
707 2473 3212
707 2457 3228
287 335 367
273 337 385
273 369 464
273 434 647
288 538 884
359 751 1299
502 1237 2341
530 1349 2523
546 1381 2585
287 367 382
286 367 401
273 395 504
274 464 691
289 572 938
359 782 1361
518 1285 2404
546 1394 2585
546 1425 2648
303 494 418
300 504 458
300 480 538
289 520 707
289 634 970
355 853 1532
518 1345 2507
546 1415 2635
546 1445 2697
321 695 444
320 711 487
315 771 665
305 682 787
310 725 1000
359 908 1439
483 1396 2588
520 1444 2692
520 1461 2746
336 981 492
328 1028 578
336 1112 803
350 1156 1064
349 947 1124
388 1021 1520
502 1505 2537
531 1646 2809
546 1677 2858
385 1546 805
391 1609 943
420 1692 1163
450 1803 1468
477 1818 1788
456 1398 1808
549 1690 2675
578 1818 2903
584 1848 2945
598 2646 1809
611 2692 1961
626 2758 2140
649 2848 2395
694 2981 2811
721 2879 3025
681 2367 3093
691 2383 3183
694 2385 3216
628 2830 2054
642 2889 2196
658 2941 2369
691 3020 2606
723 3101 2974
739 2970 3123
707 2471 3156
707 2443 3212
707 2443 3230
642 2891 2041
658 2939 2196
674 2999 2358
691 3067 2597
731 3164 2988
755 3017 3169
722 2529 3184
707 2489 3228
707 2489 3244
410 385 385
397 397 417
377 414 478
345 450 620
343 554 851
375 748 1255
518 1244 2315
546 1365 2522
562 1397 2585
429 417 396
411 417 428
384 432 508
349 479 650
349 585 884
389 786 1318
531 1299 2388
562 1411 2585
562 1443 2648
505 541 391
521 567 435
384 522 569
342 566 784
343 677 1040
399 876 1493
544 1384 2523
574 1479 2695
578 1510 2755
358 747 429
354 747 465
369 800 646
352 734 831
337 765 1064
388 962 1550
522 1429 2652
551 1489 2728
560 1522 2786
353 972 446
353 991 493
380 1112 737
383 1178 1075
380 993 1177
404 1051 1570
518 1537 2602
546 1657 2833
554 1686 2883
406 1520 719
407 1582 841
424 1671 1061
456 1799 1416
488 1858 1802
472 1432 1846
556 1720 2708
594 1835 2920
599 1863 2975
614 2630 1730
618 2678 1873
631 2743 2070
650 2833 2331
697 2983 2774
727 2901 3033
695 2383 3109
704 2401 3199
707 2410 3232
644 2816 1962
658 2864 2107
674 2935 2292
691 3014 2552
731 3116 2948
755 2984 3136
723 2487 3172
719 2470 3225
723 2470 3245
658 2875 1947
674 2923 2095
674 2983 2288
707 3061 2544
739 3164 2963
771 3039 3170
732 2542 3197
723 2505 3244
723 2505 3260
741 460 401
715 460 434
672 460 512
576 508 636
433 586 835
430 751 1186
536 1255 2268
578 1397 2537
588 1429 2612
767 481 401
738 491 438
703 497 529
596 538 663
436 618 867
444 783 1239
550 1303 2340
589 1443 2600
594 1477 2664
877 558 401
872 576 448
771 606 573
630 631 732
450 689 956
458 875 1383
566 1392 2476
604 1520 2709
610 1554 2764
1109 730 339
1131 761 373
1031 841 538
548 807 868
455 856 1203
467 1057 1739
595 1542 2722
620 1617 2854
626 1648 2901
576 1097 367
519 1118 415
464 1140 539
495 1251 1013
470 1099 1287
462 1144 1716
552 1613 2734
572 1681 2866
580 1704 2914
437 1458 556
437 1496 639
433 1586 795
538 1809 1230
557 1962 1833
544 1551 1987
578 1757 2764
600 1865 2952
610 1891 2997
634 2610 1612
634 2649 1747
646 2708 1929
662 2805 2205
703 2973 2702
743 2921 3041
711 2408 3133
711 2417 3212
723 2429 3246
674 2780 1847
674 2841 1973
674 2897 2155
692 2991 2436
732 3109 2878
768 3008 3139
731 2503 3182
723 2484 3232
724 2484 3260
691 2842 1831
691 2891 1958
691 2952 2140
707 3039 2426
739 3156 2886
771 3055 3183
739 2557 3204
739 2521 3260
739 2521 3276
1245 498 401
1204 522 457
1110 552 558
1047 554 639
871 626 819
556 796 1164
576 1229 2116
626 1438 2522
634 1469 2585
1283 538 401
1252 554 451
1159 586 574
1079 614 670
898 670 850
561 832 1208
590 1278 2193
635 1486 2585
649 1525 2657
1401 576 361
1395 590 401
1281 675 586
1145 708 737
937 754 908
582 903 1299
608 1369 2329
650 1554 2682
664 1588 2744
1618 741 361
1623 762 385
1616 862 543
1310 931 851
1027 966 1080
623 1055 1517
649 1519 2570
680 1657 2826
682 1688 2882
2019 1028 393
2042 1054 410
2174 1187 465
1819 1346 734
861 1273 1363
643 1353 2037
669 1753 2944
691 1799 3017
695 1827 3055
1310 1716 424
1251 1719 440
1143 1723 456
789 1853 742
727 2046 1648
687 1776 2202
669 1920 2961
682 1983 3081
686 2006 3121
678 2531 1325
678 2572 1441
672 2615 1584
676 2699 1834
886 2908 2234
873 3075 3137
792 2536 3237
761 2483 3266
767 2485 3290
708 2691 1590
708 2738 1700
707 2793 1827
707 2894 2089
880 3077 2448
848 3115 3200
796 2603 3253
779 2561 3300
779 2561 3316
731 2738 1606
724 2792 1708
723 2848 1827
723 2952 2073
895 3123 2429
861 3165 3242
811 2650 3276
795 2594 3316
795 2594 3332
1981 638 520
1956 664 568
1869 697 656
1746 735 751
1663 762 833
1399 869 1060
907 1377 2062
915 1589 2493
893 1614 2565
2059 663 504
2043 686 554
1954 727 656
1806 776 770
1722 810 865
1447 907 1086
938 1426 2115
945 1645 2556
925 1671 2622
2174 694 478
2169 703 511
2141 774 624
1965 846 784
1821 871 903
1554 976 1135
999 1517 2219
998 1721 2643
974 1744 2706
2381 833 424
2391 833 440
2404 809 481
2311 1043 802
2057 1164 1090
1779 1221 1329
1113 1673 2407
1111 1845 2769
1074 1861 2816
2762 1139 461
2770 1155 466
2800 1211 482
2795 1476 712
2387 1534 1263
2084 1673 1712
1361 1963 2737
1418 2096 2970
1371 2104 3014
3125 1757 451
3128 1822 479
3154 1910 513
3203 2285 695
2962 2435 1201
1954 2334 2379
1228 2295 3226
1206 2301 3265
1190 2307 3294
2365 2932 564
2331 2932 582
2288 2931 650
2196 2916 741
1912 3017 1396
1642 3237 2733
1091 2771 3373
996 2710 3416
992 2710 3445
2294 3109 1290
2274 3132 1370
2254 3154 1457
2176 3167 1528
2025 3195 1735
1479 3317 2875
1052 2820 3394
1036 2781 3443
1036 2776 3459
2327 3166 1305
2314 3182 1386
2301 3208 1466
2218 3224 1538
2073 3254 1730
1537 3355 2847
1052 2862 3410
1036 2821 3459
1036 2806 3475
3328 1044 658
3324 1079 722
3304 1136 815
3246 1203 949
3156 1273 1094
3061 1345 1267
2886 1602 1747
2838 1804 2117
2822 1847 2220
3370 1092 669
3367 1136 731
3350 1185 826
3291 1257 953
3188 1335 1131
3088 1408 1314
2914 1675 1838
2858 1863 2194
2842 1895 2284
3413 1123 641
3409 1171 709
3392 1219 814
3339 1304 959
3236 1396 1161
3124 1485 1369
2939 1755 1931
2899 1927 2280
2887 1952 2357
3445 1134 592
3457 1174 644
3449 1245 756
3450 1452 971
3356 1556 1221
3168 1564 1439
2970 1837 2048
2927 1982 2352
2921 1998 2427
3493 1339 438
3501 1355 440
3485 1310 459
3538 1388 572
3524 1960 1438
3363 2127 1972
3147 2234 2521
3123 2264 2684
3117 2264 2744
3656 2117 578
3652 2161 611
3647 2208 646
3635 2358 769
3619 2589 1364
3552 2724 2398
3361 2721 3006
3346 2696 3091
3336 2712 3147
3762 3205 873
3762 3220 908
3761 3245 950
3770 3284 1039
3766 3370 1276
3743 3433 1780
3564 3551 3373
3561 3555 3457
3558 3558 3485
3653 3447 935
3653 3463 967
3653 3478 1009
3649 3509 1271
3633 3534 1673
3609 3565 2122
3473 3627 3365
3396 3605 3504
3408 3593 3537
3649 3509 955
3649 3525 1003
3649 3529 1069
3645 3561 1387
3629 3577 1768
3605 3601 2185
3474 3661 3364
3390 3637 3515
3408 3621 3549
3437 1140 739
3421 1188 803
3388 1237 895
3346 1301 1006
3268 1365 1164
3174 1429 1323
3079 1835 1991
3037 2039 2397
3035 2056 2457
3467 1188 739
3451 1233 817
3421 1281 895
3386 1348 1022
3300 1421 1188
3206 1493 1377
3099 1905 2078
3065 2072 2443
3053 2088 2489
3485 1216 723
3481 1263 801
3453 1317 895
3421 1381 1022
3340 1469 1212
3222 1548 1425
3144 1996 2191
3101 2136 2518
3096 2137 2565
3543 1267 632
3537 1314 727
3521 1377 847
3489 1476 1016
3415 1591 1260
3302 1754 1616
3199 2144 2373
3150 2217 2612
3149 2217 2660
3558 1560 514
3566 1577 538
3606 1607 632
3621 1661 884
3577 2007 1502
3428 2155 2004
3276 2337 2596
3238 2369 2772
3237 2362 2811
3667 2461 831
3667 2493 893
3667 2537 1022
3667 2573 1209
3643 2634 1571
3597 2723 2410
3397 2708 2975
3395 2714 3093
3386 2713 3133
3804 3376 1559
3802 3392 1724
3802 3396 1891
3788 3424 2120
3779 3453 2447
3770 3469 2621
3662 3558 3365
3646 3561 3441
3635 3561 3473
3776 3519 2264
3776 3531 2375
3774 3535 2485
3760 3550 2659
3744 3567 2850
3743 3579 2945
3679 3619 3349
3661 3631 3453
3647 3633 3485
3774 3565 2292
3760 3579 2389
3760 3581 2499
3758 3596 2658
3744 3612 2848
3728 3613 2943
3690 3649 3335
3663 3661 3439
3661 3661 3485
3485 1172 739
3469 1218 817
3441 1269 899
3404 1333 1022
3332 1397 1172
3238 1467 1355
3148 1855 2023
3113 2056 2425
3099 2072 2473
3515 1218 739
3499 1265 817
3472 1300 897
3435 1374 1022
3364 1453 1204
3270 1526 1403
3174 1925 2096
3131 2104 2473
3115 2104 2505
3533 1249 723
3518 1284 797
3501 1345 883
3469 1407 1016
3396 1501 1220
3286 1590 1451
3208 2018 2216
3164 2164 2539
3160 2164 2569
3585 1289 622
3585 1336 711
3562 1400 841
3537 1498 1013
3468 1613 1263
3350 1803 1652
3263 2162 2391
3212 2242 2628
3206 2242 2666
3597 1590 522
3605 1607 553
3643 1638 638
3656 1680 884
3617 2023 1502
3471 2174 2018
3328 2365 2612
3292 2385 2788
3292 2385 2826
3700 2493 831
3700 2523 893
3700 2563 1016
3700 2598 1205
3678 2655 1571
3632 2739 2416
3445 2728 2991
3433 2743 3101
3433 2728 3123
3838 3360 1602
3838 3380 1769
3838 3392 1928
3834 3408 2149
3818 3445 2469
3814 3465 2636
3694 3558 3365
3681 3561 3441
3677 3549 3457
3838 3501 2232
3824 3503 2343
3822 3517 2467
3822 3533 2642
3806 3549 2848
3790 3565 2929
3722 3619 3340
3694 3645 3451
3694 3645 3485
3838 3533 2168
3838 3549 2280
3822 3549 2401
3822 3565 2579
3806 3581 2802
3790 3581 2897
3738 3645 3324
3710 3661 3437
3694 3677 3485
