Postproduction/IWLTBAP - Humble/LUTs by IWLTBAP (3DL)/BONUS/8700/F-8700-V2-LOG.3dl
# Copyright: (C) Copyright 2016 by IWLTBAP
# Cannot be resold, shared or otherwise redistributed
# Website: http://luts.iwltbap.com
0 64 128 192 256 320 384 448 512 576 640 704 768 832 896 960 1023
0 0 0
0 0 10
0 0 93
0 14 248
0 97 455
0 197 672
0 308 895
0 433 1158
0 590 1504
0 788 1929
36 1007 2374
84 1179 2689
106 1262 2831
107 1266 2839
107 1266 2839
107 1266 2839
107 1266 2839
0 0 0
0 0 5
0 0 71
0 9 214
0 81 414
0 177 630
0 285 847
0 404 1095
0 551 1418
0 739 1826
22 955 2271
73 1141 2623
104 1256 2821
107 1266 2839
107 1266 2839
107 1266 2839
107 1266 2839
0 44 15
0 37 15
0 21 81
0 45 220
0 118 415
0 209 630
0 308 846
0 417 1082
0 549 1385
0 721 1774
15 930 2213
68 1124 2587
103 1250 2808
108 1268 2840
107 1267 2839
107 1267 2839
107 1267 2839
0 159 40
0 151 39
0 153 117
0 111 200
0 156 392
0 239 614
0 343 841
0 454 1079
0 589 1383
0 759 1772
25 966 2213
78 1163 2597
114 1292 2826
120 1314 2868
118 1310 2865
118 1306 2863
117 1303 2861
0 301 50
0 296 50
0 305 78
0 339 244
0 264 377
0 300 592
0 392 830
0 501 1074
0 637 1374
1 806 1762
36 1014 2209
95 1225 2614
131 1361 2860
140 1395 2920
139 1392 2918
139 1389 2916
138 1387 2914
0 457 44
0 454 44
0 458 48
0 517 179
0 566 467
0 448 601
0 480 826
0 565 1079
0 691 1373
3 861 1755
50 1065 2197
109 1283 2622
149 1433 2894
162 1480 2980
162 1478 2978
161 1476 2977
160 1474 2975
0 629 41
0 627 41
0 630 41
0 666 103
0 792 412
0 802 759
0 636 842
0 660 1082
0 750 1372
8 906 1742
62 1111 2182
121 1332 2613
166 1498 2916
184 1564 3032
184 1563 3033
184 1561 3032
183 1560 3031
0 804 38
0 804 38
0 807 38
0 823 59
0 936 273
0 1101 795
0 997 1037
0 813 1097
0 843 1371
17 957 1727
72 1153 2163
132 1375 2597
181 1555 2929
204 1641 3082
205 1643 3088
204 1642 3087
204 1641 3086
0 992 44
0 992 44
0 996 45
0 1003 50
0 1079 176
0 1287 669
10 1417 1221
14 1184 1317
5 1004 1388
32 1049 1721
85 1204 2146
144 1422 2582
197 1616 2940
226 1723 3128
228 1730 3143
227 1729 3142
227 1728 3141
0 1208 72
0 1208 72
0 1213 72
0 1218 74
0 1266 145
0 1441 494
41 1711 1196
91 1746 1669
76 1424 1650
67 1245 1750
105 1312 2145
161 1489 2580
215 1686 2957
249 1808 3169
255 1829 3205
255 1828 3205
254 1827 3204
11 1475 120
11 1476 120
11 1483 121
12 1489 122
11 1514 158
6 1646 391
57 1915 1020
155 2191 1828
185 2116 2147
159 1735 2061
148 1551 2198
187 1632 2597
240 1789 2979
276 1915 3212
287 1950 3276
287 1949 3275
286 1948 3275
75 1794 175
75 1795 175
77 1804 177
78 1811 178
79 1822 195
70 1906 375
86 2119 868
189 2444 1736
268 2645 2464
282 2468 2615
250 2070 2514
238 1903 2666
275 1975 3022
312 2076 3275
325 2115 3359
324 2114 3359
324 2113 3358
150 2152 235
151 2155 236
153 2164 237
155 2173 239
156 2179 248
165 2202 420
163 2365 862
219 2626 1599
321 2929 2505
375 2998 2989
374 2732 3014
339 2375 2939
329 2246 3094
355 2289 3341
370 2325 3444
370 2325 3446
370 2324 3445
249 2510 302
250 2514 303
255 2524 305
259 2532 307
261 2535 321
266 2501 530
270 2629 993
276 2845 1621
362 3141 2471
441 3316 3179
464 3180 3351
447 2869 3309
418 2618 3307
410 2535 3432
421 2550 3528
421 2550 3532
421 2551 3532
326 2682 346
327 2682 346
327 2683 346
327 2684 346
327 2679 364
318 2611 624
312 2736 1084
309 2960 1676
383 3255 2486
467 3436 3229
496 3320 3462
489 3051 3456
462 2787 3424
449 2680 3524
446 2652 3567
446 2653 3569
446 2653 3569
328 2686 347
328 2686 347
328 2686 347
328 2686 347
327 2679 372
318 2618 655
312 2741 1099
308 2956 1663
381 3249 2464
465 3436 3213
497 3329 3462
490 3063 3461
464 2795 3425
450 2683 3527
447 2655 3570
447 2655 3570
447 2655 3570
328 2686 347
328 2686 347
328 2686 347
328 2686 347
327 2677 379
318 2622 678
312 2747 1115
308 2952 1652
378 3241 2440
463 3435 3196
496 3336 3460
491 3073 3463
464 2799 3423
450 2684 3525
447 2655 3570
447 2655 3570
447 2655 3570
0 0 0
0 0 10
0 0 91
0 16 240
0 97 446
0 193 663
0 303 884
0 427 1142
0 582 1484
0 776 1905
33 996 2351
81 1171 2675
106 1261 2829
107 1266 2839
107 1266 2839
107 1266 2839
107 1266 2839
0 0 0
0 0 2
0 1 58
0 6 196
0 72 394
0 168 610
0 274 828
0 393 1071
0 537 1386
0 720 1787
16 935 2232
69 1127 2598
103 1252 2814
107 1266 2839
107 1266 2839
107 1266 2839
107 1266 2839
0 27 9
0 20 8
0 11 61
0 28 193
0 98 384
0 185 597
0 284 812
0 392 1044
0 522 1339
0 695 1726
11 906 2167
63 1105 2557
100 1239 2791
107 1267 2839
107 1267 2839
107 1267 2839
107 1267 2839
0 137 36
0 130 35
0 130 95
0 93 179
0 140 370
0 223 592
0 328 819
0 438 1056
0 571 1354
0 740 1740
20 946 2180
74 1147 2576
111 1282 2815
118 1309 2865
117 1306 2863
117 1302 2861
116 1299 2859
0 290 50
0 285 50
0 292 71
0 326 234
0 255 366
0 292 581
0 385 820
0 494 1063
0 629 1361
0 798 1747
34 1005 2195
93 1220 2608
130 1359 2857
140 1393 2919
139 1391 2917
138 1388 2915
138 1385 2913
0 452 45
0 450 45
0 454 48
0 513 180
0 562 463
0 445 597
0 477 822
0 562 1075
0 688 1368
3 858 1749
49 1062 2192
109 1282 2621
149 1434 2895
162 1480 2979
162 1478 2978
161 1476 2977
160 1474 2975
0 627 41
0 626 41
0 629 41
0 667 107
0 792 414
0 800 759
0 635 841
0 660 1081
0 750 1371
8 906 1741
62 1110 2182
122 1333 2615
167 1501 2923
184 1565 3033
184 1563 3033
184 1562 3032
183 1560 3031
0 805 38
0 804 38
0 808 38
0 825 62
0 941 283
0 1104 801
0 998 1039
0 814 1099
0 845 1374
17 959 1730
73 1155 2166
133 1378 2601
182 1560 2937
204 1642 3083
205 1644 3088
205 1643 3088
204 1642 3087
0 994 45
0 994 44
0 998 45
0 1006 52
0 1086 184
0 1295 682
11 1421 1230
15 1188 1322
6 1008 1393
33 1053 1727
86 1208 2153
145 1427 2590
199 1623 2951
227 1726 3132
228 1732 3144
228 1731 3143
227 1730 3142
0 1212 72
0 1212 72
0 1217 73
0 1223 75
0 1276 155
0 1453 511
44 1722 1214
93 1752 1679
78 1430 1658
69 1251 1759
107 1318 2155
163 1496 2590
218 1694 2969
251 1815 3178
256 1832 3207
255 1831 3206
255 1830 3206
11 1481 121
11 1483 121
12 1490 122
13 1496 123
12 1524 165
6 1660 407
61 1931 1044
158 2204 1849
188 2125 2161
162 1743 2073
151 1561 2211
190 1641 2609
242 1799 2992
278 1923 3221
288 1954 3278
288 1953 3278
287 1952 3277
76 1803 176
77 1805 177
78 1813 178
80 1820 179
81 1833 203
72 1922 394
90 2137 893
194 2462 1766
272 2658 2484
285 2477 2628
253 2080 2527
240 1914 2681
278 1986 3036
314 2086 3286
326 2121 3362
326 2119 3361
326 2118 3361
153 2164 237
153 2166 238
155 2176 239
157 2184 240
159 2191 252
168 2216 438
166 2383 889
224 2645 1632
325 2944 2531
378 3007 3003
377 2740 3027
343 2387 2954
332 2257 3108
358 2301 3354
372 2333 3448
372 2333 3449
372 2331 3448
256 2525 306
257 2528 306
262 2538 309
265 2546 311
267 2548 328
272 2509 551
273 2644 1019
280 2864 1647
367 3159 2496
445 3328 3196
467 3188 3363
451 2878 3321
421 2629 3318
413 2545 3443
423 2558 3531
423 2559 3535
423 2558 3534
327 2684 346
327 2684 346
328 2685 346
328 2686 347
327 2677 377
318 2616 649
312 2745 1108
311 2971 1702
386 3265 2513
469 3439 3245
497 3316 3465
489 3044 3456
462 2784 3427
449 2679 3528
446 2653 3568
446 2653 3570
446 2653 3570
328 2686 347
328 2686 347
328 2686 347
328 2686 347
327 2675 387
318 2622 682
311 2751 1124
310 2967 1690
384 3259 2492
467 3438 3230
497 3323 3464
490 3054 3459
463 2790 3427
450 2682 3529
447 2655 3570
447 2655 3570
447 2655 3570
328 2686 347
328 2686 347
328 2686 347
328 2686 347
327 2673 393
317 2627 705
311 2757 1141
309 2961 1676
381 3250 2466
465 3436 3212
496 3330 3462
491 3065 3461
464 2795 3425
450 2683 3527
447 2655 3570
447 2655 3570
447 2655 3570
0 0 0
0 0 19
0 1 103
0 43 243
0 122 444
0 211 656
0 317 875
0 439 1132
0 591 1467
4 781 1889
49 998 2338
94 1174 2667
117 1265 2827
116 1270 2837
114 1269 2838
112 1268 2838
111 1268 2838
0 2 0
0 1 3
0 2 63
0 15 191
0 88 386
0 177 599
0 279 815
0 395 1057
0 536 1367
0 714 1767
17 927 2211
69 1120 2583
103 1247 2805
108 1267 2839
108 1266 2839
107 1266 2839
107 1266 2839
0 34 3
0 25 3
0 19 73
0 46 197
0 111 389
0 193 601
0 287 813
0 392 1043
0 519 1332
0 692 1717
12 902 2158
63 1102 2551
100 1238 2788
108 1267 2840
108 1267 2840
108 1267 2840
108 1267 2839
0 148 35
0 140 33
0 140 96
0 111 191
0 156 384
0 236 605
0 337 830
0 445 1065
0 576 1361
1 745 1748
23 951 2188
77 1154 2584
113 1288 2822
120 1313 2868
119 1309 2866
118 1306 2864
117 1303 2862
0 301 52
0 297 52
0 302 74
0 337 242
0 270 381
0 305 595
0 395 834
0 505 1078
0 640 1378
2 811 1767
39 1019 2215
97 1233 2626
134 1370 2871
141 1399 2923
141 1396 2921
140 1394 2919
139 1391 2918
0 463 45
0 461 45
0 465 49
0 530 195
0 579 484
0 458 613
0 490 837
0 574 1091
0 700 1387
5 871 1771
53 1077 2215
113 1298 2643
153 1445 2910
164 1486 2983
163 1484 2982
163 1482 2981
162 1480 2980
0 638 41
0 636 41
0 640 42
0 686 123
0 815 444
0 814 778
0 648 858
0 673 1099
0 763 1392
11 921 1766
66 1127 2209
126 1350 2640
171 1515 2940
186 1571 3038
186 1569 3037
185 1568 3036
185 1566 3035
0 817 38
0 816 38
0 820 38
0 843 70
0 968 318
0 1128 837
0 1010 1060
0 827 1119
0 859 1397
21 975 1758
78 1174 2196
138 1397 2629
187 1577 2960
206 1650 3090
207 1651 3093
206 1649 3092
206 1648 3091
0 1009 46
0 1009 46
0 1013 46
0 1024 58
0 1114 207
0 1330 729
15 1444 1265
17 1203 1346
9 1025 1419
38 1072 1758
92 1229 2186
151 1449 2621
204 1642 2978
229 1735 3140
230 1740 3148
230 1739 3148
230 1737 3147
0 1230 75
0 1231 75
0 1236 76
0 1243 80
0 1307 176
0 1493 559
54 1762 1269
101 1778 1717
84 1451 1687
75 1274 1793
113 1343 2193
169 1521 2625
224 1717 2998
255 1831 3195
258 1841 3213
258 1840 3212
258 1839 3211
15 1506 125
15 1507 125
16 1515 127
18 1522 128
16 1558 183
8 1701 445
73 1980 1113
168 2246 1909
196 2155 2202
169 1771 2112
158 1590 2252
197 1671 2647
249 1826 3023
284 1943 3242
291 1967 3285
291 1966 3284
290 1965 3284
82 1831 181
83 1833 182
84 1842 183
86 1850 184
87 1866 220
78 1964 437
101 2185 961
207 2510 1843
282 2693 2538
294 2502 2665
261 2108 2566
249 1945 2721
285 2016 3071
320 2109 3308
330 2137 3370
329 2136 3369
329 2134 3369
160 2197 243
160 2199 243
162 2208 244
164 2217 246
167 2224 267
177 2254 481
176 2429 954
238 2693 1715
337 2984 2598
387 3030 3041
384 2758 3058
350 2413 2990
340 2287 3143
365 2328 3379
377 2354 3457
376 2353 3456
376 2352 3456
269 2556 313
270 2557 314
273 2564 315
276 2570 317
277 2565 349
280 2527 604
278 2679 1084
290 2907 1723
378 3200 2572
453 3348 3241
473 3192 3384
455 2883 3339
427 2647 3346
419 2566 3468
427 2576 3540
428 2577 3541
427 2576 3541
328 2686 347
328 2686 347
328 2686 347
328 2686 347
326 2671 399
317 2625 701
310 2765 1164
315 2999 1771
395 3289 2589
474 3441 3287
498 3299 3471
487 3020 3452
461 2774 3435
449 2676 3537
447 2655 3570
447 2655 3570
447 2655 3570
328 2686 347
328 2686 347
328 2686 347
328 2686 347
326 2668 410
317 2631 734
310 2770 1179
314 2994 1759
392 3283 2568
472 3442 3276
498 3305 3469
488 3029 3454
461 2777 3433
449 2677 3536
447 2655 3570
447 2655 3570
447 2655 3570
328 2686 347
328 2686 347
328 2686 347
328 2686 347
326 2666 417
317 2636 758
310 2776 1195
313 2987 1742
389 3275 2541
470 3441 3257
497 3313 3467
489 3040 3456
462 2782 3431
449 2679 3534
447 2655 3570
447 2655 3570
447 2655 3570
202 42 2
184 43 23
137 57 128
58 94 244
2 155 437
0 235 641
0 330 851
0 449 1103
0 600 1429
29 786 1846
83 1000 2297
127 1179 2639
151 1278 2815
150 1284 2828
147 1283 2831
144 1282 2832
141 1281 2833
119 23 1
108 20 2
70 30 82
13 55 188
0 114 373
0 196 580
0 288 791
0 402 1028
0 540 1327
3 713 1716
44 922 2164
94 1121 2554
127 1253 2791
131 1276 2835
128 1275 2835
126 1274 2836
