Postproduction/IWLTBAP - Humble/LUTs by IWLTBAP (3DL)/BONUS/8700/F-8700-V2-VLOG.3dl
# Copyright: (C) Copyright 2010-2017 by IWLTBAP SAS
# Cannot be resold, shared or otherwise redistributed
# Website: https://luts.iwltbap.com
0 128 256 384 512 640 768 896 1023
0 0 0
0 0 16
0 0 136
0 74 389
0 225 715
0 500 1257
165 1144 2505
209 1271 2732
209 1317 2794
0 0 0
0 0 28
0 11 141
0 104 428
0 271 775
0 553 1329
169 1192 2583
211 1319 2794
225 1363 2856
0 153 32
0 149 106
0 124 217
0 180 419
0 327 755
0 628 1454
185 1278 2727
211 1361 2856
225 1397 2919
0 438 106
0 478 191
0 512 387
0 405 544
0 468 821
0 693 1357
130 1330 2779
173 1373 2899
183 1413 2961
0 835 217
0 882 340
0 976 608
0 1002 901
0 759 996
0 847 1462
153 1449 2712
209 1631 3036
217 1662 3091
0 1542 640
6 1620 814
38 1720 1082
83 1834 1447
121 1812 1781
92 1324 1836
219 1685 2876
263 1849 3161
279 1881 3208
297 2883 1915
313 2946 2092
342 3019 2308
377 3125 2615
424 3252 3069
454 3123 3310
405 2524 3395
418 2533 3490
422 2545 3533
353 3115 2200
369 3165 2373
385 3240 2577
419 3320 2873
466 3397 3260
482 3228 3428
435 2647 3461
434 2618 3521
434 2618 3549
353 3164 2200
383 3226 2373
401 3288 2577
434 3382 2873
482 3453 3276
498 3290 3475
450 2710 3493
450 2666 3549
450 2650 3565
0 0 0
0 0 16
0 0 126
0 74 370
0 226 699
0 516 1226
179 1148 2495
225 1285 2730
225 1317 2794
0 0 0
0 0 42
0 25 182
0 120 434
0 273 763
0 562 1310
185 1208 2583
237 1333 2805
241 1377 2871
0 169 44
0 179 106
0 151 229
0 203 453
0 358 797
0 649 1514
200 1281 2715
230 1370 2860
241 1413 2923
0 448 91
0 470 175
0 528 386
0 435 572
0 483 842
0 719 1403
147 1345 2811
198 1397 2924
199 1429 2987
0 820 179
0 875 289
0 976 569
0 1024 911
0 779 1016
10 878 1502
174 1478 2750
225 1647 3059
232 1693 3123
21 1542 587
22 1612 772
52 1714 1042
92 1841 1423
140 1856 1814
112 1362 1874
237 1716 2910
279 1871 3178
294 1902 3233
313 2879 1859
329 2941 2034
348 3011 2260
377 3121 2570
432 3260 3049
470 3139 3323
422 2540 3414
434 2549 3507
437 2565 3551
369 3101 2138
385 3165 2325
401 3230 2530
434 3320 2815
475 3406 3239
500 3244 3438
450 2664 3477
450 2636 3537
450 2634 3565
383 3164 2138
398 3226 2325
417 3288 2530
434 3372 2815
489 3469 3261
514 3306 3491
466 2726 3509
466 2682 3565
466 2682 3581
56 12 0
55 16 48
19 31 150
0 104 331
0 247 650
0 513 1176
200 1160 2468
241 1301 2730
253 1345 2806
98 48 0
72 59 62
32 75 183
4 149 381
0 293 697
6 562 1252
212 1222 2560
257 1360 2799
267 1395 2873
188 220 16
208 264 84
31 206 262
0 272 553
0 410 889
22 686 1465
233 1331 2731
273 1453 2929
282 1486 2999
5 509 64
0 514 116
12 569 372
0 495 627
0 531 919
6 791 1537
207 1386 2875
245 1457 2968
254 1489 3031
0 811 108
0 837 171
5 987 507
12 1058 910
6 844 1078
28 909 1562
198 1524 2818
241 1670 3090
249 1702 3148
38 1504 485
42 1578 647
60 1688 921
105 1837 1364
156 1902 1826
138 1405 1922
253 1749 2946
295 1897 3202
310 1929 3264
341 2862 1766
345 2925 1940
361 3000 2174
389 3105 2494
440 3260 3011
486 3162 3330
438 2562 3430
450 2577 3523
453 2589 3568
385 3089 2031
401 3148 2223
418 3224 2449
437 3312 2755
483 3421 3220
514 3273 3453
467 2688 3493
466 2652 3553
466 2652 3593
401 3148 2031
418 3199 2207
430 3276 2449
450 3366 2739
498 3469 3228
530 3336 3501
482 2751 3525
482 2713 3581
482 2698 3597
500 106 16
468 106 78
411 122 189
281 171 363
84 291 623
74 516 1082
231 1164 2413
283 1349 2737
289 1391 2826
536 144 22
501 154 91
443 169 205
304 224 400
95 333 666
90 564 1150
247 1227 2505
298 1397 2824
305 1443 2895
678 253 16
677 282 93
538 321 274
348 351 495
108 432 783
108 681 1334
271 1336 2672
315 1491 2941
321 1538 3015
978 490 0
998 539 17
858 641 234
259 591 664
107 651 1093
128 917 1776
303 1528 2961
332 1617 3117
347 1658 3174
299 963 8
236 983 64
155 1018 226
171 1148 851
130 985 1217
114 1031 1752
247 1617 2979
275 1702 3131
280 1733 3187
80 1431 263
80 1476 367
76 1585 594
223 1858 1143
255 2028 1861
231 1555 2088
283 1798 3012
311 1929 3235
327 1961 3298
361 2832 1620
361 2884 1787
377 2956 2001
400 3070 2341
449 3254 2918
502 3200 3347
454 2594 3457
466 2596 3539
468 2610 3584
418 3053 1895
418 3101 2069
423 3179 2284
450 3282 2613
491 3415 3137
530 3292 3460
483 2710 3510
482 2677 3569
482 2677 3607
434 3115 1911
434 3164 2053
434 3241 2268
460 3334 2609
501 3464 3143
546 3358 3507
498 2766 3541
498 2730 3597
498 2714 3613
1124 201 56
1084 217 118
992 239 245
902 257 366
670 353 602
261 582 1048
289 1140 2240
346 1405 2723
361 1437 2810
1194 233 48
1156 257 112
1045 297 267
944 327 403
701 416 645
276 628 1106
305 1203 2326
362 1454 2801
377 1508 2882
1345 285 0
1352 301 41
1196 416 285
1038 462 490
757 519 722
309 723 1227
336 1312 2494
393 1548 2913
399 1582 2999
1626 505 0
1630 529 32
1618 653 230
1236 748 639
877 796 950
360 921 1504
383 1504 2780
423 1673 3087
431 1709 3155
2120 891 24
2142 930 40
2298 1107 122
1852 1295 503
687 1194 1293
367 1288 2134
416 1794 3227
438 1845 3313
442 1875 3360
1237 1746 59
1157 1752 86
1022 1761 118
586 1907 508
498 2153 1669
425 1825 2350
406 2005 3247
426 2079 3392
429 2106 3443
418 2754 1255
416 2788 1397
416 2843 1583
418 2945 1894
702 3200 2394
673 3382 3441
578 2745 3579
526 2678 3604
534 2680 3643
459 2940 1575
458 2989 1709
458 3053 1889
466 3175 2209
687 3389 2653
647 3433 3532
582 2820 3597
554 2763 3640
554 2763 3670
482 2987 1598
482 3049 1731
474 3111 1895
479 3235 2198
703 3441 2634
663 3496 3569
598 2875 3629
570 2817 3669
570 2802 3686
2058 365 199
2031 397 267
1941 442 383
1791 490 500
1691 537 624
1347 670 925
760 1325 2164
773 1610 2701
751 1636 2774
2151 403 189
2134 430 252
2041 488 373
1878 544 529
1756 596 667
1409 734 973
805 1392 2234
819 1669 2774
783 1698 2847
2306 443 142
2301 461 189
2255 549 340
2057 641 556
1883 685 718
1529 824 1034
889 1507 2354
893 1766 2870
854 1787 2942
2550 624 66
2567 622 88
2579 598 145
2460 901 584
2172 1050 951
1804 1129 1270
1033 1702 2580
1043 1921 3020
996 1937 3083
3014 1019 112
3017 1050 122
3057 1121 154
3042 1444 485
2553 1525 1184
2177 1687 1752
1335 2059 2981
1409 2216 3256
1361 2232 3314
3436 1817 114
3434 1901 161
3469 2005 204
3533 2447 437
3238 2633 1110
2025 2494 2536
1163 2464 3560
1131 2464 3607
1116 2476 3644
2538 3221 277
2501 3226 340
2442 3226 407
2332 3210 493
1981 3321 1337
1677 3578 2974
962 3022 3737
841 2953 3785
839 2951 3816
2443 3429 1204
2422 3454 1297
2401 3483 1415
2307 3489 1508
2105 3522 1762
1508 3667 3132
913 3079 3757
887 3038 3812
882 3032 3844
2489 3493 1231
2477 3518 1321
2450 3545 1431
2360 3561 1524
2172 3594 1762
1568 3720 3100
913 3125 3786
897 3078 3828
897 3069 3844
3681 907 405
3665 955 485
3645 1013 594
3587 1095 761
3481 1194 960
3366 1282 1180
3162 1607 1795
3114 1835 2226
3083 1895 2349
3724 966 418
3710 1015 496
3693 1078 609
3643 1162 771
3525 1259 1002
3398 1359 1243
3191 1686 1897
3131 1892 2298
3115 1947 2417
3767 1008 385
3766 1059 471
3747 1126 596
3695 1223 776
3578 1334 1034
3446 1447 1321
3216 1776 2010
3176 1979 2414
3160 2020 2509
3814 1024 322
3826 1073 391
3820 1152 519
3829 1414 792
3718 1545 1123
3495 1553 1402
3262 1896 2151
3206 2062 2514
3190 2082 2600
3878 1275 78
3878 1298 96
3864 1240 126
3924 1342 301
3913 2044 1403
3725 2245 2060
3467 2366 2719
3438 2411 2934
3429 2413 3003
4065 2229 279
4065 2289 323
4065 2349 373
4050 2520 545
4025 2805 1308
3942 2965 2566
3719 2957 3300
3706 2943 3412
3696 2959 3477
4095 3547 682
4095 3562 728
4095 3588 782
4095 3630 891
4095 3739 1201
4094 3806 1831
3965 3952 3740
3961 3947 3838
3950 3956 3870
4047 3816 783
4047 3832 821
4047 3848 884
4035 3880 1189
4035 3920 1662
4006 3956 2230
3854 4028 3732
3776 3997 3887
3774 3985 3922
4047 3894 819
4047 3898 885
4044 3910 964
4035 3946 1307
4029 3971 1772
4006 4003 2302
3852 4073 3734
3766 4039 3898
3774 4027 3934
3790 1028 498
3774 1076 592
3758 1140 703
3710 1214 845
3621 1301 1044
3511 1381 1259
3384 1875 2080
3342 2120 2557
3326 2138 2634
3822 1090 514
3806 1136 592
3788 1188 704
3740 1268 861
3653 1373 1076
3527 1461 1329
3417 1961 2182
3372 2170 2621
3358 2186 2682
3854 1120 482
3850 1168 576
3826 1237 703
3790 1327 855
3702 1437 1108
3559 1542 1393
3464 2084 2322
3417 2248 2711
3402 2261 2764
3928 1180 365
3922 1243 480
3906 1311 632
3870 1438 859
3784 1575 1171
3646 1797 1626
3527 2261 2535
3471 2355 2836
3471 2361 2891
3960 1544 202
3969 1568 243
4008 1606 384
4023 1680 697
3975 2100 1477
3794 2275 2091
3615 2503 2816
3575 2530 3022
3574 2530 3083
4069 2650 644
4079 2681 723
4079 2736 883
4069 2784 1109
4053 2859 1556
3999 2970 2585
3766 2943 3266
3756 2961 3412
3756 2975 3461
4095 3750 1566
4095 3763 1756
4095 3770 1946
4095 3798 2225
4095 3840 2620
4095 3854 2831
4067 3947 3720
4052 3950 3823
4047 3950 3854
4095 3904 2407
4095 3920 2535
4095 3920 2672
4095 3936 2877
4095 3966 3123
4095 3969 3231
4079 4031 3709
4063 4047 3824
4063 4049 3870
4095 3965 2421
4095 3967 2535
4095 3981 2672
4095 3983 2867
4095 4006 3105
4095 4015 3216
4080 4063 3694
4065 4079 3822
4063 4079 3870
3854 1060 514
3838 1122 592
3822 1184 707
3774 1253 861
3686 1341 1060
3575 1429 1291
3465 1919 2112
3421 2152 2587
3404 2168 2650
3886 1122 514
3870 1169 608
3853 1220 704
3806 1310 862
3718 1413 1100
3607 1510 1355
3497 1993 2214
3453 2200 2650
3437 2216 2698
3918 1152 482
3904 1200 576
3886 1269 703
3854 1359 855
3766 1469 1116
3639 1590 1425
3544 2116 2353
3497 2276 2732
3485 2280 2778
3977 1212 359
3977 1275 479
3961 1343 622
3922 1470 859
3848 1607 1171
3714 1838 1658
3605 2286 2558
3549 2387 2853
3543 2387 2901
4007 1582 209
4015 1606 249
4047 1638 383
4063 1704 697
4023 2120 1477
3855 2307 2118
3694 2529 2832
3645 2561 3044
3637 2553 3083
4095 2682 654
4095 2713 731
4095 2768 877
4095 2817 1105
4085 2881 1558
4047 2986 2595
3826 2961 3277
3818 2989 3412
3802 2975 3445
4095 3734 1614
4095 3750 1800
4095 3766 2000
4095 3789 2265
4095 3826 2648
4095 3854 2857
4095 3960 3720
4095 3950 3810
4095 3950 3842
4095 3888 2375
4095 3902 2503
4095 3904 2644
4095 3920 2860
4095 3950 3105
4095 3967 3216
4095 4031 3697
4095 4047 3822
4095 4049 3854
4095 3934 2280
4095 3934 2425
4095 3950 2577
4095 3967 2788
4095 3983 3051
4095 3983 3170
4095 4051 3677
4095 4079 3808
4095 4079 3854
