Postproduction/IWLTBAP - Humble/LUTs by IWLTBAP (3DL)/BONUS/8700/F-8700-STD.3dl
# Copyright: (C) Copyright 2016 by IWLTBAP
# Cannot be resold, shared or otherwise redistributed
# Website: http://luts.iwltbap.com
0 128 256 384 512 640 768 896 1023
253 317 352
254 391 554
249 474 772
268 566 974
295 664 1187
326 784 1467
364 941 1830
408 1131 2239
455 1334 2618
291 569 419
279 533 612
273 591 838
296 685 1055
323 787 1280
356 915 1575
394 1073 1944
438 1266 2341
483 1460 2702
309 777 411
297 921 818
299 765 901
320 812 1130
347 889 1361
379 1019 1669
418 1183 2039
462 1375 2422
507 1564 2774
320 972 408
325 1181 858
352 1152 1173
346 969 1191
369 1012 1444
400 1111 1745
440 1282 2124
483 1469 2492
527 1652 2838
342 1174 417
348 1397 838
408 1575 1425
404 1325 1457
397 1182 1524
424 1241 1840
463 1384 2210
506 1567 2574
550 1748 2899
378 1417 451
371 1629 811
458 1939 1576
489 1939 1938
469 1597 1832
462 1464 1953
494 1547 2312
535 1692 2662
577 1859 2971
428 1731 498
412 1911 831
498 2230 1605
564 2448 2309
577 2301 2423
550 1943 2303
541 1822 2449
573 1903 2774
610 2018 3055
492 2091 551
495 2228 975
541 2477 1651
623 2756 2470
658 2786 2806
657 2554 2822
631 2266 2755
624 2176 2892
651 2232 3142
613 2491 626
603 2518 1154
596 2744 1718
670 3021 2483
729 3137 3080
740 2984 3158
728 2734 3121
708 2546 3124
700 2465 3232
523 412 387
421 453 559
351 517 763
340 595 953
353 689 1159
383 811 1427
420 967 1788
462 1149 2195
507 1353 2584
593 591 381
446 625 674
383 676 930
376 765 1159
395 869 1405
426 1000 1724
465 1170 2108
506 1356 2477
549 1546 2820
504 903 380
436 938 722
411 875 1010
402 905 1239
422 988 1493
454 1124 1821
493 1297 2199
533 1477 2564
574 1651 2884
492 1110 372
453 1152 705
436 1289 1264
428 1073 1303
445 1113 1571
477 1231 1904
516 1402 2282
557 1581 2636
597 1751 2943
544 1306 399
480 1372 710
483 1640 1397
488 1515 1624
475 1303 1654
502 1362 1996
541 1510 2361
582 1689 2712
621 1849 3005
638 1582 435
519 1637 733
525 1933 1388
560 2085 2022
558 1809 2033
543 1608 2113
573 1690 2464
612 1827 2793
650 1967 3076
828 1932 479
578 1965 777
580 2197 1356
624 2496 2264
651 2450 2530
635 2117 2470
622 1967 2593
649 2030 2895
684 2142 3147
1088 2333 528
675 2428 854
668 2463 1439
683 2731 2261
723 2871 2859
732 2681 2926
710 2395 2873
699 2294 3004
723 2337 3232
1420 2721 582
1001 2877 999
785 2736 1544
776 3010 2165
788 3207 3038
805 3073 3215
800 2840 3210
780 2640 3202
771 2564 3309
928 480 383
812 498 566
607 573 757
438 641 955
428 722 1139
429 827 1397
463 981 1749
504 1167 2152
549 1370 2556
1069 621 381
937 734 686
632 759 904
486 809 1134
480 908 1386
476 1023 1691
509 1191 2077
551 1383 2467
594 1576 2834
1213 799 339
1078 923 591
644 979 1063
540 998 1339
528 1092 1630
520 1210 1951
550 1377 2322
590 1558 2677
628 1723 2978
1244 1198 391
936 1283 606
616 1355 1170
576 1218 1439
562 1245 1724
550 1334 2040
578 1499 2403
617 1672 2751
654 1830 3037
1261 1472 393
894 1562 620
631 1603 1131
619 1736 1776
598 1465 1824
586 1492 2144
605 1620 2484
644 1788 2823
680 1937 3094
1319 1771 421
951 1895 637
672 1893 1133
688 2214 2010
641 1988 2188
633 1757 2260
640 1808 2589
675 1936 2904
710 2064 3162
1463 2145 467
1100 2285 691
756 2259 1177
748 2468 1950
742 2588 2627
705 2259 2603
692 2085 2712
712 2138 2989
743 2232 3228
1669 2528 519
1392 2664 826
1021 2677 1282
838 2671 1929
848 2967 2853
797 2785 3001
773 2497 2963
763 2390 3088
782 2424 3301
1934 2888 577
1744 3001 1032
1473 3079 1396
989 3004 1938
941 3225 2736
899 3178 3284
856 2922 3272
838 2716 3263
829 2639 3373
1324 512 357
1137 567 598
1049 592 717
750 692 932
532 771 1147
504 861 1377
501 994 1710
539 1174 2107
586 1382 2528
1477 662 352
1390 784 658
1178 854 895
815 909 1108
583 941 1344
568 1069 1672
560 1213 2031
586 1387 2412
632 1594 2810
1674 808 369
1529 970 659
1315 1127 1065
901 1113 1310
647 1135 1596
632 1273 1957
622 1423 2328
631 1580 2676
671 1756 3001
1839 1002 373
1713 1169 512
1480 1358 899
905 1375 1510
710 1348 1822
693 1472 2199
682 1618 2549
675 1747 2846
705 1893 3110
1857 1513 461
1688 1661 544
1290 1740 961
857 1834 1671
757 1627 1953
738 1670 2307
725 1773 2649
713 1884 2928
735 2011 3174
1959 1938 499
1667 2000 554
1276 2099 1030
920 2157 1649
829 2256 2368
798 1953 2436
785 1987 2756
764 2066 3017
769 2155 3234
2032 2337 477
1754 2377 652
1427 2485 1139
1116 2495 1677
926 2714 2606
864 2471 2777
858 2271 2869
838 2286 3112
811 2334 3300
2161 2699 515
1962 2741 857
1745 2833 1292
1517 2848 1744
1026 2914 2539
978 2965 3116
897 2648 3083
916 2542 3202
878 2537 3380
2348 3035 573
2207 3079 1090
2087 3178 1436
1920 3241 1762
1306 3216 2425
1087 3334 3309
967 3043 3357
924 2811 3335
951 2750 3447
1675 560 362
1509 628 617
1382 662 742
1254 711 860
899 811 1101
636 922 1389
583 1031 1679
582 1183 2048
625 1395 2488
1873 737 376
1885 821 615
1594 957 931
1456 987 1058
1056 1062 1312
715 1121 1628
665 1259 1993
665 1428 2386
679 1613 2783
2080 890 408
2021 1029 591
1860 1203 1025
1640 1297 1298
1238 1328 1547
807 1333 1891
748 1473 2275
748 1649 2668
740 1800 2993
2279 1037 427
2208 1170 521
2006 1405 1020
1800 1592 1491
1375 1584 1787
901 1555 2155
833 1685 2527
829 1843 2879
815 1972 3156
2439 1268 412
2349 1477 538
2199 1690 752
1967 1901 1322
1432 1927 2054
1004 1835 2402
926 1915 2747
913 2036 3042
889 2139 3270
2429 1988 533
2305 2154 622
2142 2257 862
1849 2327 1454
1432 2405 2220
1046 2145 2539
995 2155 2846
977 2238 3119
946 2310 3328
2523 2476 568
2376 2568 606
2167 2605 1147
1972 2686 1608
1739 2725 2194
1111 2704 2891
1077 2431 2947
1052 2438 3183
1012 2492 3381
2619 2851 562
2469 2891 817
2348 2925 1355
2243 3002 1743
2123 3033 2180
1317 3102 3045
1124 2848 3192
1132 2676 3250
1089 2671 3430
2719 3167 584
2619 3207 1047
2549 3250 1483
2499 3320 1812
2434 3383 2138
1742 3397 2863
1228 3242 3430
1130 2960 3404
1160 2869 3479
2109 628 413
2068 690 610
1845 764 790
1751 796 884
1619 856 994
1233 954 1267
885 1151 1691
717 1252 2025
724 1446 2463
2337 837 424
2429 858 544
2202 1051 919
2016 1111 1089
1881 1160 1223
1546 1256 1488
1073 1420 1970
827 1497 2342
829 1695 2766
2534 999 444
2540 1121 522
2497 1291 954
2249 1447 1322
2098 1492 1483
1788 1582 1766
1289 1679 2230
954 1728 2609
921 1884 2973
2702 1152 456
2667 1313 532
2567 1565 994
2455 1731 1475
2268 1830 1768
1993 1893 2035
1509 1935 2476
1132 1957 2830
1017 2057 3128
2863 1327 452
2824 1524 549
2714 1798 945
2553 2015 1547
2429 2191 2045
2191 2223 2320
1809 2233 2712
1460 2241 3019
1197 2263 3254
2962 1709 441
2901 1974 609
2824 2194 763
2746 2359 1253
2617 2524 1911
2397 2610 2576
2114 2551 2914
1841 2553 3175
1463 2518 3364
2900 2547 603
2854 2697 688
2826 2804 880
2759 2871 1470
2650 2905 2046
2526 2963 2603
2242 2841 3026
2008 2783 3245
1568 2720 3423
3003 2984 632
2969 3060 704
2902 3112 1159
2826 3138 1706
2780 3171 2170
2731 3227 2584
2073 3246 3291
2097 3010 3314
1759 2920 3482
3089 3290 646
3019 3339 908
2961 3367 1452
2932 3398 1825
2918 3433 2207
2893 3488 2572
2286 3536 3235
1555 3220 3516
1812 3108 3539
2584 687 468
2597 773 591
2464 881 827
2346 932 940
2260 959 1025
2128 1047 1173
1854 1182 1381
1452 1421 1931
1120 1645 2525
2825 968 451
2914 981 543
2830 1183 901
2618 1303 1174
2512 1328 1281
2370 1398 1445
2230 1519 1639
1754 1765 2294
1414 1939 2805
2992 1146 456
3014 1309 516
3024 1455 947
2858 1638 1375
2681 1707 1601
2565 1737 1731
2412 1869 2017
2015 2036 2568
1756 2202 3001
3111 1310 457
3099 1531 544
3049 1790 1020
3004 1912 1517
2838 2042 1889
2716 2064 2041
2584 2159 2335
2264 2288 2799
2071 2444 3161
3219 1499 452
3174 1784 597
3136 2035 1004
3051 2225 1596
2989 2353 2099
2879 2409 2348
2770 2454 2600
2533 2570 3000
2376 2691 3295
3311 1771 450
3269 2059 634
3241 2293 884
3171 2481 1553
3085 2642 2133
3034 2761 2578
2954 2776 2816
2796 2870 3154
2657 2931 3393
3312 2296 540
3301 2528 699
3296 2688 827
3275 2821 1066
3227 2933 1788
3176 3027 2438
3095 3107 2974
2991 3116 3255
2857 3133 3467
3297 3052 668
3293 3166 759
3279 3236 903
3256 3278 1480
3238 3316 1968
3200 3338 2518
3159 3356 2987
3033 3329 3351
2913 3269 3516
3358 3379 700
3346 3433 774
3317 3468 1235
3292 3494 1701
3266 3522 2147
3242 3541 2594
3228 3570 2965
2892 3646 3493
2952 3443 3569
3018 773 525
3076 902 605
3054 1042 837
2899 1139 1038
2821 1168 1128
2740 1210 1238
2642 1307 1395
2537 1451 1588
2244 1723 2381
3241 1117 445
3307 1131 523
3283 1338 895
3139 1517 1257
3013 1584 1445
2936 1602 1548
2824 1685 1729
2715 1874 2111
2515 1992 2709
3353 1316 440
3359 1544 537
3402 1622 950
3302 1804 1416
3163 1925 1739
3073 1957 1884
2976 2019 2091
2874 2148 2428
2735 2216 2940
3434 1500 440
3412 1781 579
3407 1999 1048
3389 2080 1564
3293 2214 1967
3181 2283 2223
3109 2315 2397
3022 2375 2662
2922 2445 3118
3489 1718 452
3474 2013 632
3458 2247 996
3404 2420 1654
3382 2501 2145
3299 2578 2468
3225 2600 2653
3154 2635 2896
3083 2705 3264
3543 1994 489
3533 2282 697
3503 2502 973
3468 2660 1618
3426 2801 2162
3397 2874 2626
3339 2896 2869
3281 2930 3095
3219 2980 3369
3582 2359 549
3588 2580 733
3563 2745 893
3541 2886 1408
3510 3006 2040
3465 3112 2592
3424 3186 3008
3385 3171 3192
3321 3240 3439
3597 2827 641
3605 2989 768
3603 3099 868
3603 3190 967
3587 3264 1455
3554 3328 2226
3506 3379 2869
3440 3430 3275
3398 3450 3492
3563 3415 743
3565 3489 834
3563 3533 1041
3557 3563 1519
3545 3587 1975
3529 3611 2443
3498 3625 2909
3479 3637 3266
3400 3628 3539
3376 927 543
3437 1037 576
3448 1222 847
3337 1363 1132
3259 1428 1280
3200 1456 1379
3144 1492 1490
3069 1659 1796
2968 1869 2244
3543 1281 423
3582 1305 495
3596 1480 871
3515 1679 1277
3404 1793 1578
3341 1848 1746
3290 1885 1895
3204 2034 2245
3118 2123 2556
3612 1513 425
3608 1766 575
3663 1784 954
3604 1940 1429
3516 2086 1814
3427 2185 2117
3376 2221 2284
3313 2297 2534
3250 2314 2769
3662 1715 436
3658 1998 615
3649 2185 1108
3648 2229 1599
3588 2353 2034
3505 2453 2368
3451 2494 2564
3399 2523 2758
3347 2505 2958
3716 1948 476
3694 2232 675
3687 2435 998
3648 2581 1706
3645 2629 2179
3591 2701 2537
3521 2755 2796
3478 2772 2971
3436 2731 3134
3764 2219 540
3739 2480 740
3718 2667 972
3701 2806 1599
3672 2923 2175
3655 2962 2655
3604 2996 2936
3559 3020 3127
3514 3001 3287
3800 2531 605
3782 2730 794
3763 2881 953
3756 3005 1478
3738 3105 2056
3707 3191 2596
3673 3232 3013
3634 3233 3213
3590 3256 3408
3830 2856 655
3825 2995 808
3820 3094 938
3817 3178 1083
3814 3260 1736
3790 3335 2423
3740 3411 2932
3690 3470 3276
3658 3445 3435
3832 3220 704
3844 3306 815
3856 3375 908
3862 3429 995
3867 3486 1140
3844 3525 1955
3815 3567 2651
3767 3618 3146
3694 3671 3478
