Postproduction/IWLTBAP - Humble/LUTs by IWLTBAP (CUBE)/UTILITY/Sony S-Log3 to Rec.709/U-SONY-S-LOG3-V2-LTR.cube
# Copyright: (C) Copyright 2010-2018 by IWLTBAP SAS
# Cannot be resold, shared or otherwise redistributed
# Website: https://luts.iwltbap.com
TITLE "Sony S-Log3 Version 2 (Utility LOG to Rec.709)"
LUT_3D_SIZE 5
DOMAIN_MIN 0.000000 0.000000 0.000000
DOMAIN_MAX 0.903226 0.903226 0.903226
0.000000 0.000000 0.000000
0.093292 0.002411 0.000000
0.437866 0.108673 0.000000
0.912933 0.290680 0.000000
0.996826 0.392548 0.000000
0.000000 0.125824 0.000000
0.157104 0.142944 0.000000
0.474884 0.254883 0.000000
0.911102 0.411621 0.000000
0.997375 0.474670 0.000000
0.000000 0.498322 0.000000
0.211243 0.500732 0.000000
0.577179 0.540161 0.000000
0.955872 0.635132 0.000000
1.000000 0.645538 0.000000
0.000000 0.894165 0.000000
0.000000 0.897186 0.000000
0.610718 0.900757 0.000000
0.963013 0.901031 0.000000
1.000000 0.834717 0.001831
0.000000 1.000000 0.003906
0.000000 1.000000 0.003906
0.469574 1.000000 0.002075
0.807098 0.998962 0.000000
1.000000 1.000000 0.003906
0.000000 0.000000 0.086975
0.131226 0.000000 0.122498
0.517029 0.000000 0.068878
0.949280 0.224487 0.000000
0.996338 0.382324 0.000580
0.000000 0.153198 0.173645
0.157104 0.157104 0.157104
0.532349 0.220886 0.060150
0.957703 0.369781 0.000000
1.000000 0.455444 0.001831
0.000000 0.520599 0.105316
0.000000 0.526947 0.002991
0.601227 0.559723 0.000000
0.978790 0.618591 0.000000
0.997375 0.618164 0.001495
0.000000 0.915833 0.000000
0.000000 0.908905 0.000000
0.562561 0.905273 0.000000
0.961761 0.901611 0.000000
0.998962 0.822998 0.001831
0.000000 0.996826 0.009369
0.000000 1.000000 0.003906
0.414307 0.997375 0.000000
0.791077 0.998413 0.000000
1.000000 1.000000 0.003906
0.000000 0.000000 0.394836
0.109009 0.000000 0.434265
0.487244 0.000000 0.470062
0.960754 0.000000 0.441376
0.994751 0.011841 0.243530
0.000000 0.170654 0.533569
0.000000 0.077332 0.535675
0.546814 0.009003 0.526031
0.983398 0.006012 0.433563
0.998962 0.249237 0.234039
0.000000 0.556061 0.634003
0.000000 0.541351 0.602142
0.547974 0.547974 0.547974
0.981964 0.576202 0.448975
0.998413 0.550781 0.209290
0.000000 0.927216 0.571930
0.000000 0.924225 0.523804
0.344391 0.922089 0.427399
0.961121 0.910034 0.289001
0.997375 0.799530 0.087952
0.000000 0.993164 0.503662
0.041870 0.995789 0.529236
0.399170 0.993164 0.475464
0.766815 0.993164 0.352936
0.998413 1.000000 0.064880
0.000000 0.000000 0.858032
0.000000 0.000000 0.854492
0.486816 0.000000 0.879761
0.927002 0.000000 0.893005
0.998962 0.000000 0.764771
0.000000 0.090576 0.926910
0.000000 0.043365 0.922394
0.454620 0.000000 0.921814
0.945007 0.000000 0.916412
0.994751 0.202881 0.760864
0.000000 0.499084 0.947052
0.000000 0.472626 0.944031
0.207520 0.422211 0.942230
0.947052 0.469818 0.923584
0.995789 0.685791 0.813232
0.000000 0.844727 0.941895
0.000000 0.844727 0.943726
0.163483 0.870941 0.929565
0.902222 0.902222 0.902222
1.000000 0.883850 0.852631
0.000000 1.000000 0.832367
0.000580 1.000000 0.822784
0.467468 0.993164 0.835480
0.868622 0.996826 0.879456
0.998962 0.994843 0.816040
0.000000 0.000000 0.993164
0.000000 0.000000 0.993164
0.302063 0.000000 1.000000
0.718994 0.000000 0.998962
0.996826 0.134766 0.996826
0.001831 0.123199 0.996338
0.000000 0.108826 0.997375
0.242889 0.095703 0.995789
0.711151 0.132935 0.994751
0.997375 0.315521 0.997375
0.000000 0.392548 1.000000
0.000000 0.387512 1.000000
0.095581 0.421692 0.996826
0.710419 0.502472 0.997375
0.996338 0.652588 0.994751
0.000000 0.665680 0.997375
0.000000 0.672913 0.998413
0.201111 0.717255 0.993164
0.828094 0.852386 0.997375
0.995789 0.907684 0.996338
0.000000 0.930328 0.996826
0.098022 0.938477 0.995789
0.601074 0.954437 0.993164
0.908630 0.983887 0.995789
0.994263 0.994263 0.994263
