Postproduction/IWLTBAP - Humble/LUTs by IWLTBAP (CUBE)/UTILITY/Sony S-Log3 to Rec.709/U-SONY-S-LOG3-V7-LTR.cube
# Copyright: (C) Copyright 2010-2018 by IWLTBAP SAS
# Cannot be resold, shared or otherwise redistributed
# Website: https://luts.iwltbap.com
TITLE "Sony S-Log3 Version 7 (Utility LOG to Rec.709)"
LUT_3D_SIZE 5
DOMAIN_MIN 0.000000 0.000000 0.000000
DOMAIN_MAX 0.903226 0.903226 0.903226
0.000000 0.000000 0.000000
0.283691 0.000000 0.067902
0.790894 0.000000 0.213684
1.000000 0.000000 0.332733
1.000000 0.000000 0.386841
0.000000 0.217804 0.000000
0.194763 0.211334 0.000000
0.771942 0.130280 0.195740
1.000000 0.000000 0.322784
1.000000 0.000000 0.378876
0.000000 0.614655 0.000000
0.000000 0.613007 0.000000
0.553253 0.597687 0.000000
1.000000 0.567841 0.201050
1.000000 0.547150 0.289581
0.000000 0.938141 0.000000
0.000000 0.937256 0.000000
0.000000 0.928528 0.000000
0.845245 0.912476 0.000000
1.000000 0.901703 0.000000
0.000000 1.000000 0.000000
0.000000 1.000000 0.000000
0.000000 1.000000 0.000000
0.613678 1.000000 0.000000
0.978088 1.000000 0.000000
0.000000 0.000000 0.202209
0.283386 0.000000 0.212128
0.790802 0.000000 0.285583
1.000000 0.000000 0.378662
1.000000 0.000000 0.425415
0.000000 0.201172 0.183105
0.193726 0.194794 0.194153
0.762695 0.188232 0.261993
1.000000 0.096893 0.357361
1.000000 0.020691 0.405579
0.000000 0.610596 0.000000
0.000000 0.608490 0.000000
0.555969 0.590271 0.065308
1.000000 0.531952 0.290161
1.000000 0.521271 0.349670
0.000000 0.935883 0.000000
0.000000 0.934082 0.000000
0.000000 0.924957 0.000000
0.850250 0.904877 0.000000
1.000000 0.885681 0.053284
0.000000 1.000000 0.000000
0.000000 1.000000 0.000000
0.000000 1.000000 0.000000
0.628235 1.000000 0.000000
0.984009 1.000000 0.000000
0.000000 0.000000 0.573486
0.280548 0.000000 0.576111
0.790100 0.000000 0.599884
1.000000 0.000000 0.640656
1.000000 0.000000 0.665405
0.000000 0.000000 0.568848
0.192871 0.000000 0.571960
0.761078 0.000000 0.595337
1.000000 0.000000 0.626099
1.000000 0.000000 0.653168
0.000000 0.570740 0.522095
0.000000 0.568024 0.525421
0.551239 0.552155 0.551636
1.000000 0.564331 0.583862
1.000000 0.570404 0.607880
0.000000 0.913879 0.416992
0.000000 0.912506 0.421875
0.000000 0.903473 0.456696
0.847076 0.884674 0.514343
1.000000 0.861847 0.550629
0.000000 1.000000 0.322021
0.000000 1.000000 0.329071
0.000000 1.000000 0.376251
0.620422 1.000000 0.448212
0.980713 1.000000 0.487823
0.000000 0.000000 0.875946
0.274994 0.000000 0.877411
0.788788 0.000000 0.891174
1.000000 0.000000 0.915802
1.000000 0.000000 0.931488
0.000000 0.000000 0.873260
0.186554 0.000000 0.875641
0.774994 0.000000 0.889862
1.000000 0.000000 0.915161
1.000000 0.000000 0.924316
0.000000 0.485107 0.847870
0.000000 0.479034 0.850159
0.552185 0.460083 0.864288
1.000000 0.422577 0.888885
1.000000 0.424225 0.896667
0.000000 0.871765 0.798340
0.000000 0.869171 0.800781
0.000000 0.860413 0.815857
0.842682 0.843994 0.843201
1.000000 0.847382 0.853546
0.000000 1.000000 0.763733
0.000000 1.000000 0.767487
0.000000 1.000000 0.782837
0.612244 1.000000 0.811432
0.977844 0.997711 0.830139
0.000000 0.000000 1.000000
0.271454 0.000000 1.000000
0.787903 0.000000 1.000000
1.000000 0.000000 1.000000
1.000000 0.000000 1.000000
0.000000 0.000000 1.000000
0.182190 0.000000 1.000000
0.774780 0.000000 1.000000
1.000000 0.000000 1.000000
1.000000 0.000000 1.000000
0.000000 0.416229 0.990631
0.000000 0.407013 0.992645
0.552063 0.384430 0.999725
1.000000 0.325592 1.000000
1.000000 0.287537 1.000000
0.000000 0.842865 0.950989
0.000000 0.838623 0.952881
0.000000 0.829742 0.965118
0.843811 0.812408 0.987183
1.000000 0.801941 0.999329
0.000000 1.000000 0.924103
0.000000 0.999756 0.926270
0.000000 0.998749 0.938751
0.610168 0.985138 0.961517
0.975128 0.976562 0.975739
