Postproduction/IWLTBAP - Humble/LUTs by IWLTBAP (CUBE)/UTILITY/Sony S-Log3 to Rec.709/U-SONY-S-LOG3-V5-LTR.cube
# Copyright: (C) Copyright 2010-2018 by IWLTBAP SAS
# Cannot be resold, shared or otherwise redistributed
# Website: https://luts.iwltbap.com
TITLE "Sony S-Log3 Version 5 (Utility LOG to Rec.709)"
LUT_3D_SIZE 32
0.003906 0.003906 0.003906
0.003906 0.003906 0.003906
0.003906 0.003906 0.003906
0.008209 0.003906 0.003906
0.033997 0.003906 0.003906
0.094940 0.003906 0.003906
0.182281 0.003906 0.003906
0.268341 0.003906 0.003906
0.356476 0.003906 0.003906
0.447296 0.003906 0.003906
0.537140 0.003906 0.003906
0.620117 0.003906 0.003906
0.695770 0.003906 0.003906
0.764709 0.003906 0.003906
0.824158 0.003906 0.003906
0.876495 0.003906 0.003906
0.921570 0.003906 0.003906
0.957855 0.003906 0.003906
0.982880 0.007477 0.003906
0.993378 0.037140 0.003906
0.996063 0.111389 0.003906
0.996094 0.204773 0.003906
0.996094 0.296936 0.003906
0.996094 0.386017 0.003906
0.996094 0.476898 0.003906
0.996094 0.563324 0.003906
0.996094 0.640900 0.003906
0.996094 0.709229 0.003906
0.996094 0.770782 0.003906
0.996094 0.826172 0.003906
0.996094 0.875061 0.003906
0.996094 0.917236 0.003906
0.003906 0.003906 0.003906
0.003906 0.003906 0.003906
0.003906 0.003906 0.003906
0.010590 0.003906 0.003906
0.035858 0.003906 0.003906
0.100922 0.003906 0.003906
0.187012 0.003906 0.003906
0.271637 0.003906 0.003906
0.359070 0.003906 0.003906
0.449249 0.003906 0.003906
0.538574 0.003906 0.003906
0.621033 0.003906 0.003906
0.696320 0.003906 0.003906
0.765015 0.003906 0.003906
0.824249 0.003906 0.003906
0.875488 0.003906 0.003906
0.918335 0.003906 0.003906
0.954407 0.004608 0.003906
0.982361 0.032867 0.003906
0.993103 0.072815 0.003906
0.996033 0.154480 0.003906
0.996094 0.233978 0.003906
0.996094 0.318115 0.003906
0.996094 0.402191 0.003906
0.996094 0.489349 0.003906
0.996094 0.571350 0.003906
0.996094 0.646118 0.003906
0.996094 0.713196 0.003906
0.996094 0.773376 0.003906
0.996094 0.827820 0.003906
0.996094 0.876068 0.003906
0.996094 0.917877 0.003906
0.003906 0.003906 0.003906
0.003906 0.003906 0.003906
0.003906 0.003906 0.003906
0.012909 0.003906 0.003906
0.037689 0.003906 0.003906
0.106445 0.003906 0.003906
0.191437 0.003906 0.003906
0.274567 0.003906 0.003906
0.361206 0.003906 0.003906
0.450745 0.003906 0.003906
0.539520 0.003906 0.003906
0.621460 0.003906 0.003906
0.695984 0.003967 0.003906
0.762726 0.004272 0.003906
0.820129 0.003937 0.003906
0.870514 0.003906 0.003906
0.914215 0.010590 0.003906
0.951294 0.035431 0.003906
0.980957 0.056244 0.003906
0.993042 0.121124 0.003906
0.996002 0.191589 0.003906
0.996094 0.260803 0.003906
0.996094 0.338043 0.003906
0.996094 0.417664 0.003906
0.996094 0.501343 0.003906
0.996094 0.579132 0.003906
0.996094 0.651245 0.003906
0.996094 0.717041 0.003906
0.996094 0.775909 0.003906
0.996094 0.829468 0.003906
0.996094 0.877075 0.003906
0.996094 0.918488 0.003906
0.003906 0.007446 0.003906
0.003906 0.007843 0.003906
0.003906 0.008240 0.003906
0.010651 0.007324 0.003906
0.034576 0.007629 0.003906
0.105530 0.007141 0.003906
0.188629 0.007416 0.003906
0.271118 0.007233 0.003906
0.356354 0.007050 0.003906
0.444305 0.007416 0.003906
0.532776 0.006989 0.003906
0.614258 0.006622 0.003906
0.688232 0.006378 0.003906
0.755646 0.005432 0.003906
0.814117 0.009857 0.003906
0.865936 0.025909 0.003906
0.910553 0.044220 0.003906
0.948639 0.061554 0.003906
0.980011 0.106873 0.003906
0.992432 0.163788 0.003906
0.996002 0.222412 0.003906
0.996094 0.285614 0.003906
0.996094 0.356720 0.003906
0.996094 0.432526 0.003906
0.996094 0.512848 0.003906
0.996094 0.586700 0.003906
0.996094 0.656250 0.003906
0.996094 0.720825 0.003906
0.996094 0.778442 0.003906
0.996094 0.831085 0.003906
0.996094 0.878082 0.003906
0.996094 0.919128 0.003906
0.003906 0.022156 0.003906
0.003906 0.022461 0.003906
0.003906 0.022797 0.003906
0.010071 0.020966 0.003906
0.022705 0.018005 0.003906
0.097015 0.016754 0.003906
0.177704 0.015686 0.003906
0.260895 0.014740 0.003906
0.346619 0.013824 0.003906
0.434326 0.016357 0.003906
0.523438 0.020996 0.003906
0.606018 0.026215 0.003906
0.681488 0.032867 0.003906
0.749481 0.042053 0.003906
0.809235 0.050598 0.003906
0.861725 0.061676 0.003906
0.907318 0.075439 0.003906
0.946228 0.109528 0.003906
0.979218 0.151855 0.003906
0.991882 0.200287 0.003906
0.995850 0.250275 0.003906
0.996094 0.308136 0.003906
0.996094 0.374390 0.003906
0.996094 0.446747 0.003906
0.996094 0.523987 0.003906
0.996094 0.594025 0.003906
0.996094 0.661133 0.003906
0.996094 0.724121 0.003906
0.996094 0.780945 0.003906
0.996094 0.832733 0.003906
0.996094 0.879059 0.003906
0.996094 0.919739 0.003906
0.003906 0.078735 0.003906
0.003906 0.080322 0.003906
0.003906 0.081696 0.003906
0.007935 0.080109 0.003906
0.020996 0.077850 0.003906
0.088837 0.075745 0.003906
0.168427 0.075562 0.003906
0.252869 0.074280 0.003906
0.338226 0.074036 0.003906
0.425537 0.075409 0.003906
0.515778 0.075073 0.003906
0.598999 0.076630 0.003906
0.675018 0.079895 0.003906
0.744202 0.083405 0.003906
0.804413 0.088715 0.003906
0.857971 0.104828 0.003906
0.904480 0.127106 0.003906
0.943909 0.156158 0.003906
0.977722 0.193207 0.003906
0.991699 0.231445 0.003906
0.995667 0.276672 0.003906
0.996094 0.329346 0.003906
0.996094 0.391693 0.003906
0.996094 0.460815 0.003906
0.996094 0.534637 0.003906
0.996094 0.601501 0.003906
0.996094 0.666107 0.003906
0.996094 0.727478 0.003906
0.996094 0.783478 0.003906
0.996094 0.834381 0.003906
0.996094 0.880096 0.003906
0.996094 0.920349 0.003906
0.003906 0.156128 0.003906
0.003906 0.157410 0.003906
0.003906 0.158417 0.003906
0.008606 0.155975 0.003906
0.023865 0.152740 0.003906
0.088654 0.149933 0.003906
0.159180 0.147186 0.003906
0.243683 0.144165 0.003906
0.329620 0.141541 0.003906
0.416718 0.139465 0.003906
0.506989 0.137970 0.003906
0.590973 0.138092 0.003906
0.668457 0.140167 0.003906
0.738159 0.144501 0.003906
0.799469 0.153168 0.003906
0.853912 0.166077 0.003906
0.900940 0.184204 0.003906
0.941284 0.208069 0.003906
0.975525 0.234375 0.003906
0.991119 0.267639 0.003906
0.995483 0.307709 0.003906
0.996094 0.354797 0.003906
0.996094 0.412750 0.003906
0.996094 0.478149 0.003906
0.996094 0.546448 0.003906
0.996094 0.610809 0.003906
0.996094 0.672394 0.003906
0.996094 0.731689 0.003906
0.996094 0.786743 0.003906
0.996094 0.836517 0.003906
0.996094 0.881409 0.003906
0.996094 0.921204 0.003906
0.003906 0.234589 0.003906
0.003906 0.235474 0.003906
0.003906 0.236145 0.003906
0.005676 0.233521 0.003906
0.026764 0.230499 0.003906
0.078979 0.228363 0.003906
0.149323 0.225677 0.003906
0.235596 0.223114 0.003906
0.320160 0.220551 0.003906
0.406677 0.218262 0.003906
0.497589 0.217133 0.003906
0.581726 0.216583 0.003906
0.659882 0.217682 0.003906
0.731415 0.221069 0.003906
0.793304 0.226685 0.003906
0.848663 0.234467 0.003906
0.897064 0.246124 0.003906
0.937897 0.262238 0.003906
0.972839 0.283997 0.003906
0.988831 0.311890 0.003906
0.995483 0.345612 0.003906
0.996094 0.387238 0.003906
0.996094 0.440338 0.003906
0.996094 0.500854 0.003906
0.996094 0.562103 0.003906
0.996094 0.623260 0.003906
0.996094 0.680847 0.003906
0.996094 0.737518 0.003906
0.996094 0.791199 0.003906
0.996094 0.839417 0.003906
0.996094 0.883240 0.003906
0.996094 0.922333 0.003906
0.003906 0.314301 0.003906
0.003906 0.314972 0.003906
0.003906 0.315186 0.003906
0.005096 0.311829 0.003906
0.027100 0.309235 0.003906
0.075623 0.306976 0.003906
0.141327 0.304596 0.003906
0.226898 0.301880 0.003906
0.311005 0.299164 0.003906
0.396790 0.296600 0.003906
0.487183 0.294586 0.003906
0.572662 0.293304 0.003906
0.651276 0.292725 0.003906
0.723450 0.293488 0.003906
0.786926 0.296265 0.003906
0.843140 0.301666 0.003906
0.892151 0.310272 0.003906
0.934204 0.322693 0.003906
0.969574 0.339569 0.003906
0.988464 0.361816 0.003906
0.995117 0.390076 0.003906
0.996094 0.426147 0.003906
0.996094 0.473846 0.003906
0.996094 0.528900 0.003906
0.996094 0.581757 0.003906
0.996094 0.638367 0.003906
0.996094 0.691742 0.003906
0.996094 0.745026 0.003906
0.996094 0.797058 0.003906
0.996094 0.843231 0.003906
0.996094 0.885620 0.003906
0.996094 0.923859 0.003906
0.003906 0.394440 0.003906
0.003906 0.394897 0.003906
0.003906 0.393860 0.003906
0.003906 0.390594 0.003906
0.034698 0.387939 0.003906
0.070129 0.385803 0.003906
0.134308 0.383392 0.003906
0.220245 0.380707 0.003906
0.302246 0.377838 0.003906
0.387360 0.375061 0.003906
0.476990 0.372681 0.003906
0.562134 0.370758 0.003906
0.642273 0.369568 0.003906
0.715210 0.369232 0.003906
0.779358 0.370239 0.003906
0.836914 0.373383 0.003906
0.887207 0.379272 0.003906
0.930084 0.388184 0.003906
0.966003 0.400879 0.003906
0.985992 0.418304 0.003906
0.994873 0.441376 0.003906
0.996094 0.472076 0.003906
0.996094 0.513824 0.003906
0.996094 0.558350 0.003906
0.996094 0.605988 0.003906
0.996094 0.655518 0.003906
0.996094 0.705597 0.003906
0.996094 0.754608 0.003906
0.996094 0.803589 0.003906
0.996094 0.848236 0.003906
0.996094 0.888763 0.003906
0.996094 0.925873 0.003906
0.003906 0.478271 0.003906
0.003906 0.478516 0.003906
0.003906 0.476379 0.003906
0.007996 0.473511 0.003906
0.031708 0.470917 0.003906
0.059937 0.468750 0.003906
0.132782 0.466309 0.003906
0.216339 0.463562 0.003906
0.295227 0.460632 0.003906
0.378815 0.457642 0.003906
0.467072 0.454651 0.003906
0.552429 0.451935 0.003906
0.632690 0.449921 0.003906
0.706543 0.448761 0.003906
0.771637 0.448273 0.003906
0.829803 0.449371 0.003906
0.881317 0.452606 0.003906
0.925598 0.458527 0.003906
0.962067 0.467529 0.003906
0.985138 0.481018 0.003906
0.994598 0.499359 0.003906
0.996094 0.524658 0.003906
0.996094 0.556274 0.003906
0.996094 0.592926 0.003906
0.996094 0.635071 0.003906
0.996094 0.676697 0.003906
0.996094 0.722626 0.003906
0.996094 0.766815 0.003906
0.996094 0.811859 0.003906
0.996094 0.854706 0.003906
0.996094 0.892883 0.003906
0.996094 0.928467 0.003906
0.003906 0.558044 0.003906
0.003906 0.557465 0.003906
0.003906 0.554596 0.003906
0.011780 0.552216 0.003906
0.029755 0.549896 0.003906
0.067993 0.547943 0.003906
0.135406 0.545868 0.003906
0.213409 0.543243 0.003906
0.290710 0.540588 0.003906
0.371918 0.537842 0.003906
0.457886 0.534790 0.003906
0.543762 0.532257 0.003906
0.623749 0.529755 0.003906
0.697540 0.527924 0.003906
0.763885 0.526825 0.003906
0.823029 0.526886 0.003906
0.875153 0.528503 0.003906
0.920410 0.532471 0.003906
0.957947 0.538818 0.003906
0.982330 0.547913 0.003906
0.994293 0.559479 0.003906
0.996094 0.576263 0.003906
0.996094 0.601807 0.003906
0.996094 0.633179 0.003906
0.996094 0.665253 0.003906
0.996094 0.702301 0.003906
0.996094 0.741302 0.003906
0.996094 0.782104 0.003906
0.996094 0.822327 0.003906
0.996094 0.862946 0.003906
0.996094 0.898163 0.003906
0.996094 0.931854 0.003906
0.003906 0.632019 0.003906
0.003906 0.629944 0.003906
0.005676 0.627594 0.003906
0.015961 0.625519 0.003906
0.030212 0.623718 0.003906
0.082092 0.622101 0.003906
0.144165 0.620239 0.003906
0.215057 0.618073 0.003906
0.289124 0.615631 0.003906
0.367676 0.613251 0.003906
0.450562 0.610565 0.003906
0.535400 0.608002 0.003906
0.615326 0.605438 0.003906
0.688843 0.603180 0.003906
0.755615 0.601318 0.003906
0.815704 0.600159 0.003906
0.868988 0.600159 0.003906
0.915070 0.601440 0.003906
0.953369 0.604309 0.003906
0.981598 0.609863 0.003906
0.993927 0.618378 0.003906
0.996094 0.631805 0.003906
0.996094 0.650208 0.003906
0.996094 0.673004 0.003906
0.996094 0.700409 0.003906
0.996094 0.731262 0.003906
0.996094 0.763885 0.003906
0.996094 0.800415 0.003906
0.996094 0.835419 0.003906
0.996094 0.871582 0.003906
0.996094 0.904968 0.003906
0.996094 0.936279 0.003906
0.003906 0.697968 0.003906
0.004974 0.695923 0.003906
0.010284 0.694092 0.003906
0.014862 0.692535 0.003906
0.062408 0.691040 0.003906
0.106171 0.689606 0.003906
0.156403 0.688049 0.003906
0.220673 0.686096 0.003906
0.292847 0.683899 0.003906
0.366547 0.681763 0.003906
0.445953 0.679504 0.003906
0.529541 0.677185 0.003906
0.607330 0.674530 0.003906
0.680756 0.671875 0.003906
0.747742 0.670013 0.003906
0.807983 0.668335 0.003906
0.862213 0.667328 0.003906
0.909546 0.667328 0.003906
0.948456 0.668121 0.003906
0.979126 0.670807 0.003906
0.993744 0.675690 0.003906
0.996094 0.684143 0.003906
0.996094 0.698792 0.003906
0.996094 0.717529 0.003906
0.996094 0.738068 0.003906
0.996094 0.762238 0.003906
0.996094 0.790710 0.003906
0.996094 0.819824 0.003906
0.996094 0.851501 0.003906
0.996094 0.882324 0.003906
0.996094 0.913605 0.003906
0.996094 0.941956 0.003906
0.003967 0.756165 0.003906
0.004150 0.754456 0.003906
0.013672 0.752960 0.003906
0.052429 0.751770 0.003906
0.086792 0.750702 0.003906
0.124542 0.749542 0.003906
0.174774 0.748291 0.003906
0.235962 0.746826 0.003906
0.300598 0.744843 0.003906
0.369873 0.742859 0.003906
0.445465 0.740906 0.003906
0.526825 0.739044 0.003906
0.601898 0.736633 0.003906
0.673859 0.734100 0.003906
0.740906 0.732025 0.003906
0.801147 0.730621 0.003906
0.855591 0.729340 0.003906
0.903625 0.728607 0.003906
0.943542 0.728790 0.003906
0.976349 0.730011 0.003906
0.993195 0.732330 0.003906
0.996094 0.737396 0.003906
0.996094 0.747498 0.003906
0.996094 0.760803 0.003906
0.996094 0.777374 0.003906
0.996094 0.797607 0.003906
0.996094 0.818390 0.003906
0.996094 0.842804 0.003906
0.996094 0.869537 0.003906
0.996094 0.895569 0.003906
0.996094 0.923126 0.003906
0.996094 0.949097 0.003906
0.004059 0.809174 0.003906
0.024261 0.807953 0.003906
0.051300 0.806976 0.003906
0.083557 0.805969 0.003906
0.119843 0.805084 0.003906
0.159149 0.804291 0.003906
0.204010 0.803314 0.003906
0.257782 0.802002 0.003906
0.314484 0.800659 0.003906
0.378235 0.798859 0.003906
0.449829 0.797150 0.003906
0.526703 0.795349 0.003906
0.598938 0.793457 0.003906
0.668640 0.791077 0.003906
0.734985 0.788757 0.003906
0.794800 0.787140 0.003906
0.849396 0.785614 0.003906
0.897827 0.784241 0.003906
0.938751 0.783630 0.003906
0.974152 0.783783 0.003906
0.991852 0.785034 0.003906
0.995972 0.788635 0.003906
0.996094 0.796478 0.003906
0.996094 0.805695 0.003906
0.996094 0.817139 0.003906
0.996094 0.831329 0.003906
0.996094 0.848724 0.003906
0.996094 0.868378 0.003906
0.996094 0.888428 0.003906
0.996094 0.911530 0.003906
0.996094 0.934113 0.003906
0.996094 0.958038 0.003906
0.040863 0.856903 0.003906
0.062927 0.856018 0.003906
0.097504 0.855377 0.003906
0.135895 0.854706 0.003906
0.170685 0.854034 0.003906
0.203888 0.853394 0.003906
0.241608 0.852631 0.003906
0.284912 0.851746 0.003906
0.335114 0.850525 0.003906
0.393311 0.849274 0.003906
0.459229 0.847778 0.003906
0.529449 0.846130 0.003906
0.598602 0.844391 0.003906
0.665558 0.842682 0.003906
0.730133 0.840424 0.003906
0.789124 0.838654 0.003906
0.843536 0.837036 0.003906
0.892181 0.835480 0.003906
0.933868 0.834290 0.003906
0.969543 0.833679 0.003906
0.990631 0.833771 0.003906
0.995789 0.835510 0.003906
0.996094 0.840637 0.003906
0.996094 0.847748 0.003906
0.996094 0.856842 0.003906
0.996094 0.867371 0.003906
0.996094 0.879028 0.003906
0.996094 0.893280 0.003906
0.996094 0.910400 0.003906
0.996094 0.928192 0.003906
0.996094 0.947418 0.003906
0.996094 0.967010 0.003906
0.102509 0.899048 0.003906
0.138763 0.898499 0.003906
0.172333 0.898010 0.003906
0.203491 0.897552 0.003906
0.229309 0.897095 0.003906
0.253418 0.896606 0.003906
0.282440 0.895996 0.003906
0.319611 0.895233 0.003906
0.363953 0.894409 0.003906
0.415649 0.893433 0.003906
0.475159 0.892365 0.003906
0.536865 0.890991 0.003906
0.603394 0.889404 0.003906
0.664795 0.887970 0.003906
0.727020 0.886414 0.003906
0.785126 0.884613 0.003906
0.838165 0.882996 0.003906
0.886841 0.881439 0.003906
0.929260 0.880035 0.003906
0.964874 0.878937 0.003906
0.987122 0.878326 0.003906
0.995575 0.878906 0.003906
0.996094 0.882141 0.003906
0.996094 0.886658 0.003906
0.996094 0.892487 0.003906
0.996094 0.899933 0.003906
0.996094 0.909363 0.003906
0.996094 0.920349 0.003906
0.996094 0.932190 0.003906
0.996094 0.946442 0.003906
0.996094 0.962646 0.003906
0.996094 0.976807 0.003906
0.197723 0.934631 0.003906
0.222351 0.934235 0.003906
0.245453 0.933868 0.003906
0.267334 0.933472 0.003906
0.287933 0.933136 0.003906
0.308228 0.932831 0.003906
0.332062 0.932373 0.003906
0.362762 0.931854 0.003906
0.400208 0.931183 0.003906
0.445007 0.930420 0.003906
0.495361 0.929565 0.003906
0.551941 0.928680 0.003906
0.610748 0.927612 0.003906
0.668762 0.926453 0.003906
0.726410 0.925079 0.003906
0.783813 0.923645 0.003906
0.834747 0.922302 0.003906
0.882172 0.920929 0.003906
0.924896 0.919617 0.003906
0.960480 0.918579 0.003906
0.983643 0.917877 0.003906
0.995209 0.918121 0.003906
0.996094 0.920044 0.003906
0.996094 0.922943 0.003906
0.996094 0.926697 0.003906
0.996094 0.931549 0.003906
0.996094 0.937744 0.003906
0.996094 0.945587 0.003906
0.996094 0.955292 0.003906
0.996094 0.965607 0.003906
0.996094 0.976074 0.003906
0.996094 0.988403 0.003906
0.284760 0.965912 0.003906
0.303497 0.965607 0.003906
0.320618 0.965393 0.003906
0.337097 0.965149 0.003906
0.352783 0.964935 0.003906
0.368408 0.964722 0.003906
0.387604 0.964447 0.003906
0.412842 0.964020 0.003906
0.443970 0.963501 0.003906
0.481018 0.962891 0.003906
0.525299 0.962128 0.003906
0.575043 0.961304 0.003906
0.623749 0.960480 0.003906
0.677460 0.959473 0.003906
0.729706 0.958435 0.003906
0.783234 0.957153 0.003906
0.833282 0.955902 0.003906
0.878876 0.954559 0.003906
0.920837 0.953278 0.003906
0.956818 0.952179 0.003906
0.982513 0.951294 0.003906
0.994995 0.951294 0.003906
0.996094 0.952759 0.003906
0.996094 0.954956 0.003906
0.996094 0.957886 0.003906
0.996094 0.961548 0.003906
0.996094 0.965118 0.003906
0.996094 0.969696 0.003906
0.996094 0.975464 0.003906
0.996094 0.982635 0.003906
0.996094 0.991364 0.003906
0.996094 0.994598 0.003906
0.369629 0.986237 0.003906
0.383301 0.986053 0.003906
0.396484 0.985870 0.003906
0.409180 0.985687 0.003906
0.421509 0.985535 0.003906
0.433777 0.985504 0.003906
0.449066 0.985504 0.003906
0.469513 0.985474 0.003906
0.494690 0.985199 0.003906
0.525513 0.984650 0.003906
0.561768 0.984161 0.003906
0.599823 0.984131 0.003906
0.642883 0.983459 0.003906
0.689117 0.983032 0.003906
0.737030 0.982452 0.003906
0.785675 0.981873 0.003906
0.833557 0.980957 0.003906
0.877258 0.980652 0.003906
0.917725 0.979706 0.003906
0.953522 0.979065 0.003906
0.981720 0.978943 0.003906
0.994812 0.978699 0.003906
0.996094 0.979523 0.003906
0.996094 0.980743 0.003906
0.996094 0.982391 0.003906
0.996094 0.984528 0.003906
0.996094 0.987305 0.003906
0.996094 0.990875 0.003906
0.996094 0.994232 0.003906
0.996094 0.994568 0.003906
0.996094 0.994995 0.003906
0.996094 0.995514 0.003906
0.460236 0.995392 0.003906
0.470551 0.995361 0.003906
0.480560 0.995361 0.003906
0.490356 0.995361 0.003906
0.499908 0.995331 0.003906
0.509521 0.995331 0.003906
0.521545 0.995300 0.003906
0.537750 0.995300 0.003906
0.555420 0.995270 0.003906
0.576843 0.995270 0.003906
0.603271 0.995239 0.003906
0.635406 0.995209 0.003906
0.671173 0.995178 0.003906
0.709442 0.995148 0.003906
0.753174 0.995087 0.003906
0.794830 0.995056 0.003906
0.839661 0.994965 0.003906
0.879608 0.994904 0.003906
0.918030 0.994843 0.003906
0.953461 0.994781 0.003906
0.980865 0.994751 0.003906
0.994690 0.994720 0.003906
0.996094 0.994751 0.003906
0.996094 0.994812 0.003906
0.996094 0.994873 0.003906
0.996094 0.994965 0.003906
0.996094 0.995117 0.003906
0.996094 0.995270 0.003906
0.996094 0.995483 0.003906
0.996094 0.995758 0.003906
0.996094 0.996094 0.003906
0.996094 0.996094 0.003906
0.561157 0.996094 0.003906
0.567596 0.996094 0.003906
0.573883 0.996094 0.003906
0.580078 0.996094 0.003906
0.586151 0.996094 0.003906
0.592346 0.996094 0.003906
0.600098 0.996094 0.003906
0.610657 0.996094 0.003906
0.624237 0.996094 0.003906
0.641418 0.996094 0.003906
0.661713 0.996094 0.003906
0.684540 0.996094 0.003906
0.712219 0.996094 0.003906
0.745178 0.996094 0.003906
0.778900 0.996094 0.003906
0.816315 0.996094 0.003906
0.853699 0.996094 0.003906
0.890991 0.996094 0.003906
0.925049 0.996094 0.003906
0.957825 0.996094 0.003906
0.984070 0.996094 0.003906
0.994812 0.996094 0.003906
0.996094 0.996094 0.003906
0.996094 0.996094 0.003906
0.996094 0.996094 0.003906
0.996094 0.996094 0.003906
0.996094 0.996094 0.003906
0.996094 0.996094 0.003906
0.996094 0.996094 0.003906
0.996094 0.996094 0.003906
0.996094 0.996094 0.003906
0.996094 0.996094 0.003906
0.650543 0.996094 0.003906
0.655182 0.996094 0.003906
0.659241 0.996094 0.003906
0.663239 0.996094 0.003906
0.667175 0.996094 0.003906
0.671234 0.996094 0.003906
0.676331 0.996094 0.003906
0.683319 0.996094 0.003906
0.692413 0.996094 0.003906
0.704041 0.996094 0.003906
0.718842 0.996094 0.003906
0.737396 0.996094 0.003906
0.758972 0.996094 0.003906
0.782623 0.996094 0.003906
0.810791 0.996094 0.003906
0.841858 0.996094 0.003906
0.872253 0.996094 0.003906
0.905243 0.996094 0.003906
0.934814 0.996094 0.003906
0.963562 0.996094 0.003906
0.988556 0.996094 0.003906
0.995026 0.996094 0.003906
0.996094 0.996094 0.003906
0.996094 0.996094 0.003906
0.996094 0.996094 0.003906
0.996094 0.996094 0.003906
0.996094 0.996094 0.003906
0.996094 0.996094 0.003906
0.996094 0.996094 0.003906
0.996094 0.996094 0.003906
0.996094 0.996094 0.003906
0.996094 0.996094 0.003906
0.727509 0.996094 0.003906
0.730591 0.996094 0.003906
0.733704 0.996094 0.003906
0.736725 0.996094 0.003906
0.739716 0.996094 0.003906
0.742828 0.996094 0.003906
0.746704 0.996094 0.003906
0.752045 0.996094 0.003906
0.757965 0.996094 0.003906
0.765717 0.996094 0.003906
0.775635 0.996094 0.003906
0.788269 0.996094 0.003906
0.804077 0.996094 0.003906
0.823669 0.996094 0.003906
0.844910 0.996094 0.003906
0.867706 0.996094 0.003906
0.894379 0.996094 0.003906
0.919952 0.996094 0.003906
0.946899 0.996094 0.003906
0.970734 0.996094 0.003906
0.993774 0.996094 0.003906
0.995270 0.996094 0.003906
0.996094 0.996094 0.003906
0.996094 0.996094 0.003906
0.996094 0.996094 0.003906
0.996094 0.996094 0.003906
0.996094 0.996094 0.003906
0.996094 0.996094 0.003906
0.996094 0.996094 0.003906
0.996094 0.996094 0.003906
0.996094 0.996094 0.003906
0.996094 0.996094 0.003906
0.796234 0.996094 0.003906
0.798248 0.996094 0.003906
0.800171 0.996094 0.003906
0.802124 0.996094 0.003906
0.804047 0.996094 0.003906
0.806030 0.996094 0.003906
0.808563 0.996094 0.003906
0.812073 0.996094 0.003906
0.816681 0.996094 0.003906
0.822632 0.996094 0.003906
0.830414 0.996094 0.003906
0.839233 0.996094 0.003906
0.849487 0.996094 0.003906
0.862305 0.996094 0.003906
0.878204 0.996094 0.003906
0.897430 0.996094 0.003906
0.916382 0.996094 0.003906
0.937500 0.996094 0.003906
0.959778 0.996094 0.003906
0.979645 0.996094 0.003906
0.994202 0.996094 0.003906
0.995636 0.996094 0.003906
0.996094 0.996094 0.003906
0.996094 0.996094 0.003906
0.996094 0.996094 0.003906
0.996094 0.996094 0.003906
0.996094 0.996094 0.003906
0.996094 0.996094 0.003906
0.996094 0.996094 0.003906
0.996094 0.996094 0.003906
0.996094 0.996094 0.003906
0.996094 0.996094 0.003906
0.856262 0.996094 0.003906
0.857483 0.996094 0.003906
0.858673 0.996094 0.003906
0.859863 0.996094 0.003906
0.861053 0.996094 0.003906
0.862244 0.996094 0.003906
0.863800 0.996094 0.003906
0.865936 0.996094 0.003906
0.868805 0.996094 0.003906
0.872498 0.996094 0.003906
0.877350 0.996094 0.003906
0.883667 0.996094 0.003906
0.891724 0.996094 0.003906
0.901886 0.996094 0.003906
0.912079 0.996094 0.003906
0.924652 0.996094 0.003906
0.939941 0.996094 0.003906
0.957153 0.996094 0.003906
0.972717 0.996094 0.003906
0.990509 0.996094 0.003906
0.994751 0.996094 0.003906
0.996063 0.996094 0.003906
0.996094 0.996094 0.003906
0.996094 0.996094 0.003906
0.996094 0.996094 0.003906
0.996094 0.996094 0.003906
0.996094 0.996094 0.003906
0.996094 0.996094 0.003906
0.996094 0.996094 0.003906
0.996094 0.996094 0.003906
0.996094 0.996094 0.003906
0.996094 0.996094 0.003906
0.907471 0.996094 0.003906
0.908203 0.996094 0.003906
0.908905 0.996094 0.003906
0.909607 0.996094 0.003906
0.910309 0.996094 0.003906
0.911041 0.996094 0.003906
0.911957 0.996094 0.003906
0.913239 0.996094 0.003906
0.914948 0.996094 0.003906
0.917206 0.996094 0.003906
0.920135 0.996094 0.003906
0.923981 0.996094 0.003906
0.928986 0.996094 0.003906
0.935394 0.996094 0.003906
0.943542 0.996094 0.003906
0.953735 0.996094 0.003906
0.963257 0.996094 0.003906
