Postproduction/IWLTBAP - Humble/LUTs by IWLTBAP (CUBE)/UTILITY/Sony S-Log3 to Rec.709/U-SONY-S-LOG3-V6-LTR.cube
# Copyright: (C) Copyright 2010-2018 by IWLTBAP SAS
# Cannot be resold, shared or otherwise redistributed
# Website: https://luts.iwltbap.com
TITLE "Sony S-Log3 Version 6 (Utility LOG to Rec.709)"
LUT_3D_SIZE 8
DOMAIN_MIN 0.000000 0.000000 0.000000
DOMAIN_MAX 0.903226 0.903226 0.903226
0.020325 0.019104 0.008606
0.105835 0.002563 0.007477
0.395630 0.000000 0.000000
0.554138 0.000000 0.000000
0.636353 0.000000 0.006927
0.679626 0.000000 0.329315
0.704376 0.000000 0.548706
0.781830 0.000000 0.721863
0.017548 0.038605 0.008453
0.048462 0.044617 0.005127
0.357941 0.000000 0.000000
0.547394 0.000000 0.000000
0.619293 0.000000 0.000000
0.677979 0.000000 0.303406
0.702789 0.000000 0.541718
0.779053 0.000000 0.717987
0.000000 0.242523 0.000000
0.000000 0.240662 0.000000
0.288910 0.326263 0.000000
0.711700 0.338348 0.000000
0.807770 0.194733 0.000000
0.769592 0.000000 0.015381
0.692169 0.000000 0.467682
0.774170 0.000000 0.710236
0.000000 0.365295 0.000000
0.000000 0.364777 0.000000
0.000000 0.361816 0.000000
0.643738 0.631622 0.000000
0.942017 0.655243 0.000000
0.966766 0.491547 0.000000
0.915070 0.341858 0.272034
0.760986 0.000000 0.594513
0.000000 0.427246 0.000000
0.000000 0.427185 0.000000
0.000000 0.427032 0.000000
0.000000 0.480621 0.000000
0.888458 0.777039 0.000000
1.000000 0.794800 0.000000
1.000000 0.728088 0.000000
0.997864 0.657898 0.531769
0.000000 0.451263 0.000000
0.000000 0.451263 0.000000
0.000000 0.451263 0.000000
0.000000 0.451263 0.000000
0.273163 0.629486 0.000000
1.000000 0.831757 0.000000
1.000000 0.843414 0.000000
1.000000 0.876984 0.011932
0.000000 0.451263 0.000000
0.000000 0.451263 0.000000
0.000000 0.451263 0.000000
0.000000 0.451263 0.000000
0.000000 0.451263 0.000000
0.575348 0.728333 0.000000
1.000000 0.850647 0.000000
1.000000 0.858185 0.000000
0.000000 0.451263 0.000000
0.000000 0.451263 0.000000
0.000000 0.451263 0.000000
0.000000 0.451263 0.000000
0.000000 0.451263 0.000000
0.000000 0.451263 0.000000
0.805359 0.792419 0.000000
1.000000 0.855865 0.000000
0.005005 0.019501 0.093170
0.127472 0.000000 0.107544
0.427246 0.000000 0.121429
0.586426 0.000000 0.174194
0.656738 0.000000 0.293549
0.689209 0.000000 0.445831
0.713776 0.000000 0.586639
0.797577 0.000000 0.745483
0.001251 0.043427 0.039032
0.040222 0.042999 0.036652
0.337006 0.000000 0.024292
0.536346 0.000000 0.031982
0.641663 0.000000 0.184509
0.687500 0.000000 0.430908
0.712189 0.000000 0.581329
0.795197 0.000000 0.741943
0.000000 0.220978 0.000000
0.000000 0.213684 0.000000
0.283508 0.267700 0.000000
0.669006 0.232513 0.000000
0.778137 0.120850 0.000000
0.772949 0.000000 0.231598
0.697083 0.000000 0.506287
0.790405 0.000000 0.734894
0.000000 0.366364 0.000000
0.000000 0.366058 0.000000
0.000000 0.362183 0.000000
0.645813 0.626648 0.000000
0.914337 0.566467 0.000000
0.949585 0.472137 0.000000
0.912811 0.342529 0.383148
0.767487 0.000000 0.616577
0.000000 0.427765 0.000000
0.000000 0.427673 0.000000
0.000000 0.427368 0.000000
0.000000 0.486298 0.000000
0.889374 0.777618 0.000000
1.000000 0.771179 0.000000
1.000000 0.742401 0.000000
0.996307 0.657318 0.579956
0.000000 0.451263 0.000000
0.000000 0.451263 0.000000
0.000000 0.451263 0.000000
0.000000 0.451263 0.000000
0.282867 0.632843 0.000000
1.000000 0.831848 0.000000
1.000000 0.842041 0.000000
1.000000 0.888641 0.118347
0.000000 0.451263 0.000000
0.000000 0.451263 0.000000
0.000000 0.451263 0.000000
0.000000 0.451263 0.000000
0.000000 0.451263 0.000000
0.578857 0.729584 0.000000
1.000000 0.850647 0.000000
1.000000 0.858185 0.000000
0.000000 0.451263 0.000000
0.000000 0.451263 0.000000
0.000000 0.451263 0.000000
0.000000 0.451263 0.000000
0.000000 0.451263 0.000000
0.000000 0.451263 0.000000
0.806488 0.792755 0.000000
1.000000 0.855865 0.000000
0.066071 0.000000 0.372070
0.197449 0.000000 0.424896
0.476013 0.000000 0.454346
0.615601 0.000000 0.461853
0.676788 0.000000 0.500427
0.707275 0.000000 0.562988
0.736725 0.000000 0.644623
0.820923 0.000000 0.780151
0.000000 0.055023 0.334869
0.051453 0.019226 0.323944
0.364960 0.000000 0.334991
0.561462 0.000000 0.330963
0.654541 0.000000 0.397217
0.704559 0.000000 0.552094
0.734497 0.000000 0.639832
0.819336 0.000000 0.777588
0.000000 0.236389 0.294220
0.000000 0.234894 0.303467
0.254761 0.264160 0.273438
0.666840 0.220673 0.267517
0.781525 0.097656 0.316040
0.780151 0.000000 0.429840
0.704895 0.000000 0.550995
0.816101 0.000000 0.773132
0.000000 0.372894 0.089996
0.000000 0.374359 0.105225
0.000000 0.365448 0.114258
0.617188 0.561340 0.000000
0.895538 0.532043 0.000000
0.938843 0.472870 0.254303
0.911224 0.343536 0.522949
0.780121 0.000000 0.652954
0.000000 0.425385 0.000000
0.000000 0.424408 0.000000
0.000000 0.421844 0.000000
0.020081 0.480713 0.000000
0.881287 0.734894 0.000000
1.000000 0.752991 0.000000
1.000000 0.759552 0.213928
0.993958 0.656158 0.651428
0.000000 0.451263 0.000000
0.000000 0.451263 0.000000
0.000000 0.451263 0.000000
0.000000 0.451263 0.000000
0.303040 0.638794 0.000000
1.000000 0.832031 0.000000
1.000000 0.824432 0.000000
1.000000 0.903839 0.322998
0.000000 0.451263 0.000000
0.000000 0.451263 0.000000
0.000000 0.451263 0.000000
0.000000 0.451263 0.000000
0.000000 0.451263 0.000000
0.585083 0.731445 0.000000
1.000000 0.850677 0.000000
1.000000 0.856354 0.000000
0.000000 0.451263 0.000000
0.000000 0.451263 0.000000
0.000000 0.451263 0.000000
0.000000 0.451263 0.000000
0.000000 0.451263 0.000000
0.000000 0.451263 0.000000
0.808655 0.793274 0.000000
1.000000 0.855865 0.000000
0.000000 0.000000 0.479492
0.239685 0.000000 0.558838
0.497040 0.000000 0.599396
0.649475 0.000000 0.619781
0.732208 0.000000 0.667450
0.766937 0.000000 0.698944
0.805389 0.000000 0.756958
0.852173 0.010712 0.826782
0.000000 0.068542 0.530548
0.107330 0.001373 0.540375
0.407990 0.000000 0.574097
0.607971 0.000000 0.562378
0.670319 0.000000 0.545715
0.729828 0.000000 0.635590
0.802734 0.000000 0.753143
0.851379 0.006439 0.825592
0.000000 0.261292 0.576080
0.000000 0.253448 0.571381
0.283539 0.282288 0.612061
0.673431 0.226807 0.617737
0.791321 0.097778 0.609863
0.802338 0.000000 0.629089
0.720428 0.000000 0.606659
0.849823 0.000000 0.823273
0.000000 0.440033 0.552032
0.000000 0.439484 0.554993
0.000000 0.422699 0.534943
0.600098 0.589417 0.560608
0.875732 0.536133 0.558258
0.927155 0.468903 0.602570
0.912598 0.347626 0.690063
0.807617 0.000000 0.715759
0.000000 0.503235 0.406921
0.000000 0.504059 0.412079
0.000000 0.505676 0.421875
0.000000 0.576843 0.388153
0.857330 0.813202 0.311066
1.000000 0.799622 0.390778
1.000000 0.768158 0.565186
0.990082 0.654755 0.758820
0.000000 0.452179 0.000000
0.000000 0.453827 0.000000
0.000000 0.456696 0.000000
0.000000 0.462250 0.000000
0.268005 0.661621 0.000000
1.000000 0.861725 0.000000
1.000000 0.904236 0.121460
1.000000 0.921722 0.561523
0.000000 0.451263 0.000000
0.000000 0.451263 0.000000
0.000000 0.451263 0.000000
0.000000 0.451263 0.000000
0.000000 0.451263 0.000000
0.598572 0.735413 0.000000
1.000000 0.850708 0.000000
1.000000 0.917542 0.000000
0.000000 0.451263 0.000000
0.000000 0.451263 0.000000
0.000000 0.451263 0.000000
0.000000 0.451263 0.000000
0.000000 0.451263 0.000000
0.000000 0.451263 0.000000
0.813538 0.794525 0.000000
1.000000 0.855896 0.000000
0.000000 0.000000 0.636444
0.287323 0.000000 0.687561
0.525696 0.000000 0.713043
0.675018 0.000000 0.712311
0.771912 0.000000 0.744965
0.848389 0.000000 0.822998
0.871704 0.144226 0.855896
0.876648 0.182251 0.863281
0.000000 0.208893 0.647736
0.124817 0.193390 0.706512
0.482758 0.132568 0.750458
0.685516 0.009674 0.747925
0.755890 0.000000 0.724640
0.768860 0.000000 0.712402
0.867981 0.115479 0.850128
0.876648 0.182251 0.863281
0.000000 0.313232 0.688843
0.000000 0.294403 0.684143
0.350494 0.335938 0.779175
0.697815 0.281708 0.804169
0.818268 0.183380 0.792572
0.844330 0.063904 0.785461
0.800690 0.000000 0.738617
0.876648 0.182251 0.863281
0.000000 0.453369 0.718323
0.000000 0.452698 0.718628
0.000000 0.476318 0.735138
0.613892 0.587006 0.828735
0.869568 0.532166 0.828735
0.926208 0.473450 0.824707
0.922791 0.376587 0.832062
0.861389 0.118134 0.812469
0.000000 0.547424 0.706665
0.000000 0.547363 0.707275
0.000000 0.547180 0.708374
0.000000 0.668335 0.741699
0.834320 0.834808 0.784393
0.982361 0.805115 0.786774
1.000000 0.767212 0.819489
0.987671 0.653656 0.871704
0.000000 0.592438 0.653748
0.000000 0.592560 0.654938
0.000000 0.592804 0.657166
0.000000 0.593323 0.662109
0.074402 0.805176 0.657867
0.971832 0.950562 0.633698
1.000000 0.949127 0.682770
1.000000 0.934998 0.791718
0.000000 0.516449 0.130981
0.000000 0.518524 0.139008
0.000000 0.522522 0.158905
0.000000 0.531097 0.208069
0.000000 0.546722 0.310425
0.571045 0.847321 0.198090
1.000000 0.956879 0.283295
1.000000 0.988373 0.586273
0.000000 0.451263 0.000000
0.000000 0.451263 0.000000
0.000000 0.451263 0.000000
0.000000 0.451263 0.000000
0.000000 0.451263 0.000000
0.000000 0.451263 0.000000
0.823700 0.796997 0.000000
1.000000 0.855896 0.000000
0.158508 0.385040 0.817993
0.416473 0.393524 0.851288
0.626373 0.377167 0.875366
0.779816 0.327820 0.882324
0.854370 0.231934 0.872925
0.872437 0.141571 0.861145
0.876648 0.182251 0.863281
0.876648 0.182251 0.863281
0.000000 0.411621 0.802612
0.311096 0.437164 0.847534
0.584259 0.434479 0.882324
0.773285 0.396484 0.895294
0.865692 0.337402 0.890869
0.893372 0.276062 0.885498
0.876587 0.127625 0.858185
0.876648 0.182251 0.863281
0.000000 0.407013 0.747467
0.012695 0.487640 0.828430
0.475555 0.518036 0.886047
0.752136 0.491028 0.910675
0.874207 0.434662 0.908997
0.913849 0.404449 0.906128
0.915924 0.334229 0.897369
0.876648 0.182251 0.863281
0.000000 0.496155 0.767090
0.000000 0.495056 0.766510
0.000000 0.605225 0.855652
0.668976 0.657318 0.928711
0.882294 0.613159 0.936462
0.945099 0.571594 0.932678
0.955383 0.521271 0.927673
0.929932 0.398773 0.911316
0.000000 0.566040 0.781982
0.000000 0.565979 0.782013
0.000000 0.565887 0.782104
0.019379 0.743988 0.880402
0.839783 0.832214 0.950775
0.974487 0.802765 0.951447
1.000000 0.773438 0.952148
0.993408 0.694580 0.952637
0.000000 0.611237 0.789276
0.000000 0.611237 0.789368
0.000000 0.611206 0.789551
0.000000 0.611145 0.789948
0.230347 0.865448 0.891418
0.957367 0.965240 0.929382
1.000000 0.956177 0.928619
1.000000 0.934235 0.944489
0.000000 0.635895 0.775269
0.000000 0.635925 0.775482
0.000000 0.635986 0.775970
0.000000 0.636169 0.776947
0.000000 0.636444 0.778931
0.544495 0.944977 0.861969
1.000000 1.000000 0.862152
1.000000 1.000000 0.885101
0.000000 0.575653 0.443085
0.000000 0.576355 0.446167
0.000000 0.577637 0.451965
0.000000 0.580658 0.464691
0.000000 0.586334 0.491089
0.000000 0.596375 0.539978
0.797302 0.950745 0.544647
1.000000 1.000000 0.661041
0.503723 0.580017 0.916199
0.606873 0.582275 0.929260
0.717194 0.577332 0.941101
0.828369 0.558868 0.949036
0.906555 0.530121 0.950439
0.942474 0.517639 0.951019
0.947418 0.467499 0.943115
0.891937 0.242554 0.881042
0.433228 0.607574 0.914215
0.563293 0.614288 0.931152
0.695282 0.613342 0.946198
0.822571 0.597137 0.955994
0.909393 0.568268 0.958405
0.948669 0.555695 0.958527
0.956757 0.510529 0.952209
0.914886 0.333679 0.907501
0.238831 0.639313 0.902466
0.450439 0.658997 0.927094
0.644165 0.669067 0.950592
0.807343 0.659790 0.965302
0.911407 0.632355 0.970032
0.958344 0.617554 0.970612
0.970245 0.580566 0.965057
0.944275 0.453796 0.939819
0.000000 0.600433 0.834839
0.000000 0.680695 0.889099
0.439575 0.739990 0.941711
0.751617 0.759491 0.975311
0.906158 0.739410 0.984314
0.971100 0.719299 0.985657
0.988831 0.691162 0.983246
0.975555 0.604706 0.969696
0.000000 0.579254 0.796021
0.000000 0.579163 0.795990
0.000000 0.592896 0.805603
0.454254 0.837708 0.956451
0.865021 0.869720 0.993073
0.979980 0.852966 0.997742
1.000000 0.833862 0.997559
1.000000 0.782776 0.992798
0.000000 0.622375 0.811554
0.000000 0.622345 0.811554
0.000000 0.622284 0.811523
0.000000 0.622101 0.811462
0.532532 0.919281 0.966736
0.958435 0.964600 0.999054
1.000000 0.958557 0.999756
1.000000 0.941772 1.000000
0.000000 0.654388 0.825104
0.000000 0.654388 0.825104
0.000000 0.654388 0.825134
0.000000 0.654419 0.825165
0.000000 0.654419 0.825226
0.665344 0.974121 0.975555
1.000000 1.000000 0.995514
1.000000 1.000000 0.996063
0.000000 0.651611 0.817261
0.000000 0.651642 0.817322
0.000000 0.651703 0.817474
0.000000 0.651825 0.817688
0.000000 0.652100 0.818146
0.000000 0.652710 0.819092
0.802277 0.996643 0.966431
1.000000 1.000000 0.972931
0.753967 0.756714 0.975159
0.784363 0.755737 0.977509
0.827240 0.752472 0.980469
0.884369 0.743805 0.983917
0.942230 0.730011 0.986359
0.977112 0.720917 0.987793
0.990997 0.697510 0.985718
0.978760 0.621460 0.972748
0.737061 0.771118 0.975708
0.771362 0.771027 0.978577
0.818939 0.769043 0.982269
0.880524 0.760864 0.985901
0.942108 0.746979 0.988525
0.979004 0.737885 0.990204
0.993958 0.715485 0.988495
0.983215 0.643982 0.976654
0.701569 0.794769 0.975861
0.742371 0.795776 0.979462
0.799377 0.795471 0.984222
0.871277 0.789429 0.988861
0.941345 0.776245 0.992188
0.982086 0.767120 0.994232
0.998322 0.746643 0.992981
0.990143 0.682159 0.983398
0.588623 0.827240 0.969543
0.656525 0.834137 0.976715
0.742188 0.839752 0.985107
0.845642 0.839844 0.993011
0.934692 0.829468 0.998230
0.986450 0.820587 0.999756
1.000000 0.803528 0.999695
0.999908 0.751617 0.994171
0.000000 0.766937 0.900330
0.108795 0.816254 0.930878
0.479523 0.866455 0.964661
0.743713 0.900055 0.991760
0.906982 0.904663 1.000000
0.989227 0.898407 1.000000
1.000000 0.888153 1.000000
1.000000 0.855499 1.000000
0.000000 0.623413 0.812439
0.000000 0.623383 0.812439
0.000000 0.623322 0.812408
0.000000 0.713379 0.859161
0.758301 0.958191 0.998718
0.970245 0.972137 1.000000
1.000000 0.969574 1.000000
1.000000 0.956879 1.000000
0.000000 0.655579 0.829376
0.000000 0.655579 0.829376
0.000000 0.655548 0.829376
0.000000 0.655487 0.829346
0.000000 0.655365 0.829285
0.798370 0.996704 1.000000
1.000000 1.000000 1.000000
1.000000 1.000000 1.000000
0.000000 0.667267 0.835754
0.000000 0.667267 0.835754
0.000000 0.667267 0.835754
0.000000 0.667267 0.835754
0.000000 0.667267 0.835754
0.000000 0.667267 0.835754
0.859558 1.000000 1.000000
1.000000 1.000000 1.000000
