Postproduction/IWLTBAP - Humble/LUTs by IWLTBAP (CUBE)/UTILITY/Sony S-Log3 to Rec.709/U-SONY-S-LOG3-V2-LTR.cube
# Copyright: (C) Copyright 2010-2018 by IWLTBAP SAS
# Cannot be resold, shared or otherwise redistributed
# Website: https://luts.iwltbap.com
TITLE "Sony S-Log3 Version 2 (Utility LOG to Rec.709)"
LUT_3D_SIZE 8
DOMAIN_MIN 0.000000 0.000000 0.000000
DOMAIN_MAX 0.903226 0.903226 0.903226
0.000000 0.000000 0.000000
0.018250 0.000000 0.000000
0.128204 0.006500 0.000000
0.316650 0.063324 0.000000
0.565369 0.158203 0.000000
0.852325 0.268463 0.000000
0.997284 0.344849 0.000000
0.996826 0.392548 0.000000
0.000000 0.019287 0.000000
0.032318 0.027863 0.000000
0.160278 0.073242 0.000000
0.341156 0.135529 0.000000
0.579163 0.222839 0.000000
0.849731 0.319550 0.000000
0.993622 0.388367 0.000000
0.999542 0.425659 0.003632
0.000000 0.173309 0.000000
0.068542 0.168884 0.000000
0.206665 0.189484 0.000000
0.377655 0.247070 0.000000
0.608368 0.330231 0.000000
0.854401 0.419128 0.000000
1.000000 0.478302 0.002350
0.999084 0.497864 0.000000
0.000000 0.381561 0.000000
0.015625 0.374786 0.000000
0.268982 0.390686 0.000000
0.440216 0.408142 0.000000
0.668854 0.480896 0.000000
0.891174 0.550232 0.000000
1.000000 0.589600 0.000000
0.998169 0.593781 0.000000
0.000000 0.627655 0.000000
0.000000 0.629761 0.000000
0.268463 0.632111 0.000000
0.514771 0.656342 0.000000
0.721497 0.675385 0.000000
0.923492 0.707703 0.000000
0.994995 0.713440 0.000000
1.000000 0.693115 0.001038
0.000000 0.849731 0.000000
0.000000 0.852356 0.000000
0.158478 0.855743 0.000000
0.506439 0.856262 0.000000
0.729858 0.864349 0.000000
0.926636 0.866699 0.000000
0.995880 0.848724 0.000275
1.000000 0.805450 0.001312
0.000000 0.979462 0.001556
0.000000 0.979462 0.001556
0.022888 0.981781 0.001038
0.429291 0.977112 0.001556
0.675415 0.979462 0.001038
0.867493 0.974823 0.000275
0.993164 0.964996 0.000000
0.995880 0.914673 0.000275
0.000000 1.000000 0.003906
0.000000 1.000000 0.003906
0.008331 0.999084 0.003387
0.332581 0.996338 0.000000
0.576355 0.998169 0.000000
0.761139 0.995453 0.000000
0.926666 0.999542 0.000000
1.000000 1.000000 0.003906
0.003632 0.000000 0.021637
0.023438 0.000000 0.023193
0.156891 0.000000 0.015625
0.344818 0.040131 0.000000
0.593781 0.163452 0.000000
0.860413 0.279419 0.000000
1.000000 0.364136 0.000000
0.997284 0.410553 0.002075
0.000000 0.028381 0.040375
0.035950 0.035950 0.035950
0.181152 0.061249 0.022156
0.367493 0.123016 0.000000
0.600555 0.211914 0.000000
0.856232 0.320343 0.000000
0.999542 0.399841 0.001312
0.997284 0.437653 0.000275
0.000000 0.173828 0.045624
0.000275 0.181396 0.005219
0.214508 0.197571 0.000000
0.410767 0.249939 0.000000
0.637054 0.323730 0.000000
0.884918 0.411835 0.000000
0.995453 0.472839 0.000519
0.996338 0.499695 0.000000
0.000000 0.382080 0.000000
0.000000 0.389130 0.000000
0.238220 0.390411 0.000000
0.449066 0.416504 0.000000
0.673004 0.478271 0.000000
0.903412 0.544769 0.000000
0.995880 0.575531 0.000519
0.994537 0.586487 0.000000
0.000000 0.640167 0.000000
0.000000 0.629211 0.000000
0.207458 0.639404 0.000000
0.511383 0.661285 0.000000
0.724640 0.679291 0.000000
0.935242 0.705872 0.000000
0.995453 0.706665 0.000519
1.000000 0.688965 0.000793
0.000000 0.866943 0.000000
0.000000 0.860413 0.000000
0.029114 0.862518 0.000000
0.479340 0.861481 0.000000
0.725983 0.867462 0.000000
0.924561 0.868256 0.000000
0.995453 0.845856 0.003632
1.000000 0.803131 0.000000
0.000000 0.988831 0.001556
0.000000 0.986511 0.001556
0.002075 0.983673 0.001312
0.393066 0.981781 0.000275
0.655334 0.979004 0.000793
0.854736 0.973785 0.000275
0.995453 0.966278 0.001312
0.995880 0.914154 0.000275
0.000000 1.000000 0.003906
0.000000 1.000000 0.003906
0.000000 1.000000 0.003906
0.308350 0.996826 0.000000
0.567505 0.996826 0.000000
0.761688 0.999084 0.003387
0.921997 0.996338 0.000000
1.000000 1.000000 0.003906
0.000000 0.000000 0.118835
0.026825 0.000000 0.149872
0.174103 0.000000 0.162903
0.389923 0.000000 0.177521
0.655579 0.000000 0.072418
0.908386 0.116272 0.000000
0.999084 0.273712 0.000000
0.996338 0.361542 0.002075
0.000000 0.047943 0.177734
0.000000 0.025269 0.192596
0.195984 0.005463 0.194946
0.407623 0.003906 0.169159
0.648010 0.054504 0.081818
0.906555 0.222351 0.003113
1.000000 0.324768 0.001038
1.000000 0.387085 0.000000
0.000000 0.201721 0.228821
0.000000 0.200439 0.218140
0.203552 0.203552 0.203552
0.429535 0.228333 0.170197
0.674316 0.282013 0.064362
0.920624 0.357086 0.000000
0.995880 0.425385 0.000000
1.000000 0.457977 0.001312
0.000000 0.400330 0.241333
0.000000 0.395905 0.211121
0.088623 0.411804 0.110504
0.460785 0.427948 0.031769
0.719666 0.478027 0.000000
0.936676 0.522614 0.000000
0.994995 0.546082 0.000000
0.999542 0.552856 0.001038
0.000000 0.658936 0.122437
0.000000 0.653717 0.024170
0.000000 0.666229 0.000000
0.464447 0.672485 0.000000
0.738983 0.693359 0.000000
0.938812 0.698334 0.000000
0.998169 0.689484 0.002350
1.000000 0.666779 0.000000
0.000000 0.874756 0.000000
0.000000 0.873993 0.000000
0.000000 0.871124 0.000000
0.401917 0.873474 0.000000
0.709808 0.875031 0.000000
0.929779 0.872437 0.000000
0.995880 0.835419 0.000000
0.999084 0.789551 0.002869
0.000000 0.991180 0.001556
0.000000 0.991180 0.001556
0.000000 0.988831 0.001556
0.291901 0.984680 0.000000
0.616241 0.980896 0.000000
0.841431 0.974823 0.000275
0.994995 0.963959 0.000000
0.997284 0.909485 0.001556
0.000000 0.996826 0.035889
0.000000 0.997284 0.035095
0.000000 1.000000 0.028870
0.220947 0.999542 0.017151
0.532837 1.000000 0.000000
0.739777 0.999084 0.000000
0.914948 1.000000 0.001831
1.000000 1.000000 0.003906
0.000000 0.000000 0.276764
0.002075 0.000000 0.306488
0.173309 0.000000 0.328125
0.359680 0.000000 0.354187
0.602631 0.000000 0.359131
0.888275 0.000000 0.299713
1.000000 0.000000 0.155579
0.998627 0.153046 0.034332
0.000000 0.023956 0.363586
0.000000 0.005219 0.368011
0.173309 0.000000 0.384430
0.394318 0.000000 0.378418
0.647461 0.000000 0.375824
0.923553 0.000000 0.293457
0.998169 0.028107 0.162354
0.993164 0.234589 0.030945
0.000000 0.217102 0.433167
0.000000 0.192596 0.411011
0.005707 0.135773 0.418304
0.413605 0.115723 0.412567
0.678741 0.152466 0.370361
0.924805 0.175659 0.284088
0.993164 0.300537 0.162079
1.000000 0.361542 0.028076
0.000000 0.418304 0.470703
0.000000 0.412567 0.463928
0.000000 0.408936 0.442810
0.409698 0.409698 0.409698
0.704834 0.441528 0.377899
0.938354 0.474640 0.294769
0.994537 0.490295 0.162628
0.996338 0.499695 0.017151
0.000000 0.668854 0.505646
0.000000 0.663910 0.481140
0.000000 0.667297 0.433167
0.292633 0.684753 0.314301
0.739227 0.691284 0.246216
0.957092 0.681915 0.190948
0.994080 0.666016 0.104706
1.000000 0.638397 0.019257
0.000000 0.885193 0.431885
0.000000 0.882843 0.400085
0.000000 0.881805 0.307770
0.056152 0.887024 0.245728
0.657928 0.881805 0.120819
0.934723 0.879730 0.045258
0.997711 0.829681 0.010132
0.994080 0.772888 0.000000
0.000000 0.993530 0.316650
0.000000 0.993073 0.292908
0.000000 0.990295 0.266052
0.056152 0.987488 0.202423
0.563568 0.981415 0.116058
0.826843 0.980438 0.047852
0.997284 0.967346 0.012482
0.999542 0.900604 0.000000
0.000000 0.993164 0.392670
0.000000 0.997711 0.367401
0.023407 0.997711 0.364014
0.137329 0.998627 0.332214
0.505157 0.997284 0.259460
0.717865 0.997711 0.125946
0.898773 0.998627 0.036652
1.000000 1.000000 0.003906
0.000000 0.000000 0.523407
0.000000 0.000000 0.549988
0.156097 0.000000 0.570831
0.392761 0.000000 0.592224
0.633667 0.000000 0.603668
0.900543 0.000000 0.611267
1.000000 0.000000 0.540131
1.000000 0.000000 0.427734
0.000000 0.003632 0.610718
0.000000 0.000000 0.620636
0.084656 0.000000 0.637573
0.410767 0.000000 0.642517
0.665466 0.000000 0.651398
0.927612 0.000000 0.621674
1.000000 0.000000 0.531769
0.997284 0.055176 0.427765
0.000000 0.221527 0.682922
0.000000 0.178802 0.676147
0.000000 0.103210 0.679016
0.380768 0.023926 0.686584
0.696228 0.002594 0.665985
0.942352 0.025482 0.623260
0.993164 0.114044 0.523956
0.995422 0.298126 0.443146
0.000000 0.438385 0.726196
0.000000 0.428497 0.722290
0.000000 0.394867 0.708740
0.189392 0.334900 0.711609
0.700928 0.330200 0.692841
0.943604 0.428711 0.620117
0.994537 0.480347 0.556519
0.994537 0.473877 0.433777
0.000000 0.671997 0.762970
0.000000 0.665466 0.744720
0.000000 0.663391 0.739777
0.043671 0.672516 0.717346
0.682159 0.682159 0.682159
0.920135 0.692596 0.650085
0.994080 0.673553 0.565399
0.993164 0.627960 0.438995
0.000000 0.892487 0.740540
0.000000 0.886230 0.736145
0.000000 0.891968 0.702515
0.023407 0.887024 0.659241
0.598999 0.883881 0.608917
0.917267 0.876068 0.547913
0.995453 0.819000 0.490326
0.993622 0.768982 0.421265
0.000000 0.995880 0.634460
0.000000 0.995880 0.626923
0.000519 0.993530 0.604492
0.068634 0.988831 0.601074
0.546844 0.986511 0.593262
0.804413 0.977173 0.517395
0.994080 0.965759 0.446777
0.996338 0.895386 0.322174
0.000000 0.994995 0.570831
0.000000 0.994995 0.571075
0.053009 0.996826 0.607300
0.389771 0.993164 0.650055
0.568176 0.993164 0.604156
0.735565 0.994995 0.559601
0.894104 0.994995 0.479340
0.998627 0.996338 0.363892
0.000000 0.000000 0.823669
0.002594 0.000000 0.810638
0.016632 0.000000 0.805420
0.371918 0.000000 0.824432
0.622986 0.000000 0.834595
0.874481 0.000000 0.844513
1.000000 0.000000 0.809601
0.996338 0.000000 0.702209
0.000000 0.001312 0.869293
0.000000 0.000000 0.861206
0.000000 0.000000 0.863556
0.362823 0.000000 0.861450
0.629761 0.000000 0.865631
0.896912 0.000000 0.860168
1.000000 0.000000 0.807281
0.993164 0.059570 0.707184
0.000000 0.179047 0.904236
0.000000 0.129242 0.890411
0.000000 0.085999 0.890411
0.272614 0.017670 0.891968
0.620148 0.010406 0.889099
0.904480 0.000000 0.887268
0.998627 0.040558 0.805695
0.993164 0.319427 0.711853
0.000000 0.410004 0.911255
0.000000 0.393311 0.908936
0.000000 0.349792 0.908661
0.024963 0.294495 0.905792
0.576599 0.292419 0.908142
0.917511 0.285614 0.888062
0.993164 0.446411 0.807800
0.994080 0.583038 0.748077
0.000000 0.614929 0.916473
0.000000 0.609436 0.912323
0.000000 0.601105 0.915710
0.000000 0.587036 0.910492
0.523163 0.599274 0.902924
0.891449 0.633667 0.891449
0.993622 0.727234 0.828369
1.000000 0.766357 0.802582
0.000000 0.818481 0.913605
0.000000 0.815857 0.919373
0.000519 0.825775 0.907349
0.016388 0.832031 0.908142
0.541107 0.859406 0.890930
0.871918 0.871918 0.871918
0.993073 0.872711 0.850525
0.999084 0.841431 0.795013
0.000275 0.990723 0.881287
0.000000 0.993530 0.885742
0.000275 0.991180 0.880280
0.067078 0.989838 0.856018
0.565338 0.978485 0.843231
0.836700 0.969940 0.842194
0.986115 0.963440 0.805939
0.997284 0.916748 0.757477
0.000000 1.000000 0.778870
0.002350 0.999542 0.767670
0.002075 1.000000 0.769745
0.160767 0.996826 0.781189
0.661499 0.994995 0.821320
0.825226 0.997711 0.839050
0.916748 0.999542 0.794464
0.995453 0.995453 0.746246
0.000000 0.000000 0.967316
0.000000 0.000000 0.969666
0.000000 0.000000 0.969666
0.255676 0.000000 0.978088
0.539337 0.000000 0.979462
0.778351 0.000000 0.979462
0.995880 0.000000 0.981781
0.996338 0.000000 0.930328
0.000000 0.002075 0.983765
0.000000 0.000000 0.981415
0.000000 0.000000 0.986115
0.228088 0.000000 0.985596
0.539856 0.000000 0.988831
0.785645 0.000000 0.988831
1.000000 0.000000 0.986511
0.995453 0.017151 0.930847
0.000000 0.132904 0.991730
0.000000 0.120911 0.987030
0.000000 0.095612 0.992615
0.048370 0.037994 0.994537
0.513550 0.023926 0.994080
0.772614 0.023926 0.993622
0.998169 0.052032 0.984680
0.993164 0.254486 0.921448
0.000000 0.360474 1.000000
0.000000 0.341705 0.994537
0.000000 0.308319 0.995880
0.000000 0.292419 0.997284
0.451477 0.295013 0.993164
0.757233 0.320007 0.991730
0.994537 0.378387 0.987488
0.994537 0.544159 0.914673
0.000000 0.542206 0.995880
0.000519 0.534363 0.998169
0.000000 0.522644 0.999084
0.000000 0.511932 0.998627
0.425385 0.544769 0.990814
0.753296 0.591156 0.988464
0.994995 0.648224 0.978027
0.995880 0.758514 0.921722
0.000000 0.720215 0.997711
0.000000 0.722565 1.000000
0.000000 0.719696 0.993622
0.028870 0.731659 0.992188
0.470978 0.769714 0.987946
0.805695 0.830475 0.977753
0.971954 0.856781 0.969940
0.997284 0.901886 0.942047
0.001556 0.899292 0.988831
0.001312 0.897217 0.991180
0.000000 0.901367 0.988831
0.080353 0.919617 0.985138
0.584351 0.933716 0.978027
0.836182 0.952728 0.968903
0.961090 0.961090 0.961090
1.000000 0.961090 0.956116
0.001556 1.000000 0.979980
0.001556 1.000000 0.966034
0.001556 0.997284 0.963959
0.224823 0.995880 0.955078
0.676361 0.994995 0.945435
0.863281 0.997284 0.952209
0.958740 0.996338 0.957153
1.000000 0.991516 0.945679
0.000000 0.000000 0.993164
0.000000 0.000000 0.993164
0.000000 0.000000 0.993164
0.054626 0.000000 0.998169
0.440033 0.000000 1.000000
0.664948 0.000000 0.995453
0.864899 0.047089 0.997284
0.996826 0.134766 0.996826
0.000000 0.017944 0.995880
0.000000 0.014038 0.993164
0.000000 0.006500 0.993622
0.039276 0.005707 0.993164
0.423615 0.008057 0.998169
0.655060 0.032776 0.998169
0.867767 0.084015 0.997284
1.000000 0.158173 0.997284
0.001312 0.159485 0.994904
0.001312 0.157928 0.999084
0.000000 0.152679 1.000000
0.024170 0.150055 0.994995
0.404327 0.146667 0.993164
0.650085 0.178680 0.993164
0.864105 0.252960 0.997711
1.000000 0.368378 1.000000
0.002075 0.315643 1.000000
0.000000 0.309631 0.999542
0.000000 0.306244 0.999084
0.010132 0.319000 0.998627
0.371185 0.336975 0.995880
0.646179 0.383850 0.999084
0.860718 0.449005 0.994995
0.994537 0.560303 0.994537
0.000000 0.470520 0.998169
0.000275 0.471558 1.000000
0.000000 0.463745 0.999084
0.000793 0.483002 0.996338
0.403442 0.542145 0.993164
0.671692 0.593994 0.994537
0.873474 0.664124 0.993622
0.994537 0.738647 0.998627
0.000000 0.624298 0.999084
0.000519 0.626129 1.000000
0.000000 0.633423 0.999084
0.031982 0.648529 0.996826
0.468628 0.711334 0.993164
0.765015 0.798889 0.999084
0.899811 0.842438 0.991058
0.993164 0.879456 0.996338
0.000000 0.786163 0.993622
0.000000 0.783295 0.996338
0.000000 0.795563 0.998169
0.094391 0.816650 0.997284
0.578369 0.859406 0.993164
0.809845 0.907898 0.993622
0.947784 0.954285 0.996826
0.996338 0.963165 0.993805
0.000000 0.930328 0.996826
0.002075 0.934509 0.999298
0.120972 0.940491 0.993164
0.453094 0.946472 0.993164
0.717804 0.967621 0.993164
0.878906 0.979858 0.993164
0.963409 0.990814 0.996338
0.994263 0.994263 0.994263
