Postproduction/IWLTBAP - Humble/LUTs by IWLTBAP (CUBE)/UTILITY/Sony S-Log3 to Rec.709/U-SONY-S-LOG3-V7-LTR.cube
# Copyright: (C) Copyright 2010-2018 by IWLTBAP SAS
# Cannot be resold, shared or otherwise redistributed
# Website: https://luts.iwltbap.com
TITLE "Sony S-Log3 Version 7 (Utility LOG to Rec.709)"
LUT_3D_SIZE 32
0.000000 0.000000 0.000000
0.000000 0.000000 0.000000
0.000000 0.000000 0.000000
0.013519 0.000000 0.000000
0.078400 0.000000 0.009003
0.143982 0.000000 0.027588
0.212158 0.000000 0.047302
0.283691 0.000000 0.067902
0.358002 0.000000 0.089111
0.434448 0.000000 0.111145
0.511963 0.000000 0.133514
0.587341 0.000000 0.155243
0.657593 0.000000 0.175293
0.725220 0.000000 0.194885
0.790894 0.000000 0.213684
0.855377 0.000000 0.232300
0.918518 0.000000 0.250366
0.976379 0.000000 0.268402
1.000000 0.000000 0.285980
1.000000 0.000000 0.303680
1.000000 0.000000 0.318909
1.000000 0.000000 0.332733
1.000000 0.000000 0.345184
1.000000 0.000000 0.355835
1.000000 0.000000 0.364624
1.000000 0.000000 0.372131
1.000000 0.000000 0.378326
1.000000 0.000000 0.383087
1.000000 0.000000 0.386841
1.000000 0.000000 0.389679
1.000000 0.000000 0.392029
1.000000 0.000000 0.393524
0.000000 0.000000 0.000000
0.000000 0.000000 0.000000
0.000000 0.000000 0.000000
0.013306 0.000000 0.000000
0.078369 0.000000 0.008972
0.143982 0.000000 0.027588
0.212158 0.000000 0.047272
0.283661 0.000000 0.067902
0.357971 0.000000 0.089081
0.434448 0.000000 0.111115
0.511963 0.000000 0.133514
0.587311 0.000000 0.155243
0.657593 0.000000 0.175293
0.725220 0.000000 0.194885
0.790894 0.000000 0.213654
0.855377 0.000000 0.232269
0.918518 0.000000 0.250366
0.976379 0.000000 0.268402
1.000000 0.000000 0.285980
1.000000 0.000000 0.303680
1.000000 0.000000 0.318909
1.000000 0.000000 0.332733
1.000000 0.000000 0.345184
1.000000 0.000000 0.355835
1.000000 0.000000 0.364624
1.000000 0.000000 0.372131
1.000000 0.000000 0.378326
1.000000 0.000000 0.383087
1.000000 0.000000 0.386841
1.000000 0.000000 0.389679
1.000000 0.000000 0.392029
1.000000 0.000000 0.393524
0.000000 0.000000 0.000000
0.000000 0.000000 0.000000
0.000000 0.000000 0.000000
0.012299 0.000000 0.000000
0.078156 0.000000 0.008759
0.143890 0.000000 0.027496
0.212067 0.000000 0.047241
0.283630 0.000000 0.067841
0.357941 0.000000 0.089081
0.434418 0.000000 0.111115
0.511963 0.000000 0.133484
0.587311 0.000000 0.155212
0.657593 0.000000 0.175262
0.725189 0.000000 0.194855
0.790894 0.000000 0.213654
0.855377 0.000000 0.232269
0.918518 0.000000 0.250366
0.976379 0.000000 0.268402
1.000000 0.000000 0.285980
1.000000 0.000000 0.303650
1.000000 0.000000 0.318878
1.000000 0.000000 0.332733
1.000000 0.000000 0.345184
1.000000 0.000000 0.355835
1.000000 0.000000 0.364594
1.000000 0.000000 0.372131
1.000000 0.000000 0.378326
1.000000 0.000000 0.383087
1.000000 0.000000 0.386841
1.000000 0.000000 0.389679
1.000000 0.000000 0.392029
1.000000 0.000000 0.393524
0.000000 0.006592 0.000000
0.000000 0.006561 0.000000
0.000000 0.006470 0.000000
0.003937 0.005676 0.000000
0.076324 0.000000 0.006958
0.142883 0.000000 0.026581
0.211426 0.000000 0.046631
0.283173 0.000000 0.067444
0.357605 0.000000 0.088745
0.434143 0.000000 0.110870
0.511719 0.000000 0.133270
0.587128 0.000000 0.155060
0.657440 0.000000 0.175110
0.725037 0.000000 0.194733
0.790741 0.000000 0.213531
0.855255 0.000000 0.232178
0.918396 0.000000 0.250275
0.976349 0.000000 0.268311
1.000000 0.000000 0.285889
1.000000 0.000000 0.303589
1.000000 0.000000 0.318817
1.000000 0.000000 0.332672
1.000000 0.000000 0.345123
1.000000 0.000000 0.355774
1.000000 0.000000 0.364532
1.000000 0.000000 0.372070
1.000000 0.000000 0.378265
1.000000 0.000000 0.383026
1.000000 0.000000 0.386780
1.000000 0.000000 0.389618
1.000000 0.000000 0.391968
1.000000 0.000000 0.393463
0.000000 0.057312 0.000000
0.000000 0.057312 0.000000
0.000000 0.057281 0.000000
0.000000 0.057129 0.000000
0.049744 0.055267 0.000000
0.131683 0.049713 0.014404
0.204865 0.036469 0.039978
0.278625 0.000977 0.062927
0.354248 0.000000 0.085632
0.431549 0.000000 0.108459
0.509644 0.000000 0.131348
0.585358 0.000000 0.153290
0.655914 0.000000 0.173737
0.723694 0.000000 0.193512
0.789551 0.000000 0.212433
0.853943 0.000000 0.231201
0.917206 0.000000 0.249359
0.976013 0.000000 0.267487
1.000000 0.000000 0.285156
1.000000 0.000000 0.302887
1.000000 0.000000 0.318176
1.000000 0.000000 0.332031
1.000000 0.000000 0.344543
1.000000 0.000000 0.355225
1.000000 0.000000 0.364014
1.000000 0.000000 0.371552
1.000000 0.000000 0.377594
1.000000 0.000000 0.382507
1.000000 0.000000 0.386261
1.000000 0.000000 0.389099
1.000000 0.000000 0.391479
1.000000 0.000000 0.392975
0.000000 0.108429 0.000000
0.000000 0.108429 0.000000
0.000000 0.108429 0.000000
0.000000 0.108337 0.000000
0.000000 0.107452 0.000000
0.096008 0.105072 0.000000
0.186127 0.100220 0.014954
0.266357 0.092224 0.050079
0.345276 0.078186 0.076813
0.424561 0.049866 0.101807
0.504242 0.000000 0.126068
0.580902 0.000000 0.149017
0.651825 0.000000 0.170166
0.720337 0.000000 0.190155
0.786560 0.000000 0.209686
0.851227 0.000000 0.228729
0.914734 0.000000 0.247101
0.975128 0.000000 0.265320
1.000000 0.000000 0.283234
1.000000 0.000000 0.300873
1.000000 0.000000 0.316528
1.000000 0.000000 0.330475
1.000000 0.000000 0.343048
1.000000 0.000000 0.353790
1.000000 0.000000 0.362610
1.000000 0.000000 0.370178
1.000000 0.000000 0.376190
1.000000 0.000000 0.381226
1.000000 0.000000 0.384979
1.000000 0.000000 0.387848
1.000000 0.000000 0.390045
1.000000 0.000000 0.391724
0.000000 0.161804 0.000000
0.000000 0.161804 0.000000
0.000000 0.161804 0.000000
0.000000 0.161743 0.000000
0.000000 0.161194 0.000000
0.000000 0.159698 0.000000
0.144318 0.157013 0.000000
0.241821 0.152283 0.004059
0.328247 0.145477 0.057159
0.411682 0.135254 0.088409
0.493958 0.120575 0.115845
0.572357 0.098877 0.140778
0.644714 0.059998 0.163147
0.713867 0.007385 0.184296
0.781036 0.001862 0.204498
0.846283 0.000000 0.223816
0.910248 0.000000 0.242920
0.972626 0.000000 0.261353
1.000000 0.000000 0.279724
1.000000 0.000000 0.297638
1.000000 0.000000 0.313232
1.000000 0.000000 0.327393
1.000000 0.000000 0.340302
1.000000 0.000000 0.350891
1.000000 0.000000 0.360077
1.000000 0.000000 0.367706
1.000000 0.000000 0.373749
1.000000 0.000000 0.378845
1.000000 0.000000 0.382629
1.000000 0.000000 0.385529
1.000000 0.000000 0.387665
1.000000 0.000000 0.389160
0.000000 0.217804 0.000000
0.000000 0.217804 0.000000
0.000000 0.217804 0.000000
0.000000 0.217773 0.000000
0.000000 0.217377 0.000000
0.000000 0.216400 0.000000
0.000000 0.214294 0.000000
0.194763 0.211334 0.000000
0.298370 0.206879 0.000000
0.390167 0.200409 0.060455
0.476990 0.191986 0.097321
0.558624 0.181122 0.126495
0.633026 0.168060 0.151398
0.703705 0.151550 0.174225
0.771942 0.130280 0.195740
0.838074 0.096985 0.216248
0.902802 0.048065 0.235870
0.966309 0.014618 0.255157
0.998260 0.007111 0.273834
1.000000 0.000000 0.292389
1.000000 0.000000 0.308350
1.000000 0.000000 0.322784
1.000000 0.000000 0.335693
1.000000 0.000000 0.346680
1.000000 0.000000 0.355988
1.000000 0.000000 0.363495
1.000000 0.000000 0.369873
1.000000 0.000000 0.374786
1.000000 0.000000 0.378876
1.000000 0.000000 0.381805
1.000000 0.000000 0.383972
1.000000 0.000000 0.385529
0.000000 0.275787 0.000000
0.000000 0.275787 0.000000
0.000000 0.275787 0.000000
0.000000 0.275757 0.000000
0.000000 0.275482 0.000000
0.000000 0.274719 0.000000
0.000000 0.273376 0.000000
0.073425 0.271179 0.000000
0.247192 0.268036 0.000000
0.355927 0.263336 0.000000
0.451263 0.257507 0.058716
0.537842 0.250092 0.101532
0.615479 0.241882 0.132263
0.688629 0.232025 0.158447
0.758667 0.220581 0.182190
0.826202 0.207123 0.204407
0.892059 0.191040 0.225281
0.956726 0.170929 0.245605
0.994812 0.144592 0.265198
1.000000 0.098785 0.284393
1.000000 0.048370 0.300873
1.000000 0.027374 0.315948
1.000000 0.022125 0.329224
1.000000 0.016266 0.340485
1.000000 0.010040 0.349762
1.000000 0.002441 0.357697
1.000000 0.000000 0.363953
1.000000 0.000000 0.369202
1.000000 0.000000 0.373138
1.000000 0.000000 0.376099
1.000000 0.000000 0.378540
1.000000 0.000000 0.380127
0.000000 0.335693 0.000000
0.000000 0.335693 0.000000
0.000000 0.335693 0.000000
0.000000 0.335663 0.000000
0.000000 0.335419 0.000000
0.000000 0.334839 0.000000
0.000000 0.333801 0.000000
0.000000 0.332123 0.000000
0.140015 0.329681 0.000000
0.301117 0.326111 0.000000
0.412994 0.321686 0.000000
0.508148 0.316376 0.043579
0.591003 0.310120 0.098755
0.667664 0.303314 0.133179
0.740051 0.295258 0.161499
0.809814 0.286194 0.186646
0.877258 0.275940 0.209991
0.943054 0.264252 0.231964
0.989868 0.250885 0.253021
1.000000 0.235382 0.273163
1.000000 0.219391 0.290680
1.000000 0.202057 0.306183
1.000000 0.183624 0.319946
1.000000 0.164154 0.331604
1.000000 0.143585 0.341431
1.000000 0.119995 0.349365
1.000000 0.084595 0.356049
1.000000 0.053711 0.361206
1.000000 0.047760 0.365479
1.000000 0.046600 0.368561
1.000000 0.045776 0.370819
1.000000 0.045135 0.372437
0.000000 0.396423 0.000000
0.000000 0.396423 0.000000
0.000000 0.396423 0.000000
0.000000 0.396423 0.000000
0.000000 0.396240 0.000000
0.000000 0.395752 0.000000
0.000000 0.394928 0.000000
0.000000 0.393555 0.000000
0.000000 0.391602 0.000000
0.199707 0.388702 0.000000
0.356110 0.385254 0.000000
0.466370 0.381073 0.000000
0.557190 0.376160 0.009247
0.639069 0.370880 0.087708
0.715424 0.364685 0.129059
0.788025 0.358093 0.160614
0.857971 0.350433 0.187897
0.925537 0.342194 0.212738
0.983612 0.332794 0.235931
1.000000 0.322296 0.257996
1.000000 0.312012 0.276428
1.000000 0.301666 0.293091
1.000000 0.291687 0.307617
1.000000 0.282074 0.319885
1.000000 0.273285 0.330109
1.000000 0.265656 0.338379
1.000000 0.258789 0.345337
1.000000 0.253143 0.350708
1.000000 0.248291 0.355133
1.000000 0.244629 0.358337
1.000000 0.241882 0.360687
1.000000 0.239624 0.362335
0.000000 0.455475 0.000000
0.000000 0.455475 0.000000
0.000000 0.455475 0.000000
0.000000 0.455444 0.000000
0.000000 0.455292 0.000000
0.000000 0.454926 0.000000
0.000000 0.454224 0.000000
0.000000 0.453094 0.000000
0.000000 0.451233 0.000000
0.000000 0.449005 0.000000
0.261200 0.446167 0.000000
0.409302 0.442719 0.000000
0.513336 0.438660 0.000000
0.603394 0.434387 0.000000
0.684967 0.429596 0.066895
0.761353 0.424042 0.120697
0.834167 0.418152 0.156982
0.904083 0.411469 0.186920
0.970886 0.404297 0.213623
1.000000 0.396240 0.238251
1.000000 0.388458 0.258728
1.000000 0.381012 0.276520
1.000000 0.373535 0.292297
1.000000 0.366913 0.305328
1.000000 0.360748 0.316193
1.000000 0.355560 0.324921
1.000000 0.350922 0.332214
1.000000 0.347260 0.337860
1.000000 0.344299 0.342468
1.000000 0.341980 0.345825
1.000000 0.340240 0.348297
1.000000 0.338745 0.350037
0.000000 0.510315 0.000000
0.000000 0.510315 0.000000
0.000000 0.510315 0.000000
0.000000 0.510284 0.000000
0.000000 0.510162 0.000000
0.000000 0.509827 0.000000
0.000000 0.509216 0.000000
0.000000 0.508240 0.000000
0.000000 0.506866 0.000000
0.000000 0.504974 0.000000
0.043823 0.502258 0.000000
0.329529 0.499329 0.000000
0.458862 0.496124 0.000000
0.560211 0.492462 0.000000
0.649048 0.488190 0.000000
0.730530 0.483704 0.026001
0.807007 0.478790 0.109955
0.879730 0.473175 0.151947
0.950134 0.467255 0.185211
0.994904 0.460602 0.213928
1.000000 0.454437 0.237030
1.000000 0.448181 0.256958
1.000000 0.442352 0.273926
1.000000 0.436859 0.287994
1.000000 0.432220 0.299652
1.000000 0.428162 0.309204
1.000000 0.424469 0.316986
1.000000 0.421661 0.322968
1.000000 0.419403 0.327820
1.000000 0.417633 0.331360
1.000000 0.416321 0.333954
1.000000 0.415344 0.335815
0.000000 0.563202 0.000000
0.000000 0.563202 0.000000
0.000000 0.563202 0.000000
0.000000 0.563202 0.000000
0.000000 0.563080 0.000000
0.000000 0.562805 0.000000
0.000000 0.562256 0.000000
0.000000 0.561401 0.000000
0.000000 0.560181 0.000000
0.000000 0.558502 0.000000
0.000000 0.556366 0.000000
0.194275 0.553802 0.000000
0.384857 0.550751 0.000000
0.506744 0.547607 0.000000
0.605957 0.544098 0.000000
0.694031 0.540009 0.000000
0.775177 0.535767 0.000000
0.851685 0.531158 0.094421
0.924896 0.525848 0.145142
0.986237 0.520355 0.182129
1.000000 0.514923 0.209656
1.000000 0.509827 0.232513
1.000000 0.504944 0.251556
1.000000 0.500305 0.267395
1.000000 0.496429 0.280121
1.000000 0.493073 0.290527
1.000000 0.490082 0.298645
1.000000 0.487671 0.305359
1.000000 0.485809 0.310333
1.000000 0.484375 0.314117
1.000000 0.483276 0.317139
1.000000 0.482483 0.319122
0.000000 0.614655 0.000000
0.000000 0.614655 0.000000
0.000000 0.614655 0.000000
0.000000 0.614624 0.000000
0.000000 0.614532 0.000000
0.000000 0.614288 0.000000
0.000000 0.613800 0.000000
0.000000 0.613007 0.000000
0.000000 0.611938 0.000000
0.000000 0.610474 0.000000
0.000000 0.608551 0.000000
0.000000 0.606293 0.000000
0.265564 0.603790 0.000000
0.436584 0.600769 0.000000
0.553253 0.597687 0.000000
0.650574 0.594269 0.000000
0.738190 0.590302 0.000000
0.819427 0.586243 0.000000
0.896149 0.581818 0.069244
0.968140 0.576813 0.135773
1.000000 0.572266 0.172913
1.000000 0.567841 0.201050
1.000000 0.563416 0.223755
1.000000 0.559601 0.241852
1.000000 0.556305 0.256226
1.000000 0.553406 0.267761
1.000000 0.550751 0.276794
1.000000 0.548767 0.284088
1.000000 0.547150 0.289581
1.000000 0.545898 0.293945
1.000000 0.544983 0.296967
1.000000 0.544342 0.299133
0.000000 0.664948 0.000000
0.000000 0.664917 0.000000
0.000000 0.664917 0.000000
0.000000 0.664917 0.000000
0.000000 0.664825 0.000000
0.000000 0.664581 0.000000
0.000000 0.664154 0.000000
0.000000 0.663483 0.000000
0.000000 0.662476 0.000000
0.000000 0.661163 0.000000
0.000000 0.659454 0.000000
0.000000 0.657410 0.000000
0.035553 0.655182 0.000000
0.333771 0.652466 0.000000
0.485962 0.649689 0.000000
0.598511 0.646637 0.000000
0.694885 0.643341 0.000000
0.782013 0.639465 0.000000
0.863037 0.635529 0.000000
0.939941 0.631287 0.023132
0.993591 0.627045 0.115295
1.000000 0.623138 0.157623
1.000000 0.619446 0.187042
1.000000 0.616089 0.209167
1.000000 0.612885 0.226166
1.000000 0.610382 0.239532
1.000000 0.608276 0.250122
1.000000 0.606506 0.258392
1.000000 0.605133 0.264557
1.000000 0.604034 0.269409
1.000000 0.603149 0.272827
1.000000 0.602417 0.275208
0.000000 0.714386 0.000000
0.000000 0.714386 0.000000
0.000000 0.714386 0.000000
0.000000 0.714355 0.000000
0.000000 0.714264 0.000000
0.000000 0.714081 0.000000
0.000000 0.713684 0.000000
0.000000 0.713074 0.000000
0.000000 0.712189 0.000000
0.000000 0.710938 0.000000
0.000000 0.709412 0.000000
0.000000 0.707581 0.000000
0.000000 0.705536 0.000000
0.156433 0.703033 0.000000
0.393799 0.700531 0.000000
0.533478 0.697815 0.000000
0.643280 0.694794 0.000000
0.738312 0.691528 0.000000
0.825165 0.687775 0.000000
0.906525 0.683960 0.000000
0.972992 0.680328 0.000000
1.000000 0.676575 0.072876
1.000000 0.673279 0.131927
1.000000 0.670288 0.163818
1.000000 0.667664 0.186432
1.000000 0.665192 0.203430
1.000000 0.663300 0.216278
1.000000 0.661743 0.225891
1.000000 0.660492 0.233429
1.000000 0.659546 0.238861
1.000000 0.658844 0.243073
1.000000 0.658325 0.245819
0.000000 0.763062 0.000000
0.000000 0.763062 0.000000
0.000000 0.763062 0.000000
0.000000 0.763062 0.000000
0.000000 0.762970 0.000000
0.000000 0.762787 0.000000
0.000000 0.762421 0.000000
0.000000 0.761871 0.000000
0.000000 0.761047 0.000000
0.000000 0.759949 0.000000
0.000000 0.758514 0.000000
0.000000 0.756836 0.000000
0.000000 0.754974 0.000000
0.000000 0.752686 0.000000
0.243896 0.750397 0.000000
0.447815 0.747925 0.000000
0.579926 0.745178 0.000000
0.687073 0.742188 0.000000
0.781616 0.738770 0.000000
0.868286 0.735291 0.000000
0.939789 0.732025 0.000000
0.993652 0.728607 0.000000
1.000000 0.725616 0.017731
1.000000 0.722931 0.072845
1.000000 0.720551 0.123993
1.000000 0.718536 0.150696
1.000000 0.716827 0.169098
1.000000 0.715179 0.182281
1.000000 0.714050 0.192047
1.000000 0.713226 0.198975
1.000000 0.712585 0.204193
1.000000 0.712128 0.207642
0.000000 0.811218 0.000000
0.000000 0.811218 0.000000
0.000000 0.811218 0.000000
0.000000 0.811218 0.000000
0.000000 0.811127 0.000000
0.000000 0.810974 0.000000
0.000000 0.810638 0.000000
0.000000 0.810120 0.000000
0.000000 0.809357 0.000000
0.000000 0.808350 0.000000
0.000000 0.807037 0.000000
0.000000 0.805481 0.000000
0.000000 0.803528 0.000000
0.000000 0.801636 0.000000
0.000000 0.799530 0.000000
0.307770 0.797241 0.000000
0.498810 0.794739 0.000000
0.625092 0.791962 0.000000
0.730652 0.788849 0.000000
0.824341 0.785675 0.000000
0.900604 0.782684 0.000000
0.966003 0.779785 0.000000
1.000000 0.776825 0.000000
1.000000 0.774353 0.000000
1.000000 0.772186 0.013885
1.000000 0.770355 0.035645
1.000000 0.768829 0.063843
1.000000 0.767517 0.106964
1.000000 0.766266 0.125824
1.000000 0.765503 0.137970
1.000000 0.764923 0.146179
1.000000 0.764496 0.151550
0.000000 0.858948 0.000000
0.000000 0.858948 0.000000
0.000000 0.858948 0.000000
0.000000 0.858917 0.000000
0.000000 0.858856 0.000000
0.000000 0.858704 0.000000
0.000000 0.858398 0.000000
0.000000 0.857910 0.000000
0.000000 0.857208 0.000000
0.000000 0.856262 0.000000
0.000000 0.855042 0.000000
0.000000 0.853394 0.000000
0.000000 0.851807 0.000000
0.000000 0.850067 0.000000
0.000000 0.848114 0.000000
0.066833 0.846008 0.000000
0.381104 0.843689 0.000000
0.547546 0.840942 0.000000
0.669678 0.838257 0.000000
0.773590 0.835327 0.000000
0.856018 0.832550 0.000000
0.926270 0.829803 0.000000
0.984375 0.827118 0.000000
1.000000 0.824890 0.000000
1.000000 0.822876 0.000000
1.000000 0.821228 0.000000
1.000000 0.819794 0.000000
1.000000 0.818604 0.007538
1.000000 0.817688 0.022034
1.000000 0.816742 0.028778
1.000000 0.816193 0.033173
1.000000 0.815826 0.035889
0.000000 0.900421 0.000000
0.000000 0.900421 0.000000
0.000000 0.900421 0.000000
0.000000 0.900421 0.000000
0.000000 0.900360 0.000000
0.000000 0.900208 0.000000
0.000000 0.899902 0.000000
0.000000 0.899475 0.000000
0.000000 0.898804 0.000000
0.000000 0.897919 0.000000
0.000000 0.896790 0.000000
0.000000 0.895447 0.000000
0.000000 0.893951 0.000000
0.000000 0.892090 0.000000
0.000000 0.890259 0.000000
0.000000 0.888275 0.000000
0.213409 0.886108 0.000000
0.457153 0.883759 0.000000
0.604767 0.881226 0.000000
0.721375 0.878265 0.000000
0.811096 0.875702 0.000000
0.886292 0.873199 0.000000
0.950134 0.870880 0.000000
0.996918 0.868774 0.000000
1.000000 0.866669 0.000000
1.000000 0.865112 0.000000
1.000000 0.863800 0.000000
1.000000 0.862701 0.000000
1.000000 0.861816 0.000000
1.000000 0.861145 0.000000
1.000000 0.860687 0.000000
1.000000 0.860321 0.000000
0.000000 0.938141 0.000000
0.000000 0.938141 0.000000
0.000000 0.938141 0.000000
0.000000 0.938141 0.000000
0.000000 0.938080 0.000000
0.000000 0.937927 0.000000
0.000000 0.937683 0.000000
0.000000 0.937256 0.000000
0.000000 0.936646 0.000000
0.000000 0.935822 0.000000
0.000000 0.934723 0.000000
0.000000 0.933441 0.000000
0.000000 0.932037 0.000000
0.000000 0.930237 0.000000
0.000000 0.928528 0.000000
0.000000 0.926666 0.000000
0.000000 0.924622 0.000000
0.319397 0.922424 0.000000
0.531311 0.920013 0.000000
0.665436 0.917206 0.000000
0.764221 0.914764 0.000000
0.845245 0.912476 0.000000
0.912872 0.910248 0.000000
0.967560 0.908234 0.000000
1.000000 0.906525 0.000000
1.000000 0.904785 0.000000
1.000000 0.903534 0.000000
1.000000 0.902527 0.000000
1.000000 0.901703 0.000000
1.000000 0.901062 0.000000
1.000000 0.900604 0.000000
1.000000 0.900269 0.000000
0.000000 0.972107 0.000000
0.000000 0.972107 0.000000
0.000000 0.972107 0.000000
0.000000 0.972076 0.000000
0.000000 0.972046 0.000000
0.000000 0.971893 0.000000
0.000000 0.971649 0.000000
0.000000 0.971222 0.000000
0.000000 0.970642 0.000000
0.000000 0.969818 0.000000
0.000000 0.968811 0.000000
0.000000 0.967377 0.000000
0.000000 0.966034 0.000000
0.000000 0.964539 0.000000
0.000000 0.962891 0.000000
0.000000 0.961090 0.000000
0.000000 0.959167 0.000000
0.145691 0.957062 0.000000
0.444427 0.954529 0.000000
0.606079 0.952118 0.000000
0.716034 0.949799 0.000000
0.803467 0.947571 0.000000
0.875732 0.945496 0.000000
0.933746 0.943604 0.000000
0.979767 0.941711 0.000000
1.000000 0.940308 0.000000
1.000000 0.939117 0.000000
1.000000 0.938141 0.000000
1.000000 0.937378 0.000000
1.000000 0.936798 0.000000
1.000000 0.936340 0.000000
1.000000 0.936035 0.000000
0.000000 0.995209 0.000000
0.000000 0.995209 0.000000
0.000000 0.995209 0.000000
0.000000 0.995209 0.000000
0.000000 0.995178 0.000000
0.000000 0.995178 0.000000
0.000000 0.995117 0.000000
0.000000 0.995026 0.000000
0.000000 0.994873 0.000000
0.000000 0.994690 0.000000
0.000000 0.994476 0.000000
0.000000 0.994171 0.000000
0.000000 0.993866 0.000000
0.000000 0.993195 0.000000
0.000000 0.992004 0.000000
0.000000 0.990295 0.000000
0.000000 0.988434 0.000000
0.000000 0.986420 0.000000
0.316132 0.984222 0.000000
0.545044 0.981873 0.000000
0.669281 0.979431 0.000000
0.763824 0.977325 0.000000
0.840607 0.975281 0.000000
0.901733 0.973480 0.000000
0.950806 0.971924 0.000000
0.989075 0.970581 0.000000
1.000000 0.969421 0.000000
1.000000 0.968323 0.000000
1.000000 0.967529 0.000000
1.000000 0.966919 0.000000
1.000000 0.966492 0.000000
1.000000 0.966217 0.000000
0.000000 1.000000 0.000000
0.000000 1.000000 0.000000
0.000000 1.000000 0.000000
0.000000 1.000000 0.000000
0.000000 1.000000 0.000000
0.000000 1.000000 0.000000
0.000000 1.000000 0.000000
0.000000 1.000000 0.000000
0.000000 1.000000 0.000000
0.000000 1.000000 0.000000
0.000000 1.000000 0.000000
0.000000 1.000000 0.000000
0.000000 1.000000 0.000000
0.000000 1.000000 0.000000
0.000000 0.999939 0.000000
0.000000 0.999603 0.000000
0.000000 0.999207 0.000000
0.000000 0.998810 0.000000
0.189026 0.998322 0.000000
0.481750 0.997833 0.000000
0.624054 0.997314 0.000000
0.726654 0.996887 0.000000
0.808441 0.996399 0.000000
0.872528 0.996002 0.000000
0.923767 0.995636 0.000000
0.964569 0.995239 0.000000
0.995941 0.994751 0.000000
1.000000 0.993866 0.000000
1.000000 0.992920 0.000000
1.000000 0.992371 0.000000
1.000000 0.991943 0.000000
1.000000 0.991638 0.000000
0.000000 1.000000 0.000000
0.000000 1.000000 0.000000
0.000000 1.000000 0.000000
0.000000 1.000000 0.000000
0.000000 1.000000 0.000000
0.000000 1.000000 0.000000
0.000000 1.000000 0.000000
0.000000 1.000000 0.000000
0.000000 1.000000 0.000000
0.000000 1.000000 0.000000
0.000000 1.000000 0.000000
0.000000 1.000000 0.000000
0.000000 1.000000 0.000000
0.000000 1.000000 0.000000
0.000000 1.000000 0.000000
0.000000 1.000000 0.000000
0.000000 1.000000 0.000000
0.000000 1.000000 0.000000
0.130493 1.000000 0.000000
0.413635 1.000000 0.000000
0.581543 1.000000 0.000000
0.692810 1.000000 0.000000
0.779114 1.000000 0.000000
0.846436 1.000000 0.000000
0.899597 1.000000 0.000000
0.941833 1.000000 0.000000
0.975464 1.000000 0.000000
0.999573 0.999908 0.000000
1.000000 0.999725 0.000000
1.000000 0.999603 0.000000
1.000000 0.999512 0.000000
1.000000 0.999451 0.000000
0.000000 1.000000 0.000000
0.000000 1.000000 0.000000
0.000000 1.000000 0.000000
0.000000 1.000000 0.000000
0.000000 1.000000 0.000000
0.000000 1.000000 0.000000
0.000000 1.000000 0.000000
0.000000 1.000000 0.000000
0.000000 1.000000 0.000000
0.000000 1.000000 0.000000
0.000000 1.000000 0.000000
0.000000 1.000000 0.000000
0.000000 1.000000 0.000000
0.000000 1.000000 0.000000
0.000000 1.000000 0.000000
0.000000 1.000000 0.000000
0.000000 1.000000 0.000000
0.000000 1.000000 0.000000
0.000000 1.000000 0.000000
0.310303 1.000000 0.000000
0.542114 1.000000 0.000000
0.662231 1.000000 0.000000
0.753479 1.000000 0.000000
0.823608 1.000000 0.000000
0.878632 1.000000 0.000000
0.922424 1.000000 0.000000
0.956940 1.000000 0.000000
0.983856 1.000000 0.000000
1.000000 1.000000 0.000000
1.000000 1.000000 0.000000
1.000000 1.000000 0.000000
1.000000 1.000000 0.000000
0.000000 1.000000 0.000000
0.000000 1.000000 0.000000
0.000000 1.000000 0.000000
0.000000 1.000000 0.000000
0.000000 1.000000 0.000000
0.000000 1.000000 0.000000
0.000000 1.000000 0.000000
0.000000 1.000000 0.000000
0.000000 1.000000 0.000000
0.000000 1.000000 0.000000
0.000000 1.000000 0.000000
0.000000 1.000000 0.000000
0.000000 1.000000 0.000000
0.000000 1.000000 0.000000
0.000000 1.000000 0.000000
0.000000 1.000000 0.000000
0.000000 1.000000 0.000000
