Postproduction/IWLTBAP - Humble/LUTs by IWLTBAP (CUBE)/UTILITY/Sony S-Log3 to Rec.709/U-SONY-S-LOG3-V4-LTR.cube
# Copyright: (C) Copyright 2010-2018 by IWLTBAP SAS
# Cannot be resold, shared or otherwise redistributed
# Website: https://luts.iwltbap.com
TITLE "Sony S-Log3 Version 4 (Utility LOG to Rec.709)"
LUT_3D_SIZE 5
DOMAIN_MIN 0.000000 0.000000 0.000000
DOMAIN_MAX 0.903226 0.903226 0.903226
0.031158 0.031158 0.031158
0.251556 0.031158 0.031158
0.616821 0.031158 0.031158
0.973083 0.161560 0.203033
1.000000 0.031158 0.321320
0.031158 0.219116 0.035828
0.197815 0.220032 0.031158
0.608704 0.163269 0.031158
0.971954 0.226807 0.201782
1.000000 0.031158 0.321289
0.031158 0.579193 0.337158
0.141998 0.575592 0.329956
0.531738 0.581543 0.165222
0.969055 0.493774 0.196716
1.000000 0.031158 0.321075
0.452911 0.973755 0.720703
0.468048 0.973267 0.719879
0.553223 0.970398 0.714417
0.904755 0.970306 0.582153
1.000000 0.655273 0.326874
0.040619 1.000000 0.763794
0.041138 1.000000 0.763702
0.044312 1.000000 0.763062
0.417328 1.000000 0.757782
1.000000 1.000000 0.597778
0.031158 0.031158 0.264923
0.228821 0.031158 0.197784
0.614532 0.031158 0.151215
0.972900 0.147400 0.203339
1.000000 0.031158 0.321533
0.031158 0.199280 0.284698
0.190826 0.190826 0.190826
0.609192 0.134460 0.101807
0.971802 0.215332 0.202087
1.000000 0.031158 0.321503
0.031158 0.576202 0.401337
0.142578 0.572418 0.395264
0.532013 0.576569 0.258942
0.968658 0.487000 0.196747
1.000000 0.031158 0.321289
0.450378 0.973145 0.727844
0.465607 0.972656 0.726990
0.551239 0.969757 0.721649
0.904327 0.969635 0.591309
1.000000 0.653046 0.326965
0.040588 1.000000 0.766968
0.041107 1.000000 0.766876
0.044281 1.000000 0.766205
0.416931 1.000000 0.760956
1.000000 1.000000 0.601776
0.031158 0.039978 0.787048
0.095703 0.031158 0.719757
0.606781 0.031158 0.614166
0.987701 0.189667 0.482635
1.000000 0.031158 0.322784
0.031158 0.218506 0.769714
0.032043 0.156342 0.723755
0.596527 0.080994 0.610260
0.986145 0.241364 0.474915
1.000000 0.031158 0.322754
0.103119 0.564636 0.641998
0.208344 0.560760 0.640533
0.547424 0.547424 0.547394
0.976746 0.469543 0.421631
1.000000 0.031158 0.322571
0.434967 0.969269 0.770569
0.450684 0.968811 0.769714
0.539368 0.965851 0.765045
0.901642 0.965332 0.645874
1.000000 0.638641 0.327301
0.040436 1.000000 0.786072
0.040955 1.000000 0.785980
0.043945 1.000000 0.785339
0.414520 1.000000 0.780090
1.000000 1.000000 0.624939
0.328735 0.267303 1.000000
0.359772 0.260681 1.000000
0.563965 0.191132 1.000000
1.000000 0.421082 1.000000
1.000000 0.031158 0.907990
0.316711 0.311584 1.000000
0.348724 0.305786 1.000000
0.552856 0.242737 1.000000
1.000000 0.435669 1.000000
1.000000 0.031158 0.906952
0.234467 0.517242 1.000000
0.274475 0.513184 1.000000
0.481415 0.475891 1.000000
1.000000 0.518555 0.999176
1.000000 0.034912 0.901398
0.594330 0.952606 1.000000
0.601746 0.952057 1.000000
0.645477 0.948761 1.000000
0.933441 0.933380 0.933380
1.000000 0.631287 0.853638
0.039307 1.000000 0.928619
0.039856 1.000000 0.928497
0.042572 1.000000 0.927887
0.396027 1.000000 0.922852
1.000000 1.000000 0.792511
0.435364 0.031158 1.000000
0.445282 0.031158 1.000000
0.502075 0.031158 1.000000
0.931671 0.031372 1.000000
1.000000 0.046143 1.000000
0.432068 0.031158 1.000000
0.441956 0.031158 1.000000
0.499084 0.031158 1.000000
0.929474 0.032410 1.000000
1.000000 0.046936 1.000000
0.411499 0.031158 1.000000
0.421906 0.031158 1.000000
0.480652 0.031158 1.000000
0.916260 0.037018 1.000000
1.000000 0.058075 1.000000
0.213593 0.564484 1.000000
0.230347 0.562897 1.000000
0.316772 0.552887 1.000000
0.784454 0.489166 1.000000
1.000000 0.486847 1.000000
0.595886 1.000000 1.000000
0.598541 1.000000 1.000000
0.614288 1.000000 1.000000
0.729980 1.000000 1.000000
1.000000 1.000000 1.000000
