Postproduction/IWLTBAP - Humble/LUTs by IWLTBAP (CUBE)/UTILITY/Sony S-Log3 to Rec.709/U-SONY-S-LOG3-V4-LTR.cube
# Copyright: (C) Copyright 2010-2018 by IWLTBAP SAS
# Cannot be resold, shared or otherwise redistributed
# Website: https://luts.iwltbap.com
TITLE "Sony S-Log3 Version 4 (Utility LOG to Rec.709)"
LUT_3D_SIZE 32
0.031158 0.031158 0.031158
0.031158 0.031158 0.031158
0.032654 0.031158 0.031158
0.070709 0.031158 0.031158
0.119202 0.031158 0.031158
0.160248 0.031158 0.031158
0.203217 0.031158 0.031158
0.251556 0.031158 0.031158
0.302429 0.031158 0.031158
0.355011 0.031158 0.031158
0.408630 0.031158 0.031158
0.462097 0.031158 0.031158
0.514526 0.031158 0.031158
0.566162 0.031158 0.031158
0.616821 0.031158 0.031158
0.666931 0.031158 0.031158
0.717010 0.031158 0.031158
0.767365 0.031158 0.031158
0.818298 0.031158 0.040039
0.869598 0.031250 0.089081
0.921112 0.076324 0.150024
0.973083 0.161560 0.203033
1.000000 0.238190 0.250580
1.000000 0.308594 0.294647
1.000000 0.303406 0.319305
1.000000 0.148682 0.323059
1.000000 0.038696 0.322632
1.000000 0.031158 0.322083
1.000000 0.031158 0.321320
1.000000 0.031158 0.320190
1.000000 0.031158 0.318848
1.000000 0.031158 0.316925
0.031158 0.031158 0.031158
0.031158 0.031158 0.031158
0.032104 0.031158 0.031158
0.058807 0.031158 0.031158
0.108948 0.031158 0.031158
0.150818 0.031158 0.031158
0.194611 0.031158 0.031158
0.243805 0.031158 0.031158
0.295624 0.031158 0.031158
0.349365 0.031158 0.031158
0.404266 0.031158 0.031158
0.459290 0.031158 0.031158
0.512939 0.031158 0.031158
0.564789 0.031158 0.031158
0.615723 0.031158 0.031158
0.665985 0.031158 0.031158
0.716400 0.031158 0.031158
0.766937 0.031158 0.031158
0.818024 0.031158 0.039917
0.869324 0.037537 0.088745
0.920929 0.091309 0.149811
0.972931 0.170410 0.202881
1.000000 0.243591 0.250488
1.000000 0.312012 0.294586
1.000000 0.306519 0.319305
1.000000 0.154144 0.323059
1.000000 0.039154 0.322632
1.000000 0.031158 0.322083
1.000000 0.031158 0.321320
1.000000 0.031158 0.320190
1.000000 0.031158 0.318848
1.000000 0.031158 0.316925
0.031158 0.032074 0.031158
0.031158 0.032013 0.031158
0.031586 0.031952 0.031158
0.047729 0.031921 0.031158
0.099243 0.031860 0.031158
0.141754 0.031769 0.031158
0.186279 0.031677 0.031158
0.236145 0.031494 0.031158
0.288849 0.031250 0.031158
0.343445 0.031158 0.031158
0.399475 0.031158 0.031158
0.455688 0.031158 0.031158
0.511078 0.031158 0.031158
0.563873 0.031158 0.031158
0.614655 0.031158 0.031158
0.665161 0.031158 0.031158
0.715790 0.031158 0.031158
0.766510 0.031158 0.031158
0.817688 0.031158 0.039795
0.869019 0.043671 0.088409
0.920776 0.105225 0.149628
0.972809 0.178894 0.202759
1.000000 0.248871 0.250427
1.000000 0.315521 0.294525
1.000000 0.309601 0.319305
1.000000 0.159210 0.323059
1.000000 0.039551 0.322632
1.000000 0.031158 0.322083
1.000000 0.031158 0.321320
1.000000 0.031158 0.320190
1.000000 0.031158 0.318817
1.000000 0.031158 0.316925
0.031158 0.051849 0.031158
0.031158 0.050964 0.031158
0.031281 0.049927 0.031158
0.040009 0.048584 0.031158
0.089569 0.047119 0.031158
0.133179 0.045380 0.031158
0.178284 0.042908 0.031158
0.228851 0.040955 0.031158
0.282043 0.038055 0.031158
0.337433 0.034576 0.031158
0.394287 0.032928 0.031158
0.451721 0.032166 0.031158
0.508514 0.031158 0.031158
0.562805 0.031158 0.031158
0.613831 0.031158 0.031158
0.664368 0.031158 0.031158
0.715088 0.031158 0.031158
0.766083 0.031158 0.031158
0.817352 0.031830 0.039642
0.868774 0.054260 0.087921
0.920593 0.118408 0.149384
0.972687 0.187073 0.202637
1.000000 0.254089 0.250305
1.000000 0.318878 0.294434
1.000000 0.312714 0.319244
1.000000 0.164093 0.323059
1.000000 0.039978 0.322632
1.000000 0.031158 0.322083
1.000000 0.031158 0.321320
1.000000 0.031158 0.320190
1.000000 0.031158 0.318817
1.000000 0.031158 0.316925
0.031158 0.097595 0.031158
0.031158 0.097321 0.031158
0.031158 0.096771 0.031158
0.035156 0.095947 0.031158
0.080841 0.094971 0.031158
0.125061 0.093842 0.031158
0.170929 0.091980 0.031158
0.222015 0.089142 0.031158
0.275665 0.084747 0.031158
0.331360 0.078400 0.031158
0.389008 0.069214 0.031158
0.447388 0.056366 0.031158
0.505432 0.040863 0.031158
0.561340 0.032684 0.031158
0.613342 0.031158 0.031158
0.663422 0.031158 0.031158
0.714508 0.031158 0.031158
0.765656 0.031158 0.031158
0.817047 0.036591 0.039520
0.868561 0.069611 0.087616
0.920410 0.131012 0.149139
0.972565 0.195068 0.202423
1.000000 0.259247 0.250214
1.000000 0.322235 0.294373
1.000000 0.315826 0.319244
1.000000 0.168884 0.323059
1.000000 0.040344 0.322632
1.000000 0.031158 0.322052
1.000000 0.031158 0.321320
1.000000 0.031158 0.320160
1.000000 0.031158 0.318817
1.000000 0.031158 0.316925
0.031158 0.135559 0.031158
0.031158 0.135651 0.031158
0.031158 0.135468 0.031158
0.033081 0.135071 0.031158
0.072479 0.134583 0.031158
0.116882 0.133820 0.031158
0.163788 0.132568 0.031158
0.215363 0.130524 0.031158
0.269379 0.127167 0.031158
0.325470 0.121948 0.031158
0.383514 0.114410 0.031158
0.442657 0.104156 0.031158
0.501801 0.089386 0.031158
0.559265 0.067871 0.031158
0.612854 0.041687 0.031158
0.662964 0.032593 0.031158
0.713898 0.032562 0.031158
0.765228 0.033752 0.031158
0.816620 0.044403 0.039368
0.868317 0.088531 0.087250
0.920197 0.143311 0.148834
0.972412 0.203094 0.202240
1.000000 0.264496 0.250122
1.000000 0.325653 0.294312
1.000000 0.318939 0.319244
1.000000 0.173828 0.323029
1.000000 0.040741 0.322632
1.000000 0.031158 0.322052
1.000000 0.031158 0.321320
1.000000 0.031158 0.320160
1.000000 0.031158 0.318817
1.000000 0.031158 0.316895
0.031158 0.175079 0.031158
0.031158 0.175537 0.031158
0.031158 0.175751 0.031158
0.032501 0.175751 0.031158
0.062439 0.175446 0.031158
0.108154 0.175079 0.031158
0.155426 0.174438 0.031158
0.207458 0.173096 0.031158
0.261932 0.170746 0.031158
0.318298 0.166901 0.031158
0.376556 0.161072 0.031158
0.436432 0.152588 0.031158
0.496735 0.140594 0.031158
0.555939 0.123749 0.031158
0.611847 0.098785 0.031158
0.662872 0.065430 0.031158
0.713074 0.046783 0.031158
0.764557 0.052826 0.031158
0.816193 0.074432 0.039185
0.867981 0.111023 0.086823
0.919983 0.158661 0.148529
0.972198 0.213196 0.202057
1.000000 0.271088 0.250000
1.000000 0.330139 0.294220
1.000000 0.322937 0.319214
1.000000 0.180054 0.323029
1.000000 0.041229 0.322601
1.000000 0.031158 0.322052
1.000000 0.031158 0.321289
1.000000 0.031158 0.320160
1.000000 0.031158 0.318817
1.000000 0.031158 0.316895
0.031158 0.219116 0.035828
0.031158 0.219849 0.032501
0.031158 0.220367 0.031158
0.031830 0.220703 0.031158
0.050018 0.220856 0.031158
0.097168 0.220856 0.031158
0.145172 0.220673 0.031158
0.197815 0.220032 0.031158
0.252350 0.218597 0.031158
0.308929 0.216003 0.031158
0.367554 0.211670 0.031158
0.427765 0.205017 0.031158
0.489197 0.195557 0.031158
0.550110 0.182190 0.031158
0.608704 0.163269 0.031158
0.662659 0.135468 0.031158
0.712463 0.106171 0.031158
0.763763 0.101501 0.031158
0.815613 0.113129 0.038940
0.867554 0.139435 0.086212
0.919647 0.178680 0.148163
0.971954 0.226807 0.201782
1.000000 0.280151 0.249817
1.000000 0.336212 0.294098
1.000000 0.328491 0.319183
1.000000 0.188568 0.323029
1.000000 0.041870 0.322601
1.000000 0.031158 0.322052
1.000000 0.031158 0.321289
1.000000 0.031158 0.320160
1.000000 0.031158 0.318817
1.000000 0.031158 0.316895
0.031158 0.265381 0.069641
0.031158 0.265808 0.046753
0.031158 0.266724 0.036438
0.031158 0.267426 0.033203
0.039185 0.267914 0.031281
0.083771 0.268250 0.031158
0.133392 0.268494 0.031158
0.186951 0.268463 0.031158
0.241852 0.267914 0.031158
0.298340 0.266357 0.031158
0.356689 0.263458 0.031158
0.416992 0.258575 0.031158
0.478851 0.251251 0.031158
0.541260 0.240601 0.031158
0.602783 0.225677 0.031158
0.660950 0.205414 0.031158
0.713165 0.177460 0.031158
0.762695 0.155518 0.031158
0.814819 0.157837 0.038605
0.866913 0.173950 0.085327
0.919220 0.203552 0.147675
0.971619 0.244110 0.201447
1.000000 0.292053 0.249573
1.000000 0.344299 0.293884
1.000000 0.335876 0.319153
1.000000 0.199646 0.323029
1.000000 0.042725 0.322601
1.000000 0.031158 0.322021
1.000000 0.031158 0.321289
1.000000 0.031158 0.320129
1.000000 0.031158 0.318787
1.000000 0.031158 0.316895
0.031158 0.315002 0.105988
0.031158 0.313660 0.100403
0.031158 0.314117 0.081909
0.031158 0.315002 0.060425
0.032959 0.315948 0.041046
0.068298 0.316620 0.037170
0.119537 0.317261 0.032928
0.174927 0.317780 0.031219
0.230499 0.318024 0.031158
0.286957 0.317535 0.031158
0.344818 0.316040 0.031158
0.404297 0.312775 0.031158
0.465881 0.307190 0.031158
0.528839 0.298889 0.031158
0.592773 0.287079 0.031158
0.655426 0.271332 0.031158
0.712738 0.250336 0.031158
0.763519 0.223297 0.031158
0.813660 0.208710 0.038116
0.866028 0.214539 0.084229
0.918488 0.234070 0.146973
0.971191 0.266052 0.200989
1.000000 0.307373 0.249268
1.000000 0.354858 0.293579
1.000000 0.345612 0.319092
1.000000 0.213806 0.323029
1.000000 0.044586 0.322601
1.000000 0.031158 0.322021
1.000000 0.031158 0.321259
1.000000 0.031158 0.320129
1.000000 0.031158 0.318787
1.000000 0.031158 0.316864
0.031158 0.366150 0.143372
0.031158 0.364899 0.140594
0.031158 0.363495 0.137817
0.031158 0.363586 0.125824
0.031250 0.364349 0.110748
0.048157 0.365356 0.092651
0.103851 0.366425 0.070404
0.161652 0.367645 0.041901
0.218811 0.368561 0.034821
0.275635 0.369019 0.031403
0.332886 0.368652 0.031158
0.391388 0.367004 0.031158
0.451691 0.363281 0.031158
0.514282 0.357178 0.031158
0.578430 0.347931 0.031158
0.644653 0.335236 0.031158
0.708008 0.319153 0.031158
0.764099 0.297058 0.031158
0.813477 0.270172 0.037354
0.864960 0.262329 0.082703
0.917694 0.271271 0.145966
0.970490 0.293518 0.200378
1.000000 0.327057 0.248840
1.000000 0.368652 0.293274
1.000000 0.358124 0.319031
1.000000 0.231628 0.322998
1.000000 0.047150 0.322571
1.000000 0.031158 0.321991
1.000000 0.031158 0.321259
1.000000 0.031158 0.320099
1.000000 0.031158 0.318756
1.000000 0.031158 0.316833
0.031158 0.417999 0.184540
0.031158 0.417053 0.182373
0.031158 0.416077 0.180176
0.031158 0.415009 0.177948
0.031158 0.414093 0.175446
0.034393 0.414490 0.164948
0.082275 0.415497 0.149109
0.145782 0.417267 0.124634
0.206451 0.419006 0.094635
0.265076 0.420349 0.057434
0.322540 0.421173 0.037445
0.380005 0.420746 0.031158
0.438690 0.418945 0.031158
0.499512 0.414795 0.031158
0.563080 0.408051 0.031158
0.628448 0.398010 0.031158
0.696198 0.384674 0.031158
0.759888 0.368073 0.031158
0.815125 0.344604 0.035461
0.863739 0.318787 0.080536
0.916626 0.316132 0.144714
0.969666 0.327759 0.199402
1.000000 0.352112 0.248260
1.000000 0.386597 0.292877
1.000000 0.374451 0.318939
1.000000 0.254211 0.322968
1.000000 0.050415 0.322540
1.000000 0.031158 0.321991
1.000000 0.031158 0.321228
1.000000 0.031158 0.320099
1.000000 0.031158 0.318726
1.000000 0.031158 0.316833
0.031158 0.470886 0.231293
0.031158 0.470184 0.229797
0.031158 0.469330 0.228241
0.031158 0.468628 0.226776
0.031616 0.467896 0.225159
0.035583 0.467102 0.223480
0.065491 0.466095 0.221466
0.127533 0.466980 0.206970
0.192841 0.469025 0.183838
0.255554 0.471375 0.154510
0.314819 0.473206 0.119751
0.372498 0.474091 0.077454
0.429749 0.473785 0.040680
0.488068 0.471619 0.031158
0.548706 0.467102 0.031158
0.612061 0.459717 0.031158
0.677399 0.448822 0.031158
0.747009 0.434906 0.031158
0.811279 0.417633 0.033295
0.866180 0.393677 0.075439
0.915039 0.369995 0.142914
0.968567 0.370026 0.198273
1.000000 0.383850 0.247375
1.000000 0.409637 0.292358
1.000000 0.395569 0.318817
1.000000 0.282013 0.322937
1.000000 0.054504 0.322510
1.000000 0.031158 0.321930
1.000000 0.031158 0.321198
1.000000 0.031158 0.320038
1.000000 0.031158 0.318695
1.000000 0.031158 0.316803
0.031158 0.524750 0.283875
0.031158 0.524109 0.282654
0.031158 0.523560 0.281555
0.031708 0.523041 0.280365
0.035187 0.522491 0.279205
0.043945 0.521942 0.278046
0.080566 0.521118 0.276428
0.124634 0.520081 0.274231
0.178040 0.519531 0.267578
0.244232 0.521881 0.244904
0.308044 0.524689 0.215973
0.367310 0.526733 0.183136
0.424164 0.527863 0.144806
0.480408 0.527435 0.096771
0.537811 0.524963 0.042969
0.597626 0.519989 0.031158
0.660278 0.511841 0.031158
0.725067 0.500031 0.031158
0.796722 0.485443 0.032867
0.862366 0.467743 0.071136
0.917542 0.443604 0.141205
0.967010 0.421906 0.196625
1.000000 0.423828 0.246338
1.000000 0.439362 0.291626
1.000000 0.422577 0.318665
1.000000 0.316284 0.322906
1.000000 0.075684 0.322449
1.000000 0.031158 0.321899
1.000000 0.031158 0.321136
1.000000 0.031158 0.320007
1.000000 0.031158 0.318665
1.000000 0.031158 0.316742
0.031158 0.579193 0.337158
0.031403 0.578644 0.336151
0.035217 0.578247 0.335358
0.040558 0.577850 0.334564
0.053772 0.577423 0.333618
0.078125 0.576996 0.332733
0.106445 0.576447 0.331573
0.141998 0.575592 0.329956
0.183380 0.574554 0.327728
0.231628 0.573059 0.324768
0.297089 0.575348 0.303986
0.361481 0.578552 0.275787
0.420532 0.580963 0.244446
0.476593 0.582123 0.208954
0.531738 0.581543 0.165222
0.587921 0.578705 0.104462
0.646484 0.573212 0.037781
0.707855 0.564362 0.031158
0.771301 0.551422 0.031555
0.845612 0.536377 0.071869
0.912933 0.518036 0.140015
0.969055 0.493774 0.196716
1.000000 0.473877 0.244843
1.000000 0.477325 0.290558
1.000000 0.456940 0.318420
1.000000 0.357849 0.322845
1.000000 0.140381 0.322418
1.000000 0.033630 0.321838
1.000000 0.031158 0.321075
1.000000 0.031158 0.319946
1.000000 0.031158 0.318604
1.000000 0.031158 0.316681
0.042816 0.634125 0.390808
0.051025 0.633820 0.390167
0.066650 0.633423 0.389557
0.085968 0.633087 0.388947
0.104156 0.632751 0.388214
0.121521 0.632446 0.387573
0.142426 0.632019 0.386749
0.169342 0.631470 0.385468
0.201996 0.630615 0.383942
0.241241 0.629578 0.381714
0.287811 0.628082 0.378754
0.350494 0.629547 0.362305
0.415680 0.633118 0.334290
0.474609 0.635742 0.304077
0.529724 0.636932 0.270752
0.583588 0.636017 0.229858
0.638336 0.632904 0.171509
0.695343 0.626923 0.078766
0.754669 0.617340 0.031158
0.815979 0.603088 0.085052
0.893250 0.587402 0.142059
0.963196 0.568542 0.197632
1.000000 0.544220 0.246002
1.000000 0.525848 0.289246
1.000000 0.500336 0.318115
1.000000 0.408264 0.322754
1.000000 0.227875 0.322357
1.000000 0.039520 0.321777
1.000000 0.031158 0.321014
1.000000 0.031158 0.319885
1.000000 0.031158 0.318512
1.000000 0.031158 0.316620
0.107056 0.689606 0.445068
0.121124 0.689392 0.444611
0.134521 0.689117 0.444153
0.147186 0.688904 0.443695
0.159576 0.688660 0.443237
0.171600 0.688446 0.442719
0.186554 0.688019 0.442047
0.206207 0.687561 0.441193
0.230804 0.687012 0.440002
0.261200 0.686249 0.438354
0.298462 0.685059 0.436157
0.343781 0.683685 0.433228
0.404266 0.684326 0.419983
0.470551 0.688385 0.392090
0.529266 0.691193 0.362701
0.583374 0.692108 0.330811
0.635956 0.691101 0.291901
0.689209 0.687531 0.236023
0.744415 0.681030 0.141693
0.801178 0.670502 0.036652
0.859070 0.654846 0.169067
0.939636 0.638306 0.200409
1.000000 0.618958 0.248077
1.000000 0.594666 0.290802
1.000000 0.555145 0.317657
1.000000 0.469177 0.322662
1.000000 0.316315 0.322235
1.000000 0.047180 0.321686
1.000000 0.031158 0.320862
1.000000 0.031158 0.319763
1.000000 0.031158 0.318420
1.000000 0.031158 0.316498
0.183411 0.745514 0.499756
0.192413 0.745361 0.499329
0.201080 0.745178 0.498962
0.209534 0.744995 0.498627
0.217743 0.744843 0.498291
0.226044 0.744659 0.497955
0.236420 0.744415 0.497498
0.250458 0.744110 0.496735
0.268433 0.743622 0.495880
0.291290 0.743042 0.494720
0.319794 0.742157 0.493073
0.355438 0.741089 0.490875
0.399719 0.739594 0.487946
0.458527 0.739594 0.477264
0.525879 0.744019 0.449219
0.584564 0.746918 0.420349
0.637604 0.747681 0.389587
0.688873 0.746368 0.351990
0.740570 0.742401 0.297577
0.793793 0.735352 0.200592
0.847473 0.723846 0.039459
0.899933 0.706451 0.112457
0.984619 0.689148 0.251312
1.000000 0.669312 0.293579
1.000000 0.630920 0.320923
1.000000 0.543060 0.322510
1.000000 0.410461 0.322083
1.000000 0.151947 0.321533
1.000000 0.031158 0.320648
1.000000 0.031158 0.319641
1.000000 0.031158 0.318268
1.000000 0.031158 0.316376
0.254822 0.802002 0.554688
0.260651 0.801910 0.554443
0.266357 0.801758 0.554047
0.271973 0.801636 0.553802
0.277618 0.801514 0.553558
0.283356 0.801361 0.553253
0.290466 0.801208 0.552948
0.300354 0.800964 0.552460
0.313202 0.800476 0.551819
0.329742 0.800049 0.550842
0.351044 0.799469 0.549713
0.378113 0.798645 0.548035
0.412354 0.797485 0.545868
0.455719 0.796051 0.542969
0.513275 0.795532 0.534332
0.581726 0.800049 0.506012
0.640076 0.802979 0.477417
0.692200 0.803680 0.447449
0.742157 0.801941 0.410706
0.792328 0.797516 0.357117
0.843658 0.789948 0.256958
0.893646 0.777435 0.032227
0.939056 0.757996 0.056427
1.000000 0.739716 0.296997
1.000000 0.711639 0.325653
1.000000 0.640533 0.326721
1.000000 0.515503 0.321899
1.000000 0.317200 0.321350
1.000000 0.039215 0.320465
1.000000 0.031158 0.319458
1.000000 0.031158 0.318024
1.000000 0.031158 0.316193
0.322815 0.858917 0.609833
0.326782 0.858826 0.609650
0.330597 0.858734 0.609436
0.334473 0.858643 0.609253
0.338287 0.858551 0.609009
0.342102 0.858429 0.608765
0.347137 0.858276 0.608521
0.354034 0.858002 0.608154
0.363068 0.857727 0.607697
0.374939 0.857422 0.607056
0.390381 0.856964 0.606110
0.410492 0.856384 0.604950
0.436310 0.855469 0.603302
0.469513 0.854401 0.601196
0.512085 0.852936 0.598328
0.568573 0.851807 0.591278
0.637939 0.856659 0.562469
0.695923 0.859497 0.534210
0.747162 0.859802 0.504700
0.795990 0.857758 0.468445
0.844818 0.853058 0.415253
0.894226 0.844818 0.311646
0.940277 0.831268 0.048401
0.977417 0.809540 0.240295
1.000000 0.786652 0.332031
1.000000 0.738281 0.332764
1.000000 0.645111 0.326874
1.000000 0.476379 0.321106
1.000000 0.182404 0.320221
1.000000 0.031158 0.319183
1.000000 0.031158 0.317719
1.000000 0.031158 0.315918
0.388702 0.916229 0.665192
0.391357 0.916138 0.665070
0.394012 0.916046 0.664917
0.396667 0.915894 0.664764
0.399231 0.915802 0.664642
0.401917 0.915710 0.664490
0.405426 0.915619 0.664307
0.410278 0.915497 0.664032
0.416656 0.915314 0.663605
0.425049 0.915070 0.663086
0.436157 0.914734 0.662445
0.450714 0.914276 0.661621
0.469788 0.913666 0.660370
0.494720 0.912750 0.658813
0.527039 0.911682 0.656616
0.568878 0.910126 0.653717
0.624329 0.908691 0.648102
0.694489 0.913635 0.618805
0.752136 0.916351 0.590759
0.802429 0.916382 0.561523
0.850220 0.913971 0.525543
0.897705 0.908752 0.472595
0.945312 0.899933 0.368530
0.987427 0.885223 0.130341
1.000000 0.859894 0.126617
1.000000 0.825226 0.346191
1.000000 0.764862 0.334686
1.000000 0.650177 0.326965
1.000000 0.416901 0.319885
1.000000 0.037933 0.318878
1.000000 0.031158 0.317383
1.000000 0.031158 0.315582
0.452911 0.973755 0.720703
0.454773 0.973663 0.720612
0.456665 0.973633 0.720520
0.458435 0.973572 0.720398
0.460327 0.973511 0.720306
0.462250 0.973450 0.720215
0.464691 0.973389 0.720062
0.468048 0.973267 0.719879
0.472595 0.973145 0.719574
0.478607 0.972961 0.719238
0.486542 0.972717 0.718750
0.496979 0.972382 0.718018
0.510986 0.971924 0.717194
0.529175 0.971313 0.716034
0.553223 0.970398 0.714417
0.584808 0.969330 0.712219
0.626099 0.967743 0.709320
0.680634 0.965973 0.704773
0.751312 0.970825 0.675140
0.808502 0.973328 0.647034
0.858002 0.973053 0.618042
0.904755 0.970306 0.582153
0.951141 0.964661 0.529114
0.997162 0.955292 0.425537
1.000000 0.939423 0.158142
1.000000 0.911346 0.060669
1.000000 0.866180 0.121735
1.000000 0.796265 0.339508
1.000000 0.655273 0.326874
1.000000 0.320740 0.318420
1.000000 0.031158 0.316986
1.000000 0.031158 0.315033
0.516144 1.000000 0.776520
0.517456 1.000000 0.776459
0.518677 1.000000 0.776367
0.520081 1.000000 0.776276
0.521332 1.000000 0.776215
0.522705 1.000000 0.776093
0.524445 1.000000 0.776001
0.526794 1.000000 0.775787
0.530090 1.000000 0.775543
0.534332 1.000000 0.775269
0.540009 1.000000 0.774933
0.547607 1.000000 0.774475
0.557709 1.000000 0.773865
0.571075 1.000000 0.772858
0.588684 1.000000 0.771759
0.612061 1.000000 0.770081
0.642883 1.000000 0.768036
0.683624 1.000000 0.765167
0.737610 1.000000 0.761108
0.808380 1.000000 0.731262
0.865173 1.000000 0.703278
0.913971 1.000000 0.674255
0.959778 1.000000 0.638336
1.000000 1.000000 0.585327
1.000000 1.000000 0.482025
1.000000 0.992767 0.332031
1.000000 0.963379 0.142395
1.000000 0.916504 0.069885
1.000000 0.832336 0.391510
1.000000 0.659790 0.326569
1.000000 0.261932 0.316376
1.000000 0.031158 0.314423
0.578583 1.000000 0.832306
0.579559 1.000000 0.832214
0.580444 1.000000 0.832153
0.581360 1.000000 0.832092
0.582367 1.000000 0.832062
0.583282 1.000000 0.832001
0.584595 1.000000 0.831909
0.586243 1.000000 0.831818
0.588531 1.000000 0.831665
0.591614 1.000000 0.831482
0.595795 1.000000 0.831207
0.601227 1.000000 0.830841
0.608459 1.000000 0.830261
0.618225 1.000000 0.829620
0.631165 1.000000 0.828796
0.648285 1.000000 0.827576
0.671021 1.000000 0.826019
0.701263 1.000000 0.823853
0.741547 1.000000 0.820984
0.795044 1.000000 0.817139
0.865723 1.000000 0.787476
0.922028 1.000000 0.759399
0.970032 1.000000 0.730408
1.000000 1.000000 0.694397
1.000000 1.000000 0.641083
1.000000 1.000000 0.574707
1.000000 1.000000 0.483704
1.000000 1.000000 0.327820
1.000000 0.967651 0.081085
1.000000 0.876831 0.102631
1.000000 0.661530 0.325867
1.000000 0.161560 0.313629
0.634827 1.000000 0.884979
0.635529 1.000000 0.884979
0.636230 1.000000 0.884949
0.637024 1.000000 0.884918
0.637695 1.000000 0.884888
0.638397 1.000000 0.884888
0.639435 1.000000 0.884857
0.640747 1.000000 0.884796
0.642548 1.000000 0.884766
0.644989 1.000000 0.884705
0.648163 1.000000 0.884613
0.652344 1.000000 0.884491
0.658112 1.000000 0.884308
0.665619 1.000000 0.884094
0.675720 1.000000 0.883789
0.689087 1.000000 0.883362
0.706787 1.000000 0.882721
0.730072 1.000000 0.881805
0.760010 1.000000 0.879791
0.799713 1.000000 0.876892
0.853027 1.000000 0.873047
0.923248 1.000000 0.843536
0.978943 1.000000 0.815521
1.000000 1.000000 0.786316
1.000000 1.000000 0.750183
1.000000 1.000000 0.706757
1.000000 1.000000 0.663879
1.000000 1.000000 0.595673
1.000000 1.000000 0.448456
1.000000 1.000000 0.208649
1.000000 0.924805 0.077423
1.000000 0.654297 0.325470
0.579254 1.000000 0.879242
0.579926 1.000000 0.879242
0.580627 1.000000 0.879211
0.581329 1.000000 0.879211
0.582123 1.000000 0.879181
0.582855 1.000000 0.879181
0.583771 1.000000 0.879150
0.585205 1.000000 0.879120
0.586914 1.000000 0.879089
0.589355 1.000000 0.879059
0.592621 1.000000 0.878998
0.596863 1.000000 0.878937
0.602570 1.000000 0.878845
0.610199 1.000000 0.878693
0.620270 1.000000 0.878510
0.633606 1.000000 0.878265
0.651245 1.000000 0.877930
0.674469 1.000000 0.877380
0.705048 1.000000 0.876709
0.744812 1.000000 0.875641
0.797150 1.000000 0.874084
0.865967 1.000000 0.872162
0.950745 1.000000 0.841949
1.000000 1.000000 0.815491
1.000000 1.000000 0.789734
1.000000 1.000000 0.760101
1.000000 1.000000 0.745361
1.000000 1.000000 0.727905
1.000000 1.000000 0.683350
1.000000 1.000000 0.567169
1.000000 1.000000 0.354126
1.000000 0.973358 0.077484
0.459686 1.000000 0.851562
0.460510 1.000000 0.851562
0.461304 1.000000 0.851532
0.462189 1.000000 0.851532
0.462982 1.000000 0.851501
0.463806 1.000000 0.851501
0.464996 1.000000 0.851501
0.466492 1.000000 0.851471
0.468567 1.000000 0.851440
0.471344 1.000000 0.851379
0.474976 1.000000 0.851318
0.479919 1.000000 0.851257
0.486450 1.000000 0.851166
0.495026 1.000000 0.851013
0.506378 1.000000 0.850800
0.521210 1.000000 0.850555
0.540833 1.000000 0.850189
0.566254 1.000000 0.849670
0.599304 1.000000 0.849091
0.642120 1.000000 0.848267
0.697418 1.000000 0.847107
0.768921 1.000000 0.845673
0.861725 1.000000 0.843658
0.966919 1.000000 0.807709
1.000000 1.000000 0.777191
1.000000 1.000000 0.745422
1.000000 1.000000 0.725952
1.000000 1.000000 0.716187
1.000000 1.000000 0.701630
1.000000 1.000000 0.675018
1.000000 1.000000 0.624329
1.000000 1.000000 0.449829
0.247437 1.000000 0.814240
0.248810 1.000000 0.814209
0.250122 1.000000 0.814209
0.251526 1.000000 0.814178
0.252777 1.000000 0.814178
0.254211 1.000000 0.814148
0.255951 1.000000 0.814148
0.258392 1.000000 0.814117
0.261749 1.000000 0.814087
0.266022 1.000000 0.814026
0.271729 1.000000 0.813965
0.279266 1.000000 0.813904
0.289062 1.000000 0.813782
0.301697 1.000000 0.813660
0.317963 1.000000 0.813477
0.338837 1.000000 0.813232
0.365173 1.000000 0.812897
