Postproduction/IWLTBAP - Humble/LUTs by IWLTBAP (CUBE)/UTILITY/Sony S-Log3 to Rec.709/U-SONY-S-LOG3-V5-LTR.cube
# Copyright: (C) Copyright 2010-2018 by IWLTBAP SAS
# Cannot be resold, shared or otherwise redistributed
# Website: https://luts.iwltbap.com
TITLE "Sony S-Log3 Version 5 (Utility LOG to Rec.709)"
LUT_3D_SIZE 5
DOMAIN_MIN 0.000000 0.000000 0.000000
DOMAIN_MAX 0.903226 0.903226 0.903226
0.003906 0.003906 0.003906
0.268341 0.003906 0.003906
0.824158 0.003906 0.003906
0.996094 0.204773 0.003906
0.996094 0.770782 0.003906
0.003906 0.234589 0.003906
0.235596 0.223114 0.003906
0.793304 0.226685 0.003906
0.996094 0.387238 0.003906
0.996094 0.791199 0.003906
0.003967 0.756165 0.003906
0.235962 0.746826 0.003906
0.740906 0.732025 0.003906
0.996094 0.737396 0.003906
0.996094 0.869537 0.003906
0.460236 0.995392 0.003906
0.537750 0.995300 0.003906
0.753174 0.995087 0.003906
0.994690 0.994720 0.003906
0.996094 0.995483 0.003906
0.949280 0.996094 0.003906
0.953613 0.996094 0.003906
0.971161 0.996094 0.003906
0.996094 0.996094 0.003906
0.996094 0.996094 0.003906
0.003906 0.003906 0.293152
0.219574 0.003906 0.274445
0.817993 0.003906 0.202942
0.996094 0.182312 0.003906
0.996094 0.769012 0.003906
0.003906 0.202179 0.216278
0.192535 0.192871 0.192505
0.789368 0.197174 0.101868
0.996094 0.375488 0.003906
0.996094 0.789581 0.003906
0.003906 0.754181 0.004181
0.202911 0.743652 0.003906
0.736298 0.728699 0.003906
0.996094 0.735291 0.003906
0.996094 0.868805 0.003906
0.449707 0.995392 0.003906
0.529266 0.995300 0.003906
0.750397 0.995087 0.003906
0.994690 0.994720 0.003906
0.996094 0.995483 0.003906
0.948761 0.996094 0.003906
0.953094 0.996094 0.003906
0.970856 0.996094 0.003906
0.996094 0.996094 0.003906
0.996094 0.996094 0.003906
0.003906 0.003906 0.849304
0.003906 0.003906 0.848969
0.787842 0.003906 0.822449
0.996094 0.015778 0.758606
0.996094 0.752533 0.191010
0.003906 0.009766 0.842438
0.003906 0.010803 0.841278
0.776611 0.020752 0.806915
0.996094 0.278687 0.724243
0.996094 0.774658 0.165405
0.003906 0.731293 0.741241
0.004761 0.724854 0.733551
0.703339 0.703369 0.703278
0.996063 0.711334 0.637909
0.996094 0.861267 0.039795
0.366302 0.995178 0.389801
0.461090 0.995117 0.383423
0.724792 0.994873 0.357849
0.994446 0.994476 0.246063
0.996094 0.995422 0.003906
0.945526 0.996094 0.003906
0.949982 0.996094 0.003906
0.968903 0.996094 0.003906
0.996094 0.996094 0.003906
0.996094 0.996094 0.003906
0.003906 0.003906 0.996094
0.003906 0.003906 0.996094
0.168488 0.003906 0.996094
0.996094 0.003906 0.996094
0.996094 0.610352 0.996094
0.003906 0.003906 0.996094
0.003906 0.003906 0.996094
0.189117 0.003906 0.996094
0.996094 0.003906 0.996094
0.996094 0.653229 0.995911
0.003906 0.479675 0.996094
0.003906 0.482574 0.996094
0.163635 0.481140 0.996094
0.995453 0.520020 0.996094
0.996094 0.799988 0.994629
0.003906 0.995270 0.995056
0.003906 0.995300 0.995056
0.480438 0.994415 0.994263
0.992554 0.992828 0.992554
0.996094 0.994324 0.981995
0.908203 0.996094 0.913727
0.913818 0.996094 0.913391
0.943176 0.996094 0.911102
0.996094 0.996094 0.904022
0.996094 0.996094 0.869965
0.003906 0.003906 0.996094
0.003906 0.003906 0.996094
0.003906 0.003906 0.996094
0.673035 0.003906 0.996094
0.996094 0.003906 0.996094
0.003906 0.003906 0.996094
0.003906 0.003906 0.996094
0.003906 0.003906 0.996094
0.675171 0.003906 0.996094
0.996094 0.003906 0.996094
0.003906 0.003906 0.996094
0.003906 0.003906 0.996094
0.003906 0.003906 0.996094
0.687683 0.003906 0.996094
0.996094 0.003906 0.996094
0.003906 0.909302 0.996094
0.003906 0.909454 0.996094
0.003906 0.910522 0.996094
0.585663 0.900085 0.996094
0.996094 0.931885 0.996094
0.003906 0.996094 0.996094
0.003906 0.996094 0.996094
0.003906 0.996094 0.996094
0.954895 0.996094 0.996094
0.996094 0.996094 0.996094
