Postproduction/IWLTBAP - Humble/LUTs by IWLTBAP (CUBE)/UTILITY/Sony S-Log3 to Rec.709/U-SONY-S-LOG3-V7-LTR.cube
# Copyright: (C) Copyright 2010-2018 by IWLTBAP SAS
# Cannot be resold, shared or otherwise redistributed
# Website: https://luts.iwltbap.com
TITLE "Sony S-Log3 Version 7 (Utility LOG to Rec.709)"
LUT_3D_SIZE 8
DOMAIN_MIN 0.000000 0.000000 0.000000
DOMAIN_MAX 0.903226 0.903226 0.903226
0.000000 0.000000 0.000000
0.078400 0.000000 0.009003
0.358002 0.000000 0.089111
0.657593 0.000000 0.175293
0.918518 0.000000 0.250366
1.000000 0.000000 0.318909
1.000000 0.000000 0.364624
1.000000 0.000000 0.386841
0.000000 0.057312 0.000000
0.049744 0.055267 0.000000
0.354248 0.000000 0.085632
0.655914 0.000000 0.173737
0.917206 0.000000 0.249359
1.000000 0.000000 0.318176
1.000000 0.000000 0.364014
1.000000 0.000000 0.386261
0.000000 0.275787 0.000000
0.000000 0.275482 0.000000
0.247192 0.268036 0.000000
0.615479 0.241882 0.132263
0.892059 0.191040 0.225281
1.000000 0.048370 0.300873
1.000000 0.010040 0.349762
1.000000 0.000000 0.373138
0.000000 0.510315 0.000000
0.000000 0.510162 0.000000
0.000000 0.506866 0.000000
0.458862 0.496124 0.000000
0.807007 0.478790 0.109955
1.000000 0.454437 0.237030
1.000000 0.432220 0.299652
1.000000 0.419403 0.327820
0.000000 0.714386 0.000000
0.000000 0.714264 0.000000
0.000000 0.712189 0.000000
0.000000 0.705536 0.000000
0.643280 0.694794 0.000000
0.972992 0.680328 0.000000
1.000000 0.667664 0.186432
1.000000 0.660492 0.233429
0.000000 0.900421 0.000000
0.000000 0.900360 0.000000
0.000000 0.898804 0.000000
0.000000 0.893951 0.000000
0.213409 0.886108 0.000000
0.811096 0.875702 0.000000
1.000000 0.866669 0.000000
1.000000 0.861816 0.000000
0.000000 1.000000 0.000000
0.000000 1.000000 0.000000
0.000000 1.000000 0.000000
0.000000 1.000000 0.000000
0.000000 0.999207 0.000000
0.624054 0.997314 0.000000
0.923767 0.995636 0.000000
1.000000 0.992920 0.000000
0.000000 1.000000 0.000000
0.000000 1.000000 0.000000
0.000000 1.000000 0.000000
0.000000 1.000000 0.000000
0.000000 1.000000 0.000000
0.474792 1.000000 0.000000
0.846802 1.000000 0.000000
0.978088 1.000000 0.000000
0.000000 0.000000 0.052185
0.078308 0.000000 0.055542
0.357971 0.000000 0.105164
0.657593 0.000000 0.183197
0.918518 0.000000 0.255646
1.000000 0.000000 0.322632
1.000000 0.000000 0.368011
1.000000 0.000000 0.389740
0.000000 0.051849 0.046112
0.049377 0.049866 0.049530
0.352905 0.021637 0.098236
0.656647 0.000000 0.177765
0.920532 0.000000 0.251221
1.000000 0.000000 0.319305
1.000000 0.000000 0.365265
1.000000 0.000000 0.386230
0.000000 0.274963 0.000000
0.000000 0.274384 0.000000
0.248627 0.265259 0.000000
0.618835 0.225647 0.147736
0.885956 0.222137 0.226410
1.000000 0.168182 0.299225
1.000000 0.054291 0.346863
1.000000 0.031342 0.369598
0.000000 0.509918 0.000000
0.000000 0.509247 0.000000
0.000000 0.505737 0.000000
0.461853 0.492310 0.000000
0.814331 0.459015 0.139008
1.000000 0.415619 0.255371
1.000000 0.399780 0.311310
1.000000 0.401062 0.334991
0.000000 0.714142 0.000000
0.000000 0.713287 0.000000
0.000000 0.710938 0.000000
0.000000 0.704102 0.000000
0.647705 0.689636 0.000000
0.979309 0.663605 0.044037
1.000000 0.637329 0.215668
1.000000 0.622040 0.259979
0.000000 0.900238 0.000000
0.000000 0.899231 0.000000
0.000000 0.897430 0.000000
0.000000 0.892151 0.000000
0.242462 0.884338 0.000000
0.817017 0.869781 0.000000
1.000000 0.853943 0.000000
1.000000 0.844849 0.000000
0.000000 1.000000 0.000000
0.000000 1.000000 0.000000
0.000000 1.000000 0.000000
0.000000 1.000000 0.000000
0.000000 0.998810 0.000000
0.639160 0.996887 0.000000
0.930054 0.989899 0.000000
1.000000 0.983307 0.000000
0.000000 1.000000 0.000000
0.000000 1.000000 0.000000
0.000000 1.000000 0.000000
0.000000 1.000000 0.000000
0.000000 1.000000 0.000000
0.498383 1.000000 0.000000
0.859497 1.000000 0.000000
0.985077 1.000000 0.000000
0.000000 0.000000 0.256714
0.075897 0.000000 0.257263
0.357635 0.000000 0.269043
0.657440 0.000000 0.302277
0.918427 0.000000 0.346466
1.000000 0.000000 0.395203
1.000000 0.000000 0.431183
1.000000 0.000000 0.449127
0.000000 0.000000 0.255798
0.047607 0.000000 0.256592
0.348083 0.000000 0.267883
0.633911 0.000000 0.296783
0.888367 0.000000 0.335632
1.000000 0.000000 0.358948
1.000000 0.000000 0.384308
1.000000 0.000000 0.399963
0.000000 0.255432 0.232758
0.000000 0.254517 0.233521
0.246338 0.246796 0.246521
0.607422 0.253571 0.275299
0.883575 0.248077 0.318939
1.000000 0.226990 0.368561
1.000000 0.199280 0.405365
1.000000 0.184601 0.423828
0.000000 0.501343 0.114471
0.000000 0.500854 0.116394
0.000000 0.497498 0.151154
0.460358 0.484833 0.213379
0.813934 0.451172 0.281982
1.000000 0.458038 0.335205
1.000000 0.454834 0.374756
1.000000 0.448364 0.395233
0.000000 0.708832 0.000000
0.000000 0.708191 0.000000
0.000000 0.706024 0.000000
0.000000 0.698853 0.005402
0.646118 0.685516 0.138794
0.980011 0.656952 0.259735
1.000000 0.630005 0.322815
1.000000 0.618744 0.349792
0.000000 0.896362 0.000000
0.000000 0.895538 0.000000
0.000000 0.893951 0.000000
0.000000 0.888611 0.000000
0.234467 0.880768 0.000000
0.815399 0.866882 0.009369
1.000000 0.850739 0.164490
1.000000 0.841095 0.223145
0.000000 1.000000 0.000000
0.000000 1.000000 0.000000
0.000000 1.000000 0.000000
0.000000 0.999634 0.000000
0.000000 0.998199 0.000000
0.635559 0.996277 0.000000
0.928558 0.987976 0.000000
1.000000 0.981323 0.000000
0.000000 1.000000 0.000000
0.000000 1.000000 0.000000
0.000000 1.000000 0.000000
0.000000 1.000000 0.000000
0.000000 1.000000 0.000000
0.493134 1.000000 0.000000
0.856689 1.000000 0.000000
0.983612 1.000000 0.000000
0.000000 0.000000 0.475830
0.067627 0.000000 0.476074
0.356476 0.000000 0.481628
0.656952 0.000000 0.497955
0.918030 0.000000 0.522247
1.000000 0.000000 0.552094
1.000000 0.000000 0.575928
1.000000 0.000000 0.588379
0.000000 0.000000 0.475403
0.034973 0.000000 0.476166
0.355774 0.000000 0.481934
0.644440 0.000000 0.497467
0.884094 0.000000 0.510895
1.000000 0.000000 0.540894
1.000000 0.000000 0.566315
1.000000 0.000000 0.579346
0.000000 0.172699 0.465729
0.000000 0.168488 0.466400
0.246735 0.156311 0.471741
0.608032 0.099731 0.487823
0.866730 0.023193 0.506897
1.000000 0.000000 0.537872
1.000000 0.000000 0.549042
1.000000 0.000000 0.550446
0.000000 0.473541 0.432983
0.000000 0.472229 0.433624
0.000000 0.469116 0.439423
0.457428 0.458130 0.457733
0.795044 0.465515 0.476196
1.000000 0.472046 0.503784
1.000000 0.472870 0.526764
1.000000 0.473511 0.539734
0.000000 0.691650 0.373932
0.000000 0.690979 0.375366
0.000000 0.688812 0.382233
0.000000 0.681885 0.404144
0.644257 0.669128 0.436096
0.979279 0.641113 0.476746
1.000000 0.648041 0.500824
1.000000 0.651642 0.513367
0.000000 0.883850 0.268188
0.000000 0.883240 0.270203
0.000000 0.881683 0.280701
0.000000 0.876434 0.313049
0.224335 0.868439 0.356720
0.813538 0.855530 0.405090
1.000000 0.837921 0.443298
1.000000 0.826141 0.463074
0.000000 0.998840 0.069641
0.000000 0.998688 0.070892
0.000000 0.998444 0.088837
0.000000 0.997528 0.179688
0.000000 0.996094 0.261505
0.631348 0.989075 0.329742
0.926788 0.978607 0.375671
1.000000 0.971680 0.398773
0.000000 1.000000 0.027618
0.000000 1.000000 0.030731
0.000000 1.000000 0.043121
0.000000 1.000000 0.069885
0.000000 1.000000 0.169556
0.486694 1.000000 0.275848
0.853241 1.000000 0.331726
0.981812 1.000000 0.358307
0.000000 0.000000 0.666870
0.050690 0.000000 0.667023
0.354736 0.000000 0.670471
0.656189 0.000000 0.681213
0.917358 0.000000 0.697327
1.000000 0.000000 0.718140
1.000000 0.000000 0.735016
1.000000 0.000000 0.744171
0.000000 0.000000 0.666595
0.000000 0.000000 0.667480
0.354919 0.000000 0.671143
0.659454 0.000000 0.682129
0.902344 0.000000 0.698181
1.000000 0.000000 0.712189
1.000000 0.000000 0.717712
1.000000 0.000000 0.725037
0.000000 0.000000 0.660217
0.000000 0.000000 0.661041
0.245575 0.000000 0.664398
0.617554 0.000000 0.675537
0.880493 0.000000 0.691162
1.000000 0.000000 0.701538
1.000000 0.000000 0.716888
1.000000 0.000000 0.726837
0.000000 0.424835 0.640076
0.000000 0.421814 0.640869
0.000000 0.418213 0.644562
0.458221 0.405975 0.655731
0.798981 0.386139 0.671997
1.000000 0.376343 0.688263
1.000000 0.353943 0.707306
1.000000 0.342621 0.713165
0.000000 0.663452 0.607330
0.000000 0.661804 0.608124
0.000000 0.659973 0.611755
0.000000 0.652924 0.623627
0.641235 0.642365 0.641663
0.961548 0.648254 0.656250
1.000000 0.654816 0.670746
1.000000 0.658478 0.679504
0.000000 0.863800 0.559662
0.000000 0.863312 0.561432
0.000000 0.861755 0.565125
0.000000 0.856689 0.577942
0.212799 0.848358 0.598022
0.811737 0.835876 0.623718
1.000000 0.816040 0.646606
1.000000 0.811340 0.657349
0.000000 0.994171 0.514282
0.000000 0.993652 0.516388
0.000000 0.992493 0.520538
0.000000 0.988434 0.534790
0.000000 0.981781 0.557220
0.627014 0.972504 0.585175
0.925049 0.962769 0.607849
1.000000 0.955078 0.620514
0.000000 1.000000 0.487061
0.000000 1.000000 0.488983
0.000000 1.000000 0.493713
0.000000 1.000000 0.509003
0.000000 1.000000 0.532990
0.480591 1.000000 0.562622
0.850189 1.000000 0.586121
0.979828 1.000000 0.598816
0.000000 0.000000 0.840607
0.000000 0.000000 0.840698
0.352142 0.000000 0.843475
0.655151 0.000000 0.851227
0.916718 0.000000 0.863342
1.000000 0.000000 0.878906
1.000000 0.000000 0.891907
1.000000 0.000000 0.899017
0.000000 0.000000 0.840393
0.000000 0.000000 0.841431
0.353455 0.000000 0.844421
0.659210 0.000000 0.852448
0.921600 0.000000 0.864746
1.000000 0.000000 0.881500
1.000000 0.000000 0.888397
1.000000 0.000000 0.894165
0.000000 0.000000 0.835907
0.000000 0.000000 0.836884
0.243408 0.000000 0.839325
0.617371 0.000000 0.847626
0.895691 0.000000 0.860016
1.000000 0.000000 0.875763
1.000000 0.000000 0.883789
1.000000 0.000000 0.887604
0.000000 0.346039 0.821442
0.000000 0.339935 0.822327
0.000000 0.335022 0.824860
0.458069 0.319641 0.832947
0.808563 0.286285 0.845642
1.000000 0.242310 0.860687
1.000000 0.249023 0.868042
1.000000 0.234192 0.870300
0.000000 0.623779 0.798187
0.000000 0.620575 0.798920
0.000000 0.618622 0.801544
0.000000 0.611023 0.809967
0.642273 0.599365 0.822784
0.965759 0.584869 0.838654
1.000000 0.584503 0.847046
1.000000 0.578857 0.855255
0.000000 0.836578 0.766022
0.000000 0.834686 0.767242
0.000000 0.833405 0.769867
0.000000 0.828308 0.778381
0.206543 0.820343 0.791962
0.808624 0.809937 0.809113
1.000000 0.812500 0.818604
1.000000 0.814850 0.822571
0.000000 0.972290 0.737274
0.000000 0.971832 0.739532
0.000000 0.970490 0.742126
0.000000 0.965942 0.750702
0.000000 0.959167 0.764496
0.622620 0.949829 0.782806
0.923401 0.940552 0.798218
1.000000 0.932037 0.807343
0.000000 1.000000 0.720947
0.000000 1.000000 0.723145
0.000000 1.000000 0.725616
0.000000 1.000000 0.734711
0.000000 1.000000 0.748901
0.473602 1.000000 0.767792
0.847168 1.000000 0.783508
0.978180 0.999756 0.792145
0.000000 0.000000 0.957397
0.000000 0.000000 0.957489
0.350128 0.000000 0.959595
0.654266 0.000000 0.966156
0.916168 0.000000 0.976410
1.000000 0.000000 0.989716
1.000000 0.000000 0.996429
1.000000 0.000000 0.998047
0.000000 0.000000 0.957214
0.000000 0.000000 0.958435
0.351776 0.000000 0.960724
0.658905 0.000000 0.967560
0.922546 0.000000 0.978058
1.000000 0.000000 0.990967
1.000000 0.000000 0.996399
1.000000 0.000000 0.999237
0.000000 0.000000 0.953217
0.000000 0.000000 0.954315
0.241180 0.000000 0.956573
0.617065 0.000000 0.963379
0.895721 0.000000 0.973969
1.000000 0.000000 0.987244
1.000000 0.000000 0.995667
1.000000 0.000000 0.997284
0.000000 0.249908 0.941101
0.000000 0.237762 0.942108
0.000000 0.229523 0.944458
0.457642 0.202118 0.950989
0.808594 0.109070 0.961731
1.000000 0.059143 0.975403
1.000000 0.036285 0.985870
1.000000 0.048279 0.990845
0.000000 0.587097 0.921967
0.000000 0.582672 0.922882
0.000000 0.580536 0.924988
0.000000 0.572235 0.932037
0.642365 0.560089 0.942444
0.973938 0.540710 0.956757
1.000000 0.527466 0.966949
1.000000 0.536560 0.971069
0.000000 0.812408 0.895782
0.000000 0.809204 0.896545
0.000000 0.808044 0.898743
0.000000 0.802856 0.906006
0.206177 0.794617 0.916870
0.809662 0.783508 0.931396
1.000000 0.774658 0.942535
1.000000 0.777252 0.946411
0.000000 0.952606 0.872650
0.000000 0.950287 0.873627
0.000000 0.949371 0.875824
0.000000 0.945404 0.883240
0.000000 0.938599 0.894623
0.621002 0.929382 0.909332
0.921265 0.921875 0.921570
1.000000 0.923309 0.926849
0.000000 1.000000 0.859650
0.000000 1.000000 0.862244
0.000000 1.000000 0.864105
0.000000 1.000000 0.871246
0.000000 1.000000 0.882477
0.469910 0.997467 0.897156
0.844910 0.990265 0.909668
0.977020 0.985382 0.916534
0.000000 0.000000 1.000000
0.000000 0.000000 1.000000
0.349030 0.000000 1.000000
0.653809 0.000000 1.000000
0.915863 0.000000 1.000000
1.000000 0.000000 1.000000
1.000000 0.000000 1.000000
1.000000 0.000000 1.000000
0.000000 0.000000 1.000000
0.000000 0.000000 1.000000
0.351227 0.000000 1.000000
0.658722 0.000000 1.000000
0.922333 0.000000 1.000000
1.000000 0.000000 1.000000
1.000000 0.000000 1.000000
1.000000 0.000000 1.000000
0.000000 0.000000 1.000000
0.000000 0.000000 1.000000
0.239868 0.000000 1.000000
0.616943 0.000000 1.000000
0.895599 0.000000 1.000000
1.000000 0.000000 1.000000
1.000000 0.000000 1.000000
1.000000 0.000000 1.000000
0.000000 0.146484 0.998260
0.000000 0.096100 0.998718
0.000000 0.085663 0.999481
0.457520 0.076996 1.000000
0.808563 0.056305 1.000000
1.000000 0.000000 1.000000
1.000000 0.000000 1.000000
1.000000 0.000000 1.000000
0.000000 0.565735 0.981018
0.000000 0.560394 0.981964
0.000000 0.558197 0.983948
0.000000 0.549500 0.990173
0.642456 0.537079 0.999237
0.973938 0.516663 1.000000
1.000000 0.498016 1.000000
1.000000 0.492950 1.000000
0.000000 0.798767 0.957062
0.000000 0.795074 0.957794
0.000000 0.793884 0.959839
0.000000 0.788605 0.966278
0.206177 0.780151 0.976471
0.809814 0.769104 0.989655
1.000000 0.758484 0.999481
1.000000 0.755219 1.000000
0.000000 0.941589 0.935913
0.000000 0.938538 0.936615
0.000000 0.937653 0.938690
0.000000 0.933746 0.945557
0.000000 0.926910 0.955933
0.621002 0.917603 0.969574
0.921875 0.910004 0.980682
1.000000 0.906403 0.986511
0.000000 1.000000 0.924103
0.000000 0.999786 0.925110
0.000000 0.999725 0.927155
0.000000 0.999420 0.934021
0.000000 0.995636 0.944580
0.469940 0.987183 0.958282
0.844299 0.979767 0.969757
0.975128 0.976562 0.975739
