Postproduction/IWLTBAP - Humble/LUTs by IWLTBAP (CUBE)/UTILITY/Sony S-Log3 to Rec.709/U-SONY-S-LOG3-V2-LTR.cube
# Copyright: (C) Copyright 2010-2018 by IWLTBAP SAS
# Cannot be resold, shared or otherwise redistributed
# Website: https://luts.iwltbap.com
TITLE "Sony S-Log3 Version 2 (Utility LOG to Rec.709)"
LUT_3D_SIZE 32
0.000000 0.000000 0.000000
0.000000 0.000000 0.000000
0.000519 0.000000 0.000000
0.008606 0.000000 0.000000
0.018250 0.000000 0.000000
0.038452 0.000000 0.000000
0.060974 0.000397 0.000000
0.093292 0.002411 0.000000
0.128204 0.006500 0.000000
0.170654 0.016602 0.000000
0.215027 0.028656 0.000000
0.263489 0.044800 0.000000
0.316650 0.063324 0.000000
0.377258 0.085541 0.000000
0.437866 0.108673 0.000000
0.498444 0.132904 0.000000
0.565369 0.158203 0.000000
0.638062 0.184479 0.000000
0.711945 0.213074 0.000000
0.786682 0.243378 0.000000
0.852325 0.268463 0.000000
0.912933 0.290680 0.000000
0.955994 0.310059 0.000000
0.991852 0.328217 0.000000
0.997284 0.344849 0.000000
0.993744 0.360992 0.000000
0.996124 0.373779 0.000000
0.999664 0.385895 0.000000
0.996826 0.392548 0.000000
0.993286 0.398621 0.000000
0.993164 0.400757 0.000000
0.993164 0.402740 0.000000
0.000000 0.000000 0.000000
0.002014 0.002014 0.002014
0.002533 0.002014 0.001892
0.010620 0.002014 0.000000
0.020508 0.002289 0.000000
0.042480 0.004028 0.000000
0.065399 0.005585 0.000000
0.099365 0.012512 0.000000
0.133240 0.017120 0.000000
0.172668 0.028717 0.000000
0.217041 0.041412 0.000000
0.265533 0.058960 0.000000
0.317902 0.076691 0.000000
0.377258 0.097656 0.000000
0.437866 0.120789 0.000000
0.498444 0.145050 0.000000
0.564331 0.170349 0.000000
0.636047 0.196594 0.000000
0.706421 0.221680 0.000000
0.778595 0.249420 0.000000
0.846832 0.275818 0.000000
0.908875 0.298767 0.000000
0.954834 0.319550 0.000000
0.991852 0.338318 0.000000
1.000000 0.353394 0.000000
0.997284 0.369080 0.000000
0.993744 0.378479 0.000000
0.996124 0.389954 0.000000
0.999664 0.398407 0.000000
0.996826 0.404694 0.000000
0.993347 0.404877 0.000000
0.993164 0.406769 0.000000
0.000000 0.000519 0.000000
0.002136 0.002411 0.001892
0.004700 0.004547 0.003784
0.012756 0.004547 0.001770
0.022919 0.005219 0.000000
0.045135 0.007233 0.000000
0.069855 0.010803 0.000000
0.104187 0.018890 0.000000
0.139832 0.028137 0.000000
0.178192 0.040253 0.000000
0.219696 0.054199 0.000000
0.268188 0.072388 0.000000
0.320038 0.091217 0.000000
0.378632 0.111420 0.000000
0.438385 0.133453 0.000000
0.498993 0.157684 0.000000
0.564697 0.182861 0.000000
0.635406 0.209106 0.000000
0.705048 0.234314 0.000000
0.773712 0.258575 0.000000
0.839294 0.282410 0.000000
0.903931 0.306641 0.000000
0.950806 0.327911 0.000000
0.990723 0.348083 0.000000
0.999786 0.363617 0.000000
0.999786 0.377747 0.000000
0.997284 0.386810 0.000122
0.993744 0.394897 0.000122
0.996338 0.402863 0.000122
0.999878 0.410919 0.000122
0.996857 0.411224 0.000000
0.993378 0.411224 0.000000
0.000000 0.008606 0.000000
0.004028 0.008606 0.000000
0.006714 0.010620 0.001770
0.016815 0.014648 0.001770
0.027222 0.015686 0.000000
0.053223 0.023376 0.000000
0.078186 0.027740 0.000000
0.114288 0.041107 0.000000
0.150696 0.050751 0.000000
0.192352 0.064514 0.000000
0.233337 0.077911 0.000000
0.280304 0.094604 0.000000
0.329559 0.112793 0.000000
0.382660 0.131622 0.000000
0.443970 0.153625 0.000000
0.507050 0.177887 0.000000
0.571869 0.202148 0.000000
0.641449 0.227295 0.000000
0.712158 0.253540 0.000000
0.781799 0.278748 0.000000
0.842682 0.299103 0.000000
0.903931 0.320801 0.000000
0.948547 0.340729 0.000000
0.987183 0.360229 0.000000
0.996246 0.375732 0.000000
0.996246 0.389862 0.000000
0.999207 0.398926 0.001678
0.997284 0.407013 0.002136
0.996918 0.413269 0.002136
0.999878 0.421021 0.002136
1.000000 0.421295 0.000214
0.996918 0.421295 0.000000
0.000000 0.019287 0.000000
0.004028 0.019287 0.000000
0.009125 0.019531 0.000000
0.019867 0.023590 0.000000
0.032318 0.027863 0.000000
0.058563 0.035950 0.000000
0.086517 0.044952 0.000000
0.122894 0.059082 0.000000
0.160278 0.073242 0.000000
0.202698 0.087372 0.000000
0.246704 0.102417 0.000000
0.293152 0.118591 0.000000
0.341156 0.135529 0.000000
0.391663 0.153717 0.000000
0.448273 0.174347 0.000000
0.512909 0.198608 0.000000
0.579163 0.222839 0.000000
0.647858 0.247101 0.000000
0.717438 0.272247 0.000000
0.788116 0.298492 0.000000
0.849731 0.319550 0.000000
0.906281 0.337738 0.000000
0.948547 0.355652 0.000000
0.984894 0.373840 0.000000
0.993622 0.388367 0.000000
0.993622 0.402496 0.000000
0.995667 0.411316 0.001434
0.999207 0.419403 0.003448
0.999542 0.425659 0.003632
0.999542 0.431732 0.003632
0.999542 0.431915 0.001984
0.999542 0.431915 0.000000
0.000000 0.047546 0.000000
0.004028 0.047546 0.000000
0.009125 0.047821 0.000000
0.029327 0.051849 0.000000
0.042419 0.056152 0.000000
0.070679 0.062225 0.000000
0.098511 0.071075 0.000000
0.132996 0.083313 0.000000
0.169861 0.097473 0.000000
0.208771 0.111603 0.000000
0.253143 0.127045 0.000000
0.301239 0.144836 0.000000
0.349243 0.161774 0.000000
0.399750 0.179962 0.000000
0.455719 0.199951 0.000000
0.518982 0.222839 0.000000
0.583679 0.247101 0.000000
0.649872 0.271332 0.000000
0.718536 0.295563 0.000000
0.788116 0.320709 0.000000
0.849731 0.341766 0.000000
0.906281 0.359955 0.000000
0.948547 0.376709 0.000000
0.984894 0.394043 0.000000
0.995880 0.405975 0.000000
0.997162 0.418671 0.000000
0.994202 0.426056 0.000000
0.995667 0.433533 0.001434
0.996002 0.439789 0.001617
0.996002 0.445862 0.001617
0.996002 0.446075 0.001617
0.996002 0.446075 0.000000
0.000000 0.079346 0.000000
0.003265 0.078552 0.000000
0.009125 0.078705 0.000000
0.030884 0.082489 0.000000
0.053162 0.086517 0.000000
0.081970 0.092468 0.000000
0.110626 0.098511 0.000000
0.144989 0.110626 0.000000
0.181152 0.123657 0.000000
0.219513 0.137817 0.000000
0.259583 0.152069 0.000000
0.308075 0.170258 0.000000
0.358093 0.188446 0.000000
0.408600 0.206604 0.000000
0.463776 0.226624 0.000000
0.526398 0.248840 0.000000
0.590118 0.272125 0.000000
0.654755 0.296356 0.000000
0.720154 0.320190 0.000000
0.788849 0.344452 0.000000
0.850494 0.365173 0.000000
0.907074 0.383331 0.000000
0.949219 0.399689 0.000397
0.985596 0.415863 0.000397
0.995880 0.426941 0.000000
0.999420 0.437042 0.000000
0.997711 0.443756 0.000000
0.994202 0.449829 0.000000
0.993835 0.454712 0.000000
0.993835 0.460785 0.000000
0.993164 0.460602 0.000000
0.993164 0.460602 0.000000
0.000000 0.125824 0.000000
0.000000 0.121765 0.000000
0.005066 0.121124 0.000000
0.037384 0.123138 0.000000
0.061249 0.126923 0.000000
0.097595 0.130951 0.000000
0.126801 0.136902 0.000000
0.157104 0.142944 0.000000
0.193512 0.156097 0.000000
0.235687 0.172150 0.000000
0.274689 0.185638 0.000000
0.316132 0.198547 0.000000
0.366974 0.216705 0.000000
0.420715 0.234894 0.000000
0.474884 0.254883 0.000000
0.534485 0.277100 0.000000
0.598206 0.300385 0.000000
0.662842 0.324615 0.000000
0.725128 0.347687 0.000000
0.788849 0.370697 0.000000
0.852325 0.392334 0.000000
0.911102 0.411621 0.000000
0.953003 0.426941 0.001434
0.989105 0.442108 0.002411
0.997375 0.452026 0.000854
0.999420 0.461304 0.000000
1.000000 0.468018 0.000000
0.997711 0.474060 0.000000
0.997375 0.474670 0.000000
0.997375 0.478973 0.000000
0.994019 0.477264 0.000000
0.993164 0.476776 0.000000
0.000000 0.173309 0.000000
0.000000 0.169281 0.000000
0.002197 0.165497 0.000000
0.034912 0.167114 0.000000
0.068542 0.168884 0.000000
0.105682 0.172394 0.000000
0.142822 0.176819 0.000000
0.173767 0.182892 0.000000
0.206665 0.189484 0.000000
0.249084 0.205627 0.000000
0.291901 0.221008 0.000000
0.332306 0.233124 0.000000
0.377655 0.247070 0.000000
0.432190 0.265259 0.000000
0.487000 0.284210 0.000000
0.545563 0.306427 0.000000
0.608368 0.330231 0.000000
0.673004 0.354462 0.000000
0.735291 0.377014 0.000000
0.795868 0.399231 0.000000
0.854401 0.419128 0.000000
0.915009 0.439331 0.000000
0.955078 0.454712 0.000916
0.990936 0.468842 0.002930
1.000000 0.478302 0.002350
1.000000 0.486389 0.000336
1.000000 0.491730 0.000519
1.000000 0.497803 0.000519
0.999084 0.497864 0.000000
0.999084 0.497864 0.000000
0.996643 0.495941 0.000000
0.993164 0.493958 0.000000
0.000000 0.223816 0.000000
0.000000 0.219788 0.000000
0.002197 0.216003 0.000000
0.036560 0.216003 0.000000
0.070557 0.217377 0.000000
0.112976 0.217377 0.000000
0.150909 0.221283 0.000000
0.191284 0.227325 0.000000
0.224854 0.233917 0.000000
0.265259 0.242004 0.000000
0.308319 0.257507 0.000000
0.352509 0.271515 0.000000
0.397583 0.285187 0.000000
0.450378 0.301605 0.000000
0.503998 0.319794 0.000000
0.557678 0.338745 0.000000
0.621521 0.363068 0.000000
0.689148 0.388824 0.000000
0.751434 0.410706 0.000000
0.812042 0.431549 0.000000
0.867432 0.449890 0.000000
0.923096 0.467590 0.000000
0.957947 0.482086 0.000000
0.987427 0.495117 0.000916
0.998291 0.504578 0.001373
1.000000 0.512634 0.000336
1.000000 0.515656 0.001678
1.000000 0.520020 0.002533
0.996826 0.518799 0.000732
0.995544 0.518066 0.000000
0.995544 0.516144 0.000000
0.993164 0.514160 0.000000
0.000000 0.274963 0.000000
0.000000 0.270935 0.000000
0.000275 0.267151 0.000000
0.026794 0.267151 0.000000
0.066864 0.267670 0.000000
0.116302 0.268463 0.000000
0.159882 0.269226 0.000000
0.201324 0.275024 0.000000
0.241211 0.279541 0.000000
0.281494 0.287079 0.000000
0.323181 0.295166 0.000000
0.367615 0.309296 0.000000
0.413879 0.324219 0.000000
0.466400 0.340393 0.000000
0.522827 0.358093 0.000000
0.575348 0.376282 0.000000
0.632355 0.396057 0.000000
0.701019 0.422302 0.000000
0.764343 0.445038 0.000000
0.824951 0.465240 0.000000
0.879700 0.482208 0.000000
0.932220 0.498352 0.000000
0.964539 0.511017 0.000000
0.988800 0.523132 0.000000
0.995880 0.531494 0.000000
0.999420 0.539551 0.000000
1.000000 0.541931 0.001038
1.000000 0.543945 0.003052
0.996826 0.541656 0.002075
0.993286 0.539642 0.000061
0.993164 0.538300 0.000000
0.993164 0.536316 0.000000
0.000000 0.327484 0.000000
0.000000 0.323456 0.000000
0.000275 0.319672 0.000000
0.004303 0.319672 0.000000
0.036560 0.320190 0.000000
0.115326 0.324219 0.000000
0.165955 0.325806 0.000000
0.214447 0.329834 0.000000
0.255341 0.334076 0.000000
0.293732 0.334076 0.000000
0.335297 0.341614 0.000000
0.379761 0.349701 0.000000
0.425751 0.364624 0.000000
0.474487 0.380798 0.000000
0.532471 0.398773 0.000000
0.595551 0.418701 0.000000
0.650208 0.436920 0.000000
0.709106 0.456635 0.000000
0.771912 0.479401 0.000000
0.831024 0.499603 0.000000
0.885101 0.515900 0.000000
0.936249 0.530670 0.000000
0.968384 0.542542 0.000000
0.992310 0.553436 0.000000
0.997833 0.560852 0.000000
0.999420 0.567841 0.000000
1.000000 0.569153 0.000000
1.000000 0.570190 0.001038
0.996826 0.566742 0.001251
0.993286 0.563873 0.000061
0.993164 0.563812 0.000000
0.993164 0.562561 0.000000
0.000000 0.381561 0.000000
0.000000 0.379883 0.000000
0.000000 0.375824 0.000000
0.002747 0.374512 0.000000
0.015625 0.374786 0.000000
0.092834 0.378296 0.000000
0.168121 0.381958 0.000000
0.218933 0.385620 0.000000
0.268982 0.390686 0.000000
0.309448 0.391724 0.000000
0.351074 0.393677 0.000000
0.395782 0.401642 0.000000
0.440216 0.408142 0.000000
0.488678 0.424316 0.000000
0.542114 0.441498 0.000000
0.606750 0.461700 0.000000
0.668854 0.480896 0.000000
0.725403 0.499054 0.000000
0.780762 0.515289 0.000000
0.839355 0.535492 0.000000
0.891174 0.550232 0.000000
0.941681 0.564362 0.000000
0.969513 0.574097 0.000000
0.993256 0.584198 0.000000
1.000000 0.589600 0.000000
1.000000 0.595673 0.000000
1.000000 0.596649 0.000000
1.000000 0.596649 0.000000
0.998169 0.593781 0.000000
0.994659 0.589752 0.000000
0.994537 0.586487 0.000000
0.994537 0.586487 0.000000
0.000000 0.438141 0.000000
0.000000 0.440155 0.000000
0.000000 0.438446 0.000000
0.000000 0.434418 0.000000
0.011566 0.433380 0.000000
0.084290 0.435394 0.000000
0.158020 0.438538 0.000000
0.218597 0.440552 0.000000
0.270996 0.445221 0.000000
0.325531 0.453308 0.000000
0.369263 0.456299 0.000000
0.417725 0.462372 0.000000
0.462433 0.468750 0.000000
0.506866 0.472778 0.000000
0.559906 0.489868 0.000000
0.618866 0.508179 0.000000
0.681488 0.527344 0.000000
0.741547 0.545532 0.000000
0.795776 0.560181 0.000000
0.849457 0.573883 0.000000
0.900238 0.587555 0.000000
0.947723 0.598694 0.000000
0.972473 0.607117 0.000000
0.989716 0.614502 0.000000
0.997833 0.618347 0.000000
1.000000 0.621918 0.000000
1.000000 0.622925 0.000000
1.000000 0.622925 0.000000
1.000000 0.621094 0.000000
0.998169 0.618042 0.000000
0.998047 0.610199 0.000000
0.998047 0.606689 0.000000
0.000000 0.498322 0.000000
0.000000 0.497620 0.000000
0.000000 0.499908 0.000000
0.000000 0.499756 0.000000
0.004944 0.496490 0.000000
0.066620 0.498535 0.000000
0.142853 0.499756 0.000000
0.211243 0.500732 0.000000
0.272888 0.503296 0.000000
0.329376 0.510590 0.000000
0.385223 0.519318 0.000000
0.434998 0.525879 0.000000
0.485809 0.531952 0.000000
0.530914 0.536133 0.000000
0.577179 0.540161 0.000000
0.635742 0.558350 0.000000
0.692688 0.573792 0.000000
0.753296 0.591980 0.000000
0.808289 0.604828 0.000000
0.860809 0.616943 0.000000
0.909424 0.625031 0.000000
0.955872 0.635132 0.000000
0.975800 0.641449 0.000000
0.989960 0.647522 0.000000
0.994293 0.647736 0.000000
0.997833 0.649750 0.000000
1.000000 0.648254 0.000000
1.000000 0.648254 0.000000
1.000000 0.645538 0.000000
1.000000 0.643524 0.000000
1.000000 0.635773 0.000000
1.000000 0.627808 0.000000
0.000000 0.562958 0.000000
0.000000 0.558929 0.000000
0.000000 0.558472 0.000000
0.000000 0.564545 0.000000
0.004944 0.565186 0.000000
0.043335 0.567200 0.000000
0.108521 0.568451 0.000000
0.199402 0.566437 0.000000
0.268860 0.567932 0.000000
0.333496 0.571960 0.000000
0.391296 0.579926 0.000000
0.449860 0.589996 0.000000
0.501984 0.596588 0.000000
0.556519 0.602661 0.000000
0.603424 0.606812 0.000000
0.651917 0.610870 0.000000
0.708466 0.625946 0.000000
0.763367 0.638428 0.000000
0.818115 0.650757 0.000000
0.868866 0.659363 0.000000
0.917511 0.666290 0.000000
0.963959 0.671509 0.000000
0.981812 0.677307 0.000000
0.989960 0.681854 0.000000
0.993164 0.680115 0.000000
0.994293 0.678040 0.000000
0.997833 0.674988 0.000000
1.000000 0.672516 0.000000
1.000000 0.668854 0.000000
1.000000 0.665741 0.000000
1.000000 0.657990 0.000000
1.000000 0.650024 0.000000
0.000000 0.627655 0.000000
0.000000 0.622589 0.000000
0.000000 0.619080 0.000000
0.000000 0.624207 0.000000
0.000000 0.629761 0.000000
0.023529 0.631775 0.000000
0.079071 0.633789 0.000000
0.181702 0.633087 0.000000
0.268463 0.632111 0.000000
0.335693 0.635620 0.000000
0.398376 0.639648 0.000000
0.456970 0.648590 0.000000
0.514771 0.656342 0.000000
0.569580 0.662140 0.000000
0.625031 0.667297 0.000000
0.674042 0.671326 0.000000
0.721497 0.675385 0.000000
0.776031 0.687500 0.000000
0.827179 0.695190 0.000000
0.877686 0.703247 0.000000
0.923492 0.707703 0.000000
0.969971 0.711731 0.000000
0.987549 0.711609 0.000000
0.993622 0.715637 0.000000
0.994995 0.713440 0.000000
0.994995 0.709412 0.000000
0.994293 0.703278 0.000000
0.997833 0.699249 0.000000
1.000000 0.693115 0.001038
1.000000 0.689087 0.001038
1.000000 0.682312 0.000000
1.000000 0.674347 0.000000
0.000000 0.692291 0.000000
0.000000 0.686218 0.000000
0.000000 0.681671 0.000000
0.000000 0.685699 0.000000
0.000000 0.690338 0.000000
0.000000 0.692352 0.000000
0.040710 0.694366 0.000000
0.167969 0.696411 0.000000
0.266418 0.696716 0.000000
0.341187 0.698761 0.000000
0.406464 0.702271 0.000000
0.465057 0.706299 0.000000
0.522858 0.712891 0.000000
0.579407 0.716919 0.000000
0.635132 0.721802 0.000000
0.691681 0.725861 0.000000
0.739685 0.729889 0.000000
0.786133 0.733948 0.000000
0.837158 0.741364 0.000000
0.885773 0.745667 0.000000
0.931061 0.749847 0.000000
0.973999 0.752136 0.000000
0.991486 0.750458 0.000000
0.997131 0.747955 0.000000
0.998505 0.745758 0.000000
0.998505 0.741730 0.000000
0.995544 0.734314 0.000000
0.994293 0.727509 0.000000
0.997833 0.719849 0.001831
1.000000 0.713318 0.003052
1.000000 0.707428 0.001129
1.000000 0.700592 0.000000
0.000000 0.749908 0.000000
0.000000 0.747345 0.000000
0.000000 0.741821 0.000000
0.000000 0.744812 0.000000
0.000000 0.748322 0.000000
0.000000 0.749451 0.000000
0.017548 0.751465 0.000000
0.130768 0.753479 0.000000
0.249695 0.754974 0.000000
0.330963 0.756348 0.000000
0.403748 0.757721 0.000000
0.464935 0.760712 0.000000
0.523499 0.764771 0.000000
0.580475 0.768799 0.000000
0.636108 0.771942 0.000000
0.692413 0.775696 0.000000
0.747986 0.778717 0.000000
0.794952 0.782623 0.000000
0.840240 0.784332 0.000000
0.888702 0.788361 0.000000
0.933289 0.792267 0.000000
0.975708 0.794281 0.000000
0.991119 0.788513 0.000000
0.996704 0.784454 0.000000
1.000000 0.778076 0.001160
1.000000 0.774048 0.001160
0.999084 0.765442 0.000000
0.995544 0.757355 0.000000
0.996338 0.748108 0.000641
0.999878 0.740051 0.002655
1.000000 0.729309 0.001984
1.000000 0.723358 0.000000
0.000000 0.802429 0.000000
0.000000 0.802429 0.000000
0.000000 0.800385 0.000000
0.000000 0.802429 0.000000
0.000000 0.804901 0.000000
0.000000 0.804901 0.000000
0.017548 0.806000 0.000000
0.108459 0.808014 0.000000
0.213348 0.809509 0.000000
0.308289 0.809509 0.000000
0.387573 0.810242 0.000000
0.456268 0.810242 0.000000
0.517456 0.813232 0.000000
0.576019 0.817291 0.000000
0.632080 0.820404 0.000000
0.686615 0.822418 0.000000
0.741913 0.825165 0.000000
0.796448 0.827179 0.000000
0.842255 0.828766 0.000000
0.886688 0.828766 0.000000
0.931274 0.832794 0.000000
0.973694 0.836700 0.000000
0.988922 0.830139 0.000000
0.993164 0.820801 0.000000
0.997162 0.813660 0.001556
1.000000 0.806366 0.003174
1.000000 0.797241 0.001495
0.999084 0.787659 0.000000
0.998749 0.777771 0.000000
0.999878 0.768311 0.000641
1.000000 0.754578 0.000732
1.000000 0.743530 0.000000
0.000000 0.849731 0.000000
0.000000 0.849731 0.000000
0.000000 0.849731 0.000000
0.000000 0.850586 0.000000
0.000000 0.852356 0.000000
0.000000 0.852356 0.000000
0.000000 0.852722 0.000000
0.049896 0.854767 0.000000
0.158478 0.855743 0.000000
0.278412 0.854950 0.000000
0.368164 0.855591 0.000000
0.440094 0.856262 0.000000
0.506439 0.856262 0.000000
0.566071 0.859253 0.000000
0.622833 0.862396 0.000000
0.677368 0.864410 0.000000
0.729858 0.864349 0.000000
0.783875 0.865845 0.000000
0.834900 0.866699 0.000000
0.879608 0.866699 0.000000
0.926636 0.866699 0.000000
0.969055 0.870728 0.000000
0.988190 0.869965 0.000000
0.992249 0.859863 0.000000
0.995880 0.848724 0.000275
0.999420 0.840637 0.002289
1.000000 0.828247 0.002228
1.000000 0.818176 0.000214
1.000000 0.805450 0.001312
1.000000 0.795349 0.001312
0.997711 0.782867 0.000000
0.997711 0.768951 0.000000
0.000000 0.894165 0.000000
0.000000 0.894165 0.000000
0.000000 0.894165 0.000000
0.000000 0.894165 0.000000
0.000000 0.894775 0.000000
0.000000 0.894775 0.000000
0.000000 0.895142 0.000000
0.000000 0.897186 0.000000
0.067596 0.898163 0.000000
0.227173 0.896149 0.000000
0.341888 0.895996 0.000000
0.420685 0.898010 0.000000
0.490295 0.898682 0.000000
0.552917 0.898682 0.000000
0.610718 0.900757 0.000000
0.665253 0.902802 0.000000
0.717743 0.902740 0.000000
0.768250 0.900696 0.000000
0.818756 0.901031 0.000000
0.867218 0.901031 0.000000
0.914520 0.901031 0.000000
0.963013 0.901031 0.000000
0.982544 0.900787 0.000000
0.992249 0.898224 0.000000
0.995880 0.886566 0.000000
0.999420 0.874969 0.000275
1.000000 0.861816 0.000580
1.000000 0.848480 0.000214
1.000000 0.834717 0.001831
1.000000 0.821625 0.003326
0.996643 0.809753 0.001404
0.994202 0.797241 0.000000
0.000000 0.928589 0.000000
0.000000 0.930023 0.000000
0.000000 0.929901 0.000000
0.000000 0.928589 0.000000
0.000000 0.928864 0.000000
0.000000 0.930023 0.000000
0.000000 0.930023 0.000000
0.000000 0.931000 0.000000
0.035370 0.932495 0.000000
0.184937 0.931396 0.000000
0.319153 0.928741 0.000000
0.398712 0.928406 0.000000
0.472809 0.930420 0.000000
0.536743 0.931091 0.000000
0.598450 0.931091 0.000000
0.654572 0.932587 0.000000
0.707062 0.932526 0.000000
0.757538 0.930511 0.000000
0.806885 0.929657 0.000000
0.855347 0.929657 0.000000
0.898621 0.927032 0.000000
0.946594 0.926788 0.000000
0.980774 0.926788 0.000000
0.990875 0.924774 0.000000
0.995880 0.917816 0.000000
0.999420 0.905701 0.000000
0.997498 0.890442 0.000000
0.997498 0.876312 0.000000
0.997498 0.862152 0.001831
0.997498 0.848022 0.003845
0.996643 0.834564 0.001984
0.993164 0.822662 0.000000
0.000000 0.958893 0.000000
0.000000 0.960938 0.000000
0.000000 0.962219 0.000000
0.000000 0.960205 0.000000
0.000000 0.959167 0.000000
0.000000 0.961182 0.000000
0.000000 0.962341 0.000000
0.000000 0.962341 0.000000
0.035370 0.962799 0.000000
0.172729 0.962799 0.000000
0.296936 0.961060 0.000000
0.377747 0.957031 0.000000
0.452637 0.956696 0.000000
0.519287 0.958710 0.000000
0.582306 0.959351 0.000000
0.642883 0.959351 0.000000
0.696960 0.958771 0.000000
0.747437 0.956757 0.000000
0.796783 0.955902 0.000000
0.845245 0.955902 0.000000
0.888519 0.953308 0.000000
0.928925 0.949280 0.000000
0.962585 0.949005 0.000000
0.990875 0.949005 0.000000
0.995880 0.942291 0.000000
0.999420 0.933960 0.000000
0.997040 0.918457 0.000000
0.993958 0.902557 0.000000
0.993958 0.888428 0.001831
0.993958 0.874268 0.003845
0.993958 0.860352 0.001984
0.993164 0.846893 0.000000
0.000000 0.979462 0.001556
0.000000 0.979919 0.001556
0.000000 0.981781 0.001556
0.000000 0.981201 0.001556
0.000000 0.979462 0.001556
0.000000 0.980164 0.001556
0.000000 0.981781 0.001556
0.000000 0.981781 0.001556
0.022888 0.981781 0.001038
0.135254 0.981781 0.000000
0.260925 0.981781 0.000641
0.350830 0.979584 0.001556
0.429291 0.977112 0.001556
0.499084 0.978333 0.001556
0.560272 0.979462 0.000641
0.618927 0.979462 0.000000
0.675415 0.979462 0.001038
0.726410 0.977936 0.001556
0.775757 0.977112 0.001556
0.824219 0.977112 0.001556
0.867493 0.974823 0.000275
0.907898 0.970856 0.000000
0.951172 0.968231 0.000000
0.980499 0.968109 0.000000
0.993164 0.964996 0.000000
0.996704 0.956909 0.000000
0.999786 0.948303 0.000000
0.996246 0.932129 0.000000
0.995880 0.914673 0.000275
0.995880 0.900543 0.002289
0.993164 0.885040 0.001984
0.993164 0.871124 0.000000
0.000000 0.997131 0.003571
0.000000 0.997131 0.003571
0.000000 0.997437 0.003571
0.000000 0.997437 0.003571
0.000000 0.997131 0.003571
0.000000 0.997131 0.003571
0.000000 0.997437 0.003571
0.000000 0.997437 0.003571
0.022888 0.997437 0.003052
0.111755 0.997437 0.001038
0.212433 0.997437 0.000641
0.313446 0.997437 0.002655
0.401001 0.996796 0.003571
0.475739 0.996796 0.003571
0.540070 0.997131 0.002655
0.594635 0.997131 0.000641
0.649139 0.997131 0.001038
0.701660 0.997131 0.003052
0.751495 0.996796 0.003571
0.799988 0.996796 0.003571
0.843262 0.994507 0.002289
0.883667 0.990997 0.000275
0.926941 0.988434 0.000000
0.971375 0.986420 0.000000
0.985077 0.983154 0.000000
0.993164 0.979126 0.000000
0.996704 0.971039 0.000000
0.999786 0.962433 0.000000
0.999420 0.944458 0.000000
0.999420 0.926819 0.000275
0.996063 0.910950 0.000336
0.993164 0.895386 0.000000
0.000000 1.000000 0.003906
0.000000 1.000000 0.003906
0.000000 1.000000 0.003906
0.000000 1.000000 0.003906
0.000000 1.000000 0.003906
0.000000 1.000000 0.003906
0.000000 1.000000 0.003906
0.000000 1.000000 0.003906
0.004150 1.000000 0.003387
0.050873 1.000000 0.001373
0.158630 0.998871 0.000000
0.283569 0.997040 0.000977
0.374420 0.998413 0.002991
0.449158 1.000000 0.003906
0.514801 1.000000 0.002991
0.569336 1.000000 0.000977
0.622894 1.000000 0.001038
0.675385 1.000000 0.003052
0.722046 0.997955 0.002747
0.768982 0.997040 0.002228
0.816162 0.999329 0.002228
0.857727 0.997162 0.000580
0.898132 0.996124 0.000000
0.942047 0.994354 0.000000
0.981812 0.993896 0.001556
0.991852 0.990112 0.001678
0.996124 0.989471 0.001678
0.999664 0.981384 0.001678
1.000000 0.973083 0.001678
1.000000 0.954895 0.001678
0.996643 0.935516 0.000000
0.993164 0.919617 0.000000
0.000000 1.000000 0.003906
0.000000 1.000000 0.003906
0.000000 1.000000 0.003906
0.000000 1.000000 0.003906
0.000000 1.000000 0.003906
0.000000 1.000000 0.003906
0.000000 1.000000 0.003906
0.000000 1.000000 0.003906
0.004150 1.000000 0.003387
0.020325 1.000000 0.001373
0.085907 0.998871 0.000000
0.233368 0.995331 0.000000
0.348175 0.994873 0.000977
0.422913 0.998413 0.002991
0.488556 1.000000 0.002991
0.543091 1.000000 0.000977
0.596649 1.000000 0.001038
