Postproduction/IWLTBAP - Humble/LUTs by IWLTBAP (CUBE)/UTILITY/Sony S-Log3 to Rec.709/U-SONY-S-LOG3-V3-LTR.cube
# Copyright: (C) Copyright 2010-2018 by IWLTBAP SAS
# Cannot be resold, shared or otherwise redistributed
# Website: https://luts.iwltbap.com
TITLE "Sony S-Log3 Version 3 (Utility LOG to Rec.709)"
LUT_3D_SIZE 8
DOMAIN_MIN 0.000000 0.000000 0.000000
DOMAIN_MAX 0.903226 0.903226 0.903226
0.003296 0.003235 0.003204
0.045685 0.004456 0.004547
0.172974 0.010406 0.010437
0.404846 0.058929 0.059235
0.678101 0.123962 0.126251
0.932037 0.181000 0.188751
0.975739 0.191315 0.205444
0.975739 0.191376 0.208252
0.006317 0.044373 0.006348
0.029541 0.035767 0.006256
0.167969 0.028076 0.010834
0.404510 0.058868 0.059021
0.678345 0.124023 0.126312
0.932098 0.181030 0.188751
0.975739 0.191315 0.205444
0.975739 0.191376 0.208252
0.032166 0.174622 0.032166
0.030365 0.169403 0.030243
0.148956 0.160278 0.033203
0.399292 0.132538 0.066193
0.677856 0.123901 0.125671
0.932190 0.181030 0.188782
0.975739 0.191315 0.205444
0.975739 0.191376 0.208252
0.120453 0.408508 0.120422
0.119446 0.405762 0.119446
0.117798 0.400696 0.117645
0.364899 0.385498 0.126282
0.664124 0.332214 0.152008
0.931000 0.180725 0.185883
0.975739 0.191315 0.205444
0.975739 0.191376 0.208252
0.214783 0.671570 0.214752
0.214478 0.670685 0.214447
0.213928 0.668915 0.213898
0.251526 0.663269 0.213074
0.618683 0.649872 0.228668
0.903656 0.599030 0.244232
0.976624 0.276947 0.204254
0.975739 0.191376 0.208252
0.292297 0.908173 0.292267
0.292206 0.907898 0.292175
0.292023 0.907379 0.291992
0.291382 0.905579 0.291351
0.544708 0.902405 0.298920
0.858246 0.893372 0.316559
0.992737 0.850037 0.317719
0.980988 0.483734 0.240753
0.325165 0.994171 0.347229
0.325165 0.994171 0.346527
0.325165 0.994171 0.345398
0.325134 0.994171 0.342285
0.496796 0.995148 0.339539
0.817444 0.998444 0.350555
0.986572 1.000000 0.365997
1.000000 0.997437 0.366547
0.328888 0.994781 0.612793
0.329193 0.994781 0.612640
0.332855 0.994812 0.612396
0.375305 0.995117 0.611877
0.581268 0.996490 0.611969
0.821625 0.999207 0.606201
0.969269 1.000000 0.561096
1.000000 1.000000 0.368011
0.003448 0.003296 0.027374
0.041748 0.004517 0.026855
0.171722 0.010406 0.033875
0.404510 0.058929 0.071533
0.678040 0.123962 0.128357
0.932037 0.181000 0.188751
0.975739 0.191315 0.205444
0.975739 0.191376 0.208252
0.005737 0.033203 0.025909
0.024506 0.024597 0.024597
0.165192 0.020172 0.030670
0.401550 0.058258 0.070312
0.678284 0.124023 0.128845
0.932098 0.181030 0.188751
0.975739 0.191315 0.205444
0.975739 0.191376 0.208252
0.030823 0.170807 0.040161
0.028992 0.165527 0.037720
0.144928 0.156616 0.040161
0.385437 0.132996 0.069214
0.677795 0.123901 0.128448
0.932190 0.181030 0.188782
0.975739 0.191315 0.205444
0.975739 0.191376 0.208252
0.119934 0.407043 0.119904
0.118958 0.404327 0.118927
0.117249 0.399261 0.117157
0.363647 0.384338 0.125824
0.663879 0.331848 0.151917
0.930969 0.180725 0.185852
0.975739 0.191315 0.205444
0.975739 0.191376 0.208252
0.214355 0.670258 0.214325
0.214050 0.669403 0.214050
0.213562 0.667755 0.213531
0.250366 0.662170 0.212677
0.618164 0.649200 0.228455
0.903625 0.599213 0.244263
0.976624 0.277466 0.204315
0.975739 0.191376 0.208252
0.291840 0.906921 0.291809
0.291748 0.906647 0.291718
0.291565 0.906128 0.291534
0.290955 0.904388 0.290924
0.543732 0.901306 0.298523
0.858002 0.892822 0.316406
0.992737 0.850098 0.317719
0.980988 0.483887 0.240784
0.325409 0.994232 0.374573
0.325409 0.994232 0.374207
0.325409 0.994202 0.372986
0.325348 0.994202 0.368256
0.495453 0.995209 0.359192
0.816803 0.998383 0.352997
0.986389 1.000000 0.365967
1.000000 0.997437 0.366547
0.329010 0.994812 0.619812
0.329315 0.994812 0.619659
0.332886 0.994873 0.619446
0.374481 0.995117 0.618927
0.580750 0.996521 0.619080
0.821289 0.999237 0.613495
0.969025 1.000000 0.570496
1.000000 1.000000 0.368011
0.005524 0.005524 0.143738
0.029785 0.006012 0.142456
0.167480 0.011230 0.142365
0.403046 0.059784 0.149750
0.677551 0.124237 0.168213
0.932007 0.181030 0.190186
0.975739 0.191315 0.205444
0.975739 0.191376 0.208252
0.005768 0.008423 0.142975
0.013184 0.007050 0.141632
0.161285 0.010986 0.141693
0.402527 0.059692 0.150513
0.677765 0.124298 0.169647
0.932068 0.181030 0.190430
0.975739 0.191315 0.205444
0.975739 0.191376 0.208252
0.027557 0.156158 0.143097
0.025665 0.150238 0.141449
0.139282 0.140106 0.140411
0.394989 0.112549 0.146027
0.675537 0.123779 0.166779
0.931213 0.180847 0.190186
0.975739 0.191315 0.205444
0.975739 0.191376 0.208252
0.118408 0.401947 0.151672
0.117432 0.399231 0.150116
0.115662 0.394196 0.147644
0.359100 0.379547 0.151855
0.650818 0.337311 0.164520
0.924286 0.181030 0.186218
0.975739 0.191315 0.205444
0.975739 0.191376 0.208252
0.213379 0.667175 0.213898
0.213104 0.666290 0.213562
0.212585 0.664734 0.212982
0.247253 0.659149 0.211853
0.616760 0.646606 0.227509
0.903351 0.598755 0.244110
0.976654 0.278351 0.204407
0.975739 0.191376 0.208252
0.290955 0.904419 0.290955
0.290863 0.904175 0.290863
0.290710 0.903656 0.290680
0.290070 0.901825 0.290009
0.541718 0.898956 0.297638
0.857269 0.891174 0.315826
0.992737 0.850189 0.317749
0.980988 0.484161 0.240845
0.325714 0.994263 0.406738
0.325714 0.994263 0.406281
0.325714 0.994263 0.405487
0.325684 0.994232 0.402740
0.493439 0.995209 0.397949
0.815826 0.998383 0.376007
0.985901 1.000000 0.365875
1.000000 0.997467 0.366547
0.329254 0.994904 0.631195
0.329529 0.994904 0.631042
0.332916 0.994904 0.630829
0.373108 0.995148 0.630341
0.579956 0.996552 0.630524
0.820770 0.999268 0.625366
0.968597 1.000000 0.585663
1.000000 1.000000 0.368011
0.016083 0.016022 0.352905
0.016144 0.015961 0.352020
0.141357 0.022583 0.351074
0.395081 0.066284 0.351410
0.674042 0.127197 0.349670
0.930634 0.182251 0.318115
0.975739 0.191345 0.205627
0.975739 0.191376 0.208252
0.016083 0.016022 0.352905
0.016022 0.015961 0.352112
0.133240 0.021851 0.351166
0.394287 0.066162 0.352051
0.674225 0.127289 0.350769
0.930664 0.182281 0.319214
0.975739 0.191345 0.205811
0.975739 0.191376 0.208252
0.018555 0.044464 0.351288
0.017853 0.038605 0.350494
0.097382 0.030640 0.349548
0.387329 0.064728 0.350861
0.673523 0.127167 0.351898
0.930725 0.182343 0.321289
0.975739 0.191345 0.206207
0.975739 0.191376 0.208252
0.113037 0.374329 0.352875
0.111908 0.371246 0.352020
0.110016 0.365814 0.350525
0.348053 0.349243 0.349823
0.656311 0.296631 0.344818
0.928009 0.181610 0.313995
0.975739 0.191345 0.205536
0.975739 0.191376 0.208252
0.210693 0.653656 0.362640
0.210388 0.652802 0.361664
0.209839 0.651245 0.360352
0.236420 0.645569 0.356750
0.611206 0.633209 0.355499
0.890198 0.597504 0.312012
0.977356 0.328857 0.210663
0.975739 0.191376 0.208252
0.288879 0.896088 0.399811
0.288788 0.895844 0.399170
0.288605 0.895325 0.398193
0.287933 0.893463 0.395111
0.534424 0.890381 0.390900
0.853180 0.882812 0.363861
0.992371 0.854919 0.319031
0.981018 0.485077 0.241058
0.326843 0.994415 0.495178
0.326843 0.994415 0.494873
0.326813 0.994415 0.494354
0.326782 0.994385 0.492615
0.488129 0.995300 0.489166
0.813080 0.998383 0.476654
0.983734 0.999786 0.383667
1.000000 0.997467 0.366577
0.329895 0.995056 0.663086
0.330139 0.995056 0.662994
0.332916 0.995056 0.662811
0.368164 0.995270 0.662476
0.577271 0.996643 0.663147
0.819153 0.999329 0.659943
0.967346 1.000000 0.627289
1.000000 1.000000 0.395569
0.052338 0.052216 0.598694
0.052277 0.052185 0.598450
0.064209 0.052429 0.598114
0.371033 0.082367 0.599213
0.663239 0.136169 0.601440
0.924438 0.188171 0.596161
0.976349 0.197693 0.537048
0.975739 0.191376 0.208252
0.052277 0.052155 0.598358
0.052246 0.052124 0.598206
0.059906 0.052277 0.597839
0.369232 0.082123 0.599121
0.663452 0.136230 0.601746
0.924500 0.188202 0.596497
0.976349 0.197723 0.537506
0.975739 0.191376 0.208252
0.052094 0.051971 0.597076
0.052063 0.051971 0.596954
0.053101 0.051941 0.596741
0.360413 0.080627 0.598206
0.662292 0.135956 0.601715
0.924561 0.188232 0.597076
0.976349 0.197723 0.538269
0.975739 0.191376 0.208252
0.098267 0.285706 0.594177
0.096985 0.281158 0.593964
0.094604 0.272797 0.593567
0.308716 0.246307 0.593811
0.643372 0.177612 0.596710
0.922607 0.187866 0.597565
0.976379 0.197815 0.540710
0.975739 0.191376 0.208252
0.204620 0.619232 0.596039
0.204315 0.618195 0.595795
0.203735 0.616455 0.595459
0.213135 0.610382 0.594604
0.595734 0.596252 0.596588
0.890900 0.545654 0.588379
0.976440 0.210968 0.528839
0.975739 0.191376 0.209900
0.285278 0.875977 0.606323
0.285156 0.875671 0.606140
0.284973 0.875092 0.605835
0.284271 0.872986 0.604919
0.516846 0.869232 0.604706
0.843994 0.860321 0.600739
0.991211 0.832092 0.537048
0.981201 0.491302 0.242523
0.329315 0.994446 0.644592
0.329285 0.994415 0.644470
0.329254 0.994385 0.644287
0.329193 0.994232 0.643677
0.475067 0.994659 0.643036
0.806061 0.997009 0.640717
0.978424 0.997803 0.604767
1.000000 0.996948 0.383179
0.331818 0.995392 0.744385
0.331940 0.995392 0.744324
0.333069 0.995392 0.744232
0.354919 0.995483 0.743988
0.570404 0.996887 0.745239
0.814819 0.999481 0.744568
0.964020 1.000000 0.724518
1.000000 1.000000 0.610107
0.087311 0.087158 0.833313
0.087311 0.087158 0.833344
0.087311 0.087158 0.833344
0.325500 0.102631 0.834381
0.645477 0.149109 0.837952
0.914093 0.196960 0.841187
0.977539 0.209167 0.829163
0.977234 0.206177 0.765778
0.087250 0.087097 0.832855
0.087250 0.087097 0.832855
0.087250 0.087097 0.832886
0.320374 0.101959 0.833984
0.645264 0.149048 0.837952
0.914154 0.196960 0.841278
0.977539 0.209167 0.829254
0.977234 0.206177 0.765930
0.087067 0.086914 0.831604
0.087097 0.086945 0.831635
0.087097 0.086945 0.831696
0.306610 0.100494 0.832947
0.642212 0.148499 0.837341
0.914246 0.196991 0.841431
0.977539 0.209198 0.829407
0.977234 0.206177 0.766174
0.089386 0.116547 0.827209
0.089050 0.113770 0.827179
0.088501 0.108704 0.827271
0.226715 0.102905 0.827972
0.620209 0.144409 0.832886
0.910767 0.196167 0.840485
0.977539 0.209198 0.829956
0.977234 0.206207 0.766998
0.194855 0.559509 0.826263
0.194489 0.558380 0.826233
0.193848 0.556244 0.826172
0.192535 0.548828 0.826141
0.567688 0.531067 0.828888
0.876190 0.463348 0.832642
0.977509 0.209106 0.827820
0.977234 0.206329 0.769531
0.278870 0.839874 0.827545
0.278748 0.839539 0.827515
0.278534 0.838867 0.827484
0.277802 0.836548 0.827454
0.483368 0.831635 0.828766
0.828552 0.820770 0.832062
0.989166 0.775238 0.820221
0.980194 0.406403 0.768433
0.329346 0.984100 0.837799
0.329254 0.983978 0.837799
0.329163 0.983673 0.837799
0.328796 0.982849 0.837738
0.446472 0.981323 0.838257
0.791687 0.980713 0.841064
0.968262 0.978180 0.834747
1.000000 0.967773 0.781647
0.335205 0.995941 0.868408
0.335205 0.995941 0.868408
0.335205 0.995941 0.868439
0.339783 0.995972 0.868500
0.556610 0.997375 0.870331
0.806152 0.999786 0.873230
0.957611 1.000000 0.869507
1.000000 1.000000 0.836121
0.107361 0.107178 0.961151
0.107361 0.107178 0.961212
0.107391 0.107208 0.961334
0.261261 0.114868 0.962158
0.627777 0.158051 0.966248
0.905884 0.203491 0.971680
0.978455 0.217316 0.972137
0.978424 0.216888 0.966827
0.107239 0.107025 0.960480
0.107239 0.107086 0.960510
0.107269 0.107086 0.960663
0.245056 0.113800 0.961548
0.624634 0.157501 0.965790
0.905945 0.203491 0.971680
0.978455 0.217316 0.972137
0.978424 0.216888 0.966827
0.107025 0.106842 0.959381
0.107086 0.106873 0.959412
0.107086 0.106873 0.959564
0.216370 0.111847 0.960327
0.617615 0.156311 0.964630
0.905640 0.203461 0.971619
0.978455 0.217316 0.972168
0.978424 0.216888 0.966858
0.107697 0.120819 0.956024
0.107605 0.119598 0.956085
0.107422 0.117249 0.956207
0.147522 0.111328 0.956757
0.592255 0.151947 0.960785
0.895447 0.201447 0.968903
0.978455 0.217346 0.972198
0.978424 0.216888 0.966919
0.193451 0.528534 0.954529
0.193115 0.527344 0.954559
0.192505 0.525055 0.954590
0.190216 0.516998 0.954773
0.539673 0.496460 0.957184
0.860229 0.423615 0.962097
0.978424 0.217010 0.968506
0.978424 0.216919 0.967102
0.274780 0.811707 0.953156
0.274658 0.811310 0.953186
0.274445 0.810608 0.953247
0.273682 0.808075 0.953430
0.451111 0.802368 0.955017
0.813812 0.790588 0.959839
0.985931 0.737640 0.962830
0.980225 0.357727 0.961151
0.325043 0.963593 0.952820
0.324982 0.963409 0.952850
0.324860 0.963074 0.952911
0.324493 0.962097 0.953094
0.417999 0.960083 0.954010
0.778290 0.958832 0.958527
0.959076 0.954102 0.961517
0.999420 0.935669 0.957458
0.338226 0.996429 0.956238
0.338226 0.996429 0.956268
0.338226 0.996429 0.956329
0.343384 0.996399 0.956512
0.545105 0.997589 0.958374
0.798523 0.999512 0.962067
0.951538 1.000000 0.964630
0.997528 1.000000 0.962250
0.108795 0.108612 0.969940
0.108795 0.108612 0.969940
0.108795 0.108612 0.969940
0.157135 0.110504 0.970062
0.588226 0.152649 0.972504
0.890320 0.201111 0.976746
0.978485 0.217804 0.978516
0.978485 0.217804 0.978516
0.109711 0.120514 0.970001
0.109528 0.118439 0.970001
0.109283 0.115326 0.969971
0.151703 0.111053 0.970062
0.583923 0.152008 0.972443
0.887726 0.200623 0.976685
0.978485 0.217804 0.978516
0.978485 0.217804 0.978516
0.117401 0.187866 0.970398
0.116852 0.183777 0.970367
0.115875 0.176880 0.970306
0.146301 0.155670 0.970215
0.577026 0.153351 0.972382
0.883362 0.199860 0.976593
0.978485 0.217804 0.978516
0.978485 0.217804 0.978516
0.153595 0.371307 0.972565
0.152985 0.368683 0.972534
0.151917 0.363983 0.972443
0.149872 0.347412 0.972198
0.559540 0.308289 0.973663
0.870422 0.208557 0.976471
0.978485 0.217804 0.978516
0.978485 0.217804 0.978516
0.213715 0.593689 0.978088
0.213470 0.592804 0.978058
0.212982 0.591156 0.977997
0.211395 0.585449 0.977814
0.520294 0.572113 0.978943
0.846100 0.528412 0.981293
0.979065 0.276520 0.979126
0.978485 0.217804 0.978516
0.279266 0.821838 0.986115
0.279144 0.821442 0.986145
0.278931 0.820709 0.986145
0.278198 0.818329 0.986176
0.442261 0.812897 0.987030
0.806091 0.802094 0.990051
0.982697 0.758728 0.991272
0.982117 0.438934 0.982117
0.324127 0.957672 0.986176
0.324036 0.957458 0.986206
0.323944 0.957153 0.986267
0.323608 0.956177 0.986450
0.417664 0.954224 0.987335
0.775208 0.953308 0.991394
0.955536 0.948669 0.994751
0.999298 0.929535 0.995972
0.338989 0.995605 0.986328
0.338959 0.995514 0.986359
0.338898 0.995361 0.986389
0.348999 0.994812 0.986572
0.546539 0.994720 0.988159
0.797089 0.994781 0.991425
0.948914 0.994568 0.994324
0.994720 0.993835 0.995331
