Postproduction/IWLTBAP - Humble/LUTs by IWLTBAP (CUBE)/UTILITY/Sony S-Log3 to Rec.709/U-SONY-S-LOG3-V4-LTR.cube
# Copyright: (C) Copyright 2010-2018 by IWLTBAP SAS
# Cannot be resold, shared or otherwise redistributed
# Website: https://luts.iwltbap.com
TITLE "Sony S-Log3 Version 4 (Utility LOG to Rec.709)"
LUT_3D_SIZE 8
DOMAIN_MIN 0.000000 0.000000 0.000000
DOMAIN_MAX 0.903226 0.903226 0.903226
0.031158 0.031158 0.031158
0.119202 0.031158 0.031158
0.302429 0.031158 0.031158
0.514526 0.031158 0.031158
0.717010 0.031158 0.031158
0.921112 0.076324 0.150024
1.000000 0.303406 0.319305
1.000000 0.031158 0.321320
0.031158 0.097595 0.031158
0.080841 0.094971 0.031158
0.275665 0.084747 0.031158
0.505432 0.040863 0.031158
0.714508 0.031158 0.031158
0.920410 0.131012 0.149139
1.000000 0.315826 0.319244
1.000000 0.031158 0.321320
0.031158 0.265381 0.069641
0.039185 0.267914 0.031281
0.241852 0.267914 0.031158
0.478851 0.251251 0.031158
0.713165 0.177460 0.031158
0.919220 0.203552 0.147675
1.000000 0.335876 0.319153
1.000000 0.031158 0.321289
0.031158 0.470886 0.231293
0.031616 0.467896 0.225159
0.192841 0.469025 0.183838
0.429749 0.473785 0.040680
0.677399 0.448822 0.031158
0.915039 0.369995 0.142914
1.000000 0.395569 0.318817
1.000000 0.031158 0.321198
0.107056 0.689606 0.445068
0.159576 0.688660 0.443237
0.230804 0.687012 0.440002
0.404266 0.684326 0.419983
0.635956 0.691101 0.291901
0.859070 0.654846 0.169067
1.000000 0.555145 0.317657
1.000000 0.031158 0.320862
0.388702 0.916229 0.665192
0.399231 0.915802 0.664642
0.416656 0.915314 0.663605
0.469788 0.913666 0.660370
0.624329 0.908691 0.648102
0.850220 0.913971 0.525543
1.000000 0.859894 0.126617
1.000000 0.416901 0.319885
0.634827 1.000000 0.884979
0.637695 1.000000 0.884888
0.642548 1.000000 0.884766
0.658112 1.000000 0.884308
0.706787 1.000000 0.882721
0.853027 1.000000 0.873047
1.000000 1.000000 0.750183
1.000000 1.000000 0.448456
0.040619 1.000000 0.763794
0.040863 1.000000 0.763763
0.041260 1.000000 0.763672
0.042450 1.000000 0.763367
0.048065 1.000000 0.762421
0.307373 1.000000 0.759216
0.844971 1.000000 0.749359
1.000000 1.000000 0.597778
0.031158 0.031158 0.113892
0.101624 0.031158 0.053101
0.295013 0.031158 0.033325
0.510803 0.031158 0.032379
0.718048 0.031158 0.031158
0.921021 0.070312 0.150238
1.000000 0.301208 0.319427
1.000000 0.031158 0.321411
0.031158 0.076385 0.140320
0.069580 0.069458 0.069397
0.272675 0.055939 0.031799
0.504211 0.032501 0.031158
0.715637 0.031158 0.031158
0.920288 0.121460 0.149384
1.000000 0.313660 0.319336
1.000000 0.031158 0.321411
0.031158 0.257721 0.203583
0.037750 0.257904 0.141510
0.243011 0.256195 0.060181
0.482666 0.238434 0.031158
0.713470 0.163788 0.031158
0.919098 0.196167 0.147858
1.000000 0.333832 0.319244
1.000000 0.031158 0.321381
0.031158 0.468872 0.293365
0.032166 0.465790 0.288208
0.195374 0.465912 0.254364
0.432281 0.469513 0.130890
0.678741 0.443939 0.031158
0.914948 0.365234 0.143097
1.000000 0.393768 0.318909
1.000000 0.031158 0.321289
0.098145 0.688354 0.460510
0.152588 0.687317 0.458679
0.225525 0.685730 0.455597
0.401154 0.682831 0.436890
0.635162 0.689667 0.314423
0.859497 0.653259 0.202911
1.000000 0.553680 0.317719
1.000000 0.031158 0.321014
0.386932 0.915680 0.669891
0.397583 0.915405 0.669312
0.414948 0.914917 0.668274
0.468445 0.913239 0.665070
0.623291 0.908203 0.653168
0.849854 0.913544 0.531616
1.000000 0.859375 0.130035
1.000000 0.415070 0.319977
0.634613 1.000000 0.886597
0.637482 1.000000 0.886536
0.642334 1.000000 0.886353
0.657776 1.000000 0.885895
0.706573 1.000000 0.884338
0.852692 1.000000 0.874451
1.000000 1.000000 0.751953
1.000000 1.000000 0.451263
0.040619 1.000000 0.765381
0.040863 1.000000 0.765350
0.041260 1.000000 0.765228
0.042419 1.000000 0.764862
0.048035 1.000000 0.763916
0.307098 1.000000 0.760834
0.844849 1.000000 0.750854
1.000000 1.000000 0.599731
0.031158 0.031158 0.328949
0.053741 0.031158 0.287048
0.277893 0.031158 0.258484
0.505371 0.031158 0.236481
0.718689 0.031158 0.167389
0.921295 0.062592 0.150665
1.000000 0.297516 0.319580
1.000000 0.031158 0.321594
0.031158 0.050140 0.322449
0.038605 0.037720 0.273529
0.260284 0.032471 0.230835
0.499115 0.031158 0.209106
0.716217 0.031158 0.148499
0.920532 0.110443 0.149811
1.000000 0.310089 0.319519
1.000000 0.031158 0.321594
0.031158 0.247498 0.335449
0.032928 0.243103 0.292206
0.237671 0.237640 0.237640
0.483337 0.218170 0.178741
0.713226 0.149445 0.113068
0.919189 0.186005 0.148224
1.000000 0.330414 0.319397
1.000000 0.031158 0.321564
0.031158 0.465759 0.372803
0.035187 0.462585 0.369263
0.200806 0.461060 0.343445
0.438812 0.462433 0.249359
0.691223 0.437927 0.116882
0.914764 0.357239 0.143433
1.000000 0.390717 0.319061
1.000000 0.031158 0.321472
0.085938 0.686279 0.486481
0.141907 0.685181 0.484680
0.217194 0.683563 0.481689
0.395782 0.680359 0.464844
0.633820 0.687256 0.350159
0.860291 0.650513 0.214020
1.000000 0.551208 0.317932
1.000000 0.031158 0.321198
0.383972 0.915039 0.677704
0.394714 0.914734 0.677032
0.412262 0.914246 0.676117
0.466095 0.912476 0.673035
0.621429 0.907257 0.661713
0.849396 0.912689 0.541809
1.000000 0.858521 0.221222
1.000000 0.412109 0.320160
0.634247 1.000000 0.889221
0.637115 1.000000 0.889130
0.641968 1.000000 0.889008
0.657410 1.000000 0.888458
0.706238 1.000000 0.886963
0.852173 1.000000 0.876923
1.000000 1.000000 0.755005
1.000000 1.000000 0.455902
0.040588 1.000000 0.768005
0.040833 1.000000 0.767944
0.041229 1.000000 0.767853
0.042389 1.000000 0.767487
0.048004 1.000000 0.766541
0.306671 1.000000 0.763489
0.844635 1.000000 0.753479
1.000000 1.000000 0.602905
0.031158 0.031158 0.641357
0.031158 0.031158 0.594940
0.227173 0.031158 0.548065
0.493469 0.031158 0.497864
0.718597 0.031158 0.455627
0.928131 0.061249 0.320770
1.000000 0.286438 0.320129
1.000000 0.031158 0.322144
0.031158 0.073822 0.631500
0.031158 0.033173 0.586670
0.194763 0.031158 0.540466
0.484619 0.031158 0.494171
0.716034 0.031769 0.451263
0.927002 0.112518 0.311401
1.000000 0.299011 0.320068
1.000000 0.031158 0.322144
0.031158 0.241364 0.585022
0.031158 0.225311 0.561493
0.183136 0.199615 0.510223
0.469574 0.165741 0.459930
0.711670 0.141449 0.443542
0.925293 0.183746 0.296875
1.000000 0.319641 0.319946
1.000000 0.031158 0.322113
0.031158 0.456024 0.535400
0.042206 0.452759 0.534088
0.195557 0.447784 0.519440
0.440460 0.440430 0.440430
0.702393 0.418976 0.397919
0.919617 0.348572 0.252655
1.000000 0.380859 0.319611
1.000000 0.031158 0.322021
0.166565 0.684692 0.577423
0.205383 0.683716 0.576294
0.261810 0.681885 0.574249
0.408325 0.677094 0.563507
0.646423 0.680542 0.465515
0.884796 0.645691 0.286926
1.000000 0.543396 0.318573
1.000000 0.031158 0.321747
0.374207 0.912720 0.702972
0.385254 0.912445 0.702484
0.403381 0.911926 0.701477
0.458405 0.910156 0.698639
0.615753 0.904602 0.689026
0.847870 0.910187 0.574524
1.000000 0.855438 0.352905
1.000000 0.402496 0.320740
0.632874 1.000000 0.897675
0.635773 1.000000 0.897583
0.640656 1.000000 0.897461
0.656250 1.000000 0.897003
0.704468 1.000000 0.895081
0.850616 1.000000 0.884949
1.000000 1.000000 0.764679
1.000000 1.000000 0.471344
0.040527 1.000000 0.776489
0.040771 1.000000 0.776428
0.041168 1.000000 0.776337
0.042328 1.000000 0.776031
0.047943 1.000000 0.774994
0.305420 1.000000 0.771912
0.843781 1.000000 0.762024
1.000000 1.000000 0.613251
0.031158 0.116669 0.905853
0.031158 0.082306 0.894012
0.163422 0.033173 0.858856
0.469269 0.031158 0.788025
0.721863 0.056641 0.728088
0.941162 0.212524 0.671143
1.000000 0.298889 0.510040
1.000000 0.031158 0.324066
0.031158 0.182922 0.904572
0.031158 0.168213 0.899841
0.123901 0.099274 0.863831
0.458466 0.036041 0.788971
0.719147 0.105652 0.727112
0.940216 0.237183 0.669800
1.000000 0.311279 0.506042
1.000000 0.031158 0.324036
0.031158 0.270386 0.902649
0.031158 0.263916 0.902405
0.047546 0.225800 0.872955
0.439026 0.147522 0.790985
0.714508 0.185120 0.725403
0.938812 0.275269 0.667389
1.000000 0.332153 0.498840
1.000000 0.031158 0.324005
0.031158 0.455841 0.829773
0.040253 0.452911 0.830841
0.119507 0.447845 0.832489
0.386017 0.407837 0.759125
0.694916 0.375824 0.701050
0.933929 0.380005 0.659424
1.000000 0.392303 0.476868
1.000000 0.031158 0.323914
0.266571 0.674744 0.749969
0.289246 0.673584 0.749603
0.324585 0.671844 0.748962
0.424683 0.665771 0.746887
0.656464 0.656464 0.656464
0.926361 0.634918 0.617065
1.000000 0.537476 0.423492
1.000000 0.031158 0.323639
0.434052 0.910797 0.794098
0.442383 0.910370 0.793732
0.456299 0.909851 0.793121
0.499664 0.908112 0.790985
0.629669 0.902100 0.784119
0.862122 0.903870 0.686005
1.000000 0.854431 0.468506
1.000000 0.370148 0.322632
0.628448 1.000000 0.924530
0.631256 1.000000 0.924316
0.635834 1.000000 0.924011
0.650818 1.000000 0.923248
0.697601 1.000000 0.920319
0.845490 1.000000 0.910919
1.000000 1.000000 0.796295
1.000000 1.000000 0.548584
0.040314 1.000000 0.803375
0.040558 1.000000 0.803284
0.040955 1.000000 0.803162
0.042145 1.000000 0.802826
0.047638 1.000000 0.801941
0.301056 1.000000 0.798859
0.841400 1.000000 0.789032
1.000000 1.000000 0.645752
0.248871 0.233154 1.000000
0.272583 0.228943 1.000000
0.309021 0.221832 1.000000
0.444336 0.152313 1.000000
0.714386 0.226349 1.000000
0.955414 0.356934 0.948212
1.000000 0.455231 0.889587
1.000000 0.031158 0.813171
0.239655 0.262085 1.000000
0.264038 0.258179 1.000000
0.301392 0.251617 1.000000
0.436157 0.191589 1.000000
0.711273 0.246399 1.000000
0.954498 0.367310 0.947906
1.000000 0.461151 0.889130
1.000000 0.031158 0.812469
0.223633 0.306122 1.000000
0.249298 0.302734 1.000000
0.288269 0.296967 1.000000
0.422119 0.248901 1.000000
0.705902 0.278015 1.000000
0.953125 0.384247 0.947449
1.000000 0.471069 0.888245
1.000000 0.031158 0.811249
0.164703 0.424835 1.000000
0.195984 0.422180 1.000000
0.241699 0.417633 1.000000
0.374176 0.392334 1.000000
0.687500 0.368927 1.000000
0.948425 0.436401 0.945801
1.000000 0.502258 0.885651
1.000000 0.031158 0.807404
0.328033 0.664703 1.000000
0.339050 0.663696 1.000000
0.357056 0.661957 1.000000
0.411499 0.656342 1.000000
0.603943 0.619049 0.992371
0.927734 0.595795 0.928894
1.000000 0.597229 0.877014
1.000000 0.034210 0.794525
0.533386 0.896759 0.967865
0.538422 0.896393 0.967773
0.546814 0.895813 0.967560
0.573700 0.893951 0.966949
0.657471 0.887787 0.964783
0.877716 0.877716 0.877655
1.000000 0.856537 0.835876
1.000000 0.430023 0.747223
0.680145 1.000000 1.000000
0.682220 1.000000 1.000000
0.686035 1.000000 1.000000
0.697906 1.000000 1.000000
0.736023 1.000000 1.000000
0.858826 1.000000 1.000000
1.000000 1.000000 0.907349
1.000000 1.000000 0.769287
0.039642 1.000000 0.887756
0.039917 1.000000 0.887726
0.040314 1.000000 0.887634
0.041565 1.000000 0.887360
0.046692 1.000000 0.886475
0.286987 1.000000 0.883484
0.833984 1.000000 0.873840
1.000000 1.000000 0.745270
0.522888 0.393585 1.000000
0.528015 0.392365 1.000000
0.536560 0.390259 1.000000
0.563690 0.383453 1.000000
0.673218 0.355286 1.000000
0.944031 0.481873 1.000000
1.000000 0.588776 1.000000
1.000000 0.298950 1.000000
0.520996 0.402496 1.000000
0.526123 0.401215 1.000000
0.534668 0.399139 1.000000
0.561829 0.392426 1.000000
0.670868 0.364532 1.000000
0.942993 0.485962 1.000000
1.000000 0.591644 1.000000
1.000000 0.303741 1.000000
0.517792 0.417084 1.000000
0.522980 0.415894 1.000000
0.531586 0.413879 1.000000
0.558868 0.407288 1.000000
0.666962 0.379578 1.000000
0.941406 0.492950 1.000000
1.000000 0.596466 1.000000
1.000000 0.311615 1.000000
0.507355 0.462067 1.000000
0.512573 0.460907 1.000000
0.521332 0.459106 1.000000
0.549103 0.452942 1.000000
0.654053 0.426605 1.000000
0.935944 0.515289 1.000000
1.000000 0.611938 1.000000
1.000000 0.335999 1.000000
0.472748 0.591187 1.000000
0.478271 0.590271 1.000000
0.487488 0.588623 1.000000
0.516571 0.583435 1.000000
0.612457 0.563202 1.000000
0.917419 0.586609 1.000000
1.000000 0.660492 1.000000
1.000000 0.406372 1.000000
0.583893 0.872772 1.000000
0.586365 0.872406 1.000000
0.590515 0.871735 1.000000
0.603638 0.869934 1.000000
0.645325 0.863647 1.000000
0.814728 0.830170 1.000000
1.000000 0.817505 1.000000
1.000000 0.593689 1.000000
0.770172 1.000000 1.000000
0.771637 1.000000 1.000000
0.773987 1.000000 1.000000
0.781555 1.000000 1.000000
0.805817 1.000000 1.000000
0.884399 1.000000 1.000000
1.000000 1.000000 1.000000
1.000000 1.000000 1.000000
0.431946 1.000000 1.000000
0.434021 1.000000 1.000000
0.437775 1.000000 1.000000
0.449432 1.000000 1.000000
0.485352 1.000000 1.000000
0.590485 1.000000 1.000000
0.886932 1.000000 1.000000
1.000000 1.000000 1.000000
0.435364 0.031158 1.000000
0.440216 0.031158 1.000000
0.448364 0.031158 1.000000
0.473907 0.031158 1.000000
0.550354 0.031158 1.000000
0.827026 0.031158 1.000000
1.000000 0.331818 1.000000
1.000000 0.046143 1.000000
0.433716 0.031158 1.000000
0.438568 0.031158 1.000000
0.446747 0.031158 1.000000
0.472321 0.031158 1.000000
0.549042 0.031158 1.000000
0.825562 0.031158 1.000000
1.000000 0.335205 1.000000
1.000000 0.046509 1.000000
0.430969 0.031158 1.000000
0.435852 0.031158 1.000000
0.444000 0.031158 1.000000
0.469727 0.031158 1.000000
0.546631 0.031158 1.000000
0.822906 0.031158 1.000000
1.000000 0.341034 1.000000
1.000000 0.047119 1.000000
0.421997 0.031158 1.000000
0.426971 0.031158 1.000000
0.435272 0.031158 1.000000
0.461304 0.031158 1.000000
0.538971 0.031158 1.000000
0.814178 0.031158 1.000000
1.000000 0.359344 1.000000
1.000000 0.048798 1.000000
0.392242 0.031464 1.000000
0.397491 0.031342 1.000000
0.406189 0.031158 1.000000
0.433594 0.031158 1.000000
0.514069 0.031158 1.000000
0.785492 0.031158 1.000000
1.000000 0.414001 1.000000
1.000000 0.141296 1.000000
0.282166 0.366364 1.000000
0.288940 0.365295 1.000000
0.300079 0.363373 1.000000
0.334015 0.357269 1.000000
0.428284 0.337250 1.000000
0.684448 0.262329 1.000000
1.000000 0.567413 1.000000
1.000000 0.400024 1.000000
0.629364 1.000000 1.000000
0.630920 1.000000 1.000000
0.633423 1.000000 1.000000
0.641754 1.000000 1.000000
0.668121 1.000000 1.000000
0.751740 1.000000 1.000000
1.000000 0.982483 1.000000
1.000000 0.874054 1.000000
0.595886 1.000000 1.000000
0.597107 1.000000 1.000000
0.599304 1.000000 1.000000
0.606384 1.000000 1.000000
0.628571 1.000000 1.000000
0.697235 1.000000 1.000000
0.903412 1.000000 1.000000
1.000000 1.000000 1.000000
