Postproduction/IWLTBAP - Humble/LUTs by IWLTBAP (CUBE)/UTILITY/Sony S-Log3 to Rec.709/U-SONY-S-LOG3-V8-LTR.cube
# Copyright: (C) Copyright 2010-2018 by IWLTBAP SAS
# Cannot be resold, shared or otherwise redistributed
# Website: https://luts.iwltbap.com
TITLE "Sony S-Log3 Version 8 (Utility LOG to Rec.709)"
LUT_3D_SIZE 5
DOMAIN_MIN 0.000000 0.000000 0.000000
DOMAIN_MAX 0.903226 0.903226 0.903226
0.006622 0.006500 0.006409
0.161438 0.018585 0.018860
0.578461 0.108063 0.109314
0.972748 0.195709 0.205688
0.975616 0.196472 0.214020
0.028229 0.131348 0.027588
0.117584 0.121979 0.028931
0.572266 0.106781 0.107391
0.972656 0.195709 0.205658
0.975616 0.196472 0.213989
0.170837 0.525757 0.169495
0.169891 0.526581 0.169800
0.494019 0.509979 0.181641
0.972809 0.317719 0.210236
0.975616 0.196411 0.213745
0.307953 0.938995 0.306854
0.307770 0.938995 0.307007
0.306702 0.938995 0.308289
0.901093 0.928802 0.334412
0.989929 0.782532 0.298370
0.325043 0.995148 0.702209
0.324951 0.995148 0.702454
0.324768 0.995178 0.703949
0.332550 0.995209 0.715027
1.000000 1.000000 0.685059
0.009064 0.009064 0.108490
0.158600 0.019684 0.110748
0.578186 0.108429 0.153717
0.972687 0.195740 0.210388
0.975616 0.196411 0.210205
0.026825 0.121368 0.110504
0.110291 0.110901 0.111206
0.569946 0.105713 0.151672
0.972015 0.195587 0.209259
0.975616 0.196411 0.210083
0.169952 0.523590 0.169312
0.169067 0.524323 0.169830
0.490662 0.508331 0.182556
0.967499 0.354370 0.215393
0.975616 0.196350 0.209381
0.307495 0.936340 0.327057
0.307281 0.936340 0.328064
0.305969 0.936340 0.334595
0.899323 0.926117 0.344513
0.989960 0.783112 0.293976
0.323334 0.995209 0.711365
0.323608 0.995209 0.711578
0.325104 0.995209 0.713043
0.332733 0.995239 0.723694
1.000000 1.000000 0.695740
0.041748 0.041656 0.469971
0.100433 0.043945 0.469879
0.571014 0.117065 0.476715
0.972565 0.200134 0.478485
0.975677 0.197052 0.256775
0.041595 0.040710 0.469482
0.046295 0.041260 0.469482
0.562317 0.115265 0.476898
0.972473 0.200165 0.480621
0.975677 0.197052 0.257935
0.165497 0.494629 0.473602
0.164520 0.495209 0.474304
0.476440 0.477264 0.477631
0.969910 0.291901 0.474823
0.975677 0.197205 0.267090
0.304626 0.922852 0.528748
0.304474 0.922882 0.529297
0.303497 0.923035 0.532654
0.893341 0.911835 0.539124
0.989716 0.774902 0.372070
0.320953 0.995392 0.758453
0.321167 0.995392 0.758636
0.322540 0.995392 0.759705
0.333344 0.995422 0.767761
1.000000 1.000000 0.749847
0.100525 0.100342 0.868896
0.099976 0.100372 0.869080
0.537079 0.140808 0.873199
0.972534 0.215637 0.884766
0.977661 0.215790 0.867920
0.100281 0.099915 0.867340
0.100403 0.100159 0.867554
0.520203 0.138062 0.871460
0.972229 0.215576 0.884735
0.977661 0.215820 0.868225
0.166565 0.435974 0.864990
0.165436 0.434265 0.865021
0.421082 0.408081 0.866791
0.957001 0.243469 0.877686
0.977661 0.216003 0.869507
0.297546 0.878998 0.868164
0.297363 0.879059 0.868225
0.296356 0.879486 0.868622
0.874115 0.865875 0.877594
0.988495 0.699341 0.867126
0.329224 0.996094 0.904724
0.329376 0.996094 0.904785
0.330353 0.996094 0.904999
0.338104 0.996094 0.906677
0.999939 1.000000 0.912750
0.225708 0.628998 0.979156
0.239563 0.627380 0.979156
0.530487 0.621521 0.980499
0.936249 0.573059 0.984009
0.978241 0.212158 0.978271
0.229675 0.640991 0.979584
0.235748 0.639404 0.979553
0.522858 0.633820 0.980835
0.934235 0.588531 0.984436
0.978180 0.208557 0.978210
0.249298 0.704102 0.981903
0.246552 0.702667 0.981842
0.475403 0.697327 0.982727
0.923615 0.662109 0.986664
0.978271 0.215454 0.978302
0.306488 0.895569 0.986176
0.306335 0.895630 0.986176
0.305145 0.893646 0.986481
0.867981 0.886017 0.993073
0.993256 0.805359 0.993073
0.355896 0.995361 0.985992
0.355652 0.995361 0.985992
0.354065 0.995361 0.985992
0.342712 0.995392 0.986023
0.994781 0.993866 0.995239
