Postproduction/IWLTBAP - Humble/LUTs by IWLTBAP (CUBE)/UTILITY/Sony S-Log3 to Rec.709/U-SONY-S-LOG3-V8-LTR.cube
# Copyright: (C) Copyright 2010-2018 by IWLTBAP SAS
# Cannot be resold, shared or otherwise redistributed
# Website: https://luts.iwltbap.com
TITLE "Sony S-Log3 Version 8 (Utility LOG to Rec.709)"
LUT_3D_SIZE 32
0.006622 0.006500 0.006409
0.012390 0.006561 0.006653
0.024353 0.007202 0.007355
0.044189 0.008331 0.008545
0.069183 0.009857 0.010101
0.095734 0.011810 0.012115
0.125336 0.014526 0.014862
0.161438 0.018585 0.018860
0.202179 0.024292 0.024506
0.249756 0.032715 0.032959
0.307068 0.045197 0.045532
0.374023 0.060638 0.061066
0.443787 0.076752 0.077332
0.511444 0.092529 0.093323
0.578461 0.108063 0.109314
0.645630 0.123535 0.125397
0.715271 0.138794 0.141571
0.783875 0.153473 0.157410
0.847229 0.167358 0.172668
0.906982 0.180695 0.187408
0.952881 0.191101 0.199371
0.972748 0.195709 0.205688
0.975861 0.196472 0.208160
0.975677 0.196442 0.209686
0.975616 0.196442 0.210999
0.975616 0.196442 0.212067
0.975616 0.196442 0.212860
0.975616 0.196472 0.213501
0.975616 0.196472 0.214020
0.975616 0.196472 0.214417
0.975647 0.196716 0.228424
0.975830 0.196503 0.215179
0.006439 0.010590 0.006836
0.009888 0.010162 0.006897
0.019623 0.009918 0.007324
0.037170 0.010162 0.008331
0.062347 0.010925 0.009766
0.090088 0.012390 0.011719
0.120422 0.014740 0.014374
0.157623 0.018463 0.018402
0.199402 0.023956 0.024078
0.247650 0.032257 0.032532
0.305420 0.044800 0.045166
0.372803 0.060333 0.060822
0.442902 0.076538 0.077179
0.510712 0.092346 0.093170
0.577942 0.107941 0.109192
0.645233 0.123444 0.125336
0.714905 0.138702 0.141479
0.783600 0.153412 0.157349
0.846954 0.167297 0.172577
0.906799 0.180634 0.187347
0.952850 0.191101 0.199341
0.972687 0.195709 0.205658
0.975861 0.196472 0.208160
0.975677 0.196442 0.209686
0.975616 0.196442 0.210999
0.975616 0.196442 0.212067
0.975616 0.196442 0.212860
0.975616 0.196472 0.213501
0.975616 0.196472 0.214020
0.975616 0.196472 0.214417
0.975647 0.196716 0.228424
0.975830 0.196503 0.215179
0.007660 0.018005 0.007904
0.008698 0.017426 0.007843
0.015747 0.016602 0.007996
0.030640 0.016083 0.008636
0.054962 0.015991 0.009827
0.083923 0.016479 0.011566
0.115173 0.017700 0.014130
0.153412 0.020172 0.018036
0.196014 0.024506 0.023621
0.244812 0.032043 0.031952
0.303040 0.044220 0.044556
0.371033 0.059906 0.060394
0.441803 0.076294 0.076935
0.509949 0.092163 0.093048
0.577393 0.107819 0.109100
0.644806 0.123352 0.125244
0.714569 0.138641 0.141388
0.783417 0.153351 0.157288
0.846893 0.167297 0.172546
0.906830 0.180634 0.187347
0.952881 0.191101 0.199371
0.972534 0.195679 0.205627
0.975769 0.196442 0.208130
0.975677 0.196442 0.209686
0.975616 0.196442 0.210999
0.975616 0.196442 0.212067
0.975616 0.196442 0.212860
0.975616 0.196472 0.213501
0.975616 0.196472 0.213989
0.975616 0.196472 0.214417
0.975647 0.196716 0.228424
0.975830 0.196503 0.215179
0.010162 0.029907 0.009613
0.009369 0.029266 0.009552
0.013336 0.027893 0.009460
0.025024 0.026764 0.009735
0.047211 0.025970 0.010529
0.076904 0.025513 0.011963
0.109558 0.025482 0.014313
0.148865 0.026184 0.017975
0.192474 0.028412 0.023376
0.241913 0.033783 0.031555
0.300568 0.044312 0.043976
0.369019 0.059418 0.059875
0.440430 0.075928 0.076569
0.509033 0.091949 0.092804
0.576813 0.107666 0.108978
0.644409 0.123260 0.125153
0.714294 0.138580 0.141327
0.783264 0.153351 0.157257
0.846771 0.167267 0.172516
0.906677 0.180603 0.187286
0.952850 0.191101 0.199341
0.972382 0.195618 0.205597
0.975708 0.196442 0.208130
0.975677 0.196442 0.209686
0.975616 0.196442 0.210999
0.975616 0.196442 0.212067
0.975616 0.196442 0.212860
0.975616 0.196472 0.213501
0.975616 0.196472 0.213989
0.975616 0.196472 0.214386
0.975647 0.196716 0.228394
0.975830 0.196503 0.215179
0.012787 0.047913 0.011932
0.011627 0.047455 0.011871
0.013062 0.045563 0.011658
0.020782 0.043762 0.011658
0.039368 0.042206 0.012085
0.068787 0.040833 0.013123
0.103607 0.039520 0.015167
0.144073 0.038330 0.018524
0.188690 0.037994 0.023590
0.238892 0.040131 0.031433
0.298004 0.046936 0.043579
0.366913 0.059387 0.059357
0.438995 0.075470 0.076141
0.507965 0.091705 0.092499
0.576050 0.107513 0.108795
0.643982 0.123169 0.125092
0.713989 0.138519 0.141296
0.783051 0.153290 0.157196
0.846588 0.167236 0.172455
0.906708 0.180603 0.187286
0.952850 0.191101 0.199341
0.972229 0.195587 0.205536
0.975647 0.196411 0.208099
0.975677 0.196442 0.209686
0.975616 0.196442 0.210999
0.975616 0.196442 0.212067
0.975616 0.196442 0.212860
0.975616 0.196472 0.213501
0.975616 0.196472 0.213989
0.975616 0.196472 0.214386
0.975647 0.196716 0.228394
0.975830 0.196503 0.215149
0.015778 0.070251 0.015076
0.015015 0.070221 0.015076
0.014954 0.068298 0.014771
0.018494 0.066376 0.014557
0.031830 0.064514 0.014648
0.059540 0.062714 0.015320
0.096741 0.060608 0.016968
0.138733 0.058105 0.019897
0.184570 0.055573 0.024536
0.235565 0.053986 0.031921
0.295197 0.055420 0.043610
0.364624 0.062317 0.058990
0.437378 0.075104 0.075653
0.506897 0.091187 0.092163
0.575165 0.107330 0.108490
0.643372 0.123047 0.124908
0.713715 0.138458 0.141235
0.782776 0.153229 0.157166
0.846466 0.167206 0.172424
0.906555 0.180573 0.187256
0.952881 0.191101 0.199341
0.972198 0.195587 0.205536
0.975616 0.196411 0.208069
0.975647 0.196442 0.209686
0.975616 0.196442 0.210999
0.975616 0.196442 0.212067
0.975616 0.196442 0.212860
0.975616 0.196472 0.213501
0.975616 0.196472 0.213989
0.975616 0.196472 0.214386
0.975647 0.196716 0.228363
0.975830 0.196503 0.215149
0.020691 0.098297 0.020111
0.020264 0.098633 0.020172
0.019897 0.097076 0.019867
0.020172 0.095367 0.019531
0.025787 0.093689 0.019318
0.046661 0.091949 0.019531
0.086212 0.089844 0.020691
0.130463 0.087067 0.023102
0.178406 0.083496 0.027130
0.230804 0.079346 0.033875
0.291199 0.075500 0.044739
0.361450 0.074066 0.059265
0.435120 0.079163 0.075348
0.505310 0.090759 0.091644
0.574127 0.106476 0.108063
0.642517 0.122894 0.124573
0.713104 0.138336 0.141052
0.782532 0.153198 0.157104
0.846283 0.167145 0.172363
0.906525 0.180573 0.187225
0.952850 0.191101 0.199341
0.972351 0.195618 0.205566
0.975647 0.196411 0.208099
0.975647 0.196442 0.209686
0.975616 0.196442 0.210999
0.975616 0.196442 0.212067
0.975616 0.196442 0.212860
0.975616 0.196472 0.213470
0.975616 0.196472 0.213989
0.975616 0.196472 0.214355
0.975647 0.196716 0.228363
0.975830 0.196503 0.215149
0.028229 0.131348 0.027588
0.027863 0.131775 0.027679
0.027527 0.130859 0.027466
0.027161 0.129456 0.027100
0.027405 0.127991 0.026764
0.035004 0.126434 0.026550
0.069580 0.124451 0.027069
0.117584 0.121979 0.028931
0.168640 0.118713 0.032410
0.223419 0.114441 0.038483
0.285248 0.109344 0.048370
0.356506 0.103638 0.061493
0.431610 0.097931 0.076141
0.502747 0.098114 0.091431
0.572266 0.106781 0.107391
0.641327 0.121460 0.123932
0.712189 0.138214 0.140686
0.781952 0.153046 0.156921
0.846100 0.167145 0.172333
0.906372 0.180542 0.187164
0.952881 0.191101 0.199310
0.972656 0.195709 0.205658
0.975739 0.196442 0.208099
0.975647 0.196442 0.209686
0.975616 0.196442 0.210999
0.975616 0.196442 0.212036
0.975616 0.196442 0.212830
0.975616 0.196472 0.213470
0.975616 0.196472 0.213989
0.975616 0.196472 0.214355
0.975647 0.196716 0.228333
0.975830 0.196503 0.215149
0.039612 0.169525 0.038727
0.039215 0.169891 0.038849
0.038849 0.169708 0.038788
0.038483 0.168549 0.038422
0.038025 0.167328 0.038025
0.037933 0.166046 0.037598
0.051361 0.164246 0.037354
0.097656 0.162048 0.038391
0.154053 0.159241 0.041290
0.212616 0.155457 0.046570
0.276764 0.150391 0.054993
0.349731 0.144135 0.066406
0.426483 0.136475 0.079498
0.498962 0.126648 0.093048
0.569427 0.120209 0.107483
0.639191 0.123779 0.123108
0.710846 0.136230 0.139740
0.781097 0.152802 0.156464
0.845642 0.166931 0.172150
0.906281 0.180603 0.187164
0.952820 0.191071 0.199280
0.972900 0.195770 0.205719
0.975891 0.196472 0.208130
0.975677 0.196442 0.209656
0.975616 0.196442 0.210999
0.975616 0.196442 0.212036
0.975616 0.196442 0.212830
0.975616 0.196472 0.213470
0.975616 0.196472 0.213959
0.975616 0.196472 0.214325
0.975647 0.196716 0.228302
0.975830 0.196503 0.215149
0.056030 0.213196 0.054932
0.055664 0.213501 0.055054
0.055267 0.213806 0.055176
0.054901 0.213043 0.054871
0.054504 0.212067 0.054504
0.054047 0.210999 0.054077
0.053711 0.209564 0.053528
0.072601 0.207458 0.053223
0.129791 0.204926 0.054810
0.196045 0.201660 0.058624
0.264221 0.197205 0.065186
0.339874 0.191223 0.074554
0.419281 0.183746 0.085724
0.493561 0.174194 0.097839
0.565277 0.160706 0.110382
0.635895 0.146576 0.123810
0.708282 0.142853 0.138824
0.779541 0.151062 0.155151
0.844818 0.166260 0.171631
0.905975 0.180237 0.187042
0.952850 0.191284 0.199371
0.972961 0.195770 0.205688
0.975952 0.196533 0.208099
0.975677 0.196442 0.209625
0.975616 0.196442 0.210968
0.975616 0.196442 0.212036
0.975616 0.196442 0.212799
0.975616 0.196472 0.213440
0.975616 0.196472 0.213959
0.975616 0.196472 0.214294
0.975647 0.196716 0.228241
0.975830 0.196503 0.215149
0.076447 0.264648 0.075134
0.076111 0.264954 0.075256
0.075745 0.265228 0.075378
0.075409 0.265198 0.075348
0.075073 0.264435 0.075073
0.074707 0.263519 0.074707
0.074188 0.262299 0.074219
0.073822 0.260468 0.073517
0.096375 0.257996 0.073181
0.166931 0.255005 0.075165
0.244751 0.251099 0.079803
0.324677 0.245789 0.086945
0.408325 0.238708 0.096039
0.485748 0.229675 0.106354
0.559204 0.217743 0.117371
0.631134 0.200623 0.128693
0.704376 0.178864 0.140625
0.776611 0.165863 0.154327
0.843201 0.166382 0.169891
0.905334 0.178131 0.186218
0.952789 0.190552 0.199280
0.973083 0.196045 0.205872
0.975983 0.196564 0.208038
0.975677 0.196533 0.209595
0.975616 0.196411 0.210938
0.975616 0.196442 0.212006
0.975616 0.196442 0.212799
0.975616 0.196472 0.213440
0.975616 0.196472 0.213928
0.975616 0.196472 0.214264
0.975647 0.196716 0.228180
0.975830 0.196503 0.215118
0.098999 0.325500 0.097595
0.098724 0.325775 0.097687
0.098419 0.326019 0.097778
0.098145 0.326294 0.097870
0.097870 0.326141 0.097809
0.097565 0.325439 0.097565
0.097198 0.324371 0.097198
0.096588 0.322784 0.096619
0.096069 0.320618 0.095856
0.124695 0.317688 0.095581
0.211365 0.314209 0.098267
0.301392 0.309692 0.103699
0.391083 0.303497 0.111053
0.473877 0.295197 0.119690
0.550201 0.284302 0.129028
0.623993 0.269379 0.138611
0.698608 0.248108 0.148254
0.772034 0.219086 0.158020
0.839813 0.194214 0.169647
0.903381 0.182495 0.184021
0.952301 0.186157 0.197998
0.973206 0.194733 0.205780
0.976044 0.196320 0.208313
0.975677 0.196686 0.209534
0.975616 0.196625 0.210907
0.975616 0.196411 0.211975
0.975616 0.196442 0.212769
0.975616 0.196472 0.213409
0.975616 0.196472 0.213898
0.975616 0.196472 0.214203
0.975647 0.196716 0.228088
0.975830 0.196503 0.215118
0.122864 0.393341 0.121429
0.122650 0.393555 0.121490
0.122437 0.393768 0.121582
0.122223 0.393951 0.121643
0.122009 0.394165 0.121735
0.121765 0.394104 0.121704
0.121460 0.393402 0.121460
0.121063 0.392181 0.121033
0.120392 0.390472 0.120422
0.119873 0.388062 0.119598
0.162506 0.384918 0.119720
0.264679 0.381256 0.123505
0.365479 0.376434 0.129578
0.456299 0.369781 0.136902
0.537140 0.360748 0.144867
0.613647 0.348358 0.153107
0.689819 0.330872 0.161285
0.765198 0.305481 0.168945
0.834290 0.268768 0.175995
0.899109 0.228882 0.185089
0.950409 0.198395 0.195587
0.973114 0.187683 0.203857
0.976135 0.194214 0.208160
0.975677 0.194824 0.209625
0.975616 0.196991 0.210876
0.975616 0.196747 0.211975
0.975616 0.196411 0.212738
0.975616 0.196442 0.213379
0.975616 0.196472 0.213867
0.975616 0.196472 0.214142
0.975647 0.196716 0.227966
0.975830 0.196503 0.215088
0.147125 0.460632 0.145721
0.146973 0.460754 0.145782
0.146820 0.460907 0.145844
0.146637 0.461060 0.145874
0.146484 0.461212 0.145935
0.146332 0.461334 0.145996
0.146088 0.461426 0.146027
0.145782 0.460754 0.145782
0.145355 0.459595 0.145355
0.144623 0.457886 0.144714
0.145416 0.455475 0.143860
0.210999 0.452515 0.144897
0.327057 0.449097 0.149689
0.431335 0.444580 0.155975
0.518860 0.438293 0.162964
0.599548 0.429565 0.170227
0.677795 0.416992 0.177460
0.755341 0.398682 0.184265
0.826691 0.371368 0.190063
0.892456 0.329437 0.194855
0.946777 0.268524 0.199188
0.972900 0.215179 0.202240
0.976257 0.189484 0.205566
0.975677 0.192383 0.209045
0.975555 0.191589 0.210510
0.975616 0.197388 0.211975
0.975616 0.196899 0.212799
0.975616 0.196411 0.213348
0.975616 0.196472 0.213837
0.975616 0.196472 0.214020
0.975647 0.196716 0.227814
0.975861 0.196503 0.215057
0.170837 0.525757 0.169495
0.170715 0.525848 0.169525
0.170593 0.525970 0.169556
0.170471 0.526062 0.169586
0.170380 0.526154 0.169647
0.170258 0.526276 0.169678
0.170074 0.526398 0.169739
0.169891 0.526581 0.169800
0.169586 0.525940 0.169556
0.169159 0.524719 0.169098
0.168182 0.522980 0.168488
0.173828 0.520477 0.167725
0.267365 0.517670 0.169983
0.394257 0.514404 0.175446
0.494019 0.509979 0.181641
0.580658 0.503876 0.188171
0.662354 0.495300 0.194824
0.742706 0.483032 0.201141
0.816711 0.465637 0.206726
0.884155 0.439423 0.211304
0.941193 0.395966 0.213470
0.972809 0.317719 0.210236
0.977051 0.242981 0.205841
0.975677 0.199127 0.206238
0.975555 0.191132 0.209961
0.975494 0.188354 0.211060
0.975616 0.197723 0.212799
0.975616 0.197021 0.213440
0.975616 0.196411 0.213745
0.975616 0.196472 0.213867
0.975647 0.196716 0.227478
0.975861 0.196503 0.214996
0.193512 0.590302 0.192261
0.193420 0.590363 0.192291
0.193359 0.590454 0.192322
0.193268 0.590515 0.192352
0.193176 0.590607 0.192352
0.193115 0.590668 0.192383
0.192993 0.590790 0.192413
0.192841 0.590912 0.192474
0.192627 0.591095 0.192535
0.192352 0.590515 0.192322
0.191925 0.589233 0.191895
0.190460 0.587372 0.191223
0.209869 0.584808 0.190826
0.334808 0.582184 0.194489
0.459442 0.579010 0.200195
0.555725 0.574646 0.206177
0.642487 0.568573 0.212402
0.726288 0.560120 0.218475
0.803955 0.547729 0.223907
0.873810 0.530304 0.228668
0.933716 0.506714 0.232147
0.971527 0.462799 0.229919
0.979218 0.378235 0.219177
0.976868 0.284515 0.210083
0.976044 0.234528 0.211060
0.975525 0.189209 0.210602
0.975433 0.185638 0.211273
0.975647 0.198059 0.213501
0.975616 0.197174 0.213776
0.975616 0.196411 0.213654
0.975647 0.196686 0.226868
0.975739 0.196503 0.214905
0.215240 0.655182 0.214111
0.215179 0.655243 0.214142
0.215118 0.655273 0.214172
0.215057 0.655334 0.214172
0.215027 0.655396 0.214203
0.214966 0.655457 0.214203
0.214874 0.655518 0.214233
0.214783 0.655609 0.214264
0.214661 0.655762 0.214325
0.214478 0.655945 0.214386
0.214203 0.655334 0.214172
0.213745 0.653961 0.213715
0.212067 0.651855 0.213013
0.259521 0.649261 0.213440
0.406769 0.646790 0.218231
0.521881 0.643555 0.223938
0.617126 0.639160 0.229828
0.705597 0.633087 0.235748
0.787201 0.624725 0.241211
0.860229 0.612366 0.246094
0.924988 0.595123 0.250061
0.966248 0.572876 0.250885
0.981415 0.528839 0.243988
0.979858 0.446014 0.229370
0.977783 0.356964 0.219849
0.976471 0.259766 0.215363
0.975464 0.186401 0.210602
0.975372 0.182892 0.211182
0.975647 0.198303 0.213806
0.975616 0.197205 0.213287
0.975616 0.196289 0.225983
0.975494 0.196472 0.214752
0.235901 0.721130 0.234894
0.235870 0.721161 0.234924
0.235840 0.721191 0.234924
0.235809 0.721252 0.234924
0.235748 0.721283 0.234955
0.235718 0.721313 0.234955
0.235687 0.721375 0.234955
0.235626 0.721436 0.234985
0.235535 0.721527 0.235016
0.235413 0.721649 0.235046
0.235229 0.721802 0.235107
0.234955 0.721191 0.234924
0.234497 0.719727 0.234467
0.234985 0.717438 0.233765
0.325806 0.715027 0.235596
0.473755 0.712769 0.241058
0.583801 0.709686 0.246857
0.679169 0.705566 0.252747
0.766937 0.699432 0.258331
0.843597 0.690857 0.263458
0.911835 0.677704 0.267792
0.958649 0.663086 0.270203
0.981232 0.637573 0.267426
0.983795 0.594543 0.258087
0.981171 0.520020 0.242493
0.979218 0.421509 0.231415
0.976898 0.277405 0.218903
0.975403 0.183563 0.210205
0.975342 0.181427 0.211639
0.975647 0.198425 0.212799
0.975739 0.201721 0.224182
0.975098 0.196472 0.214508
0.255432 0.783752 0.254242
0.255402 0.783752 0.254242
0.255371 0.783783 0.254272
0.255341 0.783813 0.254272
0.255310 0.783813 0.254272
0.255280 0.783844 0.254272
0.255219 0.783875 0.254303
0.255157 0.783936 0.254303
0.255066 0.783997 0.254303
0.254944 0.784058 0.254333
0.254791 0.784149 0.254364
0.254578 0.784302 0.254425
0.254272 0.783661 0.254211
0.253723 0.782104 0.253723
0.264618 0.779785 0.253265
0.400665 0.777863 0.256805
0.539032 0.775818 0.262665
0.646210 0.773010 0.268646
0.741333 0.769196 0.274445
0.824493 0.763458 0.279877
0.895172 0.755341 0.284760
0.951508 0.743439 0.288116
0.978882 0.730835 0.288544
0.987152 0.703674 0.283325
0.985657 0.664093 0.273804
0.983490 0.600708 0.259460
0.980713 0.474304 0.242188
0.977417 0.296600 0.222656
0.975281 0.179779 0.210968
0.975281 0.179901 0.210510
0.975983 0.216919 0.221161
0.976135 0.196472 0.214111
0.274017 0.841003 0.272675
0.273987 0.841003 0.272705
0.273956 0.841034 0.272705
0.273926 0.841034 0.272705
0.273895 0.841064 0.272705
0.273865 0.841064 0.272705
0.273834 0.841095 0.272705
0.273773 0.841125 0.272736
0.273682 0.841156 0.272736
0.273590 0.841187 0.272736
0.273438 0.841248 0.272766
0.273254 0.841309 0.272797
0.273010 0.841431 0.272827
0.272644 0.840729 0.272614
0.271912 0.839050 0.272064
0.309723 0.836914 0.272278
0.472229 0.835419 0.277344
0.603455 0.833588 0.283539
0.709076 0.831085 0.289551
0.800842 0.827484 0.295319
0.877502 0.822296 0.300568
0.937073 0.815186 0.304626
0.977905 0.804443 0.306519
0.988800 0.792786 0.304962
0.989716 0.768219 0.299042
0.988037 0.734375 0.290100
0.985840 0.672638 0.274872
0.982269 0.522430 0.252472
0.977203 0.291351 0.222107
0.975281 0.179474 0.211029
0.975098 0.170197 0.214935
0.978546 0.198181 0.213867
0.291901 0.893890 0.290527
0.291870 0.893890 0.290527
0.291870 0.893890 0.290527
0.291840 0.893921 0.290527
0.291809 0.893921 0.290527
0.291779 0.893921 0.290527
0.291748 0.893921 0.290527
0.291687 0.893951 0.290527
0.291626 0.893951 0.290558
0.291565 0.893982 0.290558
0.291443 0.893982 0.290558
0.291290 0.894012 0.290558
0.291077 0.894073 0.290588
0.290802 0.894135 0.290588
0.290405 0.893402 0.290375
0.289520 0.891663 0.289764
0.372894 0.889923 0.291321
0.541107 0.888855 0.297546
0.666595 0.887451 0.304047
0.769897 0.885193 0.310028
0.855621 0.881836 0.315796
0.919220 0.877686 0.320282
0.967133 0.870697 0.323151
0.991119 0.860626 0.323486
0.993134 0.850128 0.320709
0.992035 0.827545 0.313904
0.990570 0.797668 0.304962
0.988068 0.734619 0.288513
0.982849 0.540283 0.255615
0.977783 0.310364 0.225861
0.974213 0.116180 0.213104
0.975189 0.173309 0.209656
0.307953 0.938995 0.306854
0.307922 0.938995 0.306885
0.307922 0.938995 0.306885
0.307892 0.938995 0.306915
0.307861 0.938995 0.306946
0.307831 0.938995 0.306946
0.307800 0.938995 0.306976
0.307770 0.938995 0.307007
0.307709 0.938995 0.307037
0.307648 0.938995 0.307098
0.307556 0.938995 0.307190
0.307434 0.938995 0.307312
0.307251 0.938995 0.307495
0.307007 0.938995 0.307831
0.306702 0.938995 0.308289
0.306244 0.938202 0.308136
0.306824 0.936462 0.307220
0.447906 0.935303 0.310333
0.609619 0.934601 0.316528
0.730286 0.933380 0.322754
0.827942 0.931458 0.328186
0.901093 0.928802 0.334412
0.951355 0.925751 0.336761
0.986542 0.920044 0.339478
0.995728 0.914551 0.340027
0.995819 0.902832 0.335327
0.994629 0.882843 0.327972
0.993042 0.852295 0.318115
0.989929 0.782532 0.298370
0.984650 0.588470 0.265991
0.978821 0.351044 0.240479
0.968536 0.212036 0.216339
0.321747 0.974854 0.333710
0.321716 0.974854 0.333801
0.321686 0.974854 0.333893
0.321686 0.974854 0.334015
0.321655 0.974854 0.334106
0.321655 0.974854 0.334198
0.321625 0.974823 0.334351
0.321594 0.974823 0.334534
0.321533 0.974823 0.334778
0.321472 0.974792 0.335144
0.321381 0.974792 0.335602
0.321289 0.974762 0.336243
0.321106 0.974762 0.337128
0.320892 0.974701 0.338348
0.320587 0.974670 0.340027
0.320129 0.974609 0.342346
0.319611 0.973755 0.343170
0.342377 0.972229 0.342682
0.525543 0.971436 0.347107
0.677887 0.970764 0.351715
0.793274 0.969696 0.354828
0.878662 0.968201 0.356262
0.936646 0.966370 0.354889
0.975311 0.964233 0.355988
0.996216 0.960632 0.355560
0.998810 0.957153 0.351715
0.998260 0.947388 0.346375
0.997314 0.931488 0.340302
0.995544 0.902130 0.329376
0.992615 0.843292 0.312653
0.987274 0.668640 0.286987
0.977356 0.563110 0.267731
0.327881 0.991180 0.388214
0.327881 0.991180 0.388367
0.327881 0.991180 0.388489
0.327850 0.991180 0.388611
0.327850 0.991180 0.388733
0.327850 0.991180 0.388885
0.327850 0.991180 0.389069
0.327820 0.991180 0.389313
0.327820 0.991180 0.389648
0.327789 0.991180 0.390076
0.327759 0.991150 0.390656
0.327728 0.991150 0.391449
0.327667 0.991150 0.392517
0.327576 0.991119 0.393890
0.327484 0.991119 0.395782
0.327332 0.991089 0.398254
0.327087 0.991058 0.401550
0.326813 0.990570 0.402832
0.408295 0.990173 0.403229
0.601654 0.990631 0.407654
0.746399 0.990997 0.409698
0.849915 0.991089 0.409515
0.918579 0.990692 0.403961
0.963318 0.989929 0.393860
0.991211 0.988922 0.386292
0.999847 0.987305 0.372528
1.000000 0.986420 0.363892
0.999878 0.981567 0.356659
0.999237 0.967529 0.348572
0.998108 0.948212 0.341614
0.995422 0.892761 0.328979
0.990112 0.861908 0.321472
0.329315 0.994415 0.451141
0.329315 0.994415 0.451263
0.329315 0.994415 0.451355
0.329315 0.994415 0.451477
0.329315 0.994415 0.451569
0.329315 0.994415 0.451660
0.329315 0.994415 0.451813
0.329315 0.994415 0.451996
0.329285 0.994415 0.452271
0.329285 0.994415 0.452606
0.329285 0.994415 0.453064
0.329285 0.994415 0.453674
0.329285 0.994415 0.454468
0.329254 0.994415 0.455536
0.329254 0.994415 0.456970
0.329224 0.994415 0.458862
0.329193 0.994446 0.461365
0.329163 0.994446 0.464630
0.328796 0.994354 0.466003
0.487122 0.995117 0.468018
0.677368 0.996643 0.471649
0.810455 0.998016 0.472443
0.895508 0.998749 0.470306
0.948486 0.999054 0.462646
0.982239 0.999176 0.449585
0.998535 0.999084 0.429260
1.000000 0.998993 0.402435
1.000000 0.998810 0.388947
1.000000 0.996674 0.367767
1.000000 0.991699 0.361572
0.999695 0.981720 0.350128
0.998138 0.968872 0.356049
0.330170 0.994598 0.513702
0.330170 0.994598 0.513763
0.330170 0.994598 0.513855
0.330170 0.994598 0.513916
0.330170 0.994598 0.514008
0.330170 0.994598 0.514069
0.330170 0.994598 0.514191
0.330170 0.994629 0.514313
0.330139 0.994629 0.514496
0.330139 0.994629 0.514740
0.330139 0.994629 0.515076
0.330139 0.994629 0.515503
0.330139 0.994629 0.516083
0.330139 0.994629 0.516876
0.330109 0.994629 0.517914
0.330109 0.994629 0.519287
0.330109 0.994629 0.521118
0.330078 0.994629 0.523529
0.330078 0.994659 0.526703
0.334351 0.994659 0.528168
0.560486 0.996185 0.531555
0.750763 0.998199 0.534546
0.864166 0.999542 0.534210
0.930481 1.000000 0.530457
0.970276 1.000000 0.521881
0.994385 1.000000 0.507660
1.000000 1.000000 0.484161
1.000000 1.000000 0.449707
1.000000 1.000000 0.415131
1.000000 1.000000 0.390839
1.000000 0.999878 0.368927
1.000000 0.998016 0.385834
0.331207 0.994751 0.576294
0.331207 0.994751 0.576355
0.331207 0.994751 0.576385
0.331207 0.994751 0.576447
0.331207 0.994751 0.576508
0.331207 0.994751 0.576569
0.331207 0.994751 0.576630
0.331207 0.994751 0.576721
0.331207 0.994751 0.576874
0.331177 0.994751 0.577057
0.331177 0.994751 0.577301
0.331177 0.994751 0.577606
0.331146 0.994751 0.578033
0.331146 0.994751 0.578613
0.331116 0.994751 0.579346
0.331085 0.994751 0.580353
0.331085 0.994751 0.581696
0.331055 0.994751 0.583466
0.331085 0.994781 0.585815
0.331116 0.994781 0.588898
0.386810 0.995026 0.591003
0.641235 0.997131 0.595032
0.816254 0.999115 0.597260
0.906677 1.000000 0.595703
0.956696 1.000000 0.590729
0.985779 1.000000 0.581146
0.999420 1.000000 0.566101
1.000000 1.000000 0.542084
1.000000 1.000000 0.498932
1.000000 1.000000 0.453522
1.000000 1.000000 0.414795
1.000000 1.000000 0.427155
0.332245 0.994934 0.638611
0.332245 0.994934 0.638641
0.332245 0.994934 0.638702
0.332245 0.994934 0.638733
0.332245 0.994934 0.638763
0.332245 0.994934 0.638794
0.332245 0.994934 0.638855
0.332275 0.994934 0.638916
0.332275 0.994934 0.639038
0.332275 0.994934 0.639160
0.332275 0.994934 0.639343
0.332275 0.994934 0.639557
0.332275 0.994934 0.639893
0.332306 0.994934 0.640289
0.332306 0.994934 0.640839
0.332306 0.994965 0.641602
0.332306 0.994965 0.642578
