Postproduction/IWLTBAP - Humble/LUTs by IWLTBAP (CUBE)/UTILITY/Sony S-Log3 to Rec.709/U-SONY-S-LOG3-V3-LTR.cube
# Copyright: (C) Copyright 2010-2018 by IWLTBAP SAS
# Cannot be resold, shared or otherwise redistributed
# Website: https://luts.iwltbap.com
TITLE "Sony S-Log3 Version 3 (Utility LOG to Rec.709)"
LUT_3D_SIZE 32
0.003296 0.003235 0.003204
0.005646 0.003235 0.003265
0.010132 0.003418 0.003510
0.024078 0.003876 0.003937
0.045685 0.004456 0.004547
0.069427 0.005219 0.005310
0.098450 0.006378 0.006439
0.133514 0.008057 0.008118
0.172974 0.010406 0.010437
0.217712 0.016205 0.016266
0.270538 0.027069 0.027161
0.334106 0.042206 0.042358
0.404846 0.058929 0.059235
0.474182 0.075745 0.076263
0.542053 0.091980 0.092926
0.609497 0.108002 0.109497
0.678101 0.123962 0.126251
0.748199 0.139435 0.142822
0.814575 0.154053 0.158905
0.875702 0.167999 0.174164
0.932037 0.181000 0.188751
0.966064 0.188995 0.198425
0.975037 0.191132 0.202301
0.975739 0.191315 0.204102
0.975739 0.191315 0.205444
0.975739 0.191345 0.206482
0.975739 0.191345 0.207397
0.975739 0.191345 0.207916
0.975739 0.191376 0.208252
0.975739 0.191376 0.208435
0.975739 0.191376 0.208557
0.975739 0.191376 0.208679
0.003357 0.005493 0.003418
0.004944 0.005188 0.003418
0.008911 0.005005 0.003571
0.020538 0.005035 0.003937
0.042084 0.005249 0.004486
0.066650 0.005707 0.005219
0.096375 0.006622 0.006378
0.132019 0.008118 0.008026
0.172211 0.010406 0.010376
0.217468 0.016174 0.016235
0.270691 0.027100 0.027191
0.334351 0.042267 0.042419
0.405060 0.058960 0.059265
0.474304 0.075775 0.076294
0.542145 0.091980 0.092957
0.609589 0.108002 0.109528
0.678162 0.123962 0.126282
0.748260 0.139435 0.142822
0.814606 0.154053 0.158905
0.875702 0.167999 0.174164
0.932037 0.181000 0.188751
0.966064 0.188995 0.198425
0.975037 0.191132 0.202301
0.975739 0.191315 0.204102
0.975739 0.191315 0.205444
0.975739 0.191345 0.206482
0.975739 0.191345 0.207397
0.975739 0.191345 0.207916
0.975739 0.191376 0.208252
0.975739 0.191376 0.208435
0.975739 0.191376 0.208557
0.975739 0.191376 0.208679
0.003906 0.009705 0.003998
0.004639 0.009155 0.003937
0.007904 0.008698 0.003998
0.016937 0.008362 0.004211
0.037994 0.008179 0.004669
0.063446 0.008209 0.005371
0.094086 0.008545 0.006439
0.130280 0.009369 0.008026
0.170959 0.010986 0.010345
0.216492 0.016388 0.016052
0.270142 0.027008 0.027069
0.334198 0.042206 0.042358
0.405182 0.058990 0.059296
0.474426 0.075806 0.076355
0.542236 0.092010 0.092987
0.609650 0.108032 0.109528
0.678223 0.123993 0.126282
0.748291 0.139435 0.142822
0.814636 0.154083 0.158936
0.875732 0.167999 0.174164
0.932068 0.181000 0.188751
0.966095 0.188995 0.198425
0.975037 0.191132 0.202301
0.975739 0.191315 0.204102
0.975739 0.191315 0.205444
0.975739 0.191345 0.206482
0.975739 0.191345 0.207397
0.975739 0.191345 0.207916
0.975739 0.191376 0.208252
0.975739 0.191376 0.208435
0.975739 0.191376 0.208557
0.975739 0.191376 0.208679
0.004944 0.022339 0.005005
0.005066 0.020569 0.004913
0.007294 0.018921 0.004852
0.013763 0.017548 0.004944
0.033844 0.016296 0.005249
0.059845 0.015411 0.005798
0.091370 0.014801 0.006744
0.128326 0.014679 0.008240
0.169525 0.015747 0.010468
0.215515 0.019501 0.016144
0.269440 0.027802 0.026947
0.333710 0.042175 0.042206
0.404938 0.058960 0.059174
0.474487 0.075806 0.076324
0.542297 0.092072 0.093018
0.609741 0.108063 0.109558
0.678284 0.123993 0.126312
0.748352 0.139435 0.142853
0.814667 0.154083 0.158936
0.875732 0.168030 0.174164
0.932068 0.181000 0.188751
0.966095 0.188995 0.198425
0.975037 0.191132 0.202301
0.975739 0.191315 0.204102
0.975739 0.191315 0.205444
0.975739 0.191345 0.206482
0.975739 0.191345 0.207397
0.975739 0.191345 0.207916
0.975739 0.191376 0.208252
0.975739 0.191376 0.208435
0.975739 0.191376 0.208557
0.975739 0.191376 0.208679
0.006317 0.044373 0.006348
0.006256 0.042175 0.006226
0.007294 0.040009 0.006104
0.011475 0.037720 0.006073
0.029541 0.035767 0.006256
0.056000 0.033997 0.006653
0.088531 0.032043 0.007446
0.126160 0.029877 0.008789
0.167969 0.028076 0.010834
0.214478 0.028076 0.016602
0.268555 0.032379 0.027100
0.333130 0.043030 0.042114
0.404510 0.058868 0.059021
0.474274 0.075775 0.076202
0.542358 0.092072 0.092987
0.609802 0.108063 0.109558
0.678345 0.124023 0.126312
0.748383 0.139465 0.142853
0.814697 0.154083 0.158936
0.875763 0.168030 0.174164
0.932098 0.181030 0.188751
0.966095 0.188995 0.198425
0.975037 0.191132 0.202301
0.975739 0.191315 0.204102
0.975739 0.191315 0.205444
0.975739 0.191345 0.206482
0.975739 0.191345 0.207397
0.975739 0.191345 0.207916
0.975739 0.191376 0.208252
0.975739 0.191376 0.208435
0.975739 0.191376 0.208557
0.975739 0.191376 0.208679
0.008148 0.069611 0.008148
0.007996 0.067505 0.007996
0.008148 0.065308 0.007812
0.010742 0.063080 0.007721
0.024597 0.060944 0.007782
0.051056 0.058716 0.008026
0.084869 0.056122 0.008667
0.123383 0.052887 0.009796
0.166107 0.048950 0.011627
0.213165 0.045319 0.017944
0.267670 0.043793 0.027802
0.332489 0.047546 0.042267
0.404022 0.059265 0.058899
0.473938 0.075653 0.076050
0.542206 0.092010 0.092896
0.609894 0.108093 0.109589
0.678406 0.124023 0.126312
0.748444 0.139465 0.142853
0.814728 0.154083 0.158936
0.875793 0.168030 0.174194
0.932098 0.181030 0.188782
0.966095 0.188995 0.198425
0.975037 0.191132 0.202301
0.975739 0.191315 0.204102
0.975739 0.191315 0.205444
0.975739 0.191345 0.206482
0.975739 0.191345 0.207397
0.975739 0.191345 0.207916
0.975739 0.191376 0.208252
0.975739 0.191376 0.208435
0.975739 0.191376 0.208557
0.975739 0.191376 0.208679
0.010925 0.099060 0.010925
0.010742 0.097290 0.010742
0.010590 0.095428 0.010559
0.011230 0.093597 0.010376
0.020020 0.091553 0.010284
0.043518 0.089661 0.010406
0.078705 0.087280 0.010864
0.118744 0.084015 0.011963
0.162659 0.079681 0.015350
0.211029 0.074249 0.021057
0.266144 0.068451 0.030243
0.331390 0.063660 0.043427
0.403229 0.064606 0.059052
0.473419 0.075775 0.075806
0.541840 0.091858 0.092590
0.609741 0.108032 0.109436
0.678467 0.124023 0.126343
0.748474 0.139496 0.142883
0.814789 0.154114 0.158966
0.875824 0.168030 0.174194
0.932129 0.181030 0.188782
0.966095 0.188995 0.198425
0.975037 0.191132 0.202301
0.975739 0.191315 0.204102
0.975739 0.191315 0.205444
0.975739 0.191345 0.206482
0.975739 0.191345 0.207397
0.975739 0.191345 0.207916
0.975739 0.191376 0.208252
0.975739 0.191376 0.208435
0.975739 0.191376 0.208557
0.975739 0.191376 0.208679
0.019073 0.134552 0.019073
0.018677 0.132904 0.018646
0.018219 0.131348 0.018219
0.017883 0.129761 0.017792
0.020142 0.128113 0.017395
0.034882 0.126404 0.017212
0.069092 0.124298 0.017853
0.111298 0.121307 0.019409
0.157288 0.117554 0.022278
0.207214 0.112366 0.027222
0.263611 0.105835 0.035553
0.329224 0.098297 0.047272
0.401642 0.089447 0.061127
0.472412 0.084290 0.076080
0.541168 0.091919 0.092224
0.609314 0.107941 0.109070
0.678375 0.124023 0.126190
0.748566 0.139496 0.142883
0.814819 0.154114 0.158966
0.875854 0.168030 0.174194
0.932159 0.181030 0.188782
0.966125 0.188995 0.198425
0.975037 0.191132 0.202301
0.975739 0.191315 0.204102
0.975739 0.191315 0.205444
0.975739 0.191345 0.206482
0.975739 0.191345 0.207397
0.975739 0.191345 0.207916
0.975739 0.191376 0.208252
0.975739 0.191376 0.208435
0.975739 0.191376 0.208557
0.975739 0.191376 0.208679
0.032166 0.174622 0.032166
0.031677 0.173401 0.031677
0.031219 0.172119 0.031189
0.030762 0.170776 0.030762
0.030365 0.169403 0.030243
0.033661 0.167908 0.029785
0.056641 0.166077 0.029755
0.099884 0.163483 0.030823
0.148956 0.160278 0.033203
0.201416 0.155945 0.037415
0.259552 0.149933 0.044403
0.326294 0.142090 0.054260
0.399292 0.132538 0.066193
0.470642 0.119751 0.079010
0.539795 0.107666 0.092896
0.608368 0.108276 0.108429
0.677856 0.123901 0.125671
0.748505 0.139496 0.142761
0.814911 0.154114 0.158997
0.875916 0.168060 0.174225
0.932190 0.181030 0.188782
0.966125 0.188995 0.198425
0.975037 0.191132 0.202301
0.975739 0.191315 0.204102
0.975739 0.191315 0.205444
0.975739 0.191345 0.206482
0.975739 0.191345 0.207397
0.975739 0.191345 0.207916
0.975739 0.191376 0.208252
0.975739 0.191376 0.208435
0.975739 0.191376 0.208557
0.975739 0.191376 0.208679
0.050323 0.220825 0.050293
0.049896 0.219757 0.049896
0.049316 0.218658 0.049286
0.048828 0.217529 0.048828
0.048401 0.216217 0.048370
0.047974 0.214996 0.047852
0.052429 0.213318 0.047333
0.082581 0.211090 0.047363
0.134949 0.208282 0.048798
0.192078 0.204437 0.051941
0.252930 0.199371 0.057098
0.321381 0.192383 0.064880
0.395844 0.183136 0.074646
0.467987 0.171539 0.085571
0.537659 0.155060 0.097229
0.606506 0.135834 0.109833
0.676514 0.125946 0.124695
0.747894 0.139343 0.141907
0.814880 0.154114 0.158875
0.875977 0.168060 0.174225
0.932220 0.181061 0.188812
0.966156 0.189026 0.198456
0.975037 0.191162 0.202301
0.975739 0.191315 0.204102
0.975739 0.191315 0.205444
0.975739 0.191345 0.206482
0.975739 0.191345 0.207397
0.975739 0.191345 0.207916
0.975739 0.191376 0.208252
0.975739 0.191376 0.208435
0.975739 0.191376 0.208557
0.975739 0.191376 0.208679
0.072083 0.275238 0.072052
0.071686 0.274261 0.071686
0.071320 0.273285 0.071320
0.070892 0.272308 0.070831
0.070404 0.271271 0.070374
0.069946 0.270172 0.069916
0.069519 0.268585 0.069366
0.074463 0.266510 0.068665
0.110718 0.263916 0.068756
0.175232 0.260590 0.070618
0.241974 0.256042 0.074341
0.313049 0.250061 0.079956
0.389618 0.241760 0.087494
0.463715 0.230774 0.096344
0.534180 0.216309 0.106079
0.603790 0.195740 0.116333
0.674133 0.169250 0.127411
0.746002 0.147034 0.140717
0.814087 0.153931 0.157562
0.876007 0.168060 0.174164
0.932312 0.181061 0.188812
0.966187 0.189026 0.198456
0.975037 0.191162 0.202301
0.975739 0.191315 0.204102
0.975739 0.191315 0.205444
0.975739 0.191345 0.206482
0.975739 0.191345 0.207397
0.975739 0.191345 0.207916
0.975739 0.191376 0.208252
0.975739 0.191376 0.208435
0.975739 0.191376 0.208557
0.975739 0.191376 0.208679
0.095673 0.339111 0.095673
0.095367 0.338257 0.095337
0.095032 0.337402 0.095032
0.094727 0.336517 0.094727
0.094421 0.335663 0.094421
0.094086 0.334686 0.094086
0.093628 0.333466 0.093597
0.093079 0.331696 0.092987
0.098969 0.329163 0.092255
0.146088 0.326111 0.092560
0.223419 0.322327 0.095123
0.299713 0.317078 0.099335
0.379547 0.309998 0.105255
0.456604 0.300446 0.112274
0.528748 0.287170 0.120117
0.599274 0.269440 0.128357
0.670349 0.244080 0.136810
0.742859 0.209778 0.145660
0.811584 0.174133 0.156494
0.874939 0.167816 0.172211
0.932373 0.181091 0.188812
0.966217 0.189026 0.198456
0.975037 0.191162 0.202301
0.975739 0.191315 0.204102
0.975739 0.191315 0.205444
0.975739 0.191345 0.206482
0.975739 0.191345 0.207397
0.975739 0.191345 0.207916
0.975739 0.191376 0.208252
0.975739 0.191376 0.208435
0.975739 0.191376 0.208557
0.975739 0.191376 0.208679
0.120453 0.408508 0.120422
0.120209 0.407837 0.120209
0.119965 0.407166 0.119965
0.119690 0.406464 0.119690
0.119446 0.405762 0.119446
0.119202 0.405029 0.119171
0.118835 0.404053 0.118835
0.118378 0.402557 0.118347
0.117798 0.400696 0.117645
0.129547 0.398132 0.117035
0.193604 0.394958 0.118042
0.280090 0.390839 0.121460
0.364899 0.385498 0.126282
0.445862 0.377960 0.132019
0.520325 0.367523 0.138550
0.592407 0.352905 0.145325
0.664124 0.332214 0.152008
0.737671 0.302277 0.158539
0.807556 0.259613 0.164459
0.871796 0.208984 0.172028
0.931000 0.180725 0.185883
0.966278 0.189026 0.198486
0.975067 0.191162 0.202301
0.975739 0.191315 0.204102
0.975739 0.191315 0.205444
0.975739 0.191345 0.206482
0.975739 0.191345 0.207397
0.975739 0.191345 0.207916
0.975739 0.191376 0.208252
0.975739 0.191376 0.208435
0.975739 0.191376 0.208557
0.975739 0.191376 0.208679
0.145416 0.475494 0.145386
0.145233 0.474915 0.145203
0.145050 0.474426 0.145020
0.144867 0.473938 0.144836
0.144684 0.473450 0.144684
0.144501 0.472931 0.144470
0.144104 0.472229 0.144104
0.143738 0.471222 0.143707
0.143219 0.469879 0.143219
0.143250 0.468048 0.142517
0.169189 0.465576 0.142273
0.252136 0.462555 0.144531
0.344727 0.458893 0.148499
0.431366 0.453735 0.153320
0.508942 0.446747 0.158936
0.583038 0.436768 0.164703
0.655762 0.422150 0.170593
0.730042 0.400696 0.176147
0.801208 0.368622 0.180634
0.866669 0.319702 0.183990
0.927185 0.251892 0.188019
0.965485 0.189423 0.194580
0.975067 0.191162 0.202301
0.975739 0.191315 0.204102
0.975739 0.191315 0.205444
0.975739 0.191345 0.206482
0.975739 0.191345 0.207397
0.975739 0.191345 0.207916
0.975739 0.191376 0.208252
0.975739 0.191376 0.208435
0.975739 0.191376 0.208557
0.975739 0.191376 0.208679
0.169525 0.540863 0.169495
0.169403 0.540497 0.169373
0.169281 0.540161 0.169250
0.169128 0.539764 0.169128
0.169006 0.539398 0.168976
0.168884 0.539001 0.168854
0.168671 0.538483 0.168640
0.168427 0.537750 0.168396
0.168030 0.536682 0.167999
0.167511 0.535217 0.167480
0.170349 0.533295 0.166870
0.218262 0.530914 0.167358
0.317780 0.528198 0.170502
0.412506 0.524506 0.174683
0.494598 0.519592 0.179565
0.571198 0.512634 0.184662
0.645538 0.502808 0.190063
0.720734 0.488739 0.195068
0.792908 0.468262 0.199463
0.859406 0.437134 0.202606
0.920837 0.386261 0.203918
0.964294 0.302032 0.201630
0.975067 0.202972 0.197876
0.975739 0.191315 0.204102
0.975739 0.191315 0.205444
0.975739 0.191345 0.206482
0.975739 0.191345 0.207397
0.975739 0.191345 0.207916
0.975739 0.191376 0.208252
0.975739 0.191376 0.208435
0.975739 0.191376 0.208557
0.975739 0.191376 0.208679
0.192627 0.605774 0.192596
0.192535 0.605530 0.192505
0.192444 0.605255 0.192413
0.192322 0.604950 0.192322
0.192230 0.604675 0.192200
0.192139 0.604340 0.192108
0.191986 0.603973 0.191956
0.191772 0.603424 0.191742
0.191498 0.602661 0.191498
0.191132 0.601593 0.191101
0.190674 0.600098 0.190582
0.204285 0.598114 0.190247
0.281555 0.595795 0.191895
0.387848 0.593201 0.195587
0.477020 0.589630 0.199890
0.556763 0.584656 0.204498
0.633118 0.577850 0.209473
0.709534 0.568054 0.214294
0.782990 0.553986 0.218658
0.850494 0.533783 0.222107
0.912903 0.503418 0.224213
0.962708 0.453186 0.222687
0.976807 0.360046 0.211792
0.976105 0.233093 0.200104
0.975739 0.191315 0.205444
0.975739 0.191345 0.206482
0.975739 0.191345 0.207397
0.975739 0.191345 0.207916
0.975739 0.191376 0.208252
0.975739 0.191376 0.208435
0.975739 0.191376 0.208557
0.975739 0.191376 0.208679
0.214783 0.671570 0.214752
0.214691 0.671356 0.214691
0.214630 0.671143 0.214630
0.214569 0.670929 0.214539
0.214478 0.670685 0.214447
0.214417 0.670441 0.214386
0.214325 0.670135 0.214294
0.214142 0.669678 0.214111
0.213928 0.668915 0.213898
0.213684 0.668060 0.213654
0.213287 0.666870 0.213257
0.214447 0.665253 0.212769
0.251526 0.663269 0.213074
0.355591 0.661224 0.215912
0.455383 0.658417 0.219849
0.539703 0.654785 0.224030
0.618683 0.649872 0.228668
0.696259 0.642914 0.233337
0.771515 0.633057 0.237610
0.840302 0.619141 0.241394
0.903656 0.599030 0.244232
0.956909 0.568909 0.244781
0.979004 0.518707 0.237854
0.978973 0.422668 0.221649
0.976624 0.276947 0.204254
0.975739 0.191345 0.206482
0.975739 0.191345 0.207397
0.975739 0.191345 0.207916
0.975739 0.191376 0.208252
0.975739 0.191376 0.208435
0.975739 0.191376 0.208557
0.975739 0.191376 0.208679
0.235718 0.737579 0.235687
0.235687 0.737396 0.235657
0.235626 0.737244 0.235596
0.235565 0.737061 0.235565
0.235535 0.736877 0.235504
0.235474 0.736694 0.235443
0.235413 0.736481 0.235382
0.235291 0.736176 0.235260
0.235168 0.735687 0.235138
0.234955 0.735046 0.234924
0.234680 0.734131 0.234650
0.234283 0.732880 0.234253
0.244598 0.731232 0.233978
0.317535 0.729431 0.235443
0.428772 0.727600 0.239105
0.519836 0.725098 0.243073
0.602051 0.721680 0.247375
0.681122 0.716949 0.252045
0.757965 0.709961 0.256409
0.828827 0.699829 0.260468
0.893250 0.685394 0.263763
0.947510 0.664612 0.265442
0.978516 0.633453 0.262543
0.982666 0.583099 0.251984
0.980438 0.487549 0.233185
0.977356 0.329773 0.211243
0.975739 0.191345 0.207397
0.975739 0.191345 0.207916
0.975739 0.191376 0.208252
0.975739 0.191376 0.208435
0.975739 0.191376 0.208557
0.975739 0.191376 0.208679
0.255280 0.799194 0.255249
0.255249 0.799072 0.255219
0.255219 0.798981 0.255188
0.255157 0.798859 0.255127
0.255127 0.798737 0.255096
0.255096 0.798584 0.255066
0.255035 0.798431 0.255005
0.254944 0.798187 0.254913
0.254852 0.797821 0.254822
0.254700 0.797394 0.254669
0.254486 0.796722 0.254456
0.254181 0.795807 0.254150
0.255981 0.794556 0.253815
0.293091 0.793152 0.254242
0.397217 0.791901 0.257019
0.498138 0.790192 0.260986
0.584381 0.787964 0.265137
0.665161 0.784882 0.269684
0.743622 0.780518 0.274139
0.816437 0.774017 0.278381
0.882172 0.764404 0.282318
0.937225 0.750610 0.284882
0.976318 0.730804 0.284851
0.986176 0.699921 0.278809
0.985107 0.648163 0.266907
0.982178 0.554565 0.246552
0.978363 0.382629 0.220001
0.975739 0.191345 0.207916
0.975739 0.191376 0.208252
0.975739 0.191376 0.208435
0.975739 0.191376 0.208557
0.975739 0.191376 0.208679
0.274109 0.855927 0.274078
0.274078 0.855865 0.274048
0.274048 0.855804 0.274017
0.274017 0.855682 0.273987
0.273987 0.855591 0.273956
0.273956 0.855499 0.273926
0.273895 0.855347 0.273865
0.273834 0.855164 0.273804
0.273743 0.854919 0.273712
0.273621 0.854553 0.273590
0.273468 0.854034 0.273438
0.273224 0.853333 0.273193
0.272919 0.852325 0.272888
0.287109 0.851166 0.272827
0.364960 0.850128 0.274536
0.473633 0.849091 0.278107
0.565308 0.847687 0.282288
0.648376 0.845703 0.286591
0.728302 0.842926 0.291138
0.803314 0.838745 0.295471
0.870697 0.832733 0.299591
0.926636 0.823944 0.302826
0.970062 0.811462 0.304321
0.988342 0.792816 0.301758
0.989227 0.763153 0.294464
0.987427 0.714905 0.282654
0.984192 0.621124 0.261292
0.979553 0.433472 0.229919
0.975739 0.191376 0.208252
0.975739 0.191376 0.208435
0.975739 0.191376 0.208557
0.975739 0.191376 0.208679
0.292297 0.908173 0.292267
0.292267 0.908112 0.292236
0.292236 0.908051 0.292206
0.292236 0.907959 0.292175
0.292206 0.907898 0.292175
0.292175 0.907806 0.292145
0.292114 0.907715 0.292084
0.292084 0.907562 0.292053
0.292023 0.907379 0.291992
0.291931 0.907135 0.291901
0.291779 0.906738 0.291748
0.291626 0.906250 0.291565
0.291382 0.905579 0.291351
0.293945 0.904785 0.291107
0.340424 0.903900 0.291931
0.445862 0.903137 0.294952
0.544708 0.902405 0.298920
0.630768 0.901276 0.303253
0.712067 0.899719 0.307678
0.789032 0.897156 0.312225
0.858246 0.893372 0.316559
0.915466 0.887665 0.320099
0.959961 0.879486 0.322388
0.987946 0.867737 0.322174
0.992737 0.850037 0.317719
0.991760 0.823090 0.310150
0.989868 0.777161 0.298187
0.986633 0.689209 0.276764
0.980988 0.483734 0.240753
0.975739 0.191376 0.208435
0.975739 0.191376 0.208557
0.975739 0.191376 0.208679
0.308167 0.951752 0.308136
0.308136 0.951721 0.308105
0.308136 0.951691 0.308105
0.308105 0.951630 0.308075
0.308105 0.951599 0.308044
0.308075 0.951538 0.308044
0.308044 0.951447 0.308014
0.308014 0.951385 0.307953
0.307953 0.951233 0.307922
0.307861 0.951019 0.307831
0.307770 0.950745 0.307739
0.307648 0.950378 0.307587
0.307465 0.949921 0.307434
0.307251 0.949341 0.307220
0.333618 0.948761 0.307587
0.421509 0.948364 0.309906
0.525330 0.948029 0.313843
0.614258 0.947510 0.318054
0.696686 0.946716 0.322601
0.775299 0.945435 0.327209
0.846100 0.943329 0.332031
0.904541 0.940399 0.336060
0.949707 0.935669 0.338898
0.983246 0.928711 0.340332
0.995331 0.918488 0.338531
0.995728 0.903351 0.333954
0.994385 0.878571 0.326263
0.992432 0.836975 0.314270
0.988983 0.752045 0.292206
0.982635 0.533661 0.252380
0.975739 0.191376 0.208557
0.975739 0.191376 0.208679
0.321106 0.984558 0.321075
0.321106 0.984528 0.321075
0.321075 0.984497 0.321045
0.321075 0.984467 0.321045
0.321075 0.984436 0.320984
0.321045 0.984406 0.320984
0.321045 0.984344 0.320984
0.320984 0.984283 0.320953
0.320953 0.984222 0.320892
0.320862 0.984070 0.320801
0.320770 0.983948 0.320709
0.320648 0.983765 0.320618
0.320557 0.983490 0.320496
0.320709 0.983154 0.320374
0.337311 0.982819 0.320587
0.408600 0.982544 0.322540
0.510223 0.982483 0.326141
0.601135 0.982330 0.330322
0.684082 0.982025 0.334930
0.763641 0.981598 0.339661
0.835541 0.980896 0.344635
0.894928 0.979706 0.349030
0.940704 0.977753 0.352661
0.975525 0.974121 0.354889
0.995422 0.968750 0.355255
0.998810 0.960663 0.352936
0.998352 0.948700 0.348755
0.997192 0.927551 0.341827
0.995209 0.891693 0.330505
0.991486 0.811920 0.308105
0.984436 0.585571 0.264587
0.975739 0.191376 0.208679
0.324829 0.993774 0.325531
0.324829 0.993774 0.325531
0.324829 0.993744 0.325531
0.324829 0.993744 0.325531
0.324829 0.993744 0.325531
0.324799 0.993713 0.325531
0.324799 0.993713 0.325531
0.324799 0.993713 0.325531
0.324799 0.993683 0.325500
0.324768 0.993652 0.325500
0.324768 0.993622 0.325470
0.324738 0.993561 0.325439
0.324707 0.993500 0.325409
0.324799 0.993408 0.325317
0.328918 0.993347 0.325256
0.395752 0.993500 0.326904
0.498840 0.993927 0.330383
0.590271 0.994415 0.334717
0.673065 0.994873 0.339355
0.753021 0.995483 0.344452
0.825714 0.996033 0.349640
0.885681 0.996429 0.354645
0.932159 0.996552 0.358765
0.967590 0.996338 0.362213
0.992218 0.995300 0.364441
0.999756 0.993042 0.364563
1.000000 0.989685 0.363464
1.000000 0.983948 0.361298
0.999268 0.967804 0.355469
0.997833 0.938324 0.345551
0.994141 0.869110 0.324615
0.986420 0.633240 0.276398
0.325165 0.994171 0.347229
0.325165 0.994171 0.347046
0.325165 0.994171 0.346863
0.325165 0.994171 0.346710
0.325165 0.994171 0.346527
0.325165 0.994171 0.346344
0.325165 0.994171 0.346100
0.325165 0.994171 0.345764
0.325165 0.994171 0.345398
0.325165 0.994171 0.344879
0.325134 0.994171 0.344208
0.325134 0.994171 0.343384
0.325134 0.994171 0.342285
0.325104 0.994171 0.340759
0.332489 0.994171 0.339111
0.393127 0.994476 0.338593
0.496796 0.995148 0.339539
0.584595 0.995850 0.340698
0.665710 0.996613 0.342468
0.744995 0.997498 0.346191
0.817444 0.998444 0.350555
0.877319 0.999176 0.355164
0.924408 0.999695 0.359406
0.960052 1.000000 0.363098
0.986572 1.000000 0.365997
0.999054 1.000000 0.367462
1.000000 1.000000 0.367645
1.000000 0.999603 0.367462
1.000000 0.997437 0.366547
1.000000 0.991241 0.364044
0.999512 0.975677 0.358429
0.996857 0.917297 0.339478
0.325806 0.994324 0.412872
0.325806 0.994324 0.412750
0.325806 0.994324 0.412598
0.325806 0.994324 0.412476
0.325806 0.994324 0.412354
0.325806 0.994324 0.412201
0.325806 0.994324 0.412018
0.325806 0.994324 0.411774
0.325806 0.994324 0.411438
0.325806 0.994324 0.411011
0.325806 0.994324 0.410431
0.325775 0.994324 0.409637
0.325775 0.994324 0.408600
0.326019 0.994324 0.407196
0.346069 0.994385 0.405670
0.407379 0.994659 0.404419
0.503357 0.995361 0.403748
0.587189 0.996033 0.402191
0.664581 0.996796 0.399750
0.741699 0.997681 0.395996
0.812531 0.998627 0.384430
0.871155 0.999359 0.369171
0.917908 0.999847 0.360962
0.953705 1.000000 0.362640
0.980499 1.000000 0.365448
0.997528 1.000000 0.367493
1.000000 1.000000 0.367981
1.000000 1.000000 0.368011
1.000000 1.000000 0.367981
1.000000 1.000000 0.367828
1.000000 0.999268 0.367340
1.000000 0.991547 0.364441
0.326691 0.994476 0.482147
0.326691 0.994476 0.482086
0.326691 0.994476 0.481995
0.326691 0.994476 0.481903
0.326691 0.994476 0.481812
0.326691 0.994476 0.481750
0.326691 0.994476 0.481628
0.326691 0.994476 0.481476
0.326660 0.994476 0.481262
0.326660 0.994446 0.480957
0.326660 0.994446 0.480591
0.326660 0.994446 0.480072
0.326752 0.994446 0.479340
0.334564 0.994476 0.478455
0.369537 0.994598 0.477631
0.436218 0.995056 0.477020
0.517731 0.995636 0.476379
0.597290 0.996277 0.475159
0.670715 0.997009 0.472839
0.743805 0.997864 0.469116
0.811462 0.998749 0.463043
0.868042 0.999420 0.449829
0.913452 0.999847 0.430634
0.949005 1.000000 0.403381
0.975494 1.000000 0.368317
0.994537 1.000000 0.367157
1.000000 1.000000 0.367950
1.000000 1.000000 0.368011
1.000000 1.000000 0.368011
1.000000 1.000000 0.368011
1.000000 1.000000 0.368011
1.000000 1.000000 0.367950
0.327698 0.994598 0.548309
0.327698 0.994598 0.548248
0.327698 0.994598 0.548187
0.327698 0.994598 0.548126
0.327698 0.994598 0.548065
0.327698 0.994598 0.548004
0.327698 0.994598 0.547913
0.327698 0.994598 0.547821
0.327698 0.994598 0.547668
0.327698 0.994598 0.547485
0.327698 0.994598 0.547211
0.329071 0.994598 0.546844
0.337402 0.994629 0.546326
0.360992 0.994720 0.545898
0.406372 0.995056 0.545593
0.475555 0.995483 0.545502
0.546051 0.996002 0.545197
