Postproduction/IWLTBAP - Humble/LUTs by IWLTBAP (CUBE)/UTILITY/Sony S-Log3 to Rec.709/U-SONY-S-LOG3-V1-LTR.cube
# Copyright: (C) Copyright 2010-2018 by IWLTBAP SAS
# Cannot be resold, shared or otherwise redistributed
# Website: https://luts.iwltbap.com
TITLE "Sony S-Log3 Version 1 (Utility LOG to Rec.709)"
LUT_3D_SIZE 5
DOMAIN_MIN 0.000000 0.000000 0.000000
DOMAIN_MAX 0.903226 0.903226 0.903226
0.000000 0.000000 0.000000
0.141113 0.000000 0.000000
0.584747 0.000000 0.000000
1.000000 0.000000 0.020630
1.000000 0.000000 0.041565
0.000000 0.148499 0.000000
0.122803 0.136017 0.000000
0.586060 0.000000 0.000000
1.000000 0.000000 0.020538
1.000000 0.000000 0.041565
0.000000 0.569427 0.000000
0.000000 0.566315 0.000000
0.517365 0.542603 0.000000
0.995636 0.411285 0.000000
1.000000 0.000000 0.041595
0.000000 0.965118 0.000000
0.000000 0.964111 0.000000
0.389648 0.958496 0.000000
0.904083 0.934875 0.000000
1.000000 0.893158 0.000000
0.866547 1.000000 0.000000
0.869446 1.000000 0.000000
0.884125 1.000000 0.000000
0.950195 1.000000 0.000000
1.000000 1.000000 0.000000
0.000000 0.000000 0.127014
0.131470 0.000000 0.124237
0.583313 0.000000 0.109802
1.000000 0.000000 0.026031
1.000000 0.000000 0.041565
0.000000 0.128998 0.118347
0.115326 0.115417 0.115295
0.583130 0.000000 0.096863
1.000000 0.000000 0.023651
1.000000 0.000000 0.041565
0.000000 0.566803 0.000000
0.000000 0.563751 0.000000
0.515167 0.540588 0.000000
0.995697 0.408813 0.000000
1.000000 0.000000 0.041595
0.000000 0.965027 0.000000
0.000000 0.964020 0.000000
0.388947 0.958405 0.000000
0.904083 0.934784 0.000000
1.000000 0.893005 0.000000
0.866516 1.000000 0.000000
0.869385 1.000000 0.000000
0.884094 1.000000 0.000000
0.950165 1.000000 0.000000
1.000000 1.000000 0.000000
0.000000 0.000000 0.521027
0.000000 0.000000 0.520386
0.565460 0.000000 0.517365
1.000000 0.000000 0.488068
1.000000 0.000000 0.041565
0.000000 0.000000 0.519775
0.000000 0.000000 0.519196
0.569916 0.000000 0.516266
1.000000 0.000000 0.487122
1.000000 0.000000 0.041565
0.000000 0.529938 0.503876
0.000000 0.526642 0.503326
0.500031 0.500122 0.499969
0.994141 0.353760 0.459656
1.000000 0.000000 0.041595
0.000000 0.955170 0.413055
0.000000 0.954102 0.412201
0.362732 0.948608 0.406799
0.899445 0.926727 0.351593
1.000000 0.891998 0.000000
0.866150 1.000000 0.000000
0.869049 1.000000 0.000000
0.883789 1.000000 0.000000
0.950043 1.000000 0.000000
1.000000 1.000000 0.000000
0.000000 0.000000 0.900360
0.000000 0.000000 0.900299
0.466553 0.000000 0.900238
0.996307 0.000000 0.898895
1.000000 0.000000 0.877991
0.000000 0.000000 0.900299
0.000000 0.000000 0.900238
0.477509 0.000000 0.900177
0.996582 0.000000 0.898834
1.000000 0.000000 0.877899
0.000000 0.230621 0.896912
0.000000 0.225372 0.896881
0.437622 0.155121 0.896942
0.991913 0.000000 0.896301
1.000000 0.000000 0.877380
0.000000 0.911591 0.878937
0.000000 0.910400 0.878937
0.127380 0.904205 0.878845
0.877197 0.877228 0.877167
1.000000 0.831635 0.854706
0.837280 1.000000 0.841461
0.840149 1.000000 0.841400
0.856110 1.000000 0.840942
0.927307 1.000000 0.837463
1.000000 1.000000 0.802582
0.000000 0.000000 1.000000
0.000000 0.000000 1.000000
0.000000 0.000000 1.000000
0.979584 0.000000 1.000000
1.000000 0.000000 1.000000
0.000000 0.000000 1.000000
0.000000 0.000000 1.000000
0.000000 0.000000 1.000000
0.979980 0.000000 1.000000
1.000000 0.000000 1.000000
0.000000 0.000000 1.000000
0.000000 0.000000 1.000000
0.000000 0.000000 1.000000
0.981934 0.000000 1.000000
1.000000 0.000000 1.000000
0.000000 0.836792 0.999908
0.000000 0.835541 0.999908
0.000000 0.825256 0.999939
0.867737 0.783417 1.000000
1.000000 0.688416 1.000000
0.798401 1.000000 0.994537
0.802307 1.000000 0.994537
0.822571 1.000000 0.994568
0.907715 0.999939 0.994659
0.994690 0.994690 0.994690
