Postproduction/IWLTBAP - Humble/LUTs by IWLTBAP (CUBE)/UTILITY/Sony S-Log3 to Rec.709/U-SONY-S-LOG3-V1-LTR.cube
# Copyright: (C) Copyright 2010-2018 by IWLTBAP SAS
# Cannot be resold, shared or otherwise redistributed
# Website: https://luts.iwltbap.com
TITLE "Sony S-Log3 Version 1 (Utility LOG to Rec.709)"
LUT_3D_SIZE 8
DOMAIN_MIN 0.000000 0.000000 0.000000
DOMAIN_MAX 0.903226 0.903226 0.903226
0.000000 0.000000 0.000000
0.038818 0.000000 0.000000
0.186035 0.000000 0.000000
0.430359 0.000000 0.000000
0.726532 0.000000 0.000000
0.983459 0.000000 0.014374
1.000000 0.000000 0.034485
1.000000 0.000000 0.041565
0.000000 0.042969 0.000000
0.027710 0.035706 0.000000
0.189301 0.006348 0.000000
0.434174 0.000000 0.000000
0.727814 0.000000 0.000000
0.983673 0.000000 0.014404
1.000000 0.000000 0.034485
1.000000 0.000000 0.041565
0.000000 0.193054 0.000000
0.000000 0.189362 0.000000
0.164032 0.178833 0.000000
0.430969 0.118378 0.000000
0.726013 0.000000 0.000000
0.983673 0.000000 0.011414
1.000000 0.000000 0.034515
1.000000 0.000000 0.041565
0.000000 0.434204 0.000000
0.000000 0.432220 0.000000
0.000000 0.427948 0.000000
0.387451 0.410919 0.000000
0.703979 0.352966 0.000000
0.977905 0.126312 0.000000
1.000000 0.000000 0.018311
1.000000 0.000000 0.041565
0.000000 0.695190 0.000000
0.000000 0.694061 0.000000
0.000000 0.691711 0.000000
0.225311 0.684479 0.000000
0.637695 0.665375 0.000000
0.931671 0.621643 0.000000
1.000000 0.536194 0.000000
1.000000 0.146484 0.000000
0.000000 0.922516 0.000000
0.000000 0.921875 0.000000
0.000000 0.920868 0.000000
0.062683 0.917786 0.000000
0.556763 0.909363 0.000000
0.860168 0.891266 0.000000
1.000000 0.866058 0.000000
1.000000 0.821594 0.000000
0.452911 1.000000 0.000000
0.468018 1.000000 0.000000
0.490692 1.000000 0.000000
0.549927 1.000000 0.000000
0.674591 1.000000 0.000000
0.851501 1.000000 0.000000
0.987396 1.000000 0.000000
1.000000 0.998260 0.000000
0.866547 1.000000 0.000000
0.867859 1.000000 0.000000
0.870239 1.000000 0.000000
0.876862 1.000000 0.000000
0.895691 1.000000 0.000000
0.936462 1.000000 0.000000
0.991028 1.000000 0.000000
1.000000 1.000000 0.000000
0.000000 0.000000 0.030548
0.033173 0.000000 0.028748
0.183228 0.000000 0.025940
0.429382 0.000000 0.020691
0.726257 0.000000 0.013641
0.983459 0.000000 0.014374
1.000000 0.000000 0.034485
1.000000 0.000000 0.041565
0.000000 0.030609 0.025055
0.023376 0.023438 0.023376
0.186371 0.000000 0.020416
0.430908 0.000000 0.016113
0.727570 0.000000 0.011688
0.983643 0.000000 0.014404
1.000000 0.000000 0.034485
1.000000 0.000000 0.041565
0.000000 0.188202 0.006714
0.000000 0.184326 0.005157
0.160645 0.174316 0.002960
0.416962 0.122192 0.000000
0.725922 0.000000 0.000000
0.983673 0.000000 0.011597
1.000000 0.000000 0.034515
1.000000 0.000000 0.041565
0.000000 0.432434 0.000000
0.000000 0.430450 0.000000
0.000000 0.426208 0.000000
0.386658 0.409271 0.000000
0.704010 0.350922 0.000000
0.977997 0.122498 0.000000
1.000000 0.000000 0.018738
1.000000 0.000000 0.041565
0.000000 0.694763 0.000000
0.000000 0.693390 0.000000
0.000000 0.691315 0.000000
0.224030 0.684052 0.000000
0.637665 0.664978 0.000000
0.931732 0.621185 0.000000
1.000000 0.535553 0.000000
1.000000 0.145264 0.000000
0.000000 0.922424 0.000000
0.000000 0.921783 0.000000
0.000000 0.920776 0.000000
0.062195 0.917694 0.000000
0.556641 0.909271 0.000000
0.860168 0.891205 0.000000
1.000000 0.865967 0.000000
1.000000 0.821442 0.000000
0.452606 1.000000 0.000000
0.467743 1.000000 0.000000
0.490417 1.000000 0.000000
0.549744 1.000000 0.000000
0.674469 1.000000 0.000000
0.851471 1.000000 0.000000
0.987396 1.000000 0.000000
1.000000 0.998230 0.000000
0.866547 1.000000 0.000000
0.867828 1.000000 0.000000
0.870209 1.000000 0.000000
0.876831 1.000000 0.000000
0.895660 1.000000 0.000000
0.936432 1.000000 0.000000
0.991028 1.000000 0.000000
1.000000 1.000000 0.000000
0.000000 0.000000 0.168579
0.010437 0.000000 0.167389
0.174957 0.000000 0.165527
0.426270 0.000000 0.159973
0.725311 0.000000 0.141205
0.983368 0.000000 0.068756
1.000000 0.000000 0.034485
1.000000 0.000000 0.041565
0.000000 0.000000 0.166168
0.002258 0.000000 0.164978
0.180237 0.000000 0.163177
0.430817 0.000000 0.157471
0.726715 0.000000 0.139099
0.983551 0.000000 0.066956
1.000000 0.000000 0.034485
1.000000 0.000000 0.041565
0.000000 0.171204 0.158813
0.000000 0.167389 0.157410
0.155518 0.155640 0.155487
0.426270 0.085419 0.147217
0.723633 0.000000 0.125000
0.982910 0.000000 0.057465
1.000000 0.000000 0.034515
1.000000 0.000000 0.041565
0.000000 0.426788 0.118774
0.000000 0.424805 0.117432
0.000000 0.420776 0.114929
0.382721 0.404114 0.107330
0.690979 0.355621 0.067230
0.970612 0.144043 0.000000
1.000000 0.000000 0.019348
1.000000 0.000000 0.041565
0.000000 0.692810 0.000000
0.000000 0.691681 0.000000
0.000000 0.689606 0.000000
0.219635 0.682465 0.000000
0.636932 0.663635 0.000000
0.931793 0.620361 0.000000
1.000000 0.534515 0.000000
1.000000 0.142883 0.000000
0.000000 0.922211 0.000000
0.000000 0.921570 0.000000
0.000000 0.920563 0.000000
0.061127 0.917511 0.000000
0.556335 0.909119 0.000000
0.860168 0.891022 0.000000
1.000000 0.865784 0.000000
1.000000 0.821198 0.000000
0.452118 1.000000 0.000000
0.467316 1.000000 0.000000
0.489777 1.000000 0.000000
0.549438 1.000000 0.000000
0.674316 1.000000 0.000000
0.851410 1.000000 0.000000
0.987396 1.000000 0.000000
1.000000 0.998230 0.000000
0.866486 1.000000 0.000000
0.867798 1.000000 0.000000
0.870178 1.000000 0.000000
0.876801 1.000000 0.000000
0.895660 1.000000 0.000000
0.936432 1.000000 0.000000
0.991028 1.000000 0.000000
1.000000 1.000000 0.000000
0.000000 0.000000 0.393677
0.000000 0.000000 0.393127
0.126648 0.000000 0.392212
0.412567 0.000000 0.389130
0.720398 0.000000 0.379669
0.982391 0.000000 0.344635
1.000000 0.000000 0.191040
1.000000 0.000000 0.041565
0.000000 0.000000 0.392761
0.000000 0.000000 0.392212
0.137634 0.000000 0.391174
0.418030 0.000000 0.388214
0.722015 0.000000 0.378601
0.982574 0.000000 0.343719
1.000000 0.000000 0.189636
1.000000 0.000000 0.041565
0.000000 0.045563 0.389954
0.000000 0.037659 0.389404
0.110565 0.010071 0.388519
0.416992 0.000000 0.385712
0.721283 0.000000 0.376251
0.982849 0.000000 0.341980
1.000000 0.000000 0.187225
1.000000 0.000000 0.041565
0.000000 0.399414 0.377777
0.000000 0.397278 0.377228
0.000000 0.392822 0.376343
0.373444 0.373566 0.373383
0.698486 0.309937 0.358795
0.975891 0.047485 0.315491
1.000000 0.000000 0.157501
1.000000 0.000000 0.041565
0.000000 0.682770 0.338135
0.000000 0.681366 0.337463
0.000000 0.679291 0.336456
0.187042 0.671997 0.333099
0.632263 0.652893 0.321350
0.918701 0.618927 0.251587
1.000000 0.545074 0.002869
1.000000 0.135345 0.000000
0.000000 0.917694 0.206787
0.000000 0.917084 0.205566
0.000000 0.916077 0.203491
0.041718 0.912872 0.196228
0.551300 0.904968 0.168335
0.858063 0.887970 0.090515
1.000000 0.869232 0.000000
1.000000 0.820435 0.000000
0.449646 1.000000 0.000000
0.464752 1.000000 0.000000
0.487762 1.000000 0.000000
0.547943 1.000000 0.000000
0.673492 1.000000 0.000000
0.851227 1.000000 0.000000
0.987396 1.000000 0.000000
1.000000 0.998199 0.000000
0.866333 1.000000 0.000000
0.867645 1.000000 0.000000
0.869995 1.000000 0.000000
0.876648 1.000000 0.000000
0.895538 1.000000 0.000000
0.936371 1.000000 0.000000
0.990997 1.000000 0.000000
1.000000 1.000000 0.000000
0.000000 0.000000 0.639832
0.000000 0.000000 0.639679
0.000000 0.000000 0.639435
0.368347 0.000000 0.638733
0.705353 0.000000 0.636505
0.979828 0.000000 0.628021
1.000000 0.000000 0.594696
1.000000 0.000000 0.398499
0.000000 0.000000 0.639587
0.000000 0.000000 0.639435
0.000000 0.000000 0.639221
0.375946 0.000000 0.638519
0.707367 0.000000 0.636322
0.980042 0.000000 0.627777
1.000000 0.000000 0.594421
1.000000 0.000000 0.397766
0.000000 0.000000 0.638885
0.000000 0.000000 0.638733
0.000000 0.000000 0.638519
0.380859 0.000000 0.637878
0.708771 0.000000 0.635773
0.980316 0.000000 0.627380
1.000000 0.000000 0.593964
1.000000 0.000000 0.396576
0.000000 0.294708 0.634521
0.000000 0.291565 0.634247
0.000000 0.284454 0.634033
0.336517 0.252380 0.633392
0.689514 0.111511 0.631409
0.972565 0.000000 0.623749
1.000000 0.000000 0.592072
1.000000 0.000000 0.392639
0.000000 0.650635 0.620728
0.000000 0.649384 0.620605
0.000000 0.647156 0.620392
0.064819 0.638855 0.619751
0.617462 0.617462 0.617462
0.922333 0.570679 0.604218
1.000000 0.478638 0.561401
1.000000 0.021423 0.369019
0.000000 0.900635 0.590729
0.000000 0.899963 0.590576
0.000000 0.898895 0.590332
0.000000 0.895721 0.589478
0.529510 0.887115 0.586517
0.848938 0.869324 0.576141
1.000000 0.852631 0.510773
1.000000 0.813171 0.216553
0.414307 1.000000 0.522186
0.432373 1.000000 0.521973
0.458557 1.000000 0.521545
0.524811 1.000000 0.520233
0.657990 1.000000 0.515930
0.842133 1.000000 0.500153
0.981903 0.998566 0.433990
1.000000 0.998322 0.000000
0.864410 1.000000 0.073700
0.865723 1.000000 0.072327
0.867920 1.000000 0.070312
0.874878 1.000000 0.063324
0.894012 1.000000 0.033295
0.935425 1.000000 0.000000
0.990906 1.000000 0.000000
1.000000 1.000000 0.000000
0.000000 0.000000 0.858429
0.000000 0.000000 0.858398
0.000000 0.000000 0.858368
0.226532 0.000000 0.858215
0.673035 0.000000 0.857910
0.967285 0.000000 0.856079
1.000000 0.000000 0.848999
1.000000 0.000000 0.819550
0.000000 0.000000 0.858398
0.000000 0.000000 0.858368
0.000000 0.000000 0.858307
0.241608 0.000000 0.858185
0.675110 0.000000 0.857849
0.967834 0.000000 0.856018
1.000000 0.000000 0.848938
1.000000 0.000000 0.819519
0.000000 0.000000 0.858307
0.000000 0.000000 0.858276
0.000000 0.000000 0.858215
0.263885 0.000000 0.858093
0.678589 0.000000 0.857758
0.968689 0.000000 0.855927
1.000000 0.000000 0.848846
1.000000 0.000000 0.819366
0.000000 0.000000 0.856598
0.000000 0.000000 0.856567
0.000000 0.000000 0.856537
0.248230 0.000000 0.856476
0.672333 0.000000 0.856262
0.965759 0.000000 0.855011
1.000000 0.000000 0.848511
1.000000 0.000000 0.818970
0.000000 0.577698 0.849670
0.000000 0.576324 0.849640
0.000000 0.573456 0.849609
0.000000 0.563538 0.849579
0.591339 0.535339 0.849304
0.914337 0.466766 0.847961
1.000000 0.281036 0.841553
1.000000 0.000000 0.816315
0.000000 0.869843 0.836884
0.000000 0.869141 0.836853
0.000000 0.867737 0.836823
0.000000 0.864227 0.836700
0.485779 0.854675 0.836273
0.834503 0.834534 0.834503
1.000000 0.807922 0.822937
1.000000 0.759003 0.795746
0.308594 0.999023 0.818390
0.346313 0.998962 0.818359
0.388214 0.998840 0.818268
0.474091 0.998505 0.818085
0.626556 0.997589 0.817444
0.824127 0.990051 0.815094
0.968658 0.980804 0.805786
1.000000 0.976746 0.768127
0.842926 1.000000 0.772064
0.844330 1.000000 0.772003
0.846863 1.000000 0.771881
0.853943 1.000000 0.771515
0.874054 1.000000 0.770416
0.917542 1.000000 0.766693
0.975159 1.000000 0.753387
1.000000 1.000000 0.700043
0.000000 0.000000 0.979645
0.000000 0.000000 0.979645
0.000000 0.000000 0.979645
0.000000 0.000000 0.979645
0.606659 0.000000 0.979889
0.947418 0.000000 0.980133
1.000000 0.000000 0.979858
1.000000 0.000000 0.977173
0.000000 0.000000 0.979645
0.000000 0.000000 0.979645
0.000000 0.000000 0.979645
0.000000 0.000000 0.979645
0.609406 0.000000 0.979889
0.947998 0.000000 0.980133
1.000000 0.000000 0.979858
1.000000 0.000000 0.977173
0.000000 0.000000 0.979645
0.000000 0.000000 0.979645
0.000000 0.000000 0.979614
0.000000 0.000000 0.979614
0.614105 0.000000 0.979858
0.949158 0.000000 0.980133
1.000000 0.000000 0.979858
1.000000 0.000000 0.977142
0.000000 0.000000 0.979614
0.000000 0.000000 0.979614
0.000000 0.000000 0.979584
0.000000 0.000000 0.979614
0.628143 0.000000 0.979858
0.952148 0.000000 0.980133
1.000000 0.000000 0.979797
1.000000 0.000000 0.977112
0.000000 0.373047 0.975525
0.000000 0.372009 0.975525
0.000000 0.368927 0.975555
0.000000 0.348297 0.975647
0.569763 0.263092 0.975952
0.917511 0.116821 0.976532
1.000000 0.000000 0.977295
1.000000 0.000000 0.976990
0.000000 0.829803 0.966461
0.000000 0.828888 0.966461
0.000000 0.827454 0.966522
0.000000 0.823120 0.966553
0.416962 0.811859 0.966766
0.821747 0.787750 0.967072
1.000000 0.752411 0.967041
1.000000 0.684753 0.965668
0.193420 0.986572 0.959045
0.219452 0.986237 0.959045
0.255768 0.985687 0.959076
0.380524 0.984131 0.959106
0.581390 0.979462 0.959167
0.804779 0.969696 0.959198
0.958649 0.958649 0.958649
1.000000 0.950439 0.955627
0.822754 1.000000 0.953674
0.824249 1.000000 0.953674
0.826752 1.000000 0.953674
0.834656 1.000000 0.953644
0.855988 1.000000 0.953583
0.902130 1.000000 0.953369
0.962372 1.000000 0.952484
0.998047 1.000000 0.948822
0.000000 0.000000 1.000000
0.000000 0.000000 1.000000
0.000000 0.000000 1.000000
0.000000 0.000000 1.000000
0.242767 0.000000 1.000000
0.903839 0.000000 1.000000
1.000000 0.000000 1.000000
1.000000 0.000000 1.000000
0.000000 0.000000 1.000000
0.000000 0.000000 1.000000
0.000000 0.000000 1.000000
0.000000 0.000000 1.000000
0.247742 0.000000 1.000000
0.904572 0.000000 1.000000
1.000000 0.000000 1.000000
1.000000 0.000000 1.000000
0.000000 0.000000 1.000000
0.000000 0.000000 1.000000
0.000000 0.000000 1.000000
0.000000 0.000000 1.000000
0.256195 0.000000 1.000000
0.905762 0.000000 1.000000
1.000000 0.000000 1.000000
1.000000 0.000000 1.000000
0.000000 0.000000 1.000000
0.000000 0.000000 1.000000
0.000000 0.000000 1.000000
0.000000 0.000000 1.000000
0.278992 0.000000 1.000000
0.909454 0.000000 1.000000
1.000000 0.000000 1.000000
1.000000 0.000000 1.000000
0.000000 0.000000 1.000000
0.000000 0.000000 1.000000
0.000000 0.000000 1.000000
0.000000 0.000000 1.000000
0.433441 0.000000 1.000000
0.921112 0.000000 1.000000
1.000000 0.000000 1.000000
1.000000 0.000000 1.000000
0.000000 0.729462 1.000000
0.000000 0.729340 1.000000
0.000000 0.728516 1.000000
0.000000 0.724335 1.000000
0.188354 0.705902 1.000000
0.821167 0.666901 1.000000
1.000000 0.602081 1.000000
1.000000 0.404938 1.000000
0.000000 0.977264 0.996155
0.000000 0.976898 0.996185
0.000000 0.976288 0.996185
0.040985 0.974335 0.996246
0.463928 0.968781 0.996429
0.777039 0.957214 0.996765
0.955505 0.944244 0.997070
1.000000 0.933655 0.997314
0.798401 1.000000 0.994537
0.800446 1.000000 0.994537
0.803406 1.000000 0.994537
0.812744 1.000000 0.994537
0.838043 1.000000 0.994568
0.890717 1.000000 0.994659
0.956848 0.997589 0.994751
0.994690 0.994690 0.994690
