Postproduction/IWLTBAP - Humble/LUTs by IWLTBAP (CUBE)/UTILITY/Sony S-Log3 to Rec.709/U-SONY-S-LOG3-V1-LTR.cube
# Copyright: (C) Copyright 2010-2018 by IWLTBAP SAS
# Cannot be resold, shared or otherwise redistributed
# Website: https://luts.iwltbap.com
TITLE "Sony S-Log3 Version 1 (Utility LOG to Rec.709)"
LUT_3D_SIZE 32
0.000000 0.000000 0.000000
0.000000 0.000000 0.000000
0.004761 0.000000 0.000000
0.019501 0.000000 0.000000
0.038818 0.000000 0.000000
0.065399 0.000000 0.000000
0.101471 0.000000 0.000000
0.141113 0.000000 0.000000
0.186035 0.000000 0.000000
0.236420 0.000000 0.000000
0.293823 0.000000 0.000000
0.358276 0.000000 0.000000
0.430359 0.000000 0.000000
0.508240 0.000000 0.000000
0.584747 0.000000 0.000000
0.656342 0.000000 0.000000
0.726532 0.000000 0.000000
0.795441 0.000000 0.000000
0.863312 0.000000 0.000702
0.928986 0.000000 0.007477
0.983459 0.000000 0.014374
1.000000 0.000000 0.020630
1.000000 0.000000 0.026031
1.000000 0.000000 0.030853
1.000000 0.000000 0.034485
1.000000 0.000000 0.037292
1.000000 0.000000 0.039307
1.000000 0.000000 0.040680
1.000000 0.000000 0.041565
1.000000 0.000000 0.042084
1.000000 0.000000 0.042450
1.000000 0.000000 0.042908
0.000000 0.000000 0.000000
0.000000 0.000000 0.000000
0.000000 0.000000 0.000000
0.014526 0.000000 0.000000
0.035645 0.000000 0.000000
0.064178 0.000000 0.000000
0.101440 0.000000 0.000000
0.141602 0.000000 0.000000
0.186798 0.000000 0.000000
0.237396 0.000000 0.000000
0.294861 0.000000 0.000000
0.359314 0.000000 0.000000
0.431305 0.000000 0.000000
0.509155 0.000000 0.000000
0.585571 0.000000 0.000000
0.656952 0.000000 0.000000
0.726959 0.000000 0.000000
0.795776 0.000000 0.000000
0.863556 0.000000 0.000763
0.929138 0.000000 0.007477
0.983490 0.000000 0.014374
1.000000 0.000000 0.020630
1.000000 0.000000 0.026031
1.000000 0.000000 0.030853
1.000000 0.000000 0.034485
1.000000 0.000000 0.037292
1.000000 0.000000 0.039307
1.000000 0.000000 0.040680
1.000000 0.000000 0.041565
1.000000 0.000000 0.042084
1.000000 0.000000 0.042450
1.000000 0.000000 0.042908
0.000000 0.000000 0.000000
0.000000 0.000000 0.000000
0.000000 0.000000 0.000000
0.013092 0.000000 0.000000
0.035889 0.000000 0.000000
0.065857 0.000000 0.000000
0.103485 0.000000 0.000000
0.143433 0.000000 0.000000
0.188599 0.000000 0.000000
0.239288 0.000000 0.000000
0.296356 0.000000 0.000000
0.360657 0.000000 0.000000
0.432495 0.000000 0.000000
0.509949 0.000000 0.000000
0.585938 0.000000 0.000000
0.657257 0.000000 0.000000
0.727295 0.000000 0.000000
0.796082 0.000000 0.000000
0.863770 0.000000 0.000763
0.929291 0.000000 0.007538
0.983551 0.000000 0.014374
1.000000 0.000000 0.020630
1.000000 0.000000 0.026031
1.000000 0.000000 0.030853
1.000000 0.000000 0.034485
1.000000 0.000000 0.037292
1.000000 0.000000 0.039307
1.000000 0.000000 0.040680
1.000000 0.000000 0.041565
1.000000 0.000000 0.042084
1.000000 0.000000 0.042450
1.000000 0.000000 0.042908
0.000000 0.017975 0.000000
0.000000 0.016907 0.000000
0.000000 0.015594 0.000000
0.008453 0.013824 0.000000
0.033783 0.011414 0.000000
0.065704 0.007629 0.000000
0.103821 0.001770 0.000000
0.144440 0.000000 0.000000
0.189514 0.000000 0.000000
0.240387 0.000000 0.000000
0.297455 0.000000 0.000000
0.361694 0.000000 0.000000
0.433502 0.000000 0.000000
0.510773 0.000000 0.000000
0.586639 0.000000 0.000000
0.657684 0.000000 0.000000
0.727539 0.000000 0.000000
0.796326 0.000000 0.000000
0.864044 0.000000 0.000793
0.929474 0.000000 0.007538
0.983612 0.000000 0.014404
1.000000 0.000000 0.020630
1.000000 0.000000 0.026062
1.000000 0.000000 0.030884
1.000000 0.000000 0.034485
1.000000 0.000000 0.037292
1.000000 0.000000 0.039307
1.000000 0.000000 0.040680
1.000000 0.000000 0.041565
1.000000 0.000000 0.042084
1.000000 0.000000 0.042450
1.000000 0.000000 0.042908
0.000000 0.042969 0.000000
0.000000 0.041565 0.000000
0.000000 0.040070 0.000000
0.000000 0.038208 0.000000
0.027710 0.035706 0.000000
0.062439 0.032349 0.000000
0.101562 0.027069 0.000000
0.143250 0.019073 0.000000
0.189301 0.006348 0.000000
0.240601 0.000000 0.000000
0.297913 0.000000 0.000000
0.362335 0.000000 0.000000
0.434174 0.000000 0.000000
0.511353 0.000000 0.000000
0.587158 0.000000 0.000000
0.657990 0.000000 0.000000
0.727814 0.000000 0.000000
0.796448 0.000000 0.000000
0.864166 0.000000 0.000336
0.929688 0.000000 0.007568
0.983673 0.000000 0.014404
1.000000 0.000000 0.020630
1.000000 0.000000 0.026062
1.000000 0.000000 0.030884
1.000000 0.000000 0.034485
1.000000 0.000000 0.037292
1.000000 0.000000 0.039307
1.000000 0.000000 0.040680
1.000000 0.000000 0.041565
1.000000 0.000000 0.042084
1.000000 0.000000 0.042450
1.000000 0.000000 0.042908
0.000000 0.075653 0.000000
0.000000 0.074463 0.000000
0.000000 0.072876 0.000000
0.000000 0.070953 0.000000
0.014984 0.068634 0.000000
0.053680 0.065613 0.000000
0.095947 0.061035 0.000000
0.139801 0.053528 0.000000
0.187317 0.042145 0.000000
0.239502 0.024414 0.000000
0.297485 0.000000 0.000000
0.362274 0.000000 0.000000
0.434357 0.000000 0.000000
0.511566 0.000000 0.000000
0.587311 0.000000 0.000000
0.658203 0.000000 0.000000
0.727966 0.000000 0.000000
0.796600 0.000000 0.000000
0.864227 0.000000 0.000000
0.929749 0.000000 0.007263
0.983734 0.000000 0.014404
1.000000 0.000000 0.020660
1.000000 0.000000 0.026062
1.000000 0.000000 0.030884
1.000000 0.000000 0.034485
1.000000 0.000000 0.037292
1.000000 0.000000 0.039307
1.000000 0.000000 0.040680
1.000000 0.000000 0.041565
1.000000 0.000000 0.042084
1.000000 0.000000 0.042450
1.000000 0.000000 0.042908
0.000000 0.109009 0.000000
0.000000 0.108124 0.000000
0.000000 0.107056 0.000000
0.000000 0.105682 0.000000
0.000000 0.103912 0.000000
0.039703 0.101288 0.000000
0.086182 0.098114 0.000000
0.133820 0.093079 0.000000
0.183228 0.084900 0.000000
0.236847 0.071747 0.000000
0.296051 0.049347 0.000000
0.361450 0.012177 0.000000
0.433929 0.000000 0.000000
0.511292 0.000000 0.000000
0.587036 0.000000 0.000000
0.657928 0.000000 0.000000
0.727844 0.000000 0.000000
0.796600 0.000000 0.000000
0.864319 0.000000 0.000000
0.929810 0.000000 0.006653
0.983734 0.000000 0.014160
1.000000 0.000000 0.020660
1.000000 0.000000 0.026062
1.000000 0.000000 0.030884
1.000000 0.000000 0.034515
1.000000 0.000000 0.037292
1.000000 0.000000 0.039307
1.000000 0.000000 0.040680
1.000000 0.000000 0.041565
1.000000 0.000000 0.042084
1.000000 0.000000 0.042450
1.000000 0.000000 0.042908
0.000000 0.148499 0.000000
0.000000 0.147766 0.000000
0.000000 0.146820 0.000000
0.000000 0.145660 0.000000
0.000000 0.144165 0.000000
0.012512 0.142181 0.000000
0.067444 0.139740 0.000000
0.122803 0.136017 0.000000
0.176483 0.130219 0.000000
0.232574 0.121246 0.000000
0.293365 0.106659 0.000000
0.359863 0.081085 0.000000
0.433014 0.034363 0.000000
0.510590 0.000000 0.000000
0.586060 0.000000 0.000000
0.657227 0.000000 0.000000
0.727203 0.000000 0.000000
0.796112 0.000000 0.000000
0.864075 0.000000 0.000000
0.929779 0.000000 0.005341
0.983765 0.000000 0.013519
1.000000 0.000000 0.020538
1.000000 0.000000 0.026123
1.000000 0.000000 0.030884
1.000000 0.000000 0.034515
1.000000 0.000000 0.037292
1.000000 0.000000 0.039307
1.000000 0.000000 0.040680
1.000000 0.000000 0.041565
1.000000 0.000000 0.042084
1.000000 0.000000 0.042450
1.000000 0.000000 0.042908
0.000000 0.193054 0.000000
0.000000 0.192413 0.000000
0.000000 0.191589 0.000000
0.000000 0.190613 0.000000
0.000000 0.189362 0.000000
0.000000 0.187988 0.000000
0.029999 0.186127 0.000000
0.101562 0.183044 0.000000
0.164032 0.178833 0.000000
0.224579 0.172363 0.000000
0.288147 0.162201 0.000000
0.356659 0.146057 0.000000
0.430969 0.118378 0.000000
0.509033 0.066467 0.000000
0.584564 0.000000 0.000000
0.655884 0.000000 0.000000
0.726013 0.000000 0.000000
0.795074 0.000000 0.000000
0.863190 0.000000 0.000000
0.929169 0.000000 0.001190
0.983673 0.000000 0.011414
1.000000 0.000000 0.019836
1.000000 0.000000 0.026123
1.000000 0.000000 0.030884
1.000000 0.000000 0.034515
1.000000 0.000000 0.037292
1.000000 0.000000 0.039307
1.000000 0.000000 0.040680
1.000000 0.000000 0.041565
1.000000 0.000000 0.042084
1.000000 0.000000 0.042450
1.000000 0.000000 0.042908
0.000000 0.243591 0.000000
0.000000 0.242981 0.000000
0.000000 0.242279 0.000000
0.000000 0.241394 0.000000
0.000000 0.240387 0.000000
0.000000 0.239319 0.000000
0.000000 0.237579 0.000000
0.057129 0.235382 0.000000
0.140381 0.232147 0.000000
0.210480 0.227356 0.000000
0.279236 0.219849 0.000000
0.350525 0.208496 0.000000
0.426819 0.190826 0.000000
0.505981 0.162567 0.000000
0.581818 0.115448 0.000000
0.653442 0.044464 0.000000
0.723846 0.000000 0.000000
0.793182 0.000000 0.000000
0.861511 0.000000 0.000000
0.927734 0.000000 0.000000
0.983276 0.000000 0.004944
1.000000 0.000000 0.016144
1.000000 0.000000 0.024994
1.000000 0.000000 0.030945
1.000000 0.000000 0.034515
1.000000 0.000000 0.037323
1.000000 0.000000 0.039307
1.000000 0.000000 0.040680
1.000000 0.000000 0.041565
1.000000 0.000000 0.042084
1.000000 0.000000 0.042450
1.000000 0.000000 0.042908
0.000000 0.300385 0.000000
0.000000 0.299866 0.000000
0.000000 0.299164 0.000000
0.000000 0.298401 0.000000
0.000000 0.297607 0.000000
0.000000 0.296783 0.000000
0.000000 0.295563 0.000000
0.000000 0.293823 0.000000
0.090576 0.291321 0.000000
0.184174 0.287354 0.000000
0.263062 0.281952 0.000000
0.339996 0.273590 0.000000
0.419830 0.261078 0.000000
0.500305 0.242828 0.000000
0.576996 0.216949 0.000000
0.649231 0.178802 0.000000
0.720123 0.110809 0.000000
0.789856 0.019989 0.000000
0.858612 0.000000 0.000000
0.925018 0.000000 0.000000
0.982391 0.000000 0.000000
1.000000 0.000000 0.006653
1.000000 0.000000 0.019348
1.000000 0.000000 0.029327
1.000000 0.000000 0.034515
1.000000 0.000000 0.037323
1.000000 0.000000 0.039307
1.000000 0.000000 0.040680
1.000000 0.000000 0.041565
1.000000 0.000000 0.042084
1.000000 0.000000 0.042450
1.000000 0.000000 0.042908
0.000000 0.364105 0.000000
0.000000 0.363525 0.000000
0.000000 0.362946 0.000000
0.000000 0.362335 0.000000
0.000000 0.361664 0.000000
0.000000 0.360962 0.000000
0.000000 0.360046 0.000000
0.000000 0.358612 0.000000
0.000000 0.356628 0.000000
0.129089 0.353485 0.000000
0.234100 0.349335 0.000000
0.322083 0.343231 0.000000
0.407654 0.333984 0.000000
0.491089 0.321075 0.000000
0.568756 0.303986 0.000000
0.642059 0.281067 0.000000
0.713776 0.248718 0.000000
0.784241 0.198883 0.000000
0.853638 0.116211 0.000000
0.920746 0.022888 0.000000
0.981232 0.000000 0.000000
1.000000 0.000000 0.000000
1.000000 0.000000 0.004944
1.000000 0.000000 0.020294
1.000000 0.000000 0.032013
1.000000 0.000000 0.037323
1.000000 0.000000 0.039307
1.000000 0.000000 0.040680
1.000000 0.000000 0.041565
1.000000 0.000000 0.042084
1.000000 0.000000 0.042450
1.000000 0.000000 0.042908
0.000000 0.434204 0.000000
0.000000 0.433716 0.000000
0.000000 0.433228 0.000000
0.000000 0.432739 0.000000
0.000000 0.432220 0.000000
0.000000 0.431641 0.000000
0.000000 0.430878 0.000000
0.000000 0.429749 0.000000
0.000000 0.427948 0.000000
0.000000 0.425690 0.000000
0.176178 0.422455 0.000000
0.290802 0.417816 0.000000
0.387451 0.410919 0.000000
0.475525 0.401459 0.000000
0.555603 0.389313 0.000000
0.630798 0.373718 0.000000
0.703979 0.352966 0.000000
0.775543 0.325073 0.000000
0.846100 0.285492 0.000000
0.913818 0.221954 0.000000
0.977905 0.126312 0.000000
1.000000 0.031128 0.000000
1.000000 0.000000 0.000000
1.000000 0.000000 0.000000
1.000000 0.000000 0.018311
1.000000 0.000000 0.033386
1.000000 0.000000 0.039307
1.000000 0.000000 0.040710
1.000000 0.000000 0.041565
1.000000 0.000000 0.042084
1.000000 0.000000 0.042450
1.000000 0.000000 0.042908
0.000000 0.504486 0.000000
0.000000 0.504120 0.000000
0.000000 0.503723 0.000000
0.000000 0.503296 0.000000
0.000000 0.502869 0.000000
0.000000 0.502411 0.000000
0.000000 0.501556 0.000000
0.000000 0.500671 0.000000
0.000000 0.499390 0.000000
0.000000 0.497589 0.000000
0.062531 0.495056 0.000000
0.241943 0.491455 0.000000
0.358337 0.486145 0.000000
0.454712 0.479401 0.000000
0.537506 0.470642 0.000000
0.615540 0.459412 0.000000
0.690582 0.445068 0.000000
0.763641 0.426422 0.000000
0.835327 0.402069 0.000000
0.904175 0.369751 0.000000
0.969727 0.323883 0.000000
0.998779 0.250305 0.000000
1.000000 0.148773 0.000000
1.000000 0.053955 0.000000
1.000000 0.000000 0.000000
1.000000 0.000000 0.012451
1.000000 0.000000 0.033264
1.000000 0.000000 0.040710
1.000000 0.000000 0.041595
1.000000 0.000000 0.042084
1.000000 0.000000 0.042450
1.000000 0.000000 0.042908
0.000000 0.569427 0.000000
0.000000 0.569092 0.000000
0.000000 0.568756 0.000000
0.000000 0.568359 0.000000
0.000000 0.567993 0.000000
0.000000 0.567596 0.000000
0.000000 0.567078 0.000000
0.000000 0.566315 0.000000
0.000000 0.565247 0.000000
0.000000 0.563782 0.000000
0.000000 0.561462 0.000000
0.169037 0.558563 0.000000
0.323578 0.554535 0.000000
0.430115 0.549042 0.000000
0.517365 0.542603 0.000000
0.598053 0.534210 0.000000
0.675323 0.523682 0.000000
0.749908 0.510498 0.000000
0.822723 0.493896 0.000000
0.892456 0.472778 0.000000
0.958679 0.445892 0.000000
0.995636 0.411285 0.000000
1.000000 0.365295 0.000000
1.000000 0.290039 0.000000
1.000000 0.175934 0.000000
1.000000 0.066956 0.000000
1.000000 0.000000 0.000000
1.000000 0.000000 0.031281
1.000000 0.000000 0.041595
1.000000 0.000000 0.042084
1.000000 0.000000 0.042450
1.000000 0.000000 0.042908
0.000000 0.632812 0.000000
0.000000 0.632507 0.000000
0.000000 0.632202 0.000000
0.000000 0.631866 0.000000
0.000000 0.631531 0.000000
0.000000 0.631195 0.000000
0.000000 0.630737 0.000000
0.000000 0.630096 0.000000
0.000000 0.629181 0.000000
0.000000 0.627930 0.000000
0.000000 0.626190 0.000000
0.062164 0.623688 0.000000
0.280823 0.620239 0.000000
0.399841 0.616150 0.000000
0.493469 0.611053 0.000000
0.578064 0.604523 0.000000
0.657562 0.596313 0.000000
0.734192 0.586151 0.000000
0.808105 0.573639 0.000000
0.878876 0.558319 0.000000
0.946106 0.539490 0.000000
0.991882 0.516632 0.000000
1.000000 0.489044 0.000000
1.000000 0.454620 0.000000
1.000000 0.406067 0.000000
1.000000 0.318878 0.000000
1.000000 0.187103 0.000000
1.000000 0.000000 0.000000
1.000000 0.000000 0.026764
1.000000 0.000000 0.042084
1.000000 0.000000 0.042450
1.000000 0.000000 0.042908
0.000000 0.695190 0.000000
0.000000 0.694946 0.000000
0.000000 0.694641 0.000000
0.000000 0.694336 0.000000
0.000000 0.694061 0.000000
0.000000 0.693634 0.000000
0.000000 0.693085 0.000000
0.000000 0.692535 0.000000
0.000000 0.691711 0.000000
0.000000 0.690613 0.000000
0.000000 0.689117 0.000000
0.024292 0.687073 0.000000
0.225311 0.684479 0.000000
0.364288 0.681000 0.000000
0.466187 0.676941 0.000000
0.555115 0.671844 0.000000
0.637695 0.665375 0.000000
0.716125 0.657318 0.000000
0.791718 0.647766 0.000000
0.863647 0.635986 0.000000
0.931671 0.621643 0.000000
0.987793 0.605225 0.000000
1.000000 0.586334 0.000000
1.000000 0.564301 0.000000
1.000000 0.536194 0.000000
1.000000 0.497833 0.000000
1.000000 0.437439 0.000000
1.000000 0.272827 0.000000
1.000000 0.146484 0.000000
1.000000 0.000000 0.019196
1.000000 0.000000 0.042450
1.000000 0.000000 0.042908
0.000000 0.756134 0.000000
0.000000 0.755859 0.000000
0.000000 0.755615 0.000000
0.000000 0.755371 0.000000
0.000000 0.755066 0.000000
0.000000 0.754791 0.000000
0.000000 0.754425 0.000000
0.000000 0.753906 0.000000
0.000000 0.753204 0.000000
0.000000 0.751984 0.000000
0.000000 0.750732 0.000000
0.000000 0.749084 0.000000
0.142456 0.747009 0.000000
0.323334 0.744415 0.000000
0.435760 0.741119 0.000000
0.529846 0.736786 0.000000
0.615509 0.731689 0.000000
0.696381 0.725250 0.000000
0.773193 0.717651 0.000000
0.846527 0.708344 0.000000
0.915405 0.697327 0.000000
0.975677 0.684906 0.000000
1.000000 0.671173 0.000000
1.000000 0.655396 0.000000
1.000000 0.636902 0.000000
1.000000 0.613312 0.000000
1.000000 0.580658 0.000000
1.000000 0.530670 0.000000
1.000000 0.435394 0.000000
1.000000 0.246216 0.000000
1.000000 0.000000 0.006439
1.000000 0.000000 0.042908
0.000000 0.815033 0.000000
0.000000 0.814789 0.000000
0.000000 0.814545 0.000000
0.000000 0.814301 0.000000
0.000000 0.814056 0.000000
0.000000 0.813812 0.000000
0.000000 0.813477 0.000000
0.000000 0.813019 0.000000
0.000000 0.812408 0.000000
0.000000 0.811646 0.000000
0.000000 0.810455 0.000000
0.000000 0.809082 0.000000
0.067993 0.807434 0.000000
0.279663 0.805298 0.000000
0.405060 0.802643 0.000000
0.504150 0.799286 0.000000
0.592590 0.794952 0.000000
0.675385 0.789886 0.000000
0.753693 0.783569 0.000000
0.827789 0.776276 0.000000
0.897308 0.767578 0.000000
0.958099 0.757935 0.000000
0.996124 0.747528 0.000000
1.000000 0.736145 0.000000
1.000000 0.723145 0.000000
1.000000 0.707428 0.000000
1.000000 0.686829 0.000000
1.000000 0.657837 0.000000
1.000000 0.613678 0.000000
1.000000 0.534088 0.000000
1.000000 0.313019 0.000000
1.000000 0.000000 0.002716
0.000000 0.871216 0.000000
0.000000 0.871002 0.000000
0.000000 0.870819 0.000000
0.000000 0.870636 0.000000
0.000000 0.870392 0.000000
0.000000 0.870209 0.000000
0.000000 0.869934 0.000000
0.000000 0.869568 0.000000
0.000000 0.869110 0.000000
0.000000 0.868378 0.000000
0.000000 0.867432 0.000000
0.000000 0.866394 0.000000
0.051941 0.865051 0.000000
0.241608 0.863312 0.000000
0.378387 0.861176 0.000000
0.481049 0.858429 0.000000
0.571228 0.854828 0.000000
0.655060 0.850677 0.000000
0.733917 0.845734 0.000000
0.808594 0.839630 0.000000
0.878265 0.832611 0.000000
0.939087 0.825165 0.000000
0.987762 0.817108 0.000000
1.000000 0.808533 0.000000
1.000000 0.799286 0.000000
1.000000 0.788300 0.000000
1.000000 0.774414 0.000000
1.000000 0.756348 0.000000
1.000000 0.730469 0.000000
1.000000 0.690277 0.000000
1.000000 0.619019 0.000000
1.000000 0.381622 0.000000
0.000000 0.922516 0.000000
0.000000 0.922363 0.000000
0.000000 0.922180 0.000000
0.000000 0.922028 0.000000
0.000000 0.921875 0.000000
0.000000 0.921722 0.000000
0.000000 0.921509 0.000000
0.000000 0.921234 0.000000
0.000000 0.920868 0.000000
0.000000 0.920349 0.000000
0.000000 0.919708 0.000000
0.000000 0.918884 0.000000
0.062683 0.917786 0.000000
0.233917 0.916382 0.000000
0.367798 0.914551 0.000000
0.468018 0.912170 0.000000
0.556763 0.909363 0.000000
0.639313 0.905975 0.000000
0.717072 0.901703 0.000000
0.791382 0.896942 0.000000
0.860168 0.891266 0.000000
0.919861 0.885468 0.000000
0.969299 0.879242 0.000000
0.998688 0.872955 0.000000
1.000000 0.866058 0.000000
1.000000 0.858582 0.000000
1.000000 0.849426 0.000000
1.000000 0.837738 0.000000
1.000000 0.821594 0.000000
1.000000 0.798187 0.000000
1.000000 0.761108 0.000000
1.000000 0.696014 0.000000
0.000000 0.965118 0.000000
0.000000 0.964996 0.000000
0.000000 0.964874 0.000000
0.000000 0.964783 0.000000
0.000000 0.964630 0.000000
0.000000 0.964478 0.000000
0.000000 0.964325 0.000000
0.000000 0.964111 0.000000
0.000000 0.963806 0.000000
0.000000 0.963409 0.000000
0.000000 0.962860 0.000000
0.042511 0.962189 0.000000
0.149139 0.961304 0.000000
0.285126 0.959930 0.000000
0.389648 0.958496 0.000000
0.477203 0.956665 0.000000
0.558350 0.954346 0.000000
0.635315 0.951569 0.000000
0.709351 0.948029 0.000000
0.780609 0.944061 0.000000
0.846710 0.939697 0.000000
0.904083 0.934875 0.000000
0.952118 0.930267 0.000000
0.990540 0.925323 0.000000
1.000000 0.920563 0.000000
1.000000 0.915527 0.000000
1.000000 0.909546 0.000000
1.000000 0.902344 0.000000
1.000000 0.893158 0.000000
1.000000 0.879730 0.000000
1.000000 0.859711 0.000000
1.000000 0.826813 0.000000
0.000000 0.993347 0.000000
0.000000 0.993317 0.000000
0.000000 0.993256 0.000000
0.000000 0.993225 0.000000
0.000000 0.993195 0.000000
0.000000 0.993164 0.000000
0.000000 0.993103 0.000000
0.000000 0.993042 0.000000
0.064850 0.993011 0.000000
0.121918 0.992889 0.000000
0.168488 0.992798 0.000000
0.212341 0.992615 0.000000
0.298401 0.992401 0.000000
0.375732 0.992126 0.000000
0.445435 0.991791 0.000000
0.513031 0.991058 0.000000
0.580292 0.989410 0.000000
0.647400 0.987091 0.000000
0.714020 0.984283 0.000000
0.779572 0.980804 0.000000
0.840302 0.977234 0.000000
0.893799 0.973511 0.000000
0.939209 0.969635 0.000000
0.976837 0.966003 0.000000
0.998993 0.962494 0.000000
1.000000 0.958710 0.000000
1.000000 0.954956 0.000000
1.000000 0.950714 0.000000
1.000000 0.945251 0.000000
1.000000 0.938202 0.000000
1.000000 0.927704 0.000000
1.000000 0.911133 0.000000
0.230530 1.000000 0.000000
0.235962 1.000000 0.000000
0.241455 1.000000 0.000000
0.246521 1.000000 0.000000
0.251678 1.000000 0.000000
0.256683 1.000000 0.000000
0.262909 1.000000 0.000000
0.271515 1.000000 0.000000
0.301178 1.000000 0.000000
0.333435 1.000000 0.000000
0.364807 1.000000 0.000000
0.398590 1.000000 0.000000
0.435516 1.000000 0.000000
0.476135 1.000000 0.000000
0.520660 1.000000 0.000000
0.568817 1.000000 0.000000
0.620514 0.999878 0.000000
0.675385 0.999359 0.000000
0.732300 0.998749 0.000000
0.788940 0.998047 0.000000
0.841949 0.997223 0.000000
0.889740 0.996368 0.000000
0.931458 0.995483 0.000000
0.966553 0.994629 0.000000
0.995026 0.993469 0.000000
1.000000 0.991241 0.000000
1.000000 0.988678 0.000000
1.000000 0.985992 0.000000
1.000000 0.982727 0.000000
1.000000 0.978790 0.000000
1.000000 0.973419 0.000000
1.000000 0.965210 0.000000
0.452911 1.000000 0.000000
0.456940 1.000000 0.000000
0.460632 1.000000 0.000000
0.464264 1.000000 0.000000
0.468018 1.000000 0.000000
0.471619 1.000000 0.000000
0.476135 1.000000 0.000000
0.482513 1.000000 0.000000
0.490692 1.000000 0.000000
0.500793 1.000000 0.000000
0.513763 1.000000 0.000000
0.530121 1.000000 0.000000
0.549927 1.000000 0.000000
0.574097 1.000000 0.000000
0.602966 1.000000 0.000000
0.636444 1.000000 0.000000
0.674591 1.000000 0.000000
0.716736 1.000000 0.000000
0.761871 1.000000 0.000000
0.807434 1.000000 0.000000
0.851501 1.000000 0.000000
0.892548 1.000000 0.000000
0.929291 1.000000 0.000000
0.961121 1.000000 0.000000
0.987396 1.000000 0.000000
0.999725 0.999939 0.000000
1.000000 0.999451 0.000000
1.000000 0.998871 0.000000
1.000000 0.998260 0.000000
1.000000 0.997467 0.000000
1.000000 0.996429 0.000000
1.000000 0.994904 0.000000
0.597656 1.000000 0.000000
0.599762 1.000000 0.000000
0.601624 1.000000 0.000000
0.603424 1.000000 0.000000
0.605255 1.000000 0.000000
0.607086 1.000000 0.000000
0.609497 1.000000 0.000000
0.612976 1.000000 0.000000
0.617310 1.000000 0.000000
0.623169 1.000000 0.000000
0.630463 1.000000 0.000000
0.640076 1.000000 0.000000
0.652252 1.000000 0.000000
0.667450 1.000000 0.000000
0.686371 1.000000 0.000000
0.709137 1.000000 0.000000
0.735748 1.000000 0.000000
0.766052 1.000000 0.000000
0.798676 1.000000 0.000000
0.833008 1.000000 0.000000
0.867584 1.000000 0.000000
0.901093 1.000000 0.000000
0.932251 1.000000 0.000000
0.959869 1.000000 0.000000
0.983612 1.000000 0.000000
0.998383 1.000000 0.000000
1.000000 1.000000 0.000000
1.000000 1.000000 0.000000
1.000000 1.000000 0.000000
1.000000 1.000000 0.000000
1.000000 1.000000 0.000000
1.000000 1.000000 0.000000
0.710999 1.000000 0.000000
0.712097 1.000000 0.000000
0.713165 1.000000 0.000000
0.714203 1.000000 0.000000
0.715240 1.000000 0.000000
0.716339 1.000000 0.000000
0.717957 1.000000 0.000000
0.719879 1.000000 0.000000
0.722412 1.000000 0.000000
0.725708 1.000000 0.000000
0.730286 1.000000 0.000000
0.735931 1.000000 0.000000
0.743408 1.000000 0.000000
0.752838 1.000000 0.000000
0.764526 1.000000 0.000000
0.778748 1.000000 0.000000
0.795776 1.000000 0.000000
0.815765 1.000000 0.000000
0.838318 1.000000 0.000000
0.862885 1.000000 0.000000
0.888672 1.000000 0.000000
0.914917 1.000000 0.000000
0.940002 1.000000 0.000000
0.963104 1.000000 0.000000
0.983368 1.000000 0.000000
0.997711 1.000000 0.000000
1.000000 1.000000 0.000000
1.000000 1.000000 0.000000
1.000000 1.000000 0.000000
1.000000 1.000000 0.000000
1.000000 1.000000 0.000000
1.000000 1.000000 0.000000
0.799866 1.000000 0.000000
0.800476 1.000000 0.000000
0.801025 1.000000 0.000000
0.801605 1.000000 0.000000
0.802216 1.000000 0.000000
0.802795 1.000000 0.000000
0.803589 1.000000 0.000000
0.804626 1.000000 0.000000
0.806030 1.000000 0.000000
0.807922 1.000000 0.000000
0.810394 1.000000 0.000000
0.813782 1.000000 0.000000
0.817932 1.000000 0.000000
0.823486 1.000000 0.000000
0.830231 1.000000 0.000000
0.838959 1.000000 0.000000
0.849579 1.000000 0.000000
