Postproduction/IWLTBAP - Humble/LUTs by IWLTBAP (CUBE)/UTILITY/Sony S-Log3 to Rec.709/U-SONY-S-LOG3-V6-LTR.cube
# Copyright: (C) Copyright 2010-2018 by IWLTBAP SAS
# Cannot be resold, shared or otherwise redistributed
# Website: https://luts.iwltbap.com
TITLE "Sony S-Log3 Version 6 (Utility LOG to Rec.709)"
LUT_3D_SIZE 5
DOMAIN_MIN 0.000000 0.000000 0.000000
DOMAIN_MAX 0.903226 0.903226 0.903226
0.020325 0.019104 0.008606
0.335480 0.000000 0.000000
0.600067 0.000000 0.000000
0.684509 0.000000 0.392578
0.781830 0.000000 0.721863
0.000000 0.188232 0.000000
0.202728 0.233582 0.000000
0.746552 0.166260 0.000000
0.673859 0.000000 0.204407
0.775787 0.000000 0.712738
0.000000 0.399750 0.000000
0.000000 0.399323 0.000000
0.779175 0.717438 0.000000
1.000000 0.650909 0.000000
0.914001 0.352631 0.618927
0.000000 0.451263 0.000000
0.000000 0.451263 0.000000
0.000000 0.451263 0.000000
1.000000 0.839539 0.000000
1.000000 0.873535 0.000000
0.000000 0.451263 0.000000
0.000000 0.451263 0.000000
0.000000 0.451263 0.000000
0.000000 0.451263 0.000000
1.000000 0.855865 0.000000
0.049316 0.000000 0.327087
0.408112 0.000000 0.388550
0.647675 0.000000 0.421631
0.705841 0.000000 0.555389
0.814423 0.000000 0.770599
0.000000 0.177368 0.217224
0.177948 0.189789 0.199127
0.717590 0.032227 0.221832
0.690796 0.000000 0.405945
0.810577 0.000000 0.764679
0.000000 0.389374 0.000000
0.000000 0.383972 0.000000
0.770721 0.661896 0.000000
0.999207 0.639435 0.000000
0.915131 0.355133 0.687134
0.000000 0.451263 0.000000
0.000000 0.451263 0.000000
0.000000 0.451263 0.000000
1.000000 0.839691 0.000000
1.000000 0.906647 0.066132
0.000000 0.451263 0.000000
0.000000 0.451263 0.000000
0.000000 0.451263 0.000000
0.000000 0.451263 0.000000
1.000000 0.855865 0.000000
0.000000 0.000000 0.538177
0.450836 0.000000 0.643250
0.718903 0.000000 0.689240
0.828430 0.000000 0.791351
0.869263 0.125397 0.852020
0.000000 0.235596 0.630737
0.251678 0.238800 0.691956
0.748962 0.060638 0.710419
0.771729 0.000000 0.672302
0.867859 0.114746 0.849945
0.000000 0.506409 0.640930
0.000000 0.505981 0.644165
0.732635 0.723816 0.680603
0.972076 0.649475 0.708557
0.923096 0.376221 0.818054
0.000000 0.536987 0.309509
0.000000 0.540070 0.324615
0.000000 0.550934 0.374878
1.000000 0.921387 0.162231
1.000000 0.953430 0.622650
0.000000 0.451263 0.000000
0.000000 0.451263 0.000000
0.000000 0.451263 0.000000
0.000000 0.451263 0.000000
1.000000 0.855896 0.000000
0.255554 0.441376 0.849396
0.603699 0.443756 0.893768
0.841400 0.379425 0.905701
0.898743 0.272614 0.892090
0.876648 0.182251 0.863281
0.000000 0.482483 0.816437
0.474823 0.538818 0.897125
0.838684 0.491028 0.926086
0.927032 0.432190 0.922272
0.876648 0.182251 0.863281
0.000000 0.543152 0.782074
0.000000 0.536133 0.779572
0.770691 0.761841 0.957733
0.974091 0.706451 0.961456
0.969421 0.578766 0.947784
0.000000 0.624725 0.801605
0.000000 0.624725 0.801697
0.000000 0.624664 0.801971
0.976227 0.984711 0.952759
1.000000 0.965851 0.959381
0.000000 0.620239 0.674042
0.000000 0.620575 0.676025
0.000000 0.621643 0.682983
0.000000 0.625519 0.707428
1.000000 1.000000 0.793701
0.753967 0.756714 0.975159
0.815216 0.753662 0.979675
0.914642 0.736664 0.985229
0.981964 0.717407 0.987732
0.978760 0.621460 0.972748
0.713806 0.787323 0.975922
0.790497 0.787598 0.982513
0.909576 0.774231 0.989746
0.986572 0.754791 0.992920
0.988007 0.670166 0.981445
0.406128 0.830383 0.953430
0.634033 0.859589 0.977722
0.874878 0.870605 0.998627
0.996094 0.855377 1.000000
1.000000 0.800354 0.999847
0.000000 0.632477 0.817139
0.000000 0.632385 0.817078
0.000000 0.771759 0.888000
0.983307 0.987152 1.000000
1.000000 0.976349 1.000000
0.000000 0.667267 0.835754
0.000000 0.667267 0.835754
0.000000 0.667267 0.835754
0.000000 0.667267 0.835754
1.000000 1.000000 1.000000
