Postproduction/IWLTBAP - Humble/LUTs by IWLTBAP (CUBE)/UTILITY/Sony S-Log3 to Rec.709/U-SONY-S-LOG3-V5-LTR.cube
# Copyright: (C) Copyright 2010-2018 by IWLTBAP SAS
# Cannot be resold, shared or otherwise redistributed
# Website: https://luts.iwltbap.com
TITLE "Sony S-Log3 Version 5 (Utility LOG to Rec.709)"
LUT_3D_SIZE 8
DOMAIN_MIN 0.000000 0.000000 0.000000
DOMAIN_MAX 0.903226 0.903226 0.903226
0.003906 0.003906 0.003906
0.033997 0.003906 0.003906
0.356476 0.003906 0.003906
0.695770 0.003906 0.003906
0.921570 0.003906 0.003906
0.996063 0.111389 0.003906
0.996094 0.476898 0.003906
0.996094 0.770782 0.003906
0.003906 0.022156 0.003906
0.022705 0.018005 0.003906
0.346619 0.013824 0.003906
0.681488 0.032867 0.003906
0.907318 0.075439 0.003906
0.995850 0.250275 0.003906
0.996094 0.523987 0.003906
0.996094 0.780945 0.003906
0.003906 0.314301 0.003906
0.027100 0.309235 0.003906
0.311005 0.299164 0.003906
0.651276 0.292725 0.003906
0.892151 0.310272 0.003906
0.995117 0.390076 0.003906
0.996094 0.581757 0.003906
0.996094 0.797058 0.003906
0.003906 0.632019 0.003906
0.030212 0.623718 0.003906
0.289124 0.615631 0.003906
0.615326 0.605438 0.003906
0.868988 0.600159 0.003906
0.993927 0.618378 0.003906
0.996094 0.700409 0.003906
0.996094 0.835419 0.003906
0.040863 0.856903 0.003906
0.170685 0.854034 0.003906
0.335114 0.850525 0.003906
0.598602 0.844391 0.003906
0.843536 0.837036 0.003906
0.990631 0.833771 0.003906
0.996094 0.856842 0.003906
0.996094 0.910400 0.003906
0.369629 0.986237 0.003906
0.421509 0.985535 0.003906
0.494690 0.985199 0.003906
0.642883 0.983459 0.003906
0.833557 0.980957 0.003906
0.981720 0.978943 0.003906
0.996094 0.982391 0.003906
0.996094 0.994232 0.003906
0.727509 0.996094 0.003906
0.739716 0.996094 0.003906
0.757965 0.996094 0.003906
0.804077 0.996094 0.003906
0.894379 0.996094 0.003906
0.993774 0.996094 0.003906
0.996094 0.996094 0.003906
0.996094 0.996094 0.003906
0.949280 0.996094 0.003906
0.951385 0.996094 0.003906
0.954865 0.996094 0.003906
0.962769 0.996094 0.003906
0.984711 0.996094 0.003906
0.996094 0.996094 0.003906
0.996094 0.996094 0.003906
0.996094 0.996094 0.003906
0.003906 0.003906 0.041840
0.021240 0.003906 0.037201
0.339386 0.003906 0.020416
0.691284 0.003906 0.010651
0.921143 0.003906 0.004028
0.996094 0.095947 0.003906
0.996094 0.472717 0.003906
0.996094 0.769897 0.003906
0.003906 0.016479 0.021484
0.015106 0.013916 0.015472
0.334259 0.011566 0.011169
0.679626 0.016144 0.005707
0.907654 0.064667 0.003906
0.995911 0.241333 0.003906
0.996094 0.520355 0.003906
0.996094 0.780151 0.003906
0.003906 0.304077 0.004852
0.007416 0.300751 0.004333
0.297882 0.290131 0.003906
0.648468 0.283844 0.003906
0.892059 0.302521 0.003906
0.995178 0.384552 0.003906
0.996094 0.579254 0.003906
0.996094 0.796265 0.003906
0.003906 0.629974 0.003906
0.021393 0.622131 0.003906
0.276611 0.613647 0.003906
0.611877 0.603149 0.003906
0.868500 0.597717 0.003906
0.993927 0.616180 0.003906
0.996094 0.699036 0.003906
0.996094 0.834869 0.003906
0.029572 0.856873 0.003906
0.154510 0.853882 0.003906
0.326172 0.850250 0.003906
0.595001 0.843994 0.003906
0.842804 0.836548 0.003906
0.990601 0.833252 0.003906
0.996094 0.856415 0.003906
0.996094 0.910126 0.003906
0.362946 0.986298 0.003906
0.415710 0.985535 0.003906
0.490082 0.985229 0.003906
0.640503 0.983459 0.003906
0.832794 0.980896 0.003906
0.981598 0.978882 0.003906
0.996094 0.982300 0.003906
0.996094 0.994202 0.003906
0.725983 0.996094 0.003906
0.738251 0.996094 0.003906
0.756836 0.996094 0.003906
0.803192 0.996094 0.003906
0.893921 0.996094 0.003906
0.993774 0.996094 0.003906
0.996094 0.996094 0.003906
0.996094 0.996094 0.003906
0.949005 0.996094 0.003906
0.951141 0.996094 0.003906
0.954651 0.996094 0.003906
0.962585 0.996094 0.003906
0.984558 0.996094 0.003906
0.996094 0.996094 0.003906
0.996094 0.996094 0.003906
0.996094 0.996094 0.003906
0.003906 0.003906 0.383881
0.003906 0.003906 0.382080
0.306671 0.003906 0.361420
0.681366 0.003906 0.329956
0.917694 0.003906 0.274567
0.996094 0.063202 0.053711
0.996094 0.465454 0.003906
0.996094 0.768463 0.003906
0.003906 0.007294 0.370056
0.005981 0.008026 0.365906
0.308990 0.007446 0.343231
0.673157 0.005341 0.305328
0.906097 0.042816 0.228821
0.995911 0.221039 0.022400
0.996094 0.514038 0.003906
0.996094 0.778748 0.003906
0.003906 0.282074 0.295898
0.004456 0.281647 0.290253
0.269226 0.269440 0.269318
0.640015 0.262451 0.233185
0.889618 0.282898 0.157837
0.995087 0.371277 0.006165
0.996094 0.574951 0.003906
0.996094 0.794983 0.003906
0.003906 0.621307 0.157593
0.012177 0.614960 0.144928
0.248291 0.605865 0.125977
0.601624 0.594788 0.092560
0.865417 0.589630 0.032898
0.993896 0.610474 0.003906
0.996094 0.696716 0.003906
0.996094 0.833984 0.003906
0.011749 0.855927 0.003906
0.123566 0.852661 0.003906
0.308685 0.849030 0.003906
0.587555 0.842499 0.003906
0.841187 0.835297 0.003906
0.990631 0.832367 0.003906
0.996094 0.855591 0.003906
0.996094 0.909668 0.003906
0.351440 0.986389 0.003906
0.405731 0.985596 0.003906
0.482208 0.985291 0.003906
0.636475 0.983429 0.003906
0.831512 0.980835 0.003906
0.981415 0.978729 0.003906
0.996094 0.982147 0.003906
0.996094 0.994202 0.003906
0.723450 0.996094 0.003906
0.735840 0.996094 0.003906
0.754913 0.996094 0.003906
0.801636 0.996094 0.003906
0.893127 0.996094 0.003906
0.993744 0.996094 0.003906
0.996094 0.996094 0.003906
0.996094 0.996094 0.003906
0.948608 0.996094 0.003906
0.950714 0.996094 0.003906
0.954224 0.996094 0.003906
0.962311 0.996094 0.003906
0.984314 0.996094 0.003906
0.996094 0.996094 0.003906
0.996094 0.996094 0.003906
0.996094 0.996094 0.003906
0.003906 0.003906 0.723694
0.003906 0.003906 0.723328
0.188141 0.003906 0.714752
0.652771 0.003906 0.695343
0.911255 0.003906 0.671112
0.996094 0.012970 0.603271
0.996094 0.430237 0.383759
0.996094 0.763611 0.003906
0.003906 0.003906 0.721741
0.003906 0.003906 0.721375
0.204132 0.003906 0.712372
0.656067 0.003906 0.693146
0.906708 0.003906 0.658936
0.995697 0.150543 0.575104
0.996094 0.482697 0.367828
0.996094 0.774139 0.003906
0.003906 0.210480 0.683472
0.003906 0.214294 0.682556
0.165131 0.204132 0.671112
0.618530 0.196472 0.648560
0.886322 0.226044 0.614563
0.995087 0.328857 0.541046
0.996094 0.551025 0.343933
0.996094 0.790741 0.003906
0.003906 0.600830 0.612213
0.003906 0.601532 0.611389
0.153473 0.588593 0.596222
0.575043 0.575073 0.574982
0.858917 0.568939 0.541382
0.993683 0.589752 0.470367
0.996094 0.682159 0.279388
0.996094 0.831085 0.003906
0.003906 0.851349 0.479553
0.035461 0.846832 0.469238
0.240967 0.842224 0.457794
0.557526 0.834717 0.436768
0.831604 0.826904 0.400208
0.988983 0.823730 0.325500
0.996094 0.849121 0.089691
0.996094 0.908203 0.003906
0.303986 0.985229 0.040955
0.364288 0.984680 0.037201
0.447723 0.983917 0.032379
0.617828 0.982300 0.022858
0.823944 0.979431 0.008453
0.980255 0.977600 0.003906
0.996094 0.981689 0.003906
0.996094 0.994171 0.003906
0.714996 0.996094 0.003906
0.727783 0.996094 0.003906
0.748047 0.996094 0.003906
0.796478 0.996094 0.003906
0.890533 0.996094 0.003906
0.993225 0.996094 0.003906
0.996094 0.996094 0.003906
0.996094 0.996094 0.003906
0.947205 0.996094 0.003906
0.949341 0.996094 0.003906
0.952881 0.996094 0.003906
0.961395 0.996094 0.003906
0.983582 0.996094 0.003906
0.996094 0.996094 0.003906
0.996094 0.996094 0.003906
0.996094 0.996094 0.003906
0.003906 0.003906 0.941803
0.003906 0.003906 0.941742
0.003906 0.003906 0.941650
0.544739 0.003906 0.930695
0.894684 0.003906 0.918732
0.996094 0.003906 0.904785
0.996094 0.325256 0.844788
0.996094 0.735992 0.695160
0.003906 0.003906 0.941467
0.003906 0.003906 0.941437
0.003906 0.003906 0.941315
0.550232 0.003906 0.930206
0.895325 0.003906 0.918335
0.996094 0.003906 0.901215
0.996094 0.393280 0.837646
0.996094 0.747620 0.691254
0.003906 0.004456 0.940277
0.003906 0.004913 0.939911
0.003906 0.005737 0.939301
0.550446 0.003937 0.926270
0.886871 0.011902 0.909302
0.995422 0.173767 0.877258
0.996094 0.484253 0.827118
0.996094 0.765961 0.684998
0.003906 0.532410 0.896210
0.003906 0.533539 0.896027
0.003906 0.535461 0.895691
0.472504 0.510620 0.880890
0.845459 0.504761 0.864960
0.993439 0.536438 0.841858
0.996094 0.647308 0.802795
0.996094 0.812134 0.665924
0.003906 0.840668 0.847931
0.003906 0.840851 0.847809
0.006226 0.834900 0.841461
0.465240 0.822815 0.827911
0.812775 0.812897 0.812744
0.986328 0.808868 0.789764
0.996094 0.834442 0.754089
0.996094 0.896667 0.613800
0.102081 0.983093 0.748535
0.206970 0.982483 0.745605
0.329193 0.981506 0.741455
0.556976 0.979095 0.732941
0.802246 0.975983 0.717438
0.975677 0.973267 0.691193
0.996094 0.977539 0.649048
0.996094 0.993225 0.445343
0.676331 0.996094 0.425720
0.690887 0.996094 0.423981
0.713715 0.996094 0.421112
0.771240 0.996094 0.412994
0.876160 0.996094 0.391113
0.990479 0.996094 0.334106
0.996094 0.996094 0.128571
0.996094 0.996094 0.003906
0.942566 0.996094 0.003906
0.944794 0.996094 0.003906
0.948456 0.996094 0.003906
0.958374 0.996094 0.003906
0.981140 0.996094 0.003906
0.996033 0.996094 0.003906
0.996094 0.996094 0.003906
0.996094 0.996094 0.003906
0.003906 0.003906 0.996094
0.003906 0.003906 0.996094
0.003906 0.003906 0.996094
0.003906 0.003906 0.996094
0.827148 0.003906 0.996094
0.996094 0.003906 0.996094
0.996094 0.003906 0.996094
0.996094 0.658722 0.988373
0.003906 0.003906 0.996094
0.003906 0.003906 0.996094
0.003906 0.003906 0.996094
0.003906 0.003906 0.996094
0.828247 0.003906 0.996094
0.996094 0.003906 0.996094
0.996094 0.003906 0.996094
0.996094 0.676819 0.987244
0.003906 0.003906 0.996094
0.003906 0.003906 0.996094
0.003906 0.003906 0.996094
0.003906 0.003906 0.996094
0.830109 0.003906 0.996094
0.996094 0.003906 0.996094
0.996094 0.103912 0.995148
0.996094 0.704315 0.985687
0.003906 0.097626 0.996094
0.003906 0.100220 0.996094
0.003906 0.104584 0.996094
0.003906 0.118591 0.996094
0.810974 0.092926 0.996094
0.994141 0.249878 0.994904
0.996094 0.510162 0.993103
0.996094 0.768036 0.979614
0.003906 0.794830 0.994415
0.003906 0.795044 0.994415
0.003906 0.795471 0.994415
0.003906 0.794373 0.994293
0.742188 0.769073 0.992676
0.982758 0.765106 0.987671
0.996094 0.798645 0.982330
0.996094 0.874756 0.966827
0.003906 0.983826 0.985321
0.003906 0.983856 0.985321
0.003906 0.983856 0.985291
0.236053 0.976410 0.978577
0.738312 0.969727 0.971985
0.965240 0.965363 0.965240
0.996094 0.969543 0.957855
0.996094 0.987244 0.939636
0.522369 0.996094 0.950165
0.549896 0.996094 0.949646
0.591553 0.996094 0.948822
0.687408 0.996094 0.946320
0.837952 0.996094 0.941467
0.980377 0.996094 0.933167
0.996094 0.996094 0.926361
0.996094 0.996094 0.906494
0.918671 0.996094 0.768341
0.921204 0.996094 0.767975
0.925415 0.996094 0.767334
0.938202 0.996094 0.765381
0.969086 0.996094 0.760132
0.995697 0.996094 0.750000
0.996094 0.996094 0.724579
0.996094 0.996094 0.560303
0.003906 0.003906 0.996094
0.003906 0.003906 0.996094
0.003906 0.003906 0.996094
0.003906 0.003906 0.996094
0.003906 0.003906 0.996094
0.989563 0.003906 0.996094
0.996094 0.003906 0.996094
0.996094 0.003906 0.996094
0.003906 0.003906 0.996094
0.003906 0.003906 0.996094
0.003906 0.003906 0.996094
0.003906 0.003906 0.996094
0.003906 0.003906 0.996094
0.989624 0.003906 0.996094
0.996094 0.003906 0.996094
0.996094 0.003906 0.996094
0.003906 0.003906 0.996094
0.003906 0.003906 0.996094
0.003906 0.003906 0.996094
0.003906 0.003906 0.996094
0.003906 0.003906 0.996094
0.989655 0.003906 0.996094
0.996094 0.003906 0.996094
0.996094 0.003906 0.996094
0.003906 0.003906 0.996094
0.003906 0.003906 0.996094
0.003906 0.003906 0.996094
0.003906 0.003906 0.996094
0.003906 0.003906 0.996094
0.989838 0.003906 0.996094
0.996094 0.003906 0.996094
0.996094 0.454681 0.996094
0.003906 0.354492 0.996094
0.003906 0.355438 0.996094
0.003906 0.357056 0.996094
0.003906 0.362305 0.996094
0.003906 0.378754 0.996094
0.968964 0.375885 0.996094
0.996094 0.584137 0.996094
0.996094 0.789246 0.996094
0.003906 0.963440 0.996094
0.003906 0.963501 0.996094
0.003906 0.963562 0.996094
0.003906 0.963806 0.996094
0.004089 0.959503 0.996094
0.925110 0.941437 0.996094
0.996094 0.945465 0.996094
0.996094 0.967377 0.996094
0.003906 0.996094 0.996094
0.003906 0.996094 0.996094
0.003906 0.996094 0.996094
0.003906 0.996094 0.996094
0.618408 0.996094 0.996094
0.945709 0.996094 0.996094
0.996094 0.996094 0.996094
0.996094 0.996094 0.996094
0.833557 0.996094 0.996094
0.838745 0.996094 0.996094
0.847260 0.996094 0.996094
0.872284 0.996094 0.996094
0.925751 0.996094 0.996094
0.993195 0.996094 0.996094
0.996094 0.996094 0.996094
0.996094 0.996094 0.996094
0.003906 0.003906 0.996094
0.003906 0.003906 0.996094
0.003906 0.003906 0.996094
0.003906 0.003906 0.996094
0.003906 0.003906 0.996094
0.003906 0.003906 0.996094
0.996094 0.003906 0.996094
0.996094 0.003906 0.996094
0.003906 0.003906 0.996094
0.003906 0.003906 0.996094
0.003906 0.003906 0.996094
0.003906 0.003906 0.996094
0.003906 0.003906 0.996094
0.003906 0.003906 0.996094
0.996094 0.003906 0.996094
0.996094 0.003906 0.996094
0.003906 0.003906 0.996094
0.003906 0.003906 0.996094
0.003906 0.003906 0.996094
0.003906 0.003906 0.996094
0.003906 0.003906 0.996094
0.003906 0.003906 0.996094
0.996094 0.003906 0.996094
0.996094 0.003906 0.996094
0.003906 0.003906 0.996094
0.003906 0.003906 0.996094
0.003906 0.003906 0.996094
0.003906 0.003906 0.996094
0.003906 0.003906 0.996094
0.003906 0.003906 0.996094
0.996094 0.003906 0.996094
0.996094 0.003906 0.996094
0.003906 0.003906 0.996094
0.003906 0.003906 0.996094
0.003906 0.003906 0.996094
0.003906 0.003906 0.996094
0.003906 0.003906 0.996094
0.003906 0.003906 0.996094
0.996094 0.003906 0.996094
0.996094 0.003906 0.996094
0.003906 0.608490 0.996094
0.003906 0.608765 0.996094
0.003906 0.609131 0.996094
0.003906 0.610535 0.996094
0.003906 0.614960 0.996094
0.003906 0.628418 0.996094
0.996094 0.678772 0.996094
0.996094 0.839325 0.996094
0.003906 0.996094 0.996094
0.003906 0.996094 0.996094
0.003906 0.996094 0.996094
0.003906 0.996094 0.996094
0.003906 0.996094 0.996094
0.212799 0.996094 0.996094
0.996094 0.996094 0.996094
0.996094 0.996094 0.996094
0.003906 0.996094 0.996094
0.003906 0.996094 0.996094
0.003906 0.996094 0.996094
0.003906 0.996094 0.996094
0.003906 0.996094 0.996094
0.889709 0.996094 0.996094
0.996094 0.996094 0.996094
0.996094 0.996094 0.996094
