Postproduction/IWLTBAP - Humble/LUTs by IWLTBAP (CUBE)/UTILITY/Sony S-Log3 to Rec.709/U-SONY-S-LOG3-V3-LTR.cube
# Copyright: (C) Copyright 2010-2018 by IWLTBAP SAS
# Cannot be resold, shared or otherwise redistributed
# Website: https://luts.iwltbap.com
TITLE "Sony S-Log3 Version 3 (Utility LOG to Rec.709)"
LUT_3D_SIZE 5
DOMAIN_MIN 0.000000 0.000000 0.000000
DOMAIN_MAX 0.903226 0.903226 0.903226
0.003296 0.003235 0.003204
0.133514 0.008057 0.008118
0.542053 0.091980 0.092926
0.966064 0.188995 0.198425
0.975739 0.191376 0.208252
0.019073 0.134552 0.019073
0.111298 0.121307 0.019409
0.541168 0.091919 0.092224
0.966125 0.188995 0.198425
0.975739 0.191376 0.208252
0.169525 0.540863 0.169495
0.168427 0.537750 0.168396
0.494598 0.519592 0.179565
0.964294 0.302032 0.201630
0.975739 0.191376 0.208252
0.308167 0.951752 0.308136
0.308014 0.951385 0.307953
0.333618 0.948761 0.307587
0.904541 0.940399 0.336060
0.988983 0.752045 0.292206
0.328888 0.994781 0.612793
0.330963 0.994812 0.612488
0.467499 0.995636 0.612000
0.870270 0.999695 0.601349
1.000000 1.000000 0.368011
0.004669 0.004669 0.107208
0.128357 0.008545 0.105896
0.541443 0.092224 0.132568
0.966064 0.188995 0.198425
0.975739 0.191376 0.208252
0.015747 0.117889 0.106354
0.102905 0.103485 0.103821
0.538544 0.091400 0.130371
0.966125 0.188995 0.198425
0.975739 0.191376 0.208252
0.168365 0.537567 0.168518
0.167236 0.534454 0.167297
0.491669 0.517212 0.178589
0.964294 0.303192 0.201752
0.975739 0.191376 0.208252
0.307129 0.949066 0.307343
0.307007 0.948700 0.307129
0.331055 0.946106 0.306519
0.903900 0.938995 0.335541
0.988983 0.752258 0.292267
0.329163 0.994873 0.626953
0.331207 0.994873 0.626648
0.466003 0.995667 0.626251
0.869659 0.999725 0.616455
1.000000 1.000000 0.368011
0.032959 0.032867 0.479004
0.050049 0.033203 0.478180
0.530396 0.101562 0.479675
0.965057 0.192719 0.450592
0.975739 0.191376 0.208252
0.032837 0.032715 0.478119
0.034607 0.032654 0.477448
0.528839 0.101257 0.480011
0.965118 0.192749 0.452026
0.975739 0.191376 0.208252
0.160522 0.499390 0.477783
0.159332 0.496063 0.476929
0.475464 0.476288 0.476654
0.961487 0.256226 0.442932
0.975739 0.191376 0.208252
0.303772 0.933838 0.511261
0.303589 0.933350 0.510651
0.319061 0.930481 0.507233
0.896545 0.922668 0.485596
0.989044 0.753479 0.292572
0.330597 0.995239 0.695953
0.331940 0.995239 0.695770
0.457458 0.995850 0.695862
0.866486 0.999847 0.691010
1.000000 1.000000 0.501068
0.094238 0.094086 0.878723
0.094269 0.094086 0.878815
0.490051 0.128204 0.881500
0.960144 0.208679 0.888245
0.977631 0.209991 0.845581
0.094055 0.093872 0.877563
0.094086 0.093903 0.877655
0.483093 0.127136 0.880554
0.960236 0.208710 0.888367
0.977631 0.209991 0.845734
0.138702 0.349823 0.871613
0.137024 0.343231 0.871582
0.403931 0.297424 0.872803
0.949066 0.206116 0.884155
0.977631 0.210052 0.846680
0.294250 0.882782 0.871796
0.294067 0.882172 0.871796
0.292908 0.878387 0.871948
0.874420 0.866180 0.877869
0.987061 0.654205 0.841583
0.336090 0.996094 0.896545
0.336121 0.996094 0.896576
0.423889 0.996521 0.897278
0.854309 1.000000 0.902039
1.000000 1.000000 0.880371
0.108795 0.108612 0.969940
0.108795 0.108612 0.969940
0.404907 0.128632 0.970978
0.947601 0.211731 0.977844
0.978485 0.217804 0.978516
0.113708 0.159760 0.970184
0.112732 0.151917 0.970154
0.389008 0.133728 0.970917
0.942810 0.210846 0.977722
0.978485 0.217804 0.978516
0.182220 0.482880 0.974915
0.181366 0.479736 0.974854
0.315887 0.460114 0.974823
0.918579 0.293854 0.978180
0.978485 0.217804 0.978516
0.293579 0.867432 0.986786
0.293396 0.866760 0.986847
0.292175 0.862701 0.987183
0.859741 0.851135 0.992493
0.988129 0.664612 0.988159
0.338989 0.995605 0.986328
0.338928 0.995422 0.986389
0.428253 0.994690 0.987122
0.847168 0.994751 0.992279
0.994720 0.993835 0.995331
