Postproduction/IWLTBAP - Humble/LUTs by IWLTBAP (CUBE)/UTILITY/Sony S-Log3 to Rec.709/U-SONY-S-LOG3-V8-LTR.cube
# Copyright: (C) Copyright 2010-2018 by IWLTBAP SAS
# Cannot be resold, shared or otherwise redistributed
# Website: https://luts.iwltbap.com
TITLE "Sony S-Log3 Version 8 (Utility LOG to Rec.709)"
LUT_3D_SIZE 8
DOMAIN_MIN 0.000000 0.000000 0.000000
DOMAIN_MAX 0.903226 0.903226 0.903226
0.006622 0.006500 0.006409
0.069183 0.009857 0.010101
0.202179 0.024292 0.024506
0.443787 0.076752 0.077332
0.715271 0.138794 0.141571
0.952881 0.191101 0.199371
0.975616 0.196442 0.210999
0.975616 0.196472 0.214020
0.012787 0.047913 0.011932
0.039368 0.042206 0.012085
0.188690 0.037994 0.023590
0.438995 0.075470 0.076141
0.713989 0.138519 0.141296
0.952850 0.191101 0.199341
0.975616 0.196442 0.210999
0.975616 0.196472 0.213989
0.039612 0.169525 0.038727
0.038025 0.167328 0.038025
0.154053 0.159241 0.041290
0.426483 0.136475 0.079498
0.710846 0.136230 0.139740
0.952820 0.191071 0.199280
0.975616 0.196442 0.210999
0.975616 0.196472 0.213959
0.122864 0.393341 0.121429
0.122009 0.394165 0.121735
0.120392 0.390472 0.120422
0.365479 0.376434 0.129578
0.689819 0.330872 0.161285
0.950409 0.198395 0.195587
0.975616 0.196991 0.210876
0.975616 0.196472 0.213867
0.215240 0.655182 0.214111
0.215027 0.655396 0.214203
0.214661 0.655762 0.214325
0.212067 0.651855 0.213013
0.617126 0.639160 0.229828
0.924988 0.595123 0.250061
0.977783 0.356964 0.219849
0.975647 0.198303 0.213806
0.291901 0.893890 0.290527
0.291809 0.893921 0.290527
0.291626 0.893951 0.290558
0.291077 0.894073 0.290588
0.372894 0.889923 0.291321
0.855621 0.881836 0.315796
0.993134 0.850128 0.320709
0.982849 0.540283 0.255615
0.329315 0.994415 0.451141
0.329315 0.994415 0.451569
0.329285 0.994415 0.452271
0.329285 0.994415 0.454468
0.329193 0.994446 0.461365
0.677368 0.996643 0.471649
0.982239 0.999176 0.449585
1.000000 0.996674 0.367767
0.325043 0.995148 0.702209
0.324982 0.995148 0.702332
0.324921 0.995148 0.702515
0.324799 0.995178 0.703186
0.325043 0.995178 0.705292
0.330048 0.995209 0.711884
0.911072 1.000000 0.724060
1.000000 1.000000 0.685059
0.006805 0.006500 0.034851
0.066650 0.009827 0.036285
0.201752 0.024445 0.047699
0.443848 0.076904 0.091431
0.715302 0.138855 0.149750
0.952911 0.191132 0.200378
0.975616 0.196411 0.209625
0.975616 0.196442 0.213226
0.011871 0.041382 0.035034
0.035309 0.035400 0.035431
0.186523 0.033203 0.044769
0.435944 0.074921 0.089508
0.712006 0.138153 0.149506
0.951782 0.190857 0.199951
0.975616 0.196411 0.209503
0.975616 0.196442 0.213165
0.039154 0.167969 0.048828
0.037628 0.165710 0.048615
0.150208 0.157898 0.052216
0.413635 0.139801 0.086395
0.701996 0.134521 0.146423
0.949585 0.190338 0.199677
0.975616 0.196411 0.209381
0.975616 0.196442 0.213104
0.122742 0.392944 0.121216
0.121826 0.393738 0.121521
0.120239 0.390015 0.120239
0.361755 0.376770 0.129242
0.672821 0.344482 0.161224
0.942627 0.208313 0.196228
0.975616 0.196991 0.209106
0.975616 0.196442 0.212891
0.215118 0.654144 0.213776
0.214874 0.654358 0.213867
0.214386 0.654694 0.213959
0.211639 0.650818 0.212677
0.615845 0.638367 0.229492
0.913208 0.605804 0.251007
0.978119 0.374146 0.221375
0.975647 0.198242 0.212311
0.291443 0.892548 0.289612
0.291321 0.892578 0.289642
0.291138 0.892609 0.289673
0.290588 0.892700 0.289825
0.371094 0.888489 0.290222
0.854095 0.880707 0.314789
0.993195 0.852570 0.321106
0.982880 0.540985 0.252502
0.329529 0.994415 0.466003
0.329529 0.994415 0.466370
0.329498 0.994415 0.467010
0.329468 0.994415 0.469086
0.329376 0.994446 0.475586
0.676849 0.996643 0.485138
0.981842 0.999084 0.465271
1.000000 0.996552 0.370728
0.322449 0.995178 0.706696
0.322510 0.995178 0.706818
0.322632 0.995178 0.707001
0.323090 0.995178 0.707672
0.324890 0.995178 0.709717
0.330658 0.995209 0.716156
0.910889 1.000000 0.728271
1.000000 1.000000 0.690308
0.010681 0.010742 0.143311
0.057831 0.012512 0.143219
0.199341 0.025970 0.145935
0.443420 0.077789 0.162079
0.714905 0.139221 0.193237
0.952728 0.191254 0.218628
0.975616 0.196411 0.209381
0.975616 0.196381 0.207764
0.011749 0.019806 0.143677
0.025391 0.016815 0.143616
0.184601 0.024445 0.146149
0.437866 0.076538 0.162903
0.713562 0.138977 0.195007
0.952423 0.191162 0.219025
0.975616 0.196411 0.209106
0.975616 0.196381 0.207733
0.037659 0.158081 0.145844
0.036102 0.155426 0.145966
0.145660 0.146454 0.146759
0.423126 0.123505 0.159485
0.708221 0.136292 0.192078
0.950897 0.190796 0.217316
0.975616 0.196411 0.208771
0.975616 0.196381 0.207672
0.122040 0.390045 0.159058
0.121124 0.390808 0.160217
0.119568 0.386963 0.159546
0.359863 0.373505 0.167786
0.677948 0.337585 0.190491
0.943756 0.206268 0.215088
0.975616 0.196899 0.209045
0.975616 0.196381 0.207489
0.214142 0.651581 0.215729
0.213898 0.651794 0.216034
0.213531 0.652100 0.216553
0.210724 0.648193 0.215240
0.614563 0.635895 0.232330
0.909760 0.606415 0.251099
0.978333 0.384888 0.223053
0.975616 0.198090 0.207001
0.290771 0.890045 0.302948
0.290649 0.890076 0.303436
0.290466 0.890106 0.304352
0.289886 0.890228 0.307465
0.367920 0.886047 0.309418
0.852753 0.878235 0.323578
0.993286 0.854706 0.318817
0.982880 0.541809 0.248901
0.329803 0.994446 0.489044
0.329803 0.994446 0.489380
0.329803 0.994446 0.489960
0.329773 0.994446 0.491821
0.329681 0.994446 0.497589
0.675964 0.996613 0.506378
0.981262 0.998932 0.489532
1.000000 0.996246 0.380402
0.324463 0.995209 0.714050
0.324585 0.995209 0.714172
0.324768 0.995209 0.714355
0.325348 0.995209 0.714996
0.326935 0.995209 0.716980
0.330414 0.995239 0.723236
0.910614 1.000000 0.735138
1.000000 1.000000 0.698914
0.026459 0.026398 0.344513
0.029663 0.026428 0.344238
0.183075 0.036346 0.344727
0.438812 0.083344 0.349579
0.712311 0.142059 0.359070
0.951721 0.192932 0.359894
0.975708 0.197357 0.289246
0.975616 0.196350 0.205078
0.026489 0.026428 0.344971
0.026184 0.026398 0.344849
0.164001 0.034302 0.345215
0.432587 0.082092 0.350281
0.710938 0.141815 0.360687
0.951508 0.192932 0.361633
0.975708 0.197388 0.290070
0.975616 0.196350 0.205383
0.031769 0.073364 0.344696
0.030945 0.069824 0.344757
0.106995 0.059570 0.344666
0.417847 0.079895 0.349823
0.706757 0.141083 0.362000
0.951141 0.192902 0.364227
0.975708 0.197357 0.288910
0.975616 0.196350 0.205902
0.119263 0.370239 0.349579
0.118347 0.371002 0.350250
0.116760 0.366730 0.349915
0.350464 0.351654 0.352234
0.682159 0.307068 0.358002
0.946350 0.195038 0.357605
0.975677 0.197449 0.283173
0.975616 0.196381 0.207642
0.212311 0.640533 0.368439
0.212067 0.640717 0.369110
0.211670 0.641052 0.370178
0.208740 0.636963 0.369904
0.609406 0.624573 0.378296
0.911285 0.592865 0.365570
0.977966 0.363007 0.291565
0.975647 0.197998 0.213348
0.289307 0.882721 0.426239
0.289215 0.882721 0.426727
0.289062 0.882782 0.427521
0.288544 0.882935 0.430084
0.357544 0.878601 0.432190
0.849487 0.870453 0.438995
0.992920 0.847565 0.380524
0.982849 0.541473 0.263947
0.330658 0.994507 0.547974
0.330658 0.994537 0.548218
0.330658 0.994537 0.548645
0.330627 0.994537 0.550018
0.330536 0.994537 0.554352
0.673370 0.996399 0.562286
0.979675 0.998230 0.551819
1.000000 0.994873 0.436432
0.319214 0.995300 0.736298
0.319336 0.995300 0.736389
0.319550 0.995300 0.736572
0.320221 0.995300 0.737122
0.322479 0.995300 0.738892
0.329529 0.995331 0.744415
0.909729 1.000000 0.755920
1.000000 1.000000 0.724396
0.060089 0.059967 0.588776
0.060089 0.059967 0.588776
0.121307 0.062439 0.588928
0.424316 0.097504 0.591705
0.704498 0.150177 0.597717
0.948395 0.198608 0.601990
0.976379 0.203949 0.580658
0.976044 0.200684 0.454834
0.060028 0.059906 0.588409
0.060028 0.059906 0.588440
0.094482 0.061066 0.588562
0.415619 0.096069 0.591370
0.702576 0.149811 0.597931
0.948181 0.198578 0.602509
0.976379 0.203979 0.581390
0.976044 0.200684 0.455566
0.059814 0.059113 0.587372
0.059814 0.059143 0.587433
0.062378 0.059174 0.587524
0.397156 0.092499 0.590271
0.696930 0.148743 0.597443
0.947845 0.198547 0.603424
0.976379 0.204010 0.582397
0.976044 0.200745 0.457153
0.113739 0.314850 0.586365
0.112671 0.315369 0.586548
0.110840 0.309265 0.586426
0.317322 0.287994 0.587585
0.670013 0.227234 0.593811
0.942566 0.194702 0.603149
0.976379 0.204163 0.585358
0.976044 0.200867 0.462921
0.208710 0.613861 0.591278
0.208466 0.614075 0.591461
0.208038 0.614441 0.591827
0.205536 0.609985 0.591827
0.596039 0.596558 0.596893
0.910614 0.553925 0.598267
0.977417 0.289581 0.575562
0.976105 0.202118 0.480988
0.286682 0.865051 0.609833
0.286560 0.865112 0.610016
0.286377 0.865173 0.610321
0.285767 0.865387 0.611328
0.343872 0.860535 0.612427
0.841675 0.851868 0.619904
0.992096 0.824646 0.591339
0.982635 0.523621 0.522583
0.333588 0.993378 0.667480
0.333527 0.993378 0.667633
0.333466 0.993347 0.667877
0.333221 0.993347 0.668640
0.332520 0.993317 0.671082
0.666626 0.993378 0.677979
0.975494 0.993042 0.675171
1.000000 0.985168 0.620758
0.324219 0.995514 0.791687
0.324280 0.995514 0.791748
0.324463 0.995514 0.791901
0.324951 0.995514 0.792267
0.326599 0.995514 0.793518
0.331909 0.995544 0.797424
0.907349 1.000000 0.807831
1.000000 1.000000 0.787109
0.093842 0.093658 0.822662
0.093842 0.093689 0.822754
0.095367 0.093689 0.822906
0.393188 0.116028 0.824951
0.688812 0.161835 0.830414
0.943512 0.207428 0.837463
0.977448 0.214020 0.832642
0.977325 0.212921 0.809753
0.093719 0.093506 0.821899
0.093719 0.093536 0.821960
0.092987 0.093536 0.822113
0.379425 0.114349 0.824158
0.684357 0.161041 0.829773
0.943024 0.207336 0.837524
0.977448 0.214020 0.832794
0.977325 0.212921 0.809967
0.093353 0.091858 0.820557
0.093384 0.091797 0.820618
0.092957 0.091827 0.820801
0.352814 0.110535 0.822632
0.675446 0.159454 0.828430
0.941681 0.207062 0.837311
0.977448 0.214050 0.833069
0.977325 0.212952 0.810364
0.119080 0.259583 0.818298
0.118225 0.257355 0.818298
0.116455 0.248993 0.818298
0.243225 0.222229 0.818939
0.645203 0.180847 0.824036
0.931091 0.199463 0.833710
0.977478 0.214264 0.834076
0.977356 0.212982 0.811279
0.206116 0.578461 0.818970
0.205872 0.578735 0.819031
0.205444 0.579102 0.819122
0.203705 0.573486 0.819305
0.572235 0.558868 0.823059
0.895660 0.510895 0.829651
0.977997 0.259277 0.829346
0.977356 0.211975 0.814484
0.282410 0.835266 0.822998
0.282288 0.835327 0.823059
0.282074 0.835388 0.823151
0.281403 0.835693 0.823456
0.323486 0.830200 0.824371
0.828278 0.820526 0.831848
0.990692 0.781555 0.827759
0.982544 0.493347 0.815094
0.334229 0.980438 0.839996
0.334137 0.980438 0.840027
0.333984 0.980438 0.840118
0.333496 0.980438 0.840363
0.331848 0.980438 0.841125
0.653595 0.976868 0.846008
0.966797 0.973358 0.850128
0.999908 0.959503 0.833984
0.328583 0.995972 0.882416
0.328644 0.995972 0.882446
0.328766 0.995972 0.882507
0.329193 0.995972 0.882629
0.330536 0.995972 0.883087
0.335022 0.995972 0.884552
0.902863 1.000000 0.894226
1.000000 1.000000 0.888489
0.119598 0.173035 0.952393
0.119141 0.169708 0.952484
0.115906 0.163452 0.952576
0.339691 0.153320 0.953705
0.655579 0.160889 0.957794
0.924438 0.210205 0.965576
0.978363 0.221832 0.970917
0.978333 0.221558 0.967712
0.124054 0.204926 0.952087
0.123383 0.200775 0.952148
0.119934 0.193024 0.952240
0.323578 0.173859 0.953217
0.650574 0.166840 0.957245
0.921783 0.207245 0.964874
0.978363 0.221863 0.970917
0.978333 0.221558 0.967743
0.134094 0.262360 0.951843
0.133331 0.258148 0.951874
0.130615 0.250397 0.951965
0.298584 0.228424 0.952759
0.643005 0.205658 0.956573
0.917358 0.206512 0.963776
0.978363 0.221985 0.970856
0.978333 0.221558 0.967773
0.167023 0.412628 0.951721
0.166534 0.410706 0.951782
0.165710 0.407257 0.951813
0.230682 0.396515 0.952301
0.621307 0.362885 0.955658
0.904785 0.256958 0.961151
0.978363 0.218964 0.969666
0.978333 0.221710 0.967865
0.220520 0.606445 0.951355
0.220337 0.606445 0.951355
0.219940 0.605255 0.951385
0.217957 0.599670 0.951630
0.557861 0.587891 0.954346
0.877960 0.554993 0.959778
0.980408 0.356598 0.962616
0.978271 0.216034 0.968475
0.282867 0.824005 0.950592
0.282776 0.824066 0.950592
0.282623 0.824158 0.950623
0.282166 0.824463 0.950653
0.325989 0.818146 0.951538
0.816803 0.809662 0.957733
0.988403 0.771606 0.961517
0.983978 0.528412 0.960846
0.330505 0.961975 0.951263
0.330444 0.961975 0.951263
0.330292 0.962006 0.951263
0.329773 0.962036 0.951294
0.328186 0.962128 0.951416
0.651245 0.958282 0.955536
0.958954 0.954041 0.961456
0.999573 0.938263 0.960297
0.333160 0.996338 0.956940
0.333221 0.996338 0.956940
0.333313 0.996338 0.956970
0.333679 0.996338 0.956970
0.334808 0.996338 0.957062
0.338440 0.996338 0.957336
0.899353 0.999512 0.965820
0.997040 0.999298 0.967438
0.225708 0.628998 0.979156
0.227203 0.628174 0.979126
0.253113 0.626953 0.979187
0.410767 0.624237 0.979767
0.649506 0.616669 0.981445
0.891754 0.589264 0.983734
0.981873 0.438812 0.981659
0.978241 0.212158 0.978271
0.227539 0.634888 0.979370
0.227875 0.634064 0.979340
0.249725 0.632843 0.979370
0.404449 0.630188 0.979919
0.647064 0.622864 0.981628
0.890625 0.596100 0.983917
0.982178 0.453522 0.981995
0.978210 0.210205 0.978241
0.230988 0.644531 0.979706
0.229553 0.643707 0.979675
0.244843 0.642517 0.979675
0.393494 0.639862 0.980194
0.642914 0.632935 0.981934
0.888794 0.607269 0.984253
0.982727 0.477295 0.982513
0.978180 0.207855 0.978180
0.241180 0.673706 0.980804
0.238342 0.672943 0.980743
0.239685 0.671722 0.980713
0.359375 0.668976 0.981079
0.630219 0.662720 0.982849
0.883118 0.639954 0.985229
0.984375 0.544922 0.984161
0.978149 0.204895 0.978149
0.261749 0.749451 0.983612
0.261597 0.748810 0.983612
0.261261 0.747803 0.983582
0.281464 0.744812 0.983521
0.588531 0.739746 0.985229
0.866150 0.722931 0.987854
0.987427 0.661804 0.987885
0.979095 0.271088 0.979095
0.297119 0.867401 0.986298
0.297028 0.867432 0.986298
0.296875 0.867340 0.986328
0.296265 0.865784 0.986481
0.431702 0.861572 0.987701
0.821106 0.856567 0.991882
0.983521 0.835907 0.994110
0.989899 0.724976 0.989899
0.330536 0.961487 0.985657
0.330475 0.961487 0.985657
0.330353 0.961487 0.985657
0.329926 0.961517 0.985657
0.328644 0.961609 0.985657
0.688324 0.958252 0.989716
0.956451 0.954803 0.994476
0.999817 0.942139 0.995636
0.355896 0.995361 0.985992
0.355804 0.995361 0.985992
0.355560 0.995361 0.985992
0.354858 0.995361 0.985992
0.352661 0.995361 0.985992
0.345856 0.995392 0.985992
0.903137 0.994568 0.993225
0.994781 0.993866 0.995239
