Postproduction/IWLTBAP - Humble/LUTs by IWLTBAP (CUBE)/UTILITY/Sony S-Log3 to Rec.709/U-SONY-S-LOG3-V6-LTR.cube
# Copyright: (C) Copyright 2010-2018 by IWLTBAP SAS
# Cannot be resold, shared or otherwise redistributed
# Website: https://luts.iwltbap.com
TITLE "Sony S-Log3 Version 6 (Utility LOG to Rec.709)"
LUT_3D_SIZE 32
0.020325 0.019104 0.008606
0.020447 0.019104 0.008606
0.028503 0.019440 0.008575
0.048309 0.018677 0.008118
0.105835 0.002563 0.007477
0.179291 0.000000 0.003174
0.260468 0.000000 0.000000
0.335480 0.000000 0.000000
0.395630 0.000000 0.000000
0.450165 0.000000 0.000000
0.493439 0.000000 0.000000
0.525574 0.000000 0.000000
0.554138 0.000000 0.000000
0.578949 0.000000 0.000000
0.600067 0.000000 0.000000
0.618164 0.000000 0.000000
0.636353 0.000000 0.006927
0.651581 0.000000 0.087708
0.663055 0.000000 0.178009
0.672150 0.000000 0.256622
0.679626 0.000000 0.329315
0.684509 0.000000 0.392578
0.690094 0.000000 0.450531
0.696686 0.000000 0.503632
0.704376 0.000000 0.548706
0.714355 0.000000 0.588501
0.729187 0.000000 0.627960
0.750488 0.000000 0.671417
0.781830 0.000000 0.721863
0.815430 0.000000 0.772095
0.841675 0.000000 0.811218
0.862213 0.074005 0.841644
0.020325 0.019104 0.008606
0.020325 0.019104 0.008606
0.024292 0.019287 0.008606
0.038544 0.019348 0.008331
0.083801 0.009735 0.007751
0.161224 0.000000 0.004669
0.243500 0.000000 0.000000
0.324432 0.000000 0.000000
0.387756 0.000000 0.000000
0.444519 0.000000 0.000000
0.489868 0.000000 0.000000
0.523376 0.000000 0.000000
0.552307 0.000000 0.000000
0.577393 0.000000 0.000000
0.598633 0.000000 0.000000
0.616699 0.000000 0.000000
0.634338 0.000000 0.000000
0.650513 0.000000 0.073151
0.662323 0.000000 0.167419
0.671753 0.000000 0.248444
0.679291 0.000000 0.323212
0.684143 0.000000 0.388123
0.689728 0.000000 0.447296
0.696381 0.000000 0.501007
0.704071 0.000000 0.547058
0.713959 0.000000 0.587280
0.728485 0.000000 0.626892
0.749969 0.000000 0.670471
0.781250 0.000000 0.720947
0.815033 0.000000 0.771545
0.841400 0.000000 0.810822
0.862061 0.072845 0.841400
0.020325 0.019592 0.008606
0.020325 0.019531 0.008606
0.020447 0.019440 0.008606
0.030609 0.019745 0.008514
0.055908 0.017273 0.008026
0.126831 0.000000 0.006866
0.206482 0.000000 0.000000
0.293579 0.000000 0.000000
0.365326 0.000000 0.000000
0.425964 0.000000 0.000000
0.478210 0.000000 0.000000
0.516296 0.000000 0.000000
0.548035 0.000000 0.000000
0.575714 0.000000 0.000000
0.596954 0.000000 0.000000
0.615173 0.000000 0.000000
0.632233 0.000000 0.000000
0.649353 0.000000 0.057892
0.661591 0.000000 0.156311
0.671295 0.000000 0.240265
0.678955 0.000000 0.317230
0.683777 0.000000 0.383820
0.689392 0.000000 0.443970
0.696045 0.000000 0.498596
0.703491 0.000000 0.545380
0.713562 0.000000 0.586060
0.728027 0.000000 0.625824
0.749451 0.000000 0.669495
0.780640 0.000000 0.720001
0.814667 0.000000 0.770996
0.841125 0.000000 0.810425
0.861908 0.071686 0.841156
0.020294 0.027039 0.008850
0.020294 0.026855 0.008820
0.020294 0.026367 0.008820
0.030701 0.028351 0.007874
0.051147 0.029205 0.006653
0.105225 0.021088 0.001617
0.183807 0.000000 0.000000
0.264832 0.000000 0.000000
0.339752 0.000000 0.000000
0.401703 0.000000 0.000000
0.457947 0.000000 0.000000
0.499634 0.000000 0.000000
0.533539 0.000000 0.000000
0.563782 0.000000 0.000000
0.588470 0.000000 0.000000
0.610413 0.000000 0.000000
0.629120 0.000000 0.000000
0.647949 0.000000 0.041565
0.660828 0.000000 0.144379
0.670837 0.000000 0.231750
0.678406 0.000000 0.310791
0.683441 0.000000 0.379303
0.689026 0.000000 0.440613
0.695709 0.000000 0.496155
0.703186 0.000000 0.543671
0.713165 0.000000 0.584808
0.727570 0.000000 0.624725
0.748932 0.000000 0.668518
0.779999 0.000000 0.719086
0.814301 0.000000 0.770416
0.840851 0.000000 0.810028
0.861725 0.070526 0.840912
0.017548 0.038605 0.008453
0.017731 0.038269 0.008484
0.018005 0.037933 0.008514
0.019043 0.036072 0.008698
0.048462 0.044617 0.005127
0.094940 0.049957 0.000000
0.183105 0.047455 0.000000
0.269684 0.018890 0.000000
0.357941 0.000000 0.000000
0.426758 0.000000 0.000000
0.481262 0.000000 0.000000
0.523468 0.000000 0.000000
0.547394 0.000000 0.000000
0.559570 0.000000 0.000000
0.580780 0.000000 0.000000
0.598969 0.000000 0.000000
0.619293 0.000000 0.000000
0.639282 0.000000 0.000641
0.657501 0.000000 0.108643
0.670197 0.000000 0.220978
0.677979 0.000000 0.303406
0.683014 0.000000 0.373749
0.688599 0.000000 0.436371
0.695343 0.000000 0.493256
0.702789 0.000000 0.541718
0.712708 0.000000 0.583344
0.727020 0.000000 0.623474
0.748352 0.000000 0.667389
0.779053 0.000000 0.717987
0.813843 0.000000 0.769775
0.840546 0.000000 0.809540
0.861572 0.069153 0.840637
0.000000 0.072906 0.000885
0.000000 0.072083 0.001099
0.000000 0.071320 0.001343
0.000000 0.068726 0.002075
0.011597 0.065948 0.000000
0.080536 0.083008 0.000000
0.161438 0.092194 0.000000
0.265381 0.096008 0.000000
0.366699 0.089844 0.000000
0.456940 0.075104 0.000000
0.522919 0.054260 0.000000
0.575714 0.027100 0.000000
0.610291 0.001251 0.000000
0.624390 0.000000 0.000000
0.630737 0.000000 0.000000
0.628418 0.000000 0.000000
0.620636 0.000000 0.000000
0.628052 0.000000 0.000000
0.647156 0.000000 0.028748
0.663452 0.000000 0.153168
0.675995 0.000000 0.273438
0.682526 0.000000 0.367096
0.688110 0.000000 0.431366
0.694855 0.000000 0.489471
0.702332 0.000000 0.538940
0.712189 0.000000 0.581512
0.726349 0.000000 0.621918
0.747650 0.000000 0.665802
0.778198 0.000000 0.716675
0.813293 0.000000 0.768951
0.840149 0.000000 0.808960
0.861328 0.067474 0.840271
0.000000 0.125519 0.000000
0.000000 0.124695 0.000000
0.000000 0.123871 0.000000
0.000000 0.123047 0.000000
0.000000 0.114166 0.000000
0.003906 0.129150 0.000000
0.131317 0.152405 0.000000
0.243164 0.165070 0.000000
0.352966 0.169281 0.000000
0.461792 0.164398 0.000000
0.544922 0.152496 0.000000
0.608002 0.133057 0.000000
0.656525 0.108154 0.000000
0.682831 0.075012 0.000000
0.695129 0.023163 0.000000
0.699738 0.000000 0.000000
0.691895 0.000000 0.000000
0.679840 0.000000 0.000000
0.662994 0.000000 0.000000
0.656189 0.000000 0.055573
0.667847 0.000000 0.183563
0.678986 0.000000 0.306335
0.686920 0.000000 0.419373
0.694275 0.000000 0.485046
0.701782 0.000000 0.535797
0.711578 0.000000 0.579285
0.725525 0.000000 0.619995
0.746735 0.000000 0.664093
0.777130 0.000000 0.714752
0.812653 0.000000 0.767944
0.839691 0.000000 0.808258
0.861023 0.065186 0.839874
0.000000 0.188232 0.000000
0.000000 0.187561 0.000000
0.000000 0.186890 0.000000
0.000000 0.186188 0.000000
0.000000 0.184448 0.000000
0.000000 0.169495 0.000000
0.053833 0.207916 0.000000
0.202728 0.233582 0.000000
0.329346 0.249237 0.000000
0.450409 0.254822 0.000000
0.555298 0.252045 0.000000
0.629852 0.241821 0.000000
0.688721 0.224701 0.000000
0.728943 0.204681 0.000000
0.746552 0.166260 0.000000
0.753540 0.109619 0.000000
0.752808 0.042053 0.000000
0.744568 0.000000 0.000000
0.734192 0.000000 0.000000
0.718628 0.000000 0.000000
0.697754 0.000000 0.095245
0.673859 0.000000 0.204407
0.679993 0.000000 0.328491
0.689758 0.000000 0.447723
0.701111 0.000000 0.531921
0.710815 0.000000 0.576324
0.724487 0.000000 0.617615
0.745667 0.000000 0.662018
0.775787 0.000000 0.712738
0.811798 0.000000 0.766510
0.839111 0.000000 0.807373
0.860687 0.062653 0.839355
0.000000 0.242523 0.000000
0.000000 0.242096 0.000000
0.000000 0.241638 0.000000
0.000000 0.241180 0.000000
0.000000 0.240662 0.000000
0.000000 0.234985 0.000000
0.000000 0.243774 0.000000
0.141449 0.293945 0.000000
0.288910 0.326263 0.000000
0.422607 0.344849 0.000000
0.549835 0.352905 0.000000
0.642242 0.349365 0.000000
0.711700 0.338348 0.000000
0.763214 0.322327 0.000000
0.794220 0.300598 0.000000
0.805939 0.251984 0.000000
0.807770 0.194733 0.000000
0.799316 0.131409 0.000000
0.788879 0.066376 0.000000
0.781555 0.017456 0.000000
0.769592 0.000000 0.015381
0.746796 0.000000 0.154663
0.714478 0.000000 0.252380
0.681427 0.000000 0.341736
0.692169 0.000000 0.467682
0.709900 0.000000 0.572876
0.723206 0.000000 0.614471
0.744354 0.000000 0.659454
0.774170 0.000000 0.710236
0.810760 0.000000 0.764954
0.838379 0.000000 0.806305
0.860260 0.059570 0.838715
0.000000 0.286499 0.000000
0.000000 0.286194 0.000000
0.000000 0.285889 0.000000
0.000000 0.285614 0.000000
0.000000 0.285248 0.000000
0.000000 0.284821 0.000000
0.000000 0.274292 0.000000
0.016266 0.321045 0.000000
0.216858 0.376068 0.000000
0.376190 0.413971 0.000000
0.519897 0.437408 0.000000
0.638092 0.447296 0.000000
0.721039 0.445496 0.000000
0.785797 0.436859 0.000000
0.828552 0.422791 0.000000
0.854279 0.398071 0.000000
0.861237 0.338928 0.000000
0.855743 0.273468 0.000000
0.841156 0.206970 0.000000
0.831970 0.168884 0.000000
0.822723 0.120880 0.000000
0.812164 0.046356 0.078064
0.793762 0.000000 0.218506
0.758728 0.000000 0.313324
0.707092 0.000000 0.381439
0.693573 0.000000 0.479065
0.717987 0.000000 0.599487
0.742676 0.000000 0.656281
0.772125 0.000000 0.707184
0.809174 0.000000 0.762543
0.837494 0.000000 0.804993
0.859711 0.055786 0.837891
0.000000 0.321686 0.000000
0.000000 0.321503 0.000000
0.000000 0.321320 0.000000
0.000000 0.321136 0.000000
0.000000 0.320923 0.000000
0.000000 0.320679 0.000000
0.000000 0.320343 0.000000
0.000000 0.315125 0.000000
0.108490 0.398956 0.000000
0.303558 0.457581 0.000000
0.464874 0.495941 0.000000
0.611389 0.519287 0.000000
0.713409 0.526642 0.000000
0.790863 0.526062 0.000000
0.846527 0.519318 0.000000
0.882599 0.507233 0.000000
0.906158 0.480499 0.000000
0.910217 0.423035 0.000000
0.898407 0.350067 0.000000
0.881042 0.285095 0.000000
0.872223 0.255280 0.000000
0.861969 0.216034 0.000000
0.849030 0.161621 0.145721
0.831482 0.100159 0.280029
0.800659 0.021606 0.379608
0.749298 0.000000 0.444855
0.694794 0.000000 0.489075
0.724670 0.000000 0.617767
0.769806 0.000000 0.703247
0.807068 0.000000 0.759460
0.836395 0.000000 0.803101
0.859070 0.050934 0.836914
0.000000 0.345825 0.000000
0.000000 0.345734 0.000000
0.000000 0.345612 0.000000
0.000000 0.345520 0.000000
0.000000 0.345398 0.000000
0.000000 0.345245 0.000000
0.000000 0.345062 0.000000
0.000000 0.344238 0.000000
0.000000 0.372162 0.000000
0.190033 0.470703 0.000000
0.389465 0.533112 0.000000
0.557800 0.572113 0.000000
0.690460 0.592590 0.000000
0.782288 0.599487 0.000000
0.853088 0.600006 0.000000
0.898041 0.592957 0.000000
0.930939 0.582184 0.000000
0.950470 0.550812 0.000000
0.949982 0.494263 0.000000
0.935364 0.423218 0.000000
0.920044 0.371613 0.000000
0.909088 0.338470 0.000000
0.898773 0.300842 0.026886
0.883759 0.255768 0.208679
0.862518 0.192627 0.340332
0.833893 0.104797 0.442596
0.790131 0.000000 0.511078
0.723267 0.000000 0.535126
0.731415 0.000000 0.632080
0.804413 0.000000 0.755676
0.835083 0.000000 0.801117
0.858276 0.045166 0.835754
0.000000 0.365295 0.000000
0.000000 0.365234 0.000000
0.000000 0.365082 0.000000
0.000000 0.364960 0.000000
0.000000 0.364777 0.000000
0.000000 0.364624 0.000000
0.000000 0.364502 0.000000
0.000000 0.364349 0.000000
0.000000 0.361816 0.000000
0.018433 0.432007 0.000000
0.276398 0.531860 0.000000
0.474609 0.593079 0.000000
0.643738 0.631622 0.000000
0.757599 0.650208 0.000000
0.843201 0.659637 0.000000
0.902466 0.660278 0.000000
0.942017 0.655243 0.000000
0.974213 0.649445 0.000000
0.987671 0.615143 0.000000
0.982269 0.553680 0.000000
0.966766 0.491547 0.000000
0.954468 0.457031 0.000000
0.943756 0.424561 0.000000
0.931671 0.386169 0.073792
0.915070 0.341858 0.272034
0.890991 0.276855 0.401184
0.862183 0.187469 0.502502
0.827179 0.064819 0.575836
0.760986 0.000000 0.594513
0.735657 0.000000 0.639954
0.833405 0.000000 0.798645
0.857300 0.037903 0.834259
0.000000 0.382965 0.000000
0.000000 0.382935 0.000000
0.000000 0.382874 0.000000
0.000000 0.382812 0.000000
0.000000 0.382721 0.000000
0.000000 0.382660 0.000000
0.000000 0.382538 0.000000
0.000000 0.382416 0.000000
0.000000 0.382263 0.000000
0.000000 0.377472 0.000000
0.101715 0.489136 0.000000
0.362732 0.585266 0.000000
0.562683 0.643860 0.000000
0.715454 0.677429 0.000000
0.817078 0.694794 0.000000
0.893219 0.703247 0.000000
0.941589 0.704010 0.000000
0.978729 0.701538 0.000000
1.000000 0.698456 0.000000
1.000000 0.667480 0.000000
0.998962 0.605621 0.000000
0.993835 0.554840 0.000000
0.983673 0.533752 0.000000
0.974365 0.508484 0.000000
0.961243 0.474182 0.139221
0.941162 0.424530 0.337280
0.917236 0.359192 0.463745
0.889221 0.271271 0.561432
0.855865 0.148865 0.633118
0.798737 0.000000 0.654968
0.743164 0.000000 0.654907
0.856049 0.028961 0.832428
0.000000 0.399750 0.000000
0.000000 0.399689 0.000000
0.000000 0.399658 0.000000
0.000000 0.399597 0.000000
0.000000 0.399567 0.000000
0.000000 0.399475 0.000000
0.000000 0.399414 0.000000
0.000000 0.399323 0.000000
0.000000 0.399200 0.000000
0.000000 0.399048 0.000000
0.000000 0.392059 0.000000
0.178558 0.541046 0.000000
0.447174 0.634064 0.000000
0.647583 0.689117 0.000000
0.779175 0.717438 0.000000
0.871948 0.732574 0.000000
0.934387 0.738800 0.000000
0.976257 0.739349 0.000000
1.000000 0.738495 0.000000
1.000000 0.735748 0.000000
1.000000 0.705627 0.000000
1.000000 0.650909 0.000000
1.000000 0.617676 0.000000
0.999664 0.603455 0.000000
0.998230 0.586456 0.002960
0.985474 0.558258 0.225677
0.964294 0.507599 0.402893
0.940887 0.439575 0.525787
0.914001 0.352631 0.618927
0.881378 0.231293 0.686676
0.837311 0.063110 0.718689
0.765472 0.000000 0.689148
0.000000 0.414581 0.000000
0.000000 0.414551 0.000000
0.000000 0.414520 0.000000
0.000000 0.414520 0.000000
0.000000 0.414459 0.000000
0.000000 0.414429 0.000000
0.000000 0.414368 0.000000
0.000000 0.414307 0.000000
0.000000 0.414215 0.000000
0.000000 0.414124 0.000000
0.000000 0.414001 0.000000
0.000000 0.438995 0.000000
0.273224 0.589935 0.000000
0.533356 0.677216 0.000000
0.720917 0.726593 0.000000
0.837646 0.750732 0.000000
0.918518 0.763611 0.000000
0.968842 0.768433 0.000000
1.000000 0.770447 0.000000
1.000000 0.770264 0.000000
1.000000 0.766571 0.000000
1.000000 0.734161 0.000000
1.000000 0.689209 0.000000
1.000000 0.675598 0.000000
1.000000 0.668884 0.000000
1.000000 0.657379 0.066284
0.999786 0.632050 0.310150
0.984100 0.586792 0.468109
0.962006 0.519897 0.586060
0.936279 0.430939 0.674805
0.906799 0.319946 0.742126
0.866608 0.157990 0.770599
0.000000 0.427246 0.000000
0.000000 0.427246 0.000000
0.000000 0.427216 0.000000
0.000000 0.427216 0.000000
0.000000 0.427185 0.000000
0.000000 0.427155 0.000000
0.000000 0.427124 0.000000
0.000000 0.427094 0.000000
0.000000 0.427032 0.000000
0.000000 0.426971 0.000000
0.000000 0.426910 0.000000
0.000000 0.426819 0.000000
0.000000 0.480621 0.000000
0.362946 0.633484 0.000000
0.618439 0.715057 0.000000
0.783844 0.756744 0.000000
0.888458 0.777039 0.000000
0.954437 0.786865 0.000000
0.996429 0.791260 0.000000
1.000000 0.794373 0.000000
1.000000 0.794800 0.000000
1.000000 0.790833 0.000000
1.000000 0.756958 0.000000
1.000000 0.724396 0.000000
1.000000 0.728088 0.000000
1.000000 0.730133 0.000000
1.000000 0.720367 0.162567
1.000000 0.697205 0.382935
0.997864 0.657898 0.531769
0.980011 0.596710 0.642883
0.958221 0.516296 0.733124
0.930084 0.406372 0.793213
0.000000 0.436920 0.000000
0.000000 0.436890 0.000000
0.000000 0.436890 0.000000
0.000000 0.436859 0.000000
0.000000 0.436859 0.000000
0.000000 0.436829 0.000000
0.000000 0.436798 0.000000
0.000000 0.436798 0.000000
0.000000 0.436737 0.000000
0.000000 0.436707 0.000000
0.000000 0.436646 0.000000
0.000000 0.436584 0.000000
0.000000 0.436493 0.000000
0.073975 0.522034 0.000000
0.449158 0.671387 0.000000
0.695587 0.744904 0.000000
0.838470 0.778717 0.000000
0.928894 0.796021 0.000000
0.983551 0.804413 0.000000
1.000000 0.809540 0.000000
1.000000 0.812744 0.000000
1.000000 0.814026 0.000000
1.000000 0.809845 0.000000
1.000000 0.775360 0.000000
1.000000 0.756073 0.000000
1.000000 0.773499 0.000000
1.000000 0.782745 0.013855
1.000000 0.776306 0.260590
1.000000 0.755829 0.451233
1.000000 0.720245 0.590942
0.995209 0.673126 0.701691
0.977234 0.600159 0.786041
0.000000 0.444672 0.000000
0.000000 0.444672 0.000000
0.000000 0.444641 0.000000
0.000000 0.444641 0.000000
0.000000 0.444641 0.000000
0.000000 0.444611 0.000000
0.000000 0.444611 0.000000
0.000000 0.444580 0.000000
0.000000 0.444550 0.000000
0.000000 0.444550 0.000000
0.000000 0.444519 0.000000
0.000000 0.444458 0.000000
0.000000 0.444427 0.000000
0.000000 0.444366 0.000000
0.144348 0.556183 0.000000
0.530609 0.704346 0.000000
0.760223 0.768463 0.000000
0.885773 0.796509 0.000000
0.960815 0.810364 0.000000
1.000000 0.817810 0.000000
1.000000 0.822388 0.000000
1.000000 0.825195 0.000000
1.000000 0.826324 0.000000
1.000000 0.823425 0.000000
1.000000 0.790924 0.000000
1.000000 0.789276 0.000000
1.000000 0.813202 0.000000
1.000000 0.825073 0.087738
1.000000 0.824402 0.342407
1.000000 0.807800 0.516571
1.000000 0.781769 0.651489
1.000000 0.741943 0.757141
0.000000 0.450653 0.000000
0.000000 0.450653 0.000000
0.000000 0.450623 0.000000
0.000000 0.450623 0.000000
0.000000 0.450623 0.000000
0.000000 0.450623 0.000000
0.000000 0.450623 0.000000
0.000000 0.450592 0.000000
0.000000 0.450592 0.000000
0.000000 0.450562 0.000000
0.000000 0.450562 0.000000
0.000000 0.450531 0.000000
0.000000 0.450500 0.000000
0.000000 0.450470 0.000000
0.000000 0.450409 0.000000
0.200775 0.593842 0.000000
0.609436 0.732971 0.000000
0.814728 0.787048 0.000000
0.925720 0.810272 0.000000
0.987610 0.821899 0.000000
1.000000 0.828156 0.000000
1.000000 0.832489 0.000000
1.000000 0.835022 0.000000
1.000000 0.836212 0.000000
1.000000 0.833099 0.000000
1.000000 0.805084 0.000000
1.000000 0.820099 0.000000
1.000000 0.846954 0.000000
1.000000 0.861603 0.186462
1.000000 0.863434 0.419464
1.000000 0.856384 0.584564
1.000000 0.837311 0.710480
0.000000 0.451263 0.000000
0.000000 0.451263 0.000000
0.000000 0.451263 0.000000
0.000000 0.451263 0.000000
0.000000 0.451263 0.000000
0.000000 0.451263 0.000000
0.000000 0.451263 0.000000
0.000000 0.451263 0.000000
0.000000 0.451263 0.000000
0.000000 0.451263 0.000000
0.000000 0.451263 0.000000
0.000000 0.451263 0.000000
0.000000 0.451263 0.000000
0.000000 0.451263 0.000000
0.000000 0.451263 0.000000
0.000000 0.451263 0.000000
0.273163 0.629486 0.000000
0.682068 0.757324 0.000000
0.863403 0.802490 0.000000
0.957886 0.821960 0.000000
1.000000 0.831757 0.000000
1.000000 0.837128 0.000000
1.000000 0.840576 0.000000
1.000000 0.842651 0.000000
1.000000 0.843414 0.000000
1.000000 0.840210 0.000000
1.000000 0.820068 0.000000
1.000000 0.847778 0.000000
1.000000 0.876984 0.011932
1.000000 0.893341 0.288452
1.000000 0.899841 0.500031
1.000000 0.897339 0.650757
0.000000 0.451263 0.000000
0.000000 0.451263 0.000000
0.000000 0.451263 0.000000
0.000000 0.451263 0.000000
0.000000 0.451263 0.000000
0.000000 0.451263 0.000000
0.000000 0.451263 0.000000
0.000000 0.451263 0.000000
0.000000 0.451263 0.000000
0.000000 0.451263 0.000000
0.000000 0.451263 0.000000
0.000000 0.451263 0.000000
0.000000 0.451263 0.000000
0.000000 0.451263 0.000000
0.000000 0.451263 0.000000
0.000000 0.451263 0.000000
0.000000 0.451263 0.000000
0.364075 0.660706 0.000000
0.744202 0.777161 0.000000
0.906189 0.815613 0.000000
0.984314 0.831360 0.000000
1.000000 0.839539 0.000000
1.000000 0.844513 0.000000
1.000000 0.847260 0.000000
1.000000 0.848785 0.000000
1.000000 0.849518 0.000000
1.000000 0.846497 0.000000
1.000000 0.834290 0.000000
1.000000 0.873535 0.000000
1.000000 0.904083 0.093170
1.000000 0.923370 0.388855
1.000000 0.931976 0.578796
0.000000 0.451263 0.000000
0.000000 0.451263 0.000000
0.000000 0.451263 0.000000
0.000000 0.451263 0.000000
0.000000 0.451263 0.000000
0.000000 0.451263 0.000000
0.000000 0.451263 0.000000
0.000000 0.451263 0.000000
0.000000 0.451263 0.000000
0.000000 0.451263 0.000000
0.000000 0.451263 0.000000
0.000000 0.451263 0.000000
0.000000 0.451263 0.000000
0.000000 0.451263 0.000000
0.000000 0.451263 0.000000
0.000000 0.451263 0.000000
0.000000 0.451263 0.000000
0.000000 0.451263 0.000000
0.436371 0.684906 0.000000
0.797516 0.791382 0.000000
0.940308 0.824249 0.000000
0.999298 0.837799 0.000000
1.000000 0.845917 0.000000
1.000000 0.850281 0.000000
1.000000 0.852631 0.000000
1.000000 0.854004 0.000000
1.000000 0.854614 0.000000
1.000000 0.851440 0.000000
1.000000 0.846588 0.000000
1.000000 0.897400 0.000000
1.000000 0.929810 0.223114
1.000000 0.950256 0.487091
0.000000 0.451263 0.000000
0.000000 0.451263 0.000000
0.000000 0.451263 0.000000
0.000000 0.451263 0.000000
0.000000 0.451263 0.000000
0.000000 0.451263 0.000000
0.000000 0.451263 0.000000
0.000000 0.451263 0.000000
0.000000 0.451263 0.000000
0.000000 0.451263 0.000000
0.000000 0.451263 0.000000
0.000000 0.451263 0.000000
0.000000 0.451263 0.000000
0.000000 0.451263 0.000000
0.000000 0.451263 0.000000
0.000000 0.451263 0.000000
0.000000 0.451263 0.000000
0.000000 0.451263 0.000000
0.000000 0.451263 0.000000
0.505341 0.707367 0.000000
0.845703 0.803101 0.000000
0.968689 0.830200 0.000000
1.000000 0.841705 0.000000
1.000000 0.848480 0.000000
1.000000 0.852203 0.000000
1.000000 0.854523 0.000000
1.000000 0.856262 0.000000
1.000000 0.857483 0.000000
1.000000 0.854584 0.000000
1.000000 0.862732 0.000000
1.000000 0.920288 0.002655
1.000000 0.953247 0.362946
0.000000 0.451263 0.000000
0.000000 0.451263 0.000000
0.000000 0.451263 0.000000
0.000000 0.451263 0.000000
0.000000 0.451263 0.000000
0.000000 0.451263 0.000000
0.000000 0.451263 0.000000
0.000000 0.451263 0.000000
0.000000 0.451263 0.000000
0.000000 0.451263 0.000000
0.000000 0.451263 0.000000
0.000000 0.451263 0.000000
0.000000 0.451263 0.000000
0.000000 0.451263 0.000000
0.000000 0.451263 0.000000
0.000000 0.451263 0.000000
0.000000 0.451263 0.000000
0.000000 0.451263 0.000000
0.000000 0.451263 0.000000
0.000000 0.451263 0.000000
0.575348 0.728333 0.000000
0.888336 0.812927 0.000000
0.991913 0.835052 0.000000
1.000000 0.845245 0.000000
1.000000 0.850647 0.000000
1.000000 0.853638 0.000000
1.000000 0.855682 0.000000
1.000000 0.857056 0.000000
1.000000 0.858185 0.000000
1.000000 0.855988 0.000000
1.000000 0.882629 0.000000
1.000000 0.941589 0.073212
0.000000 0.451263 0.000000
0.000000 0.451263 0.000000
0.000000 0.451263 0.000000
0.000000 0.451263 0.000000
0.000000 0.451263 0.000000
0.000000 0.451263 0.000000
0.000000 0.451263 0.000000
0.000000 0.451263 0.000000
0.000000 0.451263 0.000000
0.000000 0.451263 0.000000
0.000000 0.451263 0.000000
0.000000 0.451263 0.000000
0.000000 0.451263 0.000000
0.000000 0.451263 0.000000
0.000000 0.451263 0.000000
0.000000 0.451263 0.000000
0.000000 0.451263 0.000000
0.000000 0.451263 0.000000
0.000000 0.451263 0.000000
0.000000 0.451263 0.000000
0.000000 0.451263 0.000000
0.641418 0.747620 0.000000
0.924927 0.820984 0.000000
0.998871 0.839264 0.000000
1.000000 0.847931 0.000000
1.000000 0.852264 0.000000
1.000000 0.854797 0.000000
1.000000 0.856537 0.000000
1.000000 0.857758 0.000000
1.000000 0.858307 0.000000
1.000000 0.857056 0.000000
1.000000 0.903198 0.000000
0.000000 0.451263 0.000000
0.000000 0.451263 0.000000
0.000000 0.451263 0.000000
0.000000 0.451263 0.000000
0.000000 0.451263 0.000000
0.000000 0.451263 0.000000
0.000000 0.451263 0.000000
0.000000 0.451263 0.000000
0.000000 0.451263 0.000000
0.000000 0.451263 0.000000
0.000000 0.451263 0.000000
0.000000 0.451263 0.000000
0.000000 0.451263 0.000000
0.000000 0.451263 0.000000
0.000000 0.451263 0.000000
0.000000 0.451263 0.000000
0.000000 0.451263 0.000000
0.000000 0.451263 0.000000
0.000000 0.451263 0.000000
0.000000 0.451263 0.000000
0.000000 0.451263 0.000000
0.000000 0.451263 0.000000
0.699829 0.764374 0.000000
0.955444 0.827332 0.000000
1.000000 0.843231 0.000000
1.000000 0.850220 0.000000
1.000000 0.853699 0.000000
1.000000 0.855835 0.000000
1.000000 0.857269 0.000000
1.000000 0.858307 0.000000
1.000000 0.858307 0.000000
1.000000 0.858154 0.000000
0.000000 0.451263 0.000000
0.000000 0.451263 0.000000
0.000000 0.451263 0.000000
0.000000 0.451263 0.000000
0.000000 0.451263 0.000000
0.000000 0.451263 0.000000
0.000000 0.451263 0.000000
0.000000 0.451263 0.000000
0.000000 0.451263 0.000000
0.000000 0.451263 0.000000
0.000000 0.451263 0.000000
0.000000 0.451263 0.000000
0.000000 0.451263 0.000000
0.000000 0.451263 0.000000
0.000000 0.451263 0.000000
0.000000 0.451263 0.000000
0.000000 0.451263 0.000000
