Postproduction/IWLTBAP - Humble/LUTs by IWLTBAP (3DL)/UTILITY/BMDFilm URSA 4.6K to Rec.709/U-BMDFILM-URSA-46K-V2-LTR.3dl
# Copyright: (C) Copyright 2010-2018 by IWLTBAP SAS
# Cannot be resold, shared or otherwise redistributed
# Website: https://luts.iwltbap.com
0 256 512 768 1023
0 0 0
0 0 1306
0 0 3268
0 0 4095
0 0 4095
135 1267 0
0 1007 619
0 147 3079
0 0 4095
0 0 4095
339 3186 0
333 3126 0
0 2760 2411
0 2046 4095
0 0 4095
499 4095 0
497 4095 0
493 4095 0
0 4095 3968
0 3692 4095
508 4095 0
508 4095 0
508 4095 0
508 4095 0
0 4095 4095
1150 0 0
818 0 1266
244 0 3196
0 0 4095
0 0 4095
940 966 0
669 669 669
0 0 3078
0 0 4095
0 0 4095
332 3115 0
325 3053 0
0 2675 2455
0 1926 4095
0 0 4095
497 4095 0
495 4095 0
491 4095 0
0 4095 3983
0 3657 4095
508 4095 0
508 4095 0
508 4095 0
508 4095 0
0 4095 4095
2944 0 0
2633 0 1249
2252 0 3026
1797 0 4095
1103 0 4095
2873 0 0
2635 0 739
2183 0 2880
1694 0 4095
921 0 4095
2909 2753 0
2870 2683 0
2277 2277 2277
1600 1434 4095
341 0 4095
2004 4095 0
1935 4095 0
1751 4095 0
316 4049 3945
0 3563 4095
508 4095 0
508 4095 0
508 4095 0
456 4095 19
0 4095 4095
4095 0 61
3986 0 1520
3701 0 3009
3408 0 4095
3266 0 4095
4095 0 0
4032 0 1134
3701 0 2873
3389 0 4095
3235 0 4095
4095 1942 0
4095 1827 0
3901 1267 2357
3373 0 4095
3153 0 4095
4095 4095 0
4095 4095 0
4095 4095 0
3644 3644 3644
3280 3027 4095
3685 4095 0
3664 4095 0
3611 4095 0
3295 4095 285
2016 4095 4095
4095 0 1552
3959 0 2307
3772 0 3341
3587 0 4095
3587 0 4095
4095 0 1171
4000 0 2079
3791 0 3233
3587 0 4095
3587 0 4095
4095 0 0
4095 0 1299
3848 0 2922
3593 0 4095
3587 0 4095
4095 3625 0
4095 3591 0
4095 3347 1193
4025 2864 3814
3818 1488 4095
4095 4095 0
4095 4095 0
4095 4095 0
4095 4095 1315
4095 4095 4095
