Postproduction/IWLTBAP - Humble/LUTs by IWLTBAP (3DL)/UTILITY/BMDFilm URSA 4.6K to Rec.709/U-BMDFILM-URSA-46K-V1-LTR.3dl
# Copyright: (C) Copyright 2010-2018 by IWLTBAP SAS
# Cannot be resold, shared or otherwise redistributed
# Website: https://luts.iwltbap.com
0 256 512 768 1023
0 0 0
0 0 1095
0 0 2740
0 0 4028
0 0 4095
0 1087 0
0 910 570
0 338 2601
0 0 3991
0 0 4095
0 2733 0
0 2681 0
0 2544 2163
0 2072 3891
0 0 4095
0 4022 0
0 4008 0
0 3972 0
0 3869 3543
0 3501 4095
0 4095 0
0 4095 0
0 4095 0
0 4095 0
0 4095 4095
1054 0 0
979 0 1165
768 0 2761
12 0 4034
0 0 4095
762 875 0
669 669 669
407 1 2624
0 0 3997
0 0 4095
0 2672 0
0 2619 0
0 2473 2196
0 1969 3897
0 0 4095
0 4005 0
0 3991 0
0 3954 0
0 3850 3554
0 3470 4095
0 4095 0
0 4095 0
0 4095 0
0 4095 0
0 4095 4095
2698 0 0
2676 0 1330
2619 0 2814
2446 0 4049
1819 0 4095
2616 152 0
2592 0 894
2530 0 2682
2344 0 4012
1651 0 4095
2382 2507 0
2352 2445 0
2277 2277 2277
2048 1673 3915
1120 0 4095
1386 3963 0
1325 3948 0
1161 3910 0
564 3799 3579
0 3390 4095
0 4095 0
0 4095 0
0 4095 0
0 4095 244
0 4095 4095
3994 0 474
3988 0 1696
3973 0 2943
3930 0 4087
3801 0 4095
3972 0 0
3966 0 1370
3949 0 2826
3906 0 4052
3772 0 4095
3914 1904 0
3907 1805 0
3889 1524 2472
3842 267 3958
3697 0 4095
3734 3838 0
3727 3821 0
3705 3777 195
3644 3644 3644
3456 3140 4095
2911 4095 0
2893 4095 0
2844 4095 0
2702 4095 753
2189 4095 4095
4095 0 1734
4095 0 2367
4095 0 3234
4095 0 4095
4095 0 4095
4095 0 1415
4095 0 2176
4095 0 3144
4095 0 4095
4095 0 4095
4095 0 34
4095 0 1522
4095 0 2883
4095 0 4068
4095 0 4095
4095 3359 0
4095 3329 0
4095 3252 1615
4095 3015 3799
4095 1859 4095
4095 4095 0
4095 4095 0
4095 4095 0
4095 4095 1764
4095 4095 4095
