Postproduction/IWLTBAP - Humble/LUTs by IWLTBAP (3DL)/UTILITY/BMDFilm URSA 4.6K to Rec.709/U-BMDFILM-URSA-46K-V2-LTR.3dl
# Copyright: (C) Copyright 2010-2018 by IWLTBAP SAS
# Cannot be resold, shared or otherwise redistributed
# Website: https://luts.iwltbap.com
0 128 256 384 512 640 768 896 1023
0 0 0
0 0 134
0 0 1306
0 0 2340
0 0 3268
0 0 4095
0 0 4095
0 0 4095
0 0 4095
13 124 0
0 0 0
0 0 1067
0 0 2214
0 0 3200
0 0 4060
0 0 4095
0 0 4095
0 0 4095
135 1267 0
126 1184 0
0 1007 619
0 676 1976
0 147 3079
0 0 4008
0 0 4095
0 0 4095
0 0 4095
243 2279 0
238 2233 0
231 2169 0
0 1926 1541
0 1622 2817
0 1143 3835
0 94 4095
0 0 4095
0 0 4095
339 3186 0
336 3161 0
333 3126 0
183 3004 619
0 2760 2411
0 2482 3597
0 2046 4095
0 1140 4095
0 0 4095
425 3996 0
424 3983 0
422 3964 0
419 3933 0
94 3740 1545
0 3515 3223
0 3264 4095
0 2904 4095
0 2097 4095
499 4095 0
498 4095 0
497 4095 0
496 4095 0
493 4095 0
4 4095 2420
0 4095 3968
0 3982 4095
0 3692 4095
508 4095 0
508 4095 0
508 4095 0
508 4095 0
508 4095 0
508 4095 0
0 4095 3261
0 4095 4095
0 4095 4095
508 4095 0
508 4095 0
508 4095 0
508 4095 0
508 4095 0
508 4095 0
508 4095 0
0 4095 4035
0 4095 4095
91 0 0
0 0 195
0 0 1342
0 0 2360
0 0 3278
0 0 4095
0 0 4095
0 0 4095
0 0 4095
0 0 0
0 0 0
0 0 1109
0 0 2236
0 0 3212
0 0 4066
0 0 4095
0 0 4095
0 0 4095
124 1167 0
115 1079 0
0 890 677
0 545 2008
0 0 3100
0 0 4014
0 0 4095
0 0 4095
0 0 4095
237 2225 0
232 2178 0
225 2111 0
0 1862 1574
0 1551 2835
0 1052 3847
0 0 4095
0 0 4095
0 0 4095
336 3156 0
333 3131 0
330 3096 0
171 2968 668
0 2725 2430
0 2442 3606
0 1997 4095
0 1052 4095
0 0 4095
424 3980 0
422 3967 0
420 3948 0
417 3916 0
87 3720 1574
0 3496 3234
0 3242 4095
0 2877 4095
0 2048 4095
498 4095 0
498 4095 0
497 4095 0
495 4095 0
492 4095 0
0 4095 2437
0 4095 3974
0 3971 4095
0 3677 4095
508 4095 0
508 4095 0
508 4095 0
508 4095 0
508 4095 0
508 4095 0
0 4095 3270
0 4095 4095
0 4095 4095
508 4095 0
508 4095 0
508 4095 0
508 4095 0
508 4095 0
508 4095 0
508 4095 0
0 4095 4040
0 4095 4095
1150 0 0
1065 0 157
818 0 1266
554 0 2273
244 0 3196
0 0 4045
0 0 4095
0 0 4095
0 0 4095
1024 0 0
986 0 0
724 0 1056
435 0 2167
101 0 3148
0 0 4031
0 0 4095
0 0 4095
0 0 4095
940 966 0
888 872 0
669 669 669
308 309 1978
0 0 3078
0 0 4012
0 0 4095
0 0 4095
0 0 4095
682 2118 0
624 2072 0
542 2007 0
87 1756 1595
0 1448 2859
0 920 3863
0 0 4095
0 0 4095
0 0 4095
332 3115 0
329 3089 0
325 3053 0
155 2919 735
0 2675 2455
0 2387 3620
0 1926 4095
0 924 4095
0 0 4095
421 3958 0
420 3945 0
418 3925 0
414 3892 0
78 3692 1613
0 3469 3249
0 3211 4095
0 2837 4095
0 1979 4095
497 4095 0
496 4095 0
495 4095 0
494 4095 0
491 4095 0
0 4095 2459
0 4095 3983
0 3956 4095
0 3657 4095
508 4095 0
508 4095 0
508 4095 0
508 4095 0
508 4095 0
508 4095 0
0 4095 3282
0 4095 4095
0 4095 4095
508 4095 0
508 4095 0
508 4095 0
508 4095 0
508 4095 0
508 4095 0
508 4095 0
0 4095 4047
0 4095 4095
2095 0 0
2000 0 184
1785 0 1231
1568 0 2197
1333 0 3095
1055 0 3916
686 0 4095
161 0 4095
0 0 4095
2026 0 0
1999 0 0
1754 0 1022
1517 0 2087
1268 0 3038
979 0 3889
590 0 4095
23 0 4095
0 0 4095
2006 620 0
1973 507 0
1763 268 661
1459 0 1912
1174 0 2955
865 0 3853
449 0 4095
0 0 4095
0 0 4095
1964 1899 0
1934 1847 0
1870 1762 0
1501 1501 1501
1163 1164 2721
763 591 3734
185 0 4095
0 0 4095
0 0 4095
1724 2953 0
1692 2928 0
1647 2892 0
1388 2751 694
954 2515 2365
501 2231 3537
0 1774 4095
0 690 4095
0 0 4095
988 3884 0
937 3873 0
864 3857 0
741 3832 0
188 3639 1660
0 3422 3272
0 3161 4095
0 2772 4095
0 1860 4095
495 4095 0
494 4095 0
493 4095 0
492 4095 0
489 4095 0
0 4095 2496
0 4095 3995
0 3930 4095
0 3622 4095
508 4095 0
508 4095 0
508 4095 0
508 4095 0
508 4095 0
508 4095 0
0 4095 3302
0 4095 4095
0 4095 4095
508 4095 0
508 4095 0
508 4095 0
508 4095 0
508 4095 0
508 4095 0
490 4095 0
0 4095 4058
0 4095 4095
2944 0 0
2820 0 293
2633 0 1249
2446 0 2163
2252 0 3026
2041 0 3823
1797 0 4095
1565 0 4095
1103 0 4095
2907 0 0
2846 0 0
2631 0 1052
2428 0 2053
2223 0 2966
2005 0 3792
1755 0 4095
1511 0 4095
1029 0 4095
2873 0 0
2847 0 0
2635 0 739
2403 0 1889
2183 0 2880
1955 0 3749
1694 0 4095
1434 0 4095
921 0 4095
2950 1583 0
2931 1522 0
2840 1404 0
2521 1126 1494
2237 736 2660
1919 16 3647
1588 0 4095
1298 0 4095
725 0 4095
2909 2753 0
2893 2724 0
2870 2683 0
2622 2521 711
2277 2277 2277
1964 1965 3403
1600 1434 4095
1110 98 4095
341 0 4095
2686 3710 0
2668 3696 0
2642 3676 0
2600 3644 0
2170 3431 1526
1767 3213 3078
1352 2956 4095
823 2570 4095
0 1626 4095
2004 4095 0
1976 4095 0
1935 4095 0
1868 4095 0
1751 4095 0
1025 4095 2431
316 4049 3945
0 3886 4095
0 3563 4095
508 4095 0
508 4095 0
508 4095 0
508 4095 0
508 4095 0
508 4095 0
0 4095 3334
0 4095 4095
0 4095 4095
508 4095 0
508 4095 0
508 4095 0
508 4095 0
508 4095 0
508 4095 0
456 4095 19
0 4095 4075
0 4095 4095
3705 0 0
3532 0 500
3373 0 1339
3209 0 2178
3041 0 2994
2868 0 3760
2687 0 4095
2573 0 4095
2373 0 4095
3685 0 0
3565 0 206
3385 0 1161
3208 0 2074
3031 0 2935
2853 0 3728
2667 0 4095
2548 0 4095
2344 0 4095
3657 0 0
3628 0 0
3407 0 883
3208 0 1919
3018 0 2849
2832 0 3683
2640 0 4095
2513 0 4095
2301 0 4095
3741 1010 0
3726 925 0
3577 744 233
3298 413 1581
3033 0 2678
2795 0 3605
2593 0 4095
2453 0 4095
2231 0 4095
3812 2464 0
3802 2429 0
3788 2381 0
3514 2187 841
3217 1929 2272
2956 1566 3345
2670 899 4095
2349 0 4095
2106 0 4095
3775 3528 0
3767 3511 0
3754 3490 0
3733 3453 0
3314 3220 1541
2995 2995 2995
2712 2710 4003
2459 2255 4095
2042 1033 4095
3568 4095 0
3558 4095 0
3545 4095 0
3521 4095 0
3482 4095 0
2894 4031 2303
2526 3838 3722
2206 3638 4095
1772 3315 4095
2888 4095 0
2873 4095 0
2850 4095 0
2815 4095 0
2753 4095 0
2633 4095 0
1789 4095 3161
1160 4095 4095
213 4095 4095
508 4095 0
508 4095 0
508 4095 0
508 4095 0
508 4095 0
508 4095 0
408 4095 284
0 4095 4095
0 4095 4095
4095 0 61
4095 0 825
3986 0 1520
3846 0 2260
3701 0 3009
3553 0 3733
3408 0 4095
3355 0 4095
3266 0 4095
4095 0 0
4095 0 592
4003 0 1368
3853 0 2165
3701 0 2954
3549 0 3701
3400 0 4095
3344 0 4095
3253 0 4095
4095 0 0
4095 0 207
4032 0 1134
3864 0 2025
3701 0 2873
3542 0 3657
3389 0 4095
3328 0 4095
3235 0 4095
4095 0 0
4095 0 0
4095 0 657
3888 0 1765
3703 0 2729
3532 0 3580
3371 0 4095
3300 0 4095
3205 0 4095
4095 1942 0
4095 1895 0
4095 1827 0
4095 1575 1100
3901 1267 2357
3659 761 3365
3373 0 4095
3255 0 4095
3153 0 4095
4095 3267 0
4095 3248 0
4095 3222 0
4095 3172 0
4095 2915 1666
3836 2676 2992
3604 2343 3949
3430 1762 4095
3119 0 4095
4095 4095 0
4095 4095 0
4095 4095 0
4095 4095 0
4095 4095 0
3934 3845 2320
3644 3644 3644
3455 3417 4095
3280 3027 4095
4095 4095 0
4095 4095 0
4095 4095 0
4095 4095 0
4095 4095 0
4095 4095 0
3519 4095 3038
3215 4095 4095
3037 4095 4095
3685 4095 0
3676 4095 0
3664 4095 0
3644 4095 0
3611 4095 0
3555 4095 0
3295 4095 285
2476 4095 3828
2016 4095 4095
4095 0 775
4095 0 1317
4039 0 1859
3928 0 2477
3809 0 3136
3690 0 3798
3587 0 4095
3587 0 4095
3587 0 4095
4095 0 534
4095 0 1144
4062 0 1735
3943 0 2394
3818 0 3085
3695 0 3768
3587 0 4095
3587 0 4095
3587 0 4095
4095 0 137
4095 0 873
4095 0 1549
3965 0 2273
3832 0 3010
3703 0 3725
3588 0 4095
3587 0 4095
3587 0 4095
4095 0 0
4095 0 307
4095 0 1189
4004 0 2054
3855 0 2880
3716 0 3651
3595 0 4095
3587 0 4095
3587 0 4095
4095 565 0
4095 451 0
4095 227 322
4095 0 1586
3899 0 2637
3740 0 3519
3607 0 4095
3587 0 4095
3587 0 4095
4095 2819 0
4095 2792 0
4095 2756 0
4095 2619 255
4095 2376 1956
4071 2088 3115
3871 1621 4006
3716 539 4095
3587 0 4095
4095 4008 0
4095 3998 0
4095 3984 0
4095 3960 0
4095 3839 275
4095 3596 2474
4095 3379 3675
3990 3105 4095
3935 2590 4095
4095 4095 0
4095 4095 0
4095 4095 0
4095 4095 0
4095 4095 0
4095 4095 339
4095 4095 3071
4095 4095 4095
4090 4052 4095
4095 4095 0
4095 4095 0
4095 4095 0
4095 4095 0
4095 4095 0
4095 4095 0
4095 4095 531
4030 4095 3716
3877 4095 4095
4095 0 1552
4030 0 1913
3959 0 2307
3871 0 2791
3772 0 3341
3667 0 3921
3587 0 4095
3587 0 4095
3587 0 4095
4095 0 1403
4051 0 1795
3975 0 2215
3883 0 2724
3780 0 3296
3672 0 3894
3587 0 4095
3587 0 4095
3587 0 4095
4095 0 1171
4084 0 1614
4000 0 2079
3901 0 2629
3791 0 3233
3679 0 3857
3587 0 4095
3587 0 4095
3587 0 4095
4095 0 706
4095 0 1268
4045 0 1825
3932 0 2457
3811 0 3123
3691 0 3791
3587 0 4095
3587 0 4095
3587 0 4095
4095 0 0
4095 0 478
4095 0 1299
3992 0 2120
3848 0 2922
3712 0 3674
3593 0 4095
3587 0 4095
3587 0 4095
4095 1584 0
4095 1522 0
4095 1412 0
4095 1129 1253
4057 739 2436
3828 111 3414
3613 0 4095
3587 0 4095
3587 0 4095
4095 3625 0
4095 3611 0
4095 3591 0
4095 3558 0
4095 3347 1193
4095 3124 2772
4025 2864 3814
3922 2468 4095
3818 1488 4095
4095 4095 0
4095 4095 0
4095 4095 0
4095 4095 0
4095 4095 0
4095 4095 1224
4095 4095 3248
4087 4019 4095
4066 3820 4095
4095 4095 0
4095 4095 0
4095 4095 0
4095 4095 0
4095 4095 0
4095 4095 0
4095 4095 1315
4095 4095 3804
4095 4095 4095
