Postproduction/IWLTBAP - Humble/LUTs by IWLTBAP (3DL)/UTILITY/BMDFilm URSA 4.6K to Rec.709/U-BMDFILM-URSA-46K-V1-LTR.3dl
# Copyright: (C) Copyright 2010-2018 by IWLTBAP SAS
# Cannot be resold, shared or otherwise redistributed
# Website: https://luts.iwltbap.com
0 64 128 192 256 320 384 448 512 576 640 704 768 832 896 960 1023
0 0 0
0 0 0
0 0 112
0 0 619
0 0 1095
0 0 1541
0 0 1962
0 0 2361
0 0 2740
0 0 3098
0 0 3435
0 0 3747
0 0 4028
0 0 4095
0 0 4095
0 0 4095
0 0 4095
0 0 0
0 0 0
0 0 0
0 0 487
0 0 999
0 0 1472
0 0 1911
0 0 2324
0 0 2712
0 0 3077
0 0 3420
0 0 3737
0 0 4020
0 0 4095
0 0 4095
0 0 4095
0 0 4095
0 107 0
0 45 0
0 0 0
0 0 340
0 0 895
0 0 1397
0 0 1857
0 0 2284
0 0 2683
0 0 3056
0 0 3404
0 0 3726
0 0 4012
0 0 4095
0 0 4095
0 0 4095
0 0 4095
0 612 0
0 564 0
0 513 0
0 449 149
0 364 761
0 248 1302
0 90 1789
0 0 2235
0 0 2647
0 0 3030
0 0 3385
0 0 3712
0 0 4003
0 0 4095
0 0 4095
0 0 4095
0 0 4095
0 1087 0
0 1052 0
0 1015 0
0 970 0
0 910 570
0 829 1171
0 718 1697
0 563 2169
0 338 2601
0 13 2996
0 0 3361
0 0 3695
0 0 3991
0 0 4095
0 0 4095
0 0 4095
0 0 4095
0 1533 0
0 1507 0
0 1481 0
0 1448 0
0 1405 282
0 1348 986
0 1271 1570
0 1165 2080
0 1018 2537
0 805 2951
0 476 3328
0 0 3672
0 0 3974
0 0 4095
0 0 4095
0 0 4095
0 0 4095
0 1955 0
0 1935 0
0 1916 0
0 1891 0
0 1860 0
0 1819 704
0 1765 1390
0 1691 1957
0 1591 2451
0 1451 2890
0 1248 3285
0 937 3642
0 402 3954
0 0 4095
0 0 4095
0 0 4095
0 0 4095
0 2354 0
0 2339 0
0 2325 0
0 2307 0
0 2284 0
0 2254 243
0 2215 1116
0 2163 1783
0 2093 2333
0 1997 2808
0 1863 3227
0 1670 3602
0 1374 3926
0 870 4095
0 0 4095
0 0 4095
0 0 4095
0 2733 0
0 2722 0
0 2711 0
0 2698 0
0 2681 0
0 2660 0
0 2631 666
0 2593 1517
0 2544 2163
0 2477 2694
0 2385 3149
0 2257 3548
0 2072 3891
0 1790 4095
0 1311 4095
0 327 4095
0 0 4095
0 3090 0
0 3082 0
0 3075 0
0 3065 0
0 3053 0
0 3037 0
0 3016 0
0 2989 1079
0 2953 1905
0 2906 2531
0 2843 3040
0 2756 3474
0 2634 3842
0 2458 4095
0 2187 4095
0 1731 4095
0 725 4095
0 3427 0
0 3422 0
0 3416 0
0 3409 0
0 3400 0
0 3389 0
0 3373 0
0 3353 227
0 3328 1481
0 3295 2282
0 3250 2884
0 3190 3370
0 3107 3776
0 2992 4095
0 2824 4095
0 2567 4095
0 2132 4095
0 3741 0
0 3737 0
0 3733 0
0 3728 0
0 3722 0
0 3713 0
0 3703 0
0 3689 0
0 3671 622
0 3648 1871
0 3616 2646
0 3575 3222
0 3518 3682
0 3440 4049
0 3331 4095
0 3172 4095
0 2928 4095
0 4022 0
0 4019 0
0 4016 0
0 4012 0
0 4008 0
0 4002 0
0 3994 0
0 3985 0
0 3972 0
0 3955 1037
0 3934 2249
0 3906 2994
0 3869 3543
0 3819 3962
0 3749 4095
0 3649 4095
0 3501 4095
0 4095 0
0 4095 0
0 4095 0
0 4095 0
0 4095 0
0 4095 0
0 4095 0
0 4095 0
0 4095 0
0 4095 0
0 4095 1442
0 4095 2614
0 4095 3327
0 4095 3838
0 4094 4095
0 4028 4095
0 3936 4095
0 4095 0
0 4095 0
0 4095 0
0 4095 0
0 4095 0
0 4095 0
0 4095 0
0 4095 0
0 4095 0
0 4095 0
0 4095 0
0 4095 1834
0 4095 2963
0 4095 3640
0 4095 4095
0 4095 4095
0 4095 4095
0 4095 0
0 4095 0
0 4095 0
0 4095 0
0 4095 0
0 4095 0
0 4095 0
0 4095 0
0 4095 0
0 4095 0
0 4095 0
0 4095 0
0 4095 2213
0 4095 3297
0 4095 3925
0 4095 4095
0 4095 4095
0 4095 0
0 4095 0
0 4095 0
0 4095 0
0 4095 0
0 4095 0
0 4095 0
0 4095 0
0 4095 0
0 4095 0
0 4095 0
0 4095 0
0 4095 0
0 4095 2578
0 4095 3612
0 4095 4095
0 4095 4095
0 0 0
0 0 0
0 0 139
0 0 639
0 0 1110
0 0 1552
0 0 1970
0 0 2368
0 0 2745
0 0 3101
0 0 3438
0 0 3749
0 0 4029
0 0 4095
0 0 4095
0 0 4095
0 0 4095
0 0 0
0 0 0
0 0 0
0 0 509
0 0 1016
0 0 1483
0 0 1920
0 0 2330
0 0 2716
0 0 3080
0 0 3422
0 0 3738
0 0 4022
0 0 4095
0 0 4095
0 0 4095
0 0 4095
0 34 0
0 0 0
0 0 0
0 0 364
0 0 913
0 0 1409
0 0 1866
0 0 2291
0 0 2688
0 0 3059
0 0 3407
0 0 3728
0 0 4014
0 0 4095
0 0 4095
0 0 4095
0 0 4095
0 554 0
0 504 0
0 451 0
0 386 175
0 297 780
0 176 1315
0 18 1799
0 0 2241
0 0 2652
0 0 3034
0 0 3388
0 0 3714
0 0 4004
0 0 4095
0 0 4095
0 0 4095
0 0 4095
0 1045 0
0 1009 0
0 971 0
0 925 0
0 863 592
0 779 1186
0 664 1707
0 503 2177
0 269 2605
0 0 2999
0 0 3363
0 0 3697
0 0 3992
0 0 4095
0 0 4095
0 0 4095
0 0 4095
0 1503 0
0 1476 0
0 1449 0
0 1415 0
0 1371 308
0 1313 1002
0 1233 1581
0 1126 2088
0 974 2543
0 754 2954
0 412 3331
0 0 3674
0 0 3976
0 0 4095
0 0 4095
0 0 4095
0 0 4095
0 1931 0
0 1912 0
0 1892 0
0 1868 0
0 1836 0
0 1794 724
0 1739 1403
0 1663 1966
0 1561 2457
0 1418 2894
0 1210 3288
0 890 3644
0 336 3955
0 0 4095
0 0 4095
0 0 4095
0 0 4095
0 2337 0
0 2323 0
0 2308 0
0 2290 0
0 2267 0
0 2236 269
0 2196 1131
0 2144 1792
0 2072 2338
0 1975 2812
0 1839 3230
0 1642 3604
0 1339 3928
0 820 4095
0 0 4095
0 0 4095
0 0 4095
0 2720 0
0 2710 0
0 2698 0
0 2685 0
0 2669 0
0 2647 0
0 2618 686
0 2580 1528
0 2530 2170
0 2462 2698
0 2369 3152
0 2239 3551
0 2051 3892
0 1764 4095
0 1274 4095
0 275 4095
0 0 4095
0 3081 0
0 3073 0
0 3065 0
0 3056 0
0 3043 0
0 3027 0
0 3006 0
0 2979 1094
0 2943 1914
0 2896 2536
0 2832 3044
0 2743 3476
0 2620 3843
0 2441 4095
0 2168 4095
0 1704 4095
0 674 4095
0 3421 0
0 3415 0
0 3409 0
0 3402 0
0 3393 0
0 3382 0
0 3366 0
0 3347 251
0 3320 1493
0 3287 2289
0 3242 2888
0 3181 3373
0 3098 3777
0 2982 4095
0 2812 4095
0 2553 4095
0 2111 4095
0 3736 0
0 3732 0
0 3728 0
0 3723 0
0 3716 0
0 3709 0
0 3697 0
0 3684 0
0 3666 642
0 3642 1880
0 3611 2651
0 3569 3225
0 3512 3683
0 3433 4051
0 3323 4095
0 3163 4095
0 2917 4095
0 4019 0
0 4015 0
0 4012 0
0 4009 0
0 4004 0
0 3998 0
0 3991 0
0 3981 0
0 3968 0
0 3952 1053
0 3930 2256
0 3902 2998
0 3865 3546
0 3814 3963
0 3744 4095
0 3644 4095
0 3495 4095
0 4095 0
0 4095 0
0 4095 0
0 4095 0
0 4095 0
0 4095 0
0 4095 0
0 4095 0
0 4095 0
0 4095 0
0 4095 1455
0 4095 2619
0 4095 3329
0 4095 3840
0 4091 4095
0 4024 4095
0 3933 4095
0 4095 0
0 4095 0
0 4095 0
0 4095 0
0 4095 0
0 4095 0
0 4095 0
0 4095 0
0 4095 0
0 4095 0
0 4095 0
0 4095 1843
0 4095 2966
0 4095 3643
0 4095 4095
0 4095 4095
0 4095 4095
0 4095 0
0 4095 0
0 4095 0
0 4095 0
0 4095 0
0 4095 0
0 4095 0
0 4095 0
0 4095 0
0 4095 0
0 4095 0
0 4095 0
0 4095 2220
0 4095 3300
0 4095 3926
0 4095 4095
0 4095 4095
0 4095 0
0 4095 0
0 4095 0
0 4095 0
0 4095 0
0 4095 0
0 4095 0
0 4095 0
0 4095 0
0 4095 0
0 4095 0
0 4095 0
0 4095 0
0 4095 2583
0 4095 3614
0 4095 4095
0 4095 4095
83 0 0
56 0 0
30 0 166
1 0 660
0 0 1125
0 0 1563
0 0 1979
0 0 2374
0 0 2749
0 0 3104
0 0 3440
0 0 3751
0 0 4030
0 0 4095
0 0 4095
0 0 4095
0 0 4095
0 0 0
0 0 0
0 0 6
0 0 531
0 0 1032
0 0 1495
0 0 1928
0 0 2337
0 0 2721
0 0 3084
0 0 3425
0 0 3741
0 0 4023
0 0 4095
0 0 4095
0 0 4095
0 0 4095
0 0 0
0 0 0
0 0 0
0 0 389
0 0 930
0 0 1422
0 0 1874
0 0 2297
0 0 2693
0 0 3063
0 0 3409
0 0 3729
0 0 4015
0 0 4095
0 0 4095
0 0 4095
0 0 4095
0 493 0
0 441 0
0 386 0
0 318 202
0 226 798
0 102 1328
0 0 1808
0 0 2248
0 0 2657
0 0 3037
0 0 3390
0 0 3716
0 0 4005
0 0 4095
0 0 4095
0 0 4095
0 0 4095
0 1001 0
0 964 0
0 925 0
0 877 0
0 813 613
0 726 1200
0 608 1717
0 440 2183
0 197 2610
0 0 3003
0 0 3366
0 0 3699
0 0 3993
0 0 4095
0 0 4095
0 0 4095
0 0 4095
0 1471 0
0 1443 0
0 1416 0
0 1381 0
0 1336 333
0 1277 1018
0 1195 1592
0 1083 2096
0 928 2548
0 700 2958
0 345 3334
0 0 3676
0 0 3977
0 0 4095
0 0 4095
0 0 4095
0 0 4095
0 1908 0
0 1888 0
0 1868 0
0 1843 0
0 1811 0
0 1768 743
0 1712 1415
0 1635 1974
0 1531 2463
0 1384 2898
0 1170 3291
0 841 3646
0 268 3956
0 0 4095
0 0 4095
0 0 4095
0 0 4095
0 2320 0
0 2305 0
0 2290 0
0 2272 0
0 2248 0
0 2217 295
0 2177 1146
0 2124 1801
0 2051 2345
0 1952 2816
0 1813 3233
0 1613 3606
0 1303 3930
0 767 4095
0 0 4095
0 0 4095
0 0 4095
0 2707 0
0 2697 0
0 2686 0
0 2673 0
0 2655 0
0 2633 0
0 2603 706
0 2565 1540
0 2515 2177
0 2446 2703
0 2352 3155
0 2221 3552
0 2030 3893
0 1738 4095
0 1236 4095
0 220 4095
0 0 4095
0 3071 0
0 3063 0
0 3056 0
0 3046 0
0 3034 0
0 3017 0
0 2997 0
0 2969 1110
0 2933 1923
0 2884 2542
0 2820 3047
0 2730 3479
0 2606 3845
0 2426 4095
0 2149 4095
0 1676 4095
0 626 4095
0 3414 0
0 3408 0
0 3402 0
0 3395 0
0 3386 0
0 3375 0
0 3359 0
0 3339 274
0 3314 1505
0 3279 2295
0 3234 2892
0 3172 3375
0 3089 3779
0 2971 4095
0 2801 4095
0 2538 4095
0 2090 4095
0 3731 0
0 3728 0
0 3723 0
0 3718 0
0 3711 0
0 3703 0
0 3692 0
0 3678 0
0 3660 663
0 3636 1888
0 3605 2656
0 3563 3228
0 3505 3686
0 3426 4052
0 3315 4095
0 3154 4095
0 2907 4095
0 4015 0
0 4011 0
0 4009 0
0 4005 0
0 4001 0
0 3995 0
0 3987 0
0 3977 0
0 3964 0
0 3948 1070
0 3926 2262
0 3898 3001
0 3861 3548
0 3810 3964
0 3739 4095
0 3638 4095
0 3488 4095
0 4095 0
0 4095 0
0 4095 0
0 4095 0
0 4095 0
0 4095 0
0 4095 0
0 4095 0
0 4095 0
0 4095 0
0 4095 1467
0 4095 2624
0 4095 3332
0 4095 3841
0 4087 4095
0 4020 4095
0 3929 4095
0 4095 0
0 4095 0
0 4095 0
0 4095 0
0 4095 0
0 4095 0
0 4095 0
0 4095 0
0 4095 0
0 4095 0
0 4095 0
0 4095 1852
0 4095 2970
0 4095 3644
0 4095 4095
0 4095 4095
0 4095 4095
0 4095 0
0 4095 0
0 4095 0
0 4095 0
0 4095 0
0 4095 0
0 4095 0
0 4095 0
0 4095 0
0 4095 0
0 4095 0
0 4095 0
0 4095 2227
0 4095 3302
0 4095 3928
0 4095 4095
0 4095 4095
0 4095 0
0 4095 0
0 4095 0
0 4095 0
0 4095 0
0 4095 0
0 4095 0
0 4095 0
0 4095 0
0 4095 0
0 4095 0
0 4095 0
0 4095 0
0 4095 2588
0 4095 3616
0 4095 4095
0 4095 4095
582 0 0
561 0 0
539 0 199
512 0 685
477 0 1143
431 0 1576
370 0 1988
289 0 2382
179 0 2755
34 0 3108
0 0 3443
0 0 3753
0 0 4032
0 0 4095
0 0 4095
0 0 4095
0 0 4095
504 0 0
482 0 0
459 0 36
431 0 557
394 0 1050
345 0 1508
281 0 1939
195 0 2344
83 0 2728
0 0 3088
0 0 3428
0 0 3742
0 0 4024
0 0 4095
0 0 4095
0 0 4095
