Postproduction/IWLTBAP - Humble/LUTs by IWLTBAP (3DL)/UTILITY/BMDFilm URSA 4.6K to Rec.709/U-BMDFILM-URSA-46K-V2-LTR.3dl
# Copyright: (C) Copyright 2010-2018 by IWLTBAP SAS
# Cannot be resold, shared or otherwise redistributed
# Website: https://luts.iwltbap.com
0 64 128 192 256 320 384 448 512 576 640 704 768 832 896 960 1023
0 0 0
0 0 0
0 0 134
0 0 738
0 0 1306
0 0 1838
0 0 2340
0 0 2816
0 0 3268
0 0 3695
0 0 4095
0 0 4095
0 0 4095
0 0 4095
0 0 4095
0 0 4095
0 0 4095
0 0 0
0 0 0
0 0 0
0 0 580
0 0 1192
0 0 1755
0 0 2279
0 0 2772
0 0 3234
0 0 3669
0 0 4079
0 0 4095
0 0 4095
0 0 4095
0 0 4095
0 0 4095
0 0 4095
13 124 0
6 53 0
0 0 0
0 0 406
0 0 1067
0 0 1666
0 0 2214
0 0 2724
0 0 3200
0 0 3645
0 0 4060
0 0 4095
0 0 4095
0 0 4095
0 0 4095
0 0 4095
0 0 4095
76 713 0
70 657 0
64 597 0
24 510 148
0 352 883
0 165 1536
0 0 2127
0 0 2666
0 0 3157
0 0 3613
0 0 4037
0 0 4095
0 0 4095
0 0 4095
0 0 4095
0 0 4095
0 0 4095
135 1267 0
130 1226 0
126 1184 0
120 1131 0
0 1007 619
0 856 1342
0 676 1976
0 451 2550
0 147 3079
0 0 3573
0 0 4008
0 0 4095
0 0 4095
0 0 4095
0 0 4095
0 0 4095
0 0 4095
190 1787 0
187 1757 0
184 1726 0
180 1688 0
114 1611 243
0 1478 1086
0 1332 1788
0 1161 2404
0 946 2958
0 658 3465
0 239 3938
0 0 4095
0 0 4095
0 0 4095
0 0 4095
0 0 4095
0 0 4095
243 2279 0
240 2256 0
238 2233 0
235 2205 0
231 2169 0
74 2053 719
0 1926 1541
0 1786 2222
0 1622 2817
0 1417 3351
0 1143 3835
0 746 4095
0 94 4095
0 0 4095
0 0 4095
0 0 4095
0 0 4095
292 2744 0
290 2727 0
288 2710 0
286 2690 0
283 2663 0
227 2605 140
35 2477 1184
0 2353 1982
0 2218 2643
0 2061 3216
0 1866 3725
0 1605 4095
0 1229 4095
0 625 4095
0 0 4095
0 0 4095
0 0 4095
339 3186 0
338 3173 0
336 3161 0
335 3145 0
333 3126 0
330 3101 0
183 3004 619
0 2880 1636
0 2760 2411
0 2632 3048
0 2482 3597
0 2295 4081
0 2046 4095
0 1698 4095
0 1140 4095
0 0 4095
0 0 4095
383 3602 0
383 3594 0
382 3585 0
380 3574 0
379 3559 0
377 3541 0
374 3516 0
139 3382 1088
0 3262 2076
0 3148 2825
0 3025 3436
0 2883 3959
0 2706 4095
0 2477 4095
0 2161 4095
0 1629 4095
0 456 4095
425 3996 0
425 3989 0
424 3983 0
423 3974 0
422 3964 0
421 3951 0
419 3933 0
367 3888 48
94 3740 1545
0 3625 2502
0 3515 3223
0 3399 3807
0 3264 4095
0 3099 4095
0 2904 4095
0 2604 4095
0 2097 4095
464 4095 0
464 4095 0
463 4095 0
463 4095 0
462 4095 0
461 4095 0
460 4095 0
458 4095 0
322 4095 497
50 4075 1988
0 3965 2915
0 3862 3605
0 3752 4095
0 3626 4095
0 3494 4095
0 3309 4095
0 3025 4095
499 4095 0
499 4095 0
498 4095 0
498 4095 0
497 4095 0
497 4095 0
496 4095 0
495 4095 0
493 4095 0
268 4095 974
4 4095 2420
0 4095 3310
0 4095 3968
0 4076 4095
0 3982 4095
0 3865 4095
0 3692 4095
508 4095 0
508 4095 0
508 4095 0
508 4095 0
508 4095 0
508 4095 0
508 4095 0
508 4095 0
508 4095 0
508 4095 0
198 4095 1448
0 4095 2845
0 4095 3695
0 4095 4095
0 4095 4095
0 4095 4095
0 4095 4095
508 4095 0
508 4095 0
508 4095 0
508 4095 0
508 4095 0
508 4095 0
508 4095 0
508 4095 0
508 4095 0
508 4095 0
508 4095 0
114 4095 1915
0 4095 3261
0 4095 4069
0 4095 4095
0 4095 4095
0 4095 4095
508 4095 0
508 4095 0
508 4095 0
508 4095 0
508 4095 0
508 4095 0
508 4095 0
508 4095 0
508 4095 0
508 4095 0
508 4095 0
508 4095 0
32 4095 2366
0 4095 3659
0 4095 4095
0 4095 4095
0 4095 4095
508 4095 0
508 4095 0
508 4095 0
508 4095 0
508 4095 0
508 4095 0
508 4095 0
508 4095 0
508 4095 0
508 4095 0
508 4095 0
508 4095 0
508 4095 0
0 4095 2802
0 4095 4035
0 4095 4095
0 4095 4095
0 0 0
0 0 0
0 0 166
0 0 762
0 0 1324
0 0 1852
0 0 2350
0 0 2824
0 0 3274
0 0 3699
0 0 4095
0 0 4095
0 0 4095
0 0 4095
0 0 4095
0 0 4095
0 0 4095
0 0 0
0 0 0
0 0 0
0 0 607
0 0 1211
0 0 1769
0 0 2290
0 0 2778
0 0 3240
0 0 3674
0 0 4081
0 0 4095
0 0 4095
0 0 4095
0 0 4095
0 0 4095
0 0 4095
4 40 0
0 0 0
0 0 0
0 0 435
0 0 1089
0 0 1681
0 0 2225
0 0 2732
0 0 3206
0 0 3648
0 0 4064
0 0 4095
0 0 4095
0 0 4095
0 0 4095
0 0 4095
0 0 4095
69 646 0
62 587 0
56 525 0
10 433 184
0 272 911
0 81 1557
0 0 2144
0 0 2673
0 0 3163
0 0 3618
0 0 4041
0 0 4095
0 0 4095
0 0 4095
0 0 4095
0 0 4095
0 0 4095
130 1219 0
125 1176 0
120 1132 0
115 1078 0
0 950 648
0 796 1362
0 612 1992
0 380 2562
0 66 3089
0 0 3577
0 0 4011
0 0 4095
0 0 4095
0 0 4095
0 0 4095
0 0 4095
0 0 4095
186 1752 0
183 1721 0
180 1689 0
176 1650 0
104 1569 276
0 1435 1108
0 1288 1803
0 1114 2416
0 895 2968
0 598 3473
0 164 3946
0 0 4095
0 0 4095
0 0 4095
0 0 4095
0 0 4095
0 0 4095
240 2252 0
237 2229 0
235 2206 0
232 2178 0
228 2140 0
67 2023 744
0 1894 1558
0 1753 2234
0 1587 2827
0 1378 3357
0 1099 3840
0 691 4095
0 17 4095
0 0 4095
0 0 4095
0 0 4095
0 0 4095
290 2724 0
288 2708 0
286 2690 0
284 2669 0
281 2642 0
220 2581 172
29 2453 1203
0 2329 1994
0 2194 2651
0 2036 3222
0 1837 3730
0 1572 4095
0 1188 4095
0 567 4095
0 0 4095
0 0 4095
0 0 4095
338 3171 0
336 3159 0
335 3145 0
333 3131 0
331 3111 0
328 3085 0
177 2987 643
0 2862 1650
0 2743 2420
0 2614 3054
0 2463 3602
0 2274 4086
0 2022 4095
0 1668 4095
0 1097 4095
0 0 4095
0 0 4095
382 3591 0
381 3583 0
380 3574 0
379 3563 0
378 3548 0
376 3529 0
373 3505 0
134 3369 1107
0 3249 2087
0 3135 2832
0 3012 3441
0 2868 3964
0 2690 4095
0 2458 4095
0 2139 4095
0 1598 4095
0 398 4095
425 3988 0
424 3982 0
423 3974 0
422 3967 0
421 3956 0
420 3942 0
418 3924 0
361 3878 76
91 3729 1560
0 3615 2511
0 3505 3229
0 3389 3811
0 3253 4095
0 3087 4095
0 2890 4095
0 2587 4095
0 2072 4095
464 4095 0
463 4095 0
463 4095 0
462 4095 0
461 4095 0
460 4095 0
459 4095 0
457 4095 0
317 4095 522
47 4067 2000
0 3958 2921
0 3855 3608
0 3745 4095
0 3618 4095
0 3486 4095
0 3299 4095
0 3012 4095
499 4095 0
498 4095 0
498 4095 0
498 4095 0
497 4095 0
496 4095 0
495 4095 0
494 4095 0
492 4095 0
264 4095 993
2 4095 2429
0 4095 3315
0 4095 3972
0 4071 4095
0 3977 4095
0 3859 4095
0 3685 4095
508 4095 0
508 4095 0
508 4095 0
508 4095 0
508 4095 0
508 4095 0
508 4095 0
508 4095 0
508 4095 0
508 4095 0
195 4095 1463
0 4095 2851
0 4095 3698
0 4095 4095
0 4095 4095
0 4095 4095
0 4095 4095
508 4095 0
508 4095 0
508 4095 0
508 4095 0
508 4095 0
508 4095 0
508 4095 0
508 4095 0
508 4095 0
508 4095 0
508 4095 0
112 4095 1926
0 4095 3265
0 4095 4072
0 4095 4095
0 4095 4095
0 4095 4095
508 4095 0
508 4095 0
508 4095 0
508 4095 0
508 4095 0
508 4095 0
508 4095 0
508 4095 0
508 4095 0
508 4095 0
508 4095 0
508 4095 0
31 4095 2375
0 4095 3663
0 4095 4095
0 4095 4095
0 4095 4095
508 4095 0
508 4095 0
508 4095 0
508 4095 0
508 4095 0
508 4095 0
508 4095 0
508 4095 0
508 4095 0
508 4095 0
508 4095 0
508 4095 0
508 4095 0
0 4095 2808
0 4095 4038
0 4095 4095
0 4095 4095
91 0 0
61 0 0
0 0 195
0 0 787
0 0 1342
0 0 1864
0 0 2360
0 0 2831
0 0 3278
0 0 3702
0 0 4095
0 0 4095
0 0 4095
0 0 4095
0 0 4095
0 0 4095
0 0 4095
0 0 0
0 0 0
0 0 7
0 0 634
0 0 1230
0 0 1782
0 0 2299
0 0 2787
0 0 3245
0 0 3678
0 0 4085
0 0 4095
0 0 4095
0 0 4095
0 0 4095
0 0 4095
0 0 4095
0 0 0
0 0 0
0 0 0
0 0 464
0 0 1109
0 0 1695
0 0 2236
0 0 2740
0 0 3212
0 0 3653
0 0 4066
0 0 4095
0 0 4095
0 0 4095
0 0 4095
0 0 4095
0 0 4095
61 575 0
55 514 0
48 450 0
0 352 220
0 187 937
0 0 1578
0 0 2156
0 0 2681
0 0 3169
0 0 3623
0 0 4043
0 0 4095
0 0 4095
0 0 4095
0 0 4095
0 0 4095
0 0 4095
124 1167 0
120 1124 0
115 1079 0
109 1023 0
0 890 677
0 733 1383
0 545 2008
0 306 2574
0 0 3100
0 0 3581
0 0 4014
0 0 4095
0 0 4095
0 0 4095
0 0 4095
0 0 4095
0 0 4095
182 1715 0
179 1683 0
176 1651 0
171 1610 0
94 1526 308
0 1392 1129
0 1242 1819
0 1064 2427
0 840 2977
0 535 3481
0 86 3953
0 0 4095
0 0 4095
0 0 4095
0 0 4095
0 0 4095
0 0 4095
237 2225 0
234 2201 0
232 2178 0
229 2149 0
225 2111 0
60 1991 768
0 1862 1574
0 1719 2245
0 1551 2835
0 1338 3364
0 1052 3847
0 634 4095
0 0 4095
0 0 4095
0 0 4095
0 0 4095
0 0 4095
288 2704 0
286 2688 0
284 2669 0
282 2648 0
279 2621 0
212 2557 204
24 2430 1222
0 2305 2007
0 2168 2661
0 2009 3229
0 1807 3735
0 1538 4095
0 1146 4095
0 505 4095
0 0 4095
0 0 4095
0 0 4095
336 3156 0
335 3144 0
333 3131 0
332 3116 0
330 3096 0
327 3070 0
171 2968 668
0 2845 1665
0 2725 2430
0 2595 3061
0 2442 3606
0 2252 4089
0 1997 4095
0 1637 4095
0 1052 4095
0 0 4095
0 0 4095
381 3581 0
380 3571 0
379 3563 0
378 3551 0
376 3537 0
374 3517 0
372 3493 0
130 3356 1126
0 3236 2098
0 3121 2840
0 2998 3447
0 2853 3967
0 2674 4095
0 2440 4095
0 2116 4095
0 1565 4095
0 342 4095
424 3980 0
423 3973 0
422 3967 0
421 3958 0
420 3948 0
419 3934 0
417 3916 0
356 3867 104
87 3720 1574
0 3605 2519
0 3496 3234
0 3378 3815
0 3242 4095
0 3075 4095
0 2877 4095
0 2570 4095
0 2048 4095
463 4095 0
463 4095 0
462 4095 0
461 4095 0
461 4095 0
460 4095 0
458 4095 0
457 4095 0
312 4095 547
45 4060 2010
0 3951 2927
0 3847 3613
0 3737 4095
0 3610 4095
0 3477 4095
0 3288 4095
0 3000 4095
498 4095 0
498 4095 0
498 4095 0
497 4095 0
497 4095 0
496 4095 0
495 4095 0
494 4095 0
492 4095 0
260 4095 1013
0 4095 2437
0 4095 3320
0 4095 3974
0 4066 4095
0 3971 4095
0 3853 4095
0 3677 4095
508 4095 0
508 4095 0
508 4095 0
508 4095 0
508 4095 0
508 4095 0
508 4095 0
508 4095 0
508 4095 0
508 4095 0
192 4095 1478
0 4095 2857
0 4095 3701
0 4095 4095
0 4095 4095
0 4095 4095
0 4095 4095
508 4095 0
508 4095 0
508 4095 0
508 4095 0
508 4095 0
508 4095 0
508 4095 0
508 4095 0
508 4095 0
508 4095 0
508 4095 0
110 4095 1937
0 4095 3270
0 4095 4074
0 4095 4095
0 4095 4095
0 4095 4095
508 4095 0
508 4095 0
508 4095 0
508 4095 0
508 4095 0
508 4095 0
508 4095 0
508 4095 0
508 4095 0
508 4095 0
508 4095 0
508 4095 0
29 4095 2383
0 4095 3665
0 4095 4095
0 4095 4095
0 4095 4095
508 4095 0
508 4095 0
508 4095 0
508 4095 0
508 4095 0
508 4095 0
508 4095 0
508 4095 0
508 4095 0
508 4095 0
508 4095 0
508 4095 0
508 4095 0
0 4095 2815
0 4095 4040
0 4095 4095
0 4095 4095
635 0 0
612 0 0
545 0 169
412 0 752
274 0 1303
131 0 1826
0 0 2325
0 0 2804
0 0 3263
0 0 3703
0 0 4095
0 0 4095
0 0 4095
0 0 4095
0 0 4095
0 0 4095
0 0 4095
550 0 0
525 0 0
493 0 0
350 0 611
204 0 1203
52 0 1755
0 0 2277
0 0 2771
0 0 3243
0 0 3683
0 0 4088
0 0 4095
0 0 4095
0 0 4095
0 0 4095
0 0 4095
