Postproduction/IWLTBAP - Humble/LUTs by IWLTBAP (3DL)/UTILITY/BMDFilm URSA 4.6K to Rec.709/U-BMDFILM-URSA-46K-V1-LTR.3dl
# Copyright: (C) Copyright 2010-2018 by IWLTBAP SAS
# Cannot be resold, shared or otherwise redistributed
# Website: https://luts.iwltbap.com
0 128 256 384 512 640 768 896 1023
0 0 0
0 0 112
0 0 1095
0 0 1962
0 0 2740
0 0 3435
0 0 4028
0 0 4095
0 0 4095
0 107 0
0 0 0
0 0 895
0 0 1857
0 0 2683
0 0 3404
0 0 4012
0 0 4095
0 0 4095
0 1087 0
0 1015 0
0 910 570
0 718 1697
0 338 2601
0 0 3361
0 0 3991
0 0 4095
0 0 4095
0 1955 0
0 1916 0
0 1860 0
0 1765 1390
0 1591 2451
0 1248 3285
0 402 3954
0 0 4095
0 0 4095
0 2733 0
0 2711 0
0 2681 0
0 2631 666
0 2544 2163
0 2385 3149
0 2072 3891
0 1311 4095
0 0 4095
0 3427 0
0 3416 0
0 3400 0
0 3373 0
0 3328 1481
0 3250 2884
0 3107 3776
0 2824 4095
0 2132 4095
0 4022 0
0 4016 0
0 4008 0
0 3994 0
0 3972 0
0 3934 2249
0 3869 3543
0 3749 4095
0 3501 4095
0 4095 0
0 4095 0
0 4095 0
0 4095 0
0 4095 0
0 4095 0
0 4095 2963
0 4095 4095
0 4095 4095
0 4095 0
0 4095 0
0 4095 0
0 4095 0
0 4095 0
0 4095 0
0 4095 0
0 4095 3612
0 4095 4095
83 0 0
30 0 166
0 0 1125
0 0 1979
0 0 2749
0 0 3440
0 0 4030
0 0 4095
0 0 4095
0 0 0
0 0 0
0 0 930
0 0 1874
0 0 2693
0 0 3409
0 0 4015
0 0 4095
0 0 4095
0 1001 0
0 925 0
0 813 613
0 608 1717
0 197 2610
0 0 3366
0 0 3993
0 0 4095
0 0 4095
0 1908 0
0 1868 0
0 1811 0
0 1712 1415
0 1531 2463
0 1170 3291
0 268 3956
0 0 4095
0 0 4095
0 2707 0
0 2686 0
0 2655 0
0 2603 706
0 2515 2177
0 2352 3155
0 2030 3893
0 1236 4095
0 0 4095
0 3414 0
0 3402 0
0 3386 0
0 3359 0
0 3314 1505
0 3234 2892
0 3089 3779
0 2801 4095
0 2090 4095
0 4015 0
0 4009 0
0 4001 0
0 3987 0
0 3964 0
0 3926 2262
0 3861 3548
0 3739 4095
0 3488 4095
0 4095 0
0 4095 0
0 4095 0
0 4095 0
0 4095 0
0 4095 0
0 4095 2970
0 4095 4095
0 4095 4095
0 4095 0
0 4095 0
0 4095 0
0 4095 0
0 4095 0
0 4095 0
0 4095 0
0 4095 3616
0 4095 4095
1054 0 0
1024 0 240
979 0 1165
902 0 2001
768 0 2761
517 0 3446
12 0 4034
0 0 4095
0 0 4095
938 0 0
904 0 0
856 0 976
773 0 1899
626 0 2706
348 0 3416
0 0 4019
0 0 4095
0 0 4095
762 875 0
724 792 0
669 669 669
575 442 1744
407 1 2624
90 0 3373
0 0 3997
0 0 4095
0 0 4095
415 1842 0
367 1800 0
299 1739 0
180 1635 1448
0 1443 2478
0 1058 3298
0 87 3960
0 0 4095
0 0 4095
0 2672 0
0 2649 0
0 2619 0
0 2565 759
0 2473 2196
0 2305 3164
0 1969 3897
0 1126 4095
0 0 4095
0 3395 0
0 3384 0
0 3366 0
0 3339 0
0 3292 1536
0 3212 2903
0 3063 3784
0 2767 4095
0 2031 4095
0 4005 0
0 4000 0
0 3991 0
0 3977 0
0 3954 0
0 3916 2280
0 3850 3554
0 3727 4095
0 3470 4095
0 4095 0
0 4095 0
0 4095 0
0 4095 0
0 4095 0
0 4095 0
0 4095 2981
0 4095 4095
0 4095 4095
0 4095 0
0 4095 0
0 4095 0
0 4095 0
0 4095 0
0 4095 0
0 4095 0
0 4095 3622
0 4095 4095
1920 0 0
1903 0 356
1879 0 1231
1839 0 2037
1770 0 2782
1649 0 3458
1425 0 4039
955 0 4095
0 0 4095
1857 0 0
1839 0 35
1814 0 1049
1773 0 1937
1700 0 2727
1573 0 3427
1334 0 4024
829 0 4095
0 0 4095
1766 639 0
1747 541 0
1720 396 758
1675 125 1787
1597 0 2647
1460 0 3385
1200 0 4003
635 0 4095
0 0 4095
1604 1727 0
1582 1681 0
1552 1615 112
1501 1501 1501
1413 1288 2503
1256 853 3311
952 0 3967
260 0 4095
0 0 4095
1283 2611 0
1257 2588 0
1219 2555 0
1154 2499 843
1041 2402 2227
833 2223 3178
412 1864 3903
0 926 4095
0 0 4095
523 3363 0
477 3351 0
413 3334 0
303 3305 0
115 3258 1586
0 3173 2921
0 3020 3791
0 2711 4095
0 1929 4095
0 3990 0
0 3983 0
0 3974 0
0 3961 0
0 3938 0
0 3898 2310
0 3831 3564
0 3704 4095
0 3440 4095
0 4095 0
0 4095 0
0 4095 0
0 4095 0
0 4095 0
0 4095 0
0 4095 2998
0 4095 4095
0 4095 4095
0 4095 0
0 4095 0
0 4095 0
0 4095 0
0 4095 0
0 4095 0
0 4095 85
0 4095 3631
0 4095 4095
2698 0 0
2689 0 530
2676 0 1330
2655 0 2094
2619 0 2814
2556 0 3476
2446 0 4049
2242 0 4095
1819 0 4095
2665 0 0
2655 0 235
2641 0 1162
2619 0 1998
2582 0 2760
2517 0 3445
2404 0 4034
2193 0 4095
1751 0 4095
2616 152 0
2606 29 0
2592 0 894
2568 0 1855
2530 0 2682
2463 0 3404
2344 0 4012
2122 0 4095
1651 0 4095
2531 1512 0
2521 1459 0
2506 1382 309
2481 1246 1584
2440 987 2543
2367 429 3332
2239 0 3976
1997 0 4095
1472 0 4095
2382 2507 0
2369 2481 0
2352 2445 0
2324 2383 975
2277 2277 2277
2195 2079 3201
2048 1673 3915
1766 525 4095
1120 0 4095
2085 3309 0
2071 3296 0
2049 3278 0
2014 3248 0
1954 3197 1664
1848 3109 2949
1654 2946 3803
1264 2615 4095
251 1743 4095
1386 3963 0
1361 3956 0
1325 3948 0
1265 3934 0
1161 3910 0
964 3869 2356
564 3799 3579
0 3667 4095
0 3390 4095
0 4095 0
0 4095 0
0 4095 0
0 4095 0
0 4095 0
0 4095 0
0 4095 3024
0 4095 4095
0 4095 4095
0 4095 0
0 4095 0
0 4095 0
0 4095 0
0 4095 0
0 4095 0
0 4095 244
0 4095 3645
0 4095 4095
3396 0 0
3390 0 778
3384 0 1480
3372 0 2183
3352 0 2864
3320 0 3504
3264 0 4064
3166 0 4095
2983 0 4095
3377 0 0
3372 0 529
3365 0 1329
3353 0 2093
3333 0 2813
3300 0 3475
3243 0 4048
3143 0 4095
2956 0 4095
3351 0 0
3346 0 105
3338 0 1093
3327 0 1961
3306 0 2739
3273 0 3434
3214 0 4028
3111 0 4095
2917 0 4095
3307 1068 0
3302 995 0
3294 887 593
3281 693 1711
3260 300 2606
3225 0 3364
3163 0 3992
3056 0 4095
2852 0 4095
3231 2310 0
3225 2280 0
3217 2238 0
3204 2165 1164
3181 2040 2355
3143 1798 3237
3077 1278 3931
2960 0 4095
2737 0 4095
3095 3214 0
3088 3200 0
3079 3181 0
3063 3148 0
3038 3092 1786
2995 2995 2995
2920 2813 3822
2784 2437 4095
2523 1373 4095
2825 3917 0
2817 3911 0
2805 3902 0
2785 3887 0
2752 3861 0
2697 3819 2429
2600 3744 3605
2420 3601 4095
2056 3302 4095
2181 4095 0
2167 4095 0
2147 4095 0
2114 4095 0
2057 4095 0
1961 4095 68
1779 4095 3067
1405 4095 4095
537 4095 4095
0 4095 0
0 4095 0
0 4095 0
0 4095 0
0 4095 0
0 4095 0
0 4095 466
0 4095 3670
0 4095 4095
3994 0 474
3992 0 1114
3988 0 1696
3982 0 2316
3973 0 2943
3956 0 3548
3930 0 4087
3883 0 4095
3801 0 4095
3985 0 166
3982 0 917
3978 0 1568
3973 0 2236
3963 0 2895
3947 0 3521
3919 0 4073
3873 0 4095
3789 0 4095
3972 0 0
3969 0 593
3966 0 1370
3959 0 2117
3949 0 2826
3933 0 3482
3906 0 4052
3858 0 4095
3772 0 4095
3950 0 0
3948 0 0
3944 0 968
3937 0 1896
3927 0 2704
3911 0 3415
3882 0 4018
3832 0 4095
3745 0 4095
3914 1904 0
3911 1863 0
3907 1805 0
3900 1705 1430
3889 1524 2472
3872 1157 3295
3842 267 3958
3790 0 4095
3697 0 4095
3850 3037 0
3847 3020 0
3842 2997 0
3836 2959 48
3824 2892 1963
3805 2776 3066
3773 2553 3853
3716 2071 4095
3613 464 4095
3734 3838 0
3731 3831 0
3727 3821 0
3718 3805 0
3705 3777 195
3682 3729 2543
3644 3644 3644
3578 3482 4095
3456 3140 4095
3496 4095 0
3491 4095 0
3485 4095 0
3474 4095 0
3457 4095 0
3427 4095 435
3377 4095 3133
3288 4095 4095
3125 4095 4095
2911 4095 0
2904 4095 0
2893 4095 0
2874 4095 0
2844 4095 0
2792 4095 0
2702 4095 753
2535 4095 3706
2189 4095 4095
4095 0 1083
4095 0 1537
4095 0 1991
4095 0 2510
4095 0 3062
4095 0 3617
4095 0 4095
4095 0 4095
4095 0 4095
4095 0 881
4095 0 1392
4095 0 1888
4095 0 2440
4095 0 3020
4095 0 3593
4095 0 4095
4095 0 4095
4095 0 4095
4095 0 548
4095 0 1165
4095 0 1732
4095 0 2339
4095 0 2957
4095 0 3556
4095 0 4092
4095 0 4095
4095 0 4095
4095 0 0
4095 0 691
4095 0 1430
4095 0 2155
4095 0 2848
4095 0 3494
4095 0 4058
4095 0 4095
4095 0 4095
4095 734 0
4095 636 0
4095 503 731
4095 294 1780
4095 0 2644
4095 0 3384
4095 0 4001
4095 0 4095
4095 0 4095
4095 2667 0
4095 2644 0
4095 2613 0
4095 2560 789
4095 2467 2211
4095 2299 3173
4095 1957 3901
4095 1045 4095
4095 0 4095
4095 3687 0
4095 3678 0
4095 3667 0
4095 3646 0
4095 3612 865
4095 3554 2706
4095 3449 3707
4095 3246 4095
4095 2804 4095
4095 4095 0
4095 4095 0
4095 4095 0
4095 4095 0
4095 4095 0
4095 4095 946
4095 4095 3236
4095 4095 4095
4095 4058 4095
4072 4095 0
4070 4095 0
4067 4095 0
4061 4095 0
4052 4095 0
4037 4095 0
4012 4095 1098
3970 4095 3764
3896 4095 4095
4095 0 1734
4095 0 2037
4095 0 2367
4095 0 2773
4095 0 3234
4095 0 3720
4095 0 4095
4095 0 4095
4095 0 4095
4095 0 1609
4095 0 1938
4095 0 2290
4095 0 2717
4095 0 3197
4095 0 3698
4095 0 4095
4095 0 4095
4095 0 4095
4095 0 1415
4095 0 1787
4095 0 2176
4095 0 2637
4095 0 3144
4095 0 3667
4095 0 4095
4095 0 4095
4095 0 4095
4095 0 1025
4095 0 1496
4095 0 1963
4095 0 2493
4095 0 3052
4095 0 3612
4095 0 4095
4095 0 4095
4095 0 4095
4095 0 34
4095 0 834
4095 0 1522
4095 0 2211
4095 0 2883
4095 0 3514
4095 0 4068
4095 0 4095
4095 0 4095
4095 1608 0
4095 1554 0
4095 1479 222
4095 1345 1559
4095 1090 2536
4095 615 3329
4095 0 3974
4095 0 4095
4095 0 4095
4095 3359 0
4095 3347 0
4095 3329 0
4095 3301 0
4095 3252 1615
4095 3167 2934
4095 3015 3799
4095 2700 4095
4095 1859 4095
4095 4095 0
4095 4095 0
4095 4095 0
4095 4095 0
4095 4095 0
4095 4095 1688
4095 4095 3385
4095 4030 4095
4095 3859 4095
4095 4095 0
4095 4095 0
4095 4095 0
4095 4095 0
4095 4095 0
4095 4095 0
4095 4095 1764
4095 4095 3851
4095 4095 4095
