Postproduction/IWLTBAP - Humble/LUTs by IWLTBAP (3DL)/UTILITY/Canon C-Log to Rec.709/U-CANON-C-LOG-V5-LTR.3dl
# Copyright: (C) Copyright 2010-2018 by IWLTBAP SAS
# Cannot be resold, shared or otherwise redistributed
# Website: https://luts.iwltbap.com
0 64 128 192 256 320 384 448 512 576 640 704 768 832 896 960 1023
270 270 270
270 270 276
270 270 489
270 270 914
270 270 1278
270 270 1614
270 270 1945
270 270 2249
270 270 2511
270 270 2745
270 270 2954
270 270 3136
270 270 3297
270 270 3434
270 270 3552
270 270 3654
270 270 3749
270 276 270
270 276 276
270 276 489
270 276 914
270 276 1278
270 276 1614
270 276 1945
270 276 2249
270 276 2511
270 276 2745
270 276 2954
270 276 3136
270 276 3297
270 276 3434
270 276 3552
270 276 3654
270 276 3749
270 489 270
270 489 276
270 489 489
270 489 914
270 489 1278
270 489 1614
270 489 1945
270 489 2249
270 489 2511
270 489 2745
270 489 2954
270 489 3136
270 489 3297
270 489 3434
270 489 3552
270 489 3654
270 489 3749
270 914 270
270 914 276
270 914 489
270 914 914
270 914 1278
270 914 1614
270 914 1945
270 914 2249
270 914 2511
270 914 2745
270 914 2954
270 914 3136
270 914 3297
270 914 3434
270 914 3552
270 914 3654
270 914 3749
270 1278 270
270 1278 276
270 1278 489
270 1278 914
270 1278 1278
270 1278 1614
270 1278 1945
270 1278 2249
270 1278 2511
270 1278 2745
270 1278 2954
270 1278 3136
270 1278 3297
270 1278 3434
270 1278 3552
270 1278 3654
270 1278 3749
270 1614 270
270 1614 276
270 1614 489
270 1614 914
270 1614 1278
270 1614 1614
270 1614 1945
270 1614 2249
270 1614 2511
270 1614 2745
270 1614 2954
270 1614 3136
270 1614 3297
270 1614 3434
270 1614 3552
270 1614 3654
270 1614 3749
270 1945 270
270 1945 276
270 1945 489
270 1945 914
270 1945 1278
270 1945 1614
270 1945 1945
270 1945 2249
270 1945 2511
270 1945 2745
270 1945 2954
270 1945 3136
270 1945 3297
270 1945 3434
270 1945 3552
270 1945 3654
270 1945 3749
270 2249 270
270 2249 276
270 2249 489
270 2249 914
270 2249 1278
270 2249 1614
270 2249 1945
270 2249 2249
270 2249 2511
270 2249 2745
270 2249 2954
270 2249 3136
270 2249 3297
270 2249 3434
270 2249 3552
270 2249 3654
270 2249 3749
270 2511 270
270 2511 276
270 2511 489
270 2511 914
270 2511 1278
270 2511 1614
270 2511 1945
270 2511 2249
270 2511 2511
270 2511 2745
270 2511 2954
270 2511 3136
270 2511 3297
270 2511 3434
270 2511 3552
270 2511 3654
270 2511 3749
270 2745 270
270 2745 276
270 2745 489
270 2745 914
270 2745 1278
270 2745 1614
270 2745 1945
270 2745 2249
270 2745 2511
270 2745 2745
270 2745 2954
270 2745 3136
270 2745 3297
270 2745 3434
270 2745 3552
270 2745 3654
270 2745 3749
270 2954 270
270 2954 276
270 2954 489
270 2954 914
270 2954 1278
270 2954 1614
270 2954 1945
270 2954 2249
270 2954 2511
270 2954 2745
270 2954 2954
270 2954 3136
270 2954 3297
270 2954 3434
270 2954 3552
270 2954 3654
270 2954 3749
270 3136 270
270 3136 276
270 3136 489
270 3136 914
270 3136 1278
270 3136 1614
270 3136 1945
270 3136 2249
270 3136 2511
270 3136 2745
270 3136 2954
270 3136 3136
270 3136 3297
270 3136 3434
270 3136 3552
270 3136 3654
270 3136 3749
270 3297 270
270 3297 276
270 3297 489
270 3297 914
270 3297 1278
270 3297 1614
270 3297 1945
270 3297 2249
270 3297 2511
270 3297 2745
270 3297 2954
270 3297 3136
270 3297 3297
270 3297 3434
270 3297 3552
270 3297 3654
270 3297 3749
270 3434 270
270 3434 276
270 3434 489
270 3434 914
270 3434 1278
270 3434 1614
270 3434 1945
270 3434 2249
270 3434 2511
270 3434 2745
270 3434 2954
270 3434 3136
270 3434 3297
270 3434 3434
270 3434 3552
270 3434 3654
270 3434 3749
270 3552 270
270 3552 276
270 3552 489
270 3552 914
270 3552 1278
270 3552 1614
270 3552 1945
270 3552 2249
270 3552 2511
270 3552 2745
270 3552 2954
270 3552 3136
270 3552 3297
270 3552 3434
270 3552 3552
270 3552 3654
270 3552 3749
270 3654 270
270 3654 276
270 3654 489
270 3654 914
270 3654 1278
270 3654 1614
270 3654 1945
270 3654 2249
270 3654 2511
270 3654 2745
270 3654 2954
270 3654 3136
270 3654 3297
270 3654 3434
270 3654 3552
270 3654 3654
270 3654 3749
270 3749 270
270 3749 276
270 3749 489
270 3749 914
270 3749 1278
270 3749 1614
270 3749 1945
270 3749 2249
270 3749 2511
270 3749 2745
270 3749 2954
270 3749 3136
270 3749 3297
270 3749 3434
270 3749 3552
270 3749 3654
270 3749 3749
276 270 270
276 270 276
276 270 489
276 270 914
276 270 1278
276 270 1614
276 270 1945
276 270 2249
276 270 2511
276 270 2745
276 270 2954
276 270 3136
276 270 3297
276 270 3434
276 270 3552
276 270 3654
276 270 3749
276 276 270
276 276 276
276 276 489
276 276 914
276 276 1278
276 276 1614
276 276 1945
276 276 2249
276 276 2511
276 276 2745
276 276 2954
276 276 3136
276 276 3297
276 276 3434
276 276 3552
276 276 3654
276 276 3749
276 489 270
276 489 276
276 489 489
276 489 914
276 489 1278
276 489 1614
276 489 1945
276 489 2249
276 489 2511
276 489 2745
276 489 2954
276 489 3136
276 489 3297
276 489 3434
276 489 3552
276 489 3654
276 489 3749
276 914 270
276 914 276
276 914 489
276 914 914
276 914 1278
276 914 1614
276 914 1945
276 914 2249
276 914 2511
276 914 2745
276 914 2954
276 914 3136
276 914 3297
276 914 3434
276 914 3552
276 914 3654
276 914 3749
276 1278 270
276 1278 276
276 1278 489
276 1278 914
276 1278 1278
276 1278 1614
276 1278 1945
276 1278 2249
276 1278 2511
276 1278 2745
276 1278 2954
276 1278 3136
276 1278 3297
276 1278 3434
276 1278 3552
276 1278 3654
276 1278 3749
276 1614 270
276 1614 276
276 1614 489
276 1614 914
276 1614 1278
276 1614 1614
276 1614 1945
276 1614 2249
276 1614 2511
276 1614 2745
276 1614 2954
276 1614 3136
276 1614 3297
276 1614 3434
276 1614 3552
276 1614 3654
276 1614 3749
276 1945 270
276 1945 276
276 1945 489
276 1945 914
276 1945 1278
276 1945 1614
276 1945 1945
276 1945 2249
276 1945 2511
276 1945 2745
276 1945 2954
276 1945 3136
276 1945 3297
276 1945 3434
276 1945 3552
276 1945 3654
276 1945 3749
276 2249 270
276 2249 276
276 2249 489
276 2249 914
276 2249 1278
276 2249 1614
276 2249 1945
276 2249 2249
276 2249 2511
276 2249 2745
276 2249 2954
276 2249 3136
276 2249 3297
276 2249 3434
276 2249 3552
276 2249 3654
276 2249 3749
276 2511 270
276 2511 276
276 2511 489
276 2511 914
276 2511 1278
276 2511 1614
276 2511 1945
276 2511 2249
276 2511 2511
276 2511 2745
276 2511 2954
276 2511 3136
276 2511 3297
276 2511 3434
276 2511 3552
276 2511 3654
276 2511 3749
276 2745 270
276 2745 276
276 2745 489
276 2745 914
276 2745 1278
276 2745 1614
276 2745 1945
276 2745 2249
276 2745 2511
276 2745 2745
276 2745 2954
276 2745 3136
276 2745 3297
276 2745 3434
276 2745 3552
276 2745 3654
276 2745 3749
276 2954 270
276 2954 276
276 2954 489
276 2954 914
276 2954 1278
276 2954 1614
276 2954 1945
276 2954 2249
276 2954 2511
276 2954 2745
276 2954 2954
276 2954 3136
276 2954 3297
276 2954 3434
276 2954 3552
276 2954 3654
276 2954 3749
276 3136 270
276 3136 276
276 3136 489
276 3136 914
276 3136 1278
276 3136 1614
276 3136 1945
276 3136 2249
276 3136 2511
276 3136 2745
276 3136 2954
276 3136 3136
276 3136 3297
276 3136 3434
276 3136 3552
276 3136 3654
276 3136 3749
276 3297 270
276 3297 276
276 3297 489
276 3297 914
276 3297 1278
276 3297 1614
276 3297 1945
276 3297 2249
276 3297 2511
276 3297 2745
276 3297 2954
276 3297 3136
276 3297 3297
276 3297 3434
276 3297 3552
276 3297 3654
276 3297 3749
276 3434 270
276 3434 276
276 3434 489
276 3434 914
276 3434 1278
276 3434 1614
276 3434 1945
276 3434 2249
276 3434 2511
276 3434 2745
276 3434 2954
276 3434 3136
276 3434 3297
276 3434 3434
276 3434 3552
276 3434 3654
276 3434 3749
276 3552 270
276 3552 276
276 3552 489
276 3552 914
276 3552 1278
276 3552 1614
276 3552 1945
276 3552 2249
276 3552 2511
276 3552 2745
276 3552 2954
276 3552 3136
276 3552 3297
276 3552 3434
276 3552 3552
276 3552 3654
276 3552 3749
276 3654 270
276 3654 276
276 3654 489
276 3654 914
276 3654 1278
276 3654 1614
276 3654 1945
276 3654 2249
276 3654 2511
276 3654 2745
276 3654 2954
276 3654 3136
276 3654 3297
276 3654 3434
276 3654 3552
276 3654 3654
276 3654 3749
276 3749 270
276 3749 276
276 3749 489
276 3749 914
276 3749 1278
276 3749 1614
276 3749 1945
276 3749 2249
276 3749 2511
276 3749 2745
276 3749 2954
276 3749 3136
276 3749 3297
276 3749 3434
276 3749 3552
276 3749 3654
276 3749 3749
489 270 270
489 270 276
489 270 489
489 270 914
489 270 1278
489 270 1614
489 270 1945
489 270 2249
489 270 2511
489 270 2745
489 270 2954
489 270 3136
489 270 3297
489 270 3434
489 270 3552
489 270 3654
489 270 3749
489 276 270
489 276 276
489 276 489
489 276 914
489 276 1278
489 276 1614
489 276 1945
489 276 2249
489 276 2511
489 276 2745
489 276 2954
489 276 3136
489 276 3297
489 276 3434
489 276 3552
489 276 3654
489 276 3749
489 489 270
489 489 276
489 489 489
489 489 914
489 489 1278
489 489 1614
489 489 1945
489 489 2249
489 489 2511
489 489 2745
489 489 2954
489 489 3136
489 489 3297
489 489 3434
489 489 3552
489 489 3654
489 489 3749
489 914 270
489 914 276
489 914 489
489 914 914
489 914 1278
489 914 1614
489 914 1945
489 914 2249
489 914 2511
489 914 2745
489 914 2954
489 914 3136
489 914 3297
489 914 3434
489 914 3552
489 914 3654
489 914 3749
489 1278 270
489 1278 276
489 1278 489
489 1278 914
489 1278 1278
489 1278 1614
489 1278 1945
489 1278 2249
489 1278 2511
489 1278 2745
489 1278 2954
489 1278 3136
489 1278 3297
489 1278 3434
489 1278 3552
489 1278 3654
489 1278 3749
489 1614 270
489 1614 276
489 1614 489
489 1614 914
489 1614 1278
489 1614 1614
489 1614 1945
489 1614 2249
489 1614 2511
489 1614 2745
489 1614 2954
489 1614 3136
489 1614 3297
489 1614 3434
489 1614 3552
489 1614 3654
489 1614 3749
489 1945 270
489 1945 276
489 1945 489
489 1945 914
489 1945 1278
489 1945 1614
489 1945 1945
489 1945 2249
489 1945 2511
489 1945 2745
489 1945 2954
489 1945 3136
489 1945 3297
489 1945 3434
489 1945 3552
489 1945 3654
489 1945 3749
489 2249 270
489 2249 276
489 2249 489
489 2249 914
489 2249 1278
489 2249 1614
489 2249 1945
489 2249 2249
489 2249 2511
489 2249 2745
489 2249 2954
489 2249 3136
489 2249 3297
489 2249 3434
489 2249 3552
489 2249 3654
489 2249 3749
489 2511 270
489 2511 276
489 2511 489
489 2511 914
489 2511 1278
489 2511 1614
489 2511 1945
489 2511 2249
489 2511 2511
489 2511 2745
489 2511 2954
489 2511 3136
489 2511 3297
489 2511 3434
489 2511 3552
489 2511 3654
489 2511 3749
489 2745 270
489 2745 276
489 2745 489
489 2745 914
489 2745 1278
489 2745 1614
489 2745 1945
489 2745 2249
489 2745 2511
489 2745 2745
489 2745 2954
489 2745 3136
489 2745 3297
489 2745 3434
489 2745 3552
489 2745 3654
489 2745 3749
489 2954 270
489 2954 276
489 2954 489
489 2954 914
489 2954 1278
489 2954 1614
489 2954 1945
489 2954 2249
489 2954 2511
489 2954 2745
489 2954 2954
489 2954 3136
489 2954 3297
489 2954 3434
489 2954 3552
489 2954 3654
489 2954 3749
489 3136 270
489 3136 276
489 3136 489
489 3136 914
489 3136 1278
489 3136 1614
489 3136 1945
489 3136 2249
489 3136 2511
489 3136 2745
489 3136 2954
489 3136 3136
489 3136 3297
489 3136 3434
489 3136 3552
489 3136 3654
489 3136 3749
489 3297 270
489 3297 276
489 3297 489
489 3297 914
489 3297 1278
489 3297 1614
489 3297 1945
489 3297 2249
489 3297 2511
489 3297 2745
489 3297 2954
489 3297 3136
489 3297 3297
489 3297 3434
489 3297 3552
489 3297 3654
489 3297 3749
489 3434 270
489 3434 276
489 3434 489
489 3434 914
489 3434 1278
489 3434 1614
489 3434 1945
489 3434 2249
489 3434 2511
489 3434 2745
489 3434 2954
489 3434 3136
489 3434 3297
489 3434 3434
489 3434 3552
489 3434 3654
489 3434 3749
489 3552 270
489 3552 276
489 3552 489
489 3552 914
489 3552 1278
489 3552 1614
489 3552 1945
489 3552 2249
489 3552 2511
489 3552 2745
489 3552 2954
489 3552 3136
489 3552 3297
489 3552 3434
489 3552 3552
489 3552 3654
489 3552 3749
489 3654 270
489 3654 276
489 3654 489
489 3654 914
489 3654 1278
489 3654 1614
489 3654 1945
489 3654 2249
489 3654 2511
489 3654 2745
489 3654 2954
489 3654 3136
489 3654 3297
489 3654 3434
489 3654 3552
489 3654 3654
489 3654 3749
489 3749 270
489 3749 276
489 3749 489
489 3749 914
489 3749 1278
489 3749 1614
489 3749 1945
489 3749 2249
489 3749 2511
489 3749 2745
489 3749 2954
489 3749 3136
489 3749 3297
489 3749 3434
489 3749 3552
489 3749 3654
489 3749 3749
914 270 270
914 270 276
914 270 489
914 270 914
914 270 1278
914 270 1614
914 270 1945
914 270 2249
914 270 2511
914 270 2745
914 270 2954
914 270 3136
914 270 3297
914 270 3434
914 270 3552
914 270 3654
914 270 3749
914 276 270
914 276 276
914 276 489
914 276 914
914 276 1278
914 276 1614
914 276 1945
914 276 2249
914 276 2511
914 276 2745
914 276 2954
914 276 3136
914 276 3297
914 276 3434
914 276 3552
914 276 3654
