Postproduction/IWLTBAP - Humble/LUTs by IWLTBAP (3DL)/UTILITY/Canon C-Log to Rec.709/U-CANON-C-LOG-V3-LTR.3dl
# Copyright: (C) Copyright 2010-2018 by IWLTBAP SAS
# Cannot be resold, shared or otherwise redistributed
# Website: https://luts.iwltbap.com
0 128 256 384 512 640 768 896 1023
270 270 270
270 270 490
270 270 1276
270 270 1957
270 270 2734
270 270 3640
270 270 3749
270 270 3749
270 270 3749
270 490 270
270 490 490
270 490 1276
270 490 1957
270 490 2734
270 490 3640
270 490 3749
270 490 3749
270 490 3749
270 1276 270
270 1276 490
270 1276 1276
270 1276 1957
270 1276 2734
270 1276 3640
270 1276 3749
270 1276 3749
270 1276 3749
270 1957 270
270 1957 490
270 1957 1276
270 1957 1957
270 1957 2734
270 1957 3640
270 1957 3749
270 1957 3749
270 1957 3749
270 2734 270
270 2734 490
270 2734 1276
270 2734 1957
270 2734 2734
270 2734 3640
270 2734 3749
270 2734 3749
270 2734 3749
270 3640 270
270 3640 490
270 3640 1276
270 3640 1957
270 3640 2734
270 3640 3640
270 3640 3749
270 3640 3749
270 3640 3749
270 3749 270
270 3749 490
270 3749 1276
270 3749 1957
270 3749 2734
270 3749 3640
270 3749 3749
270 3749 3749
270 3749 3749
270 3749 270
270 3749 490
270 3749 1276
270 3749 1957
270 3749 2734
270 3749 3640
270 3749 3749
270 3749 3749
270 3749 3749
270 3749 270
270 3749 490
270 3749 1276
270 3749 1957
270 3749 2734
270 3749 3640
270 3749 3749
270 3749 3749
270 3749 3749
490 270 270
490 270 490
490 270 1276
490 270 1957
490 270 2734
490 270 3640
490 270 3749
490 270 3749
490 270 3749
490 490 270
490 490 490
490 490 1276
490 490 1957
490 490 2734
490 490 3640
490 490 3749
490 490 3749
490 490 3749
490 1276 270
490 1276 490
490 1276 1276
490 1276 1957
490 1276 2734
490 1276 3640
490 1276 3749
490 1276 3749
490 1276 3749
490 1957 270
490 1957 490
490 1957 1276
490 1957 1957
490 1957 2734
490 1957 3640
490 1957 3749
490 1957 3749
490 1957 3749
490 2734 270
490 2734 490
490 2734 1276
490 2734 1957
490 2734 2734
490 2734 3640
490 2734 3749
490 2734 3749
490 2734 3749
490 3640 270
490 3640 490
490 3640 1276
490 3640 1957
490 3640 2734
490 3640 3640
490 3640 3749
490 3640 3749
490 3640 3749
490 3749 270
490 3749 490
490 3749 1276
490 3749 1957
490 3749 2734
490 3749 3640
490 3749 3749
490 3749 3749
490 3749 3749
490 3749 270
490 3749 490
490 3749 1276
490 3749 1957
490 3749 2734
490 3749 3640
490 3749 3749
490 3749 3749
490 3749 3749
490 3749 270
490 3749 490
490 3749 1276
490 3749 1957
490 3749 2734
490 3749 3640
490 3749 3749
490 3749 3749
490 3749 3749
1276 270 270
1276 270 490
1276 270 1276
1276 270 1957
1276 270 2734
1276 270 3640
1276 270 3749
1276 270 3749
1276 270 3749
1276 490 270
1276 490 490
1276 490 1276
1276 490 1957
1276 490 2734
1276 490 3640
1276 490 3749
1276 490 3749
1276 490 3749
1276 1276 270
1276 1276 490
1276 1276 1276
1276 1276 1957
1276 1276 2734
1276 1276 3640
1276 1276 3749
1276 1276 3749
1276 1276 3749
1276 1957 270
1276 1957 490
1276 1957 1276
1276 1957 1957
1276 1957 2734
1276 1957 3640
1276 1957 3749
1276 1957 3749
1276 1957 3749
1276 2734 270
1276 2734 490
1276 2734 1276
1276 2734 1957
1276 2734 2734
1276 2734 3640
1276 2734 3749
1276 2734 3749
1276 2734 3749
1276 3640 270
1276 3640 490
1276 3640 1276
1276 3640 1957
1276 3640 2734
1276 3640 3640
1276 3640 3749
1276 3640 3749
1276 3640 3749
1276 3749 270
1276 3749 490
1276 3749 1276
1276 3749 1957
1276 3749 2734
1276 3749 3640
1276 3749 3749
1276 3749 3749
1276 3749 3749
1276 3749 270
1276 3749 490
1276 3749 1276
1276 3749 1957
1276 3749 2734
1276 3749 3640
1276 3749 3749
1276 3749 3749
1276 3749 3749
1276 3749 270
1276 3749 490
1276 3749 1276
1276 3749 1957
1276 3749 2734
1276 3749 3640
1276 3749 3749
1276 3749 3749
1276 3749 3749
1957 270 270
1957 270 490
1957 270 1276
1957 270 1957
1957 270 2734
1957 270 3640
1957 270 3749
1957 270 3749
1957 270 3749
1957 490 270
1957 490 490
1957 490 1276
1957 490 1957
1957 490 2734
1957 490 3640
1957 490 3749
1957 490 3749
1957 490 3749
1957 1276 270
1957 1276 490
1957 1276 1276
1957 1276 1957
1957 1276 2734
1957 1276 3640
1957 1276 3749
1957 1276 3749
1957 1276 3749
1957 1957 270
1957 1957 490
1957 1957 1276
1957 1957 1957
1957 1957 2734
1957 1957 3640
1957 1957 3749
1957 1957 3749
1957 1957 3749
1957 2734 270
1957 2734 490
1957 2734 1276
1957 2734 1957
1957 2734 2734
1957 2734 3640
1957 2734 3749
1957 2734 3749
1957 2734 3749
1957 3640 270
1957 3640 490
1957 3640 1276
1957 3640 1957
1957 3640 2734
1957 3640 3640
1957 3640 3749
1957 3640 3749
1957 3640 3749
1957 3749 270
1957 3749 490
1957 3749 1276
1957 3749 1957
1957 3749 2734
1957 3749 3640
1957 3749 3749
1957 3749 3749
1957 3749 3749
1957 3749 270
1957 3749 490
1957 3749 1276
1957 3749 1957
1957 3749 2734
1957 3749 3640
1957 3749 3749
1957 3749 3749
1957 3749 3749
1957 3749 270
1957 3749 490
1957 3749 1276
1957 3749 1957
1957 3749 2734
1957 3749 3640
1957 3749 3749
1957 3749 3749
1957 3749 3749
2734 270 270
2734 270 490
2734 270 1276
2734 270 1957
2734 270 2734
2734 270 3640
2734 270 3749
2734 270 3749
2734 270 3749
2734 490 270
2734 490 490
2734 490 1276
2734 490 1957
2734 490 2734
2734 490 3640
2734 490 3749
2734 490 3749
2734 490 3749
2734 1276 270
2734 1276 490
2734 1276 1276
2734 1276 1957
2734 1276 2734
2734 1276 3640
2734 1276 3749
2734 1276 3749
2734 1276 3749
2734 1957 270
2734 1957 490
2734 1957 1276
2734 1957 1957
2734 1957 2734
2734 1957 3640
2734 1957 3749
2734 1957 3749
2734 1957 3749
2734 2734 270
2734 2734 490
2734 2734 1276
2734 2734 1957
2734 2734 2734
2734 2734 3640
2734 2734 3749
2734 2734 3749
2734 2734 3749
2734 3640 270
2734 3640 490
2734 3640 1276
2734 3640 1957
2734 3640 2734
2734 3640 3640
2734 3640 3749
2734 3640 3749
2734 3640 3749
2734 3749 270
2734 3749 490
2734 3749 1276
2734 3749 1957
2734 3749 2734
2734 3749 3640
2734 3749 3749
2734 3749 3749
2734 3749 3749
2734 3749 270
2734 3749 490
2734 3749 1276
2734 3749 1957
2734 3749 2734
2734 3749 3640
2734 3749 3749
2734 3749 3749
2734 3749 3749
2734 3749 270
2734 3749 490
2734 3749 1276
2734 3749 1957
2734 3749 2734
2734 3749 3640
2734 3749 3749
2734 3749 3749
2734 3749 3749
3640 270 270
3640 270 490
3640 270 1276
3640 270 1957
3640 270 2734
3640 270 3640
3640 270 3749
3640 270 3749
3640 270 3749
3640 490 270
3640 490 490
3640 490 1276
3640 490 1957
3640 490 2734
3640 490 3640
3640 490 3749
3640 490 3749
3640 490 3749
3640 1276 270
3640 1276 490
3640 1276 1276
3640 1276 1957
3640 1276 2734
3640 1276 3640
3640 1276 3749
3640 1276 3749
3640 1276 3749
3640 1957 270
3640 1957 490
3640 1957 1276
3640 1957 1957
3640 1957 2734
3640 1957 3640
3640 1957 3749
3640 1957 3749
3640 1957 3749
3640 2734 270
3640 2734 490
3640 2734 1276
3640 2734 1957
3640 2734 2734
3640 2734 3640
3640 2734 3749
3640 2734 3749
3640 2734 3749
3640 3640 270
3640 3640 490
3640 3640 1276
3640 3640 1957
3640 3640 2734
3640 3640 3640
3640 3640 3749
3640 3640 3749
3640 3640 3749
3640 3749 270
3640 3749 490
3640 3749 1276
3640 3749 1957
3640 3749 2734
3640 3749 3640
3640 3749 3749
3640 3749 3749
3640 3749 3749
3640 3749 270
3640 3749 490
3640 3749 1276
3640 3749 1957
3640 3749 2734
3640 3749 3640
3640 3749 3749
3640 3749 3749
3640 3749 3749
3640 3749 270
3640 3749 490
3640 3749 1276
3640 3749 1957
3640 3749 2734
3640 3749 3640
3640 3749 3749
3640 3749 3749
3640 3749 3749
3749 270 270
3749 270 490
3749 270 1276
3749 270 1957
3749 270 2734
3749 270 3640
3749 270 3749
3749 270 3749
3749 270 3749
3749 490 270
3749 490 490
3749 490 1276
3749 490 1957
3749 490 2734
3749 490 3640
3749 490 3749
3749 490 3749
3749 490 3749
3749 1276 270
3749 1276 490
3749 1276 1276
3749 1276 1957
3749 1276 2734
3749 1276 3640
3749 1276 3749
3749 1276 3749
3749 1276 3749
3749 1957 270
3749 1957 490
3749 1957 1276
3749 1957 1957
3749 1957 2734
3749 1957 3640
3749 1957 3749
3749 1957 3749
3749 1957 3749
3749 2734 270
3749 2734 490
3749 2734 1276
3749 2734 1957
3749 2734 2734
3749 2734 3640
3749 2734 3749
3749 2734 3749
3749 2734 3749
3749 3640 270
3749 3640 490
3749 3640 1276
3749 3640 1957
3749 3640 2734
3749 3640 3640
3749 3640 3749
3749 3640 3749
3749 3640 3749
3749 3749 270
3749 3749 490
3749 3749 1276
3749 3749 1957
3749 3749 2734
3749 3749 3640
3749 3749 3749
3749 3749 3749
3749 3749 3749
3749 3749 270
3749 3749 490
3749 3749 1276
3749 3749 1957
3749 3749 2734
3749 3749 3640
3749 3749 3749
3749 3749 3749
3749 3749 3749
3749 3749 270
3749 3749 490
3749 3749 1276
3749 3749 1957
3749 3749 2734
3749 3749 3640
3749 3749 3749
3749 3749 3749
3749 3749 3749
3749 270 270
3749 270 490
3749 270 1276
3749 270 1957
3749 270 2734
3749 270 3640
3749 270 3749
3749 270 3749
3749 270 3749
3749 490 270
3749 490 490
3749 490 1276
3749 490 1957
3749 490 2734
3749 490 3640
3749 490 3749
3749 490 3749
3749 490 3749
3749 1276 270
3749 1276 490
3749 1276 1276
3749 1276 1957
3749 1276 2734
3749 1276 3640
3749 1276 3749
3749 1276 3749
3749 1276 3749
3749 1957 270
3749 1957 490
3749 1957 1276
3749 1957 1957
3749 1957 2734
3749 1957 3640
3749 1957 3749
3749 1957 3749
3749 1957 3749
3749 2734 270
3749 2734 490
3749 2734 1276
3749 2734 1957
3749 2734 2734
3749 2734 3640
3749 2734 3749
3749 2734 3749
3749 2734 3749
3749 3640 270
3749 3640 490
3749 3640 1276
3749 3640 1957
3749 3640 2734
3749 3640 3640
3749 3640 3749
3749 3640 3749
3749 3640 3749
3749 3749 270
3749 3749 490
3749 3749 1276
3749 3749 1957
3749 3749 2734
3749 3749 3640
3749 3749 3749
3749 3749 3749
3749 3749 3749
3749 3749 270
3749 3749 490
3749 3749 1276
3749 3749 1957
3749 3749 2734
3749 3749 3640
3749 3749 3749
3749 3749 3749
3749 3749 3749
3749 3749 270
3749 3749 490
3749 3749 1276
3749 3749 1957
3749 3749 2734
3749 3749 3640
3749 3749 3749
3749 3749 3749
3749 3749 3749
3749 270 270
3749 270 490
3749 270 1276
3749 270 1957
3749 270 2734
3749 270 3640
3749 270 3749
3749 270 3749
3749 270 3749
3749 490 270
3749 490 490
3749 490 1276
3749 490 1957
3749 490 2734
3749 490 3640
3749 490 3749
3749 490 3749
3749 490 3749
3749 1276 270
3749 1276 490
3749 1276 1276
3749 1276 1957
3749 1276 2734
3749 1276 3640
3749 1276 3749
3749 1276 3749
3749 1276 3749
3749 1957 270
3749 1957 490
3749 1957 1276
3749 1957 1957
3749 1957 2734
3749 1957 3640
3749 1957 3749
3749 1957 3749
3749 1957 3749
3749 2734 270
3749 2734 490
3749 2734 1276
3749 2734 1957
3749 2734 2734
3749 2734 3640
3749 2734 3749
3749 2734 3749
3749 2734 3749
3749 3640 270
3749 3640 490
3749 3640 1276
3749 3640 1957
3749 3640 2734
3749 3640 3640
3749 3640 3749
3749 3640 3749
3749 3640 3749
3749 3749 270
3749 3749 490
3749 3749 1276
3749 3749 1957
3749 3749 2734
3749 3749 3640
3749 3749 3749
3749 3749 3749
3749 3749 3749
3749 3749 270
3749 3749 490
3749 3749 1276
3749 3749 1957
3749 3749 2734
3749 3749 3640
3749 3749 3749
3749 3749 3749
3749 3749 3749
3749 3749 270
3749 3749 490
3749 3749 1276
3749 3749 1957
3749 3749 2734
3749 3749 3640
3749 3749 3749
3749 3749 3749
3749 3749 3749
