Postproduction/IWLTBAP - Humble/LUTs by IWLTBAP (3DL)/UTILITY/Canon C-Log to Rec.709/U-CANON-C-LOG-V2-LTR.3dl
# Copyright: (C) Copyright 2010-2018 by IWLTBAP SAS
# Cannot be resold, shared or otherwise redistributed
# Website: https://luts.iwltbap.com
0 128 256 384 512 640 768 896 1023
16 16 16
16 16 272
16 16 1191
16 16 1986
16 16 2894
16 16 3951
16 16 4079
16 16 4079
16 16 4079
16 272 16
16 272 272
16 272 1191
16 272 1986
16 272 2894
16 272 3951
16 272 4079
16 272 4079
16 272 4079
16 1191 16
16 1191 272
16 1191 1191
16 1191 1986
16 1191 2894
16 1191 3951
16 1191 4079
16 1191 4079
16 1191 4079
16 1986 16
16 1986 272
16 1986 1191
16 1986 1986
16 1986 2894
16 1986 3951
16 1986 4079
16 1986 4079
16 1986 4079
16 2894 16
16 2894 272
16 2894 1191
16 2894 1986
16 2894 2894
16 2894 3951
16 2894 4079
16 2894 4079
16 2894 4079
16 3951 16
16 3951 272
16 3951 1191
16 3951 1986
16 3951 2894
16 3951 3951
16 3951 4079
16 3951 4079
16 3951 4079
16 4079 16
16 4079 272
16 4079 1191
16 4079 1986
16 4079 2894
16 4079 3951
16 4079 4079
16 4079 4079
16 4079 4079
16 4079 16
16 4079 272
16 4079 1191
16 4079 1986
16 4079 2894
16 4079 3951
16 4079 4079
16 4079 4079
16 4079 4079
16 4079 16
16 4079 272
16 4079 1191
16 4079 1986
16 4079 2894
16 4079 3951
16 4079 4079
16 4079 4079
16 4079 4079
272 16 16
272 16 272
272 16 1191
272 16 1986
272 16 2894
272 16 3951
272 16 4079
272 16 4079
272 16 4079
272 272 16
272 272 272
272 272 1191
272 272 1986
272 272 2894
272 272 3951
272 272 4079
272 272 4079
272 272 4079
272 1191 16
272 1191 272
272 1191 1191
272 1191 1986
272 1191 2894
272 1191 3951
272 1191 4079
272 1191 4079
272 1191 4079
272 1986 16
272 1986 272
272 1986 1191
272 1986 1986
272 1986 2894
272 1986 3951
272 1986 4079
272 1986 4079
272 1986 4079
272 2894 16
272 2894 272
272 2894 1191
272 2894 1986
272 2894 2894
272 2894 3951
272 2894 4079
272 2894 4079
272 2894 4079
272 3951 16
272 3951 272
272 3951 1191
272 3951 1986
272 3951 2894
272 3951 3951
272 3951 4079
272 3951 4079
272 3951 4079
272 4079 16
272 4079 272
272 4079 1191
272 4079 1986
272 4079 2894
272 4079 3951
272 4079 4079
272 4079 4079
272 4079 4079
272 4079 16
272 4079 272
272 4079 1191
272 4079 1986
272 4079 2894
272 4079 3951
272 4079 4079
272 4079 4079
272 4079 4079
272 4079 16
272 4079 272
272 4079 1191
272 4079 1986
272 4079 2894
272 4079 3951
272 4079 4079
272 4079 4079
272 4079 4079
1191 16 16
1191 16 272
1191 16 1191
1191 16 1986
1191 16 2894
1191 16 3951
1191 16 4079
1191 16 4079
1191 16 4079
1191 272 16
1191 272 272
1191 272 1191
1191 272 1986
1191 272 2894
1191 272 3951
1191 272 4079
1191 272 4079
1191 272 4079
1191 1191 16
1191 1191 272
1191 1191 1191
1191 1191 1986
1191 1191 2894
1191 1191 3951
1191 1191 4079
1191 1191 4079
1191 1191 4079
1191 1986 16
1191 1986 272
1191 1986 1191
1191 1986 1986
1191 1986 2894
1191 1986 3951
1191 1986 4079
1191 1986 4079
1191 1986 4079
1191 2894 16
1191 2894 272
1191 2894 1191
1191 2894 1986
1191 2894 2894
1191 2894 3951
1191 2894 4079
1191 2894 4079
1191 2894 4079
1191 3951 16
1191 3951 272
1191 3951 1191
1191 3951 1986
1191 3951 2894
1191 3951 3951
1191 3951 4079
1191 3951 4079
1191 3951 4079
1191 4079 16
1191 4079 272
1191 4079 1191
1191 4079 1986
1191 4079 2894
1191 4079 3951
1191 4079 4079
1191 4079 4079
1191 4079 4079
1191 4079 16
1191 4079 272
1191 4079 1191
1191 4079 1986
1191 4079 2894
1191 4079 3951
1191 4079 4079
1191 4079 4079
1191 4079 4079
1191 4079 16
1191 4079 272
1191 4079 1191
1191 4079 1986
1191 4079 2894
1191 4079 3951
1191 4079 4079
1191 4079 4079
1191 4079 4079
1986 16 16
1986 16 272
1986 16 1191
1986 16 1986
1986 16 2894
1986 16 3951
1986 16 4079
1986 16 4079
1986 16 4079
1986 272 16
1986 272 272
1986 272 1191
1986 272 1986
1986 272 2894
1986 272 3951
1986 272 4079
1986 272 4079
1986 272 4079
1986 1191 16
1986 1191 272
1986 1191 1191
1986 1191 1986
1986 1191 2894
1986 1191 3951
1986 1191 4079
1986 1191 4079
1986 1191 4079
1986 1986 16
1986 1986 272
1986 1986 1191
1986 1986 1986
1986 1986 2894
1986 1986 3951
1986 1986 4079
1986 1986 4079
1986 1986 4079
1986 2894 16
1986 2894 272
1986 2894 1191
1986 2894 1986
1986 2894 2894
1986 2894 3951
1986 2894 4079
1986 2894 4079
1986 2894 4079
1986 3951 16
1986 3951 272
1986 3951 1191
1986 3951 1986
1986 3951 2894
1986 3951 3951
1986 3951 4079
1986 3951 4079
1986 3951 4079
1986 4079 16
1986 4079 272
1986 4079 1191
1986 4079 1986
1986 4079 2894
1986 4079 3951
1986 4079 4079
1986 4079 4079
1986 4079 4079
1986 4079 16
1986 4079 272
1986 4079 1191
1986 4079 1986
1986 4079 2894
1986 4079 3951
1986 4079 4079
1986 4079 4079
1986 4079 4079
1986 4079 16
1986 4079 272
1986 4079 1191
1986 4079 1986
1986 4079 2894
1986 4079 3951
1986 4079 4079
1986 4079 4079
1986 4079 4079
2894 16 16
2894 16 272
2894 16 1191
2894 16 1986
2894 16 2894
2894 16 3951
2894 16 4079
2894 16 4079
2894 16 4079
2894 272 16
2894 272 272
2894 272 1191
2894 272 1986
2894 272 2894
2894 272 3951
2894 272 4079
2894 272 4079
2894 272 4079
2894 1191 16
2894 1191 272
2894 1191 1191
2894 1191 1986
2894 1191 2894
2894 1191 3951
2894 1191 4079
2894 1191 4079
2894 1191 4079
2894 1986 16
2894 1986 272
2894 1986 1191
2894 1986 1986
2894 1986 2894
2894 1986 3951
2894 1986 4079
2894 1986 4079
2894 1986 4079
2894 2894 16
2894 2894 272
2894 2894 1191
2894 2894 1986
2894 2894 2894
2894 2894 3951
2894 2894 4079
2894 2894 4079
2894 2894 4079
2894 3951 16
2894 3951 272
2894 3951 1191
2894 3951 1986
2894 3951 2894
2894 3951 3951
2894 3951 4079
2894 3951 4079
2894 3951 4079
2894 4079 16
2894 4079 272
2894 4079 1191
2894 4079 1986
2894 4079 2894
2894 4079 3951
2894 4079 4079
2894 4079 4079
2894 4079 4079
2894 4079 16
2894 4079 272
2894 4079 1191
2894 4079 1986
2894 4079 2894
2894 4079 3951
2894 4079 4079
2894 4079 4079
2894 4079 4079
2894 4079 16
2894 4079 272
2894 4079 1191
2894 4079 1986
2894 4079 2894
2894 4079 3951
2894 4079 4079
2894 4079 4079
2894 4079 4079
3951 16 16
3951 16 272
3951 16 1191
3951 16 1986
3951 16 2894
3951 16 3951
3951 16 4079
3951 16 4079
3951 16 4079
3951 272 16
3951 272 272
3951 272 1191
3951 272 1986
3951 272 2894
3951 272 3951
3951 272 4079
3951 272 4079
3951 272 4079
3951 1191 16
3951 1191 272
3951 1191 1191
3951 1191 1986
3951 1191 2894
3951 1191 3951
3951 1191 4079
3951 1191 4079
3951 1191 4079
3951 1986 16
3951 1986 272
3951 1986 1191
3951 1986 1986
3951 1986 2894
3951 1986 3951
3951 1986 4079
3951 1986 4079
3951 1986 4079
3951 2894 16
3951 2894 272
3951 2894 1191
3951 2894 1986
3951 2894 2894
3951 2894 3951
3951 2894 4079
3951 2894 4079
3951 2894 4079
3951 3951 16
3951 3951 272
3951 3951 1191
3951 3951 1986
3951 3951 2894
3951 3951 3951
3951 3951 4079
3951 3951 4079
3951 3951 4079
3951 4079 16
3951 4079 272
3951 4079 1191
3951 4079 1986
3951 4079 2894
3951 4079 3951
3951 4079 4079
3951 4079 4079
3951 4079 4079
3951 4079 16
3951 4079 272
3951 4079 1191
3951 4079 1986
3951 4079 2894
3951 4079 3951
3951 4079 4079
3951 4079 4079
3951 4079 4079
3951 4079 16
3951 4079 272
3951 4079 1191
3951 4079 1986
3951 4079 2894
3951 4079 3951
3951 4079 4079
3951 4079 4079
3951 4079 4079
4079 16 16
4079 16 272
4079 16 1191
4079 16 1986
4079 16 2894
4079 16 3951
4079 16 4079
4079 16 4079
4079 16 4079
4079 272 16
4079 272 272
4079 272 1191
4079 272 1986
4079 272 2894
4079 272 3951
4079 272 4079
4079 272 4079
4079 272 4079
4079 1191 16
4079 1191 272
4079 1191 1191
4079 1191 1986
4079 1191 2894
4079 1191 3951
4079 1191 4079
4079 1191 4079
4079 1191 4079
4079 1986 16
4079 1986 272
4079 1986 1191
4079 1986 1986
4079 1986 2894
4079 1986 3951
4079 1986 4079
4079 1986 4079
4079 1986 4079
4079 2894 16
4079 2894 272
4079 2894 1191
4079 2894 1986
4079 2894 2894
4079 2894 3951
4079 2894 4079
4079 2894 4079
4079 2894 4079
4079 3951 16
4079 3951 272
4079 3951 1191
4079 3951 1986
4079 3951 2894
4079 3951 3951
4079 3951 4079
4079 3951 4079
4079 3951 4079
4079 4079 16
4079 4079 272
4079 4079 1191
4079 4079 1986
4079 4079 2894
4079 4079 3951
4079 4079 4079
4079 4079 4079
4079 4079 4079
4079 4079 16
4079 4079 272
4079 4079 1191
4079 4079 1986
4079 4079 2894
4079 4079 3951
4079 4079 4079
4079 4079 4079
4079 4079 4079
4079 4079 16
4079 4079 272
4079 4079 1191
4079 4079 1986
4079 4079 2894
4079 4079 3951
4079 4079 4079
4079 4079 4079
4079 4079 4079
4079 16 16
4079 16 272
4079 16 1191
4079 16 1986
4079 16 2894
4079 16 3951
4079 16 4079
4079 16 4079
4079 16 4079
4079 272 16
4079 272 272
4079 272 1191
4079 272 1986
4079 272 2894
4079 272 3951
4079 272 4079
4079 272 4079
4079 272 4079
4079 1191 16
4079 1191 272
4079 1191 1191
4079 1191 1986
4079 1191 2894
4079 1191 3951
4079 1191 4079
4079 1191 4079
4079 1191 4079
4079 1986 16
4079 1986 272
4079 1986 1191
4079 1986 1986
4079 1986 2894
4079 1986 3951
4079 1986 4079
4079 1986 4079
4079 1986 4079
4079 2894 16
4079 2894 272
4079 2894 1191
4079 2894 1986
4079 2894 2894
4079 2894 3951
4079 2894 4079
4079 2894 4079
4079 2894 4079
4079 3951 16
4079 3951 272
4079 3951 1191
4079 3951 1986
4079 3951 2894
4079 3951 3951
4079 3951 4079
4079 3951 4079
4079 3951 4079
4079 4079 16
4079 4079 272
4079 4079 1191
4079 4079 1986
4079 4079 2894
4079 4079 3951
4079 4079 4079
4079 4079 4079
4079 4079 4079
4079 4079 16
4079 4079 272
4079 4079 1191
4079 4079 1986
4079 4079 2894
4079 4079 3951
4079 4079 4079
4079 4079 4079
4079 4079 4079
4079 4079 16
4079 4079 272
4079 4079 1191
4079 4079 1986
4079 4079 2894
4079 4079 3951
4079 4079 4079
4079 4079 4079
4079 4079 4079
4079 16 16
4079 16 272
4079 16 1191
4079 16 1986
4079 16 2894
4079 16 3951
4079 16 4079
4079 16 4079
4079 16 4079
4079 272 16
4079 272 272
4079 272 1191
4079 272 1986
4079 272 2894
4079 272 3951
4079 272 4079
4079 272 4079
4079 272 4079
4079 1191 16
4079 1191 272
4079 1191 1191
4079 1191 1986
4079 1191 2894
4079 1191 3951
4079 1191 4079
4079 1191 4079
4079 1191 4079
4079 1986 16
4079 1986 272
4079 1986 1191
4079 1986 1986
4079 1986 2894
4079 1986 3951
4079 1986 4079
4079 1986 4079
4079 1986 4079
4079 2894 16
4079 2894 272
4079 2894 1191
4079 2894 1986
4079 2894 2894
4079 2894 3951
4079 2894 4079
4079 2894 4079
4079 2894 4079
4079 3951 16
4079 3951 272
4079 3951 1191
4079 3951 1986
4079 3951 2894
4079 3951 3951
4079 3951 4079
4079 3951 4079
4079 3951 4079
4079 4079 16
4079 4079 272
4079 4079 1191
4079 4079 1986
4079 4079 2894
4079 4079 3951
4079 4079 4079
4079 4079 4079
4079 4079 4079
4079 4079 16
4079 4079 272
4079 4079 1191
4079 4079 1986
4079 4079 2894
4079 4079 3951
4079 4079 4079
4079 4079 4079
4079 4079 4079
4079 4079 16
4079 4079 272
4079 4079 1191
4079 4079 1986
4079 4079 2894
4079 4079 3951
4079 4079 4079
4079 4079 4079
4079 4079 4079
