Postproduction/IWLTBAP - Humble/LUTs by IWLTBAP (3DL)/UTILITY/Canon C-Log to Rec.709/U-CANON-C-LOG-V4-LTR.3dl
# Copyright: (C) Copyright 2010-2018 by IWLTBAP SAS
# Cannot be resold, shared or otherwise redistributed
# Website: https://luts.iwltbap.com
0 256 512 768 1023
16 16 16
16 16 1193
16 16 2634
16 16 3551
16 16 4079
16 1193 16
16 1193 1193
16 1193 2634
16 1193 3551
16 1193 4079
16 2634 16
16 2634 1193
16 2634 2634
16 2634 3551
16 2634 4079
16 3551 16
16 3551 1193
16 3551 2634
16 3551 3551
16 3551 4079
16 4079 16
16 4079 1193
16 4079 2634
16 4079 3551
16 4079 4079
1193 16 16
1193 16 1193
1193 16 2634
1193 16 3551
1193 16 4079
1193 1193 16
1193 1193 1193
1193 1193 2634
1193 1193 3551
1193 1193 4079
1193 2634 16
1193 2634 1193
1193 2634 2634
1193 2634 3551
1193 2634 4079
1193 3551 16
1193 3551 1193
1193 3551 2634
1193 3551 3551
1193 3551 4079
1193 4079 16
1193 4079 1193
1193 4079 2634
1193 4079 3551
1193 4079 4079
2634 16 16
2634 16 1193
2634 16 2634
2634 16 3551
2634 16 4079
2634 1193 16
2634 1193 1193
2634 1193 2634
2634 1193 3551
2634 1193 4079
2634 2634 16
2634 2634 1193
2634 2634 2634
2634 2634 3551
2634 2634 4079
2634 3551 16
2634 3551 1193
2634 3551 2634
2634 3551 3551
2634 3551 4079
2634 4079 16
2634 4079 1193
2634 4079 2634
2634 4079 3551
2634 4079 4079
3551 16 16
3551 16 1193
3551 16 2634
3551 16 3551
3551 16 4079
3551 1193 16
3551 1193 1193
3551 1193 2634
3551 1193 3551
3551 1193 4079
3551 2634 16
3551 2634 1193
3551 2634 2634
3551 2634 3551
3551 2634 4079
3551 3551 16
3551 3551 1193
3551 3551 2634
3551 3551 3551
3551 3551 4079
3551 4079 16
3551 4079 1193
3551 4079 2634
3551 4079 3551
3551 4079 4079
4079 16 16
4079 16 1193
4079 16 2634
4079 16 3551
4079 16 4079
4079 1193 16
4079 1193 1193
4079 1193 2634
4079 1193 3551
4079 1193 4079
4079 2634 16
4079 2634 1193
4079 2634 2634
4079 2634 3551
4079 2634 4079
4079 3551 16
4079 3551 1193
4079 3551 2634
4079 3551 3551
4079 3551 4079
4079 4079 16
4079 4079 1193
4079 4079 2634
4079 4079 3551
4079 4079 4079
