Postproduction/IWLTBAP - Humble/LUTs by IWLTBAP (3DL)/UTILITY/Canon C-Log to Rec.709/U-CANON-C-LOG-V2-LTR.3dl
# Copyright: (C) Copyright 2010-2018 by IWLTBAP SAS
# Cannot be resold, shared or otherwise redistributed
# Website: https://luts.iwltbap.com
0 256 512 768 1023
16 16 16
16 16 1191
16 16 2894
16 16 4079
16 16 4079
16 1191 16
16 1191 1191
16 1191 2894
16 1191 4079
16 1191 4079
16 2894 16
16 2894 1191
16 2894 2894
16 2894 4079
16 2894 4079
16 4079 16
16 4079 1191
16 4079 2894
16 4079 4079
16 4079 4079
16 4079 16
16 4079 1191
16 4079 2894
16 4079 4079
16 4079 4079
1191 16 16
1191 16 1191
1191 16 2894
1191 16 4079
1191 16 4079
1191 1191 16
1191 1191 1191
1191 1191 2894
1191 1191 4079
1191 1191 4079
1191 2894 16
1191 2894 1191
1191 2894 2894
1191 2894 4079
1191 2894 4079
1191 4079 16
1191 4079 1191
1191 4079 2894
1191 4079 4079
1191 4079 4079
1191 4079 16
1191 4079 1191
1191 4079 2894
1191 4079 4079
1191 4079 4079
2894 16 16
2894 16 1191
2894 16 2894
2894 16 4079
2894 16 4079
2894 1191 16
2894 1191 1191
2894 1191 2894
2894 1191 4079
2894 1191 4079
2894 2894 16
2894 2894 1191
2894 2894 2894
2894 2894 4079
2894 2894 4079
2894 4079 16
2894 4079 1191
2894 4079 2894
2894 4079 4079
2894 4079 4079
2894 4079 16
2894 4079 1191
2894 4079 2894
2894 4079 4079
2894 4079 4079
4079 16 16
4079 16 1191
4079 16 2894
4079 16 4079
4079 16 4079
4079 1191 16
4079 1191 1191
4079 1191 2894
4079 1191 4079
4079 1191 4079
4079 2894 16
4079 2894 1191
4079 2894 2894
4079 2894 4079
4079 2894 4079
4079 4079 16
4079 4079 1191
4079 4079 2894
4079 4079 4079
4079 4079 4079
4079 4079 16
4079 4079 1191
4079 4079 2894
4079 4079 4079
4079 4079 4079
4079 16 16
4079 16 1191
4079 16 2894
4079 16 4079
4079 16 4079
4079 1191 16
4079 1191 1191
4079 1191 2894
4079 1191 4079
4079 1191 4079
4079 2894 16
4079 2894 1191
4079 2894 2894
4079 2894 4079
4079 2894 4079
4079 4079 16
4079 4079 1191
4079 4079 2894
4079 4079 4079
4079 4079 4079
4079 4079 16
4079 4079 1191
4079 4079 2894
4079 4079 4079
4079 4079 4079
