Postproduction/IWLTBAP - Humble/LUTs by IWLTBAP (3DL)/UTILITY/Canon C-Log to Rec.709/U-CANON-C-LOG-V4-LTR.3dl
# Copyright: (C) Copyright 2010-2018 by IWLTBAP SAS
# Cannot be resold, shared or otherwise redistributed
# Website: https://luts.iwltbap.com
0 128 256 384 512 640 768 896 1023
16 16 16
16 16 272
16 16 1193
16 16 1972
16 16 2634
16 16 3150
16 16 3551
16 16 3848
16 16 4079
16 272 16
16 272 272
16 272 1193
16 272 1972
16 272 2634
16 272 3150
16 272 3551
16 272 3848
16 272 4079
16 1193 16
16 1193 272
16 1193 1193
16 1193 1972
16 1193 2634
16 1193 3150
16 1193 3551
16 1193 3848
16 1193 4079
16 1972 16
16 1972 272
16 1972 1193
16 1972 1972
16 1972 2634
16 1972 3150
16 1972 3551
16 1972 3848
16 1972 4079
16 2634 16
16 2634 272
16 2634 1193
16 2634 1972
16 2634 2634
16 2634 3150
16 2634 3551
16 2634 3848
16 2634 4079
16 3150 16
16 3150 272
16 3150 1193
16 3150 1972
16 3150 2634
16 3150 3150
16 3150 3551
16 3150 3848
16 3150 4079
16 3551 16
16 3551 272
16 3551 1193
16 3551 1972
16 3551 2634
16 3551 3150
16 3551 3551
16 3551 3848
16 3551 4079
16 3848 16
16 3848 272
16 3848 1193
16 3848 1972
16 3848 2634
16 3848 3150
16 3848 3551
16 3848 3848
16 3848 4079
16 4079 16
16 4079 272
16 4079 1193
16 4079 1972
16 4079 2634
16 4079 3150
16 4079 3551
16 4079 3848
16 4079 4079
272 16 16
272 16 272
272 16 1193
272 16 1972
272 16 2634
272 16 3150
272 16 3551
272 16 3848
272 16 4079
272 272 16
272 272 272
272 272 1193
272 272 1972
272 272 2634
272 272 3150
272 272 3551
272 272 3848
272 272 4079
272 1193 16
272 1193 272
272 1193 1193
272 1193 1972
272 1193 2634
272 1193 3150
272 1193 3551
272 1193 3848
272 1193 4079
272 1972 16
272 1972 272
272 1972 1193
272 1972 1972
272 1972 2634
272 1972 3150
272 1972 3551
272 1972 3848
272 1972 4079
272 2634 16
272 2634 272
272 2634 1193
272 2634 1972
272 2634 2634
272 2634 3150
272 2634 3551
272 2634 3848
272 2634 4079
272 3150 16
272 3150 272
272 3150 1193
272 3150 1972
272 3150 2634
272 3150 3150
272 3150 3551
272 3150 3848
272 3150 4079
272 3551 16
272 3551 272
272 3551 1193
272 3551 1972
272 3551 2634
272 3551 3150
272 3551 3551
272 3551 3848
272 3551 4079
272 3848 16
272 3848 272
272 3848 1193
272 3848 1972
272 3848 2634
272 3848 3150
272 3848 3551
272 3848 3848
272 3848 4079
272 4079 16
272 4079 272
272 4079 1193
272 4079 1972
272 4079 2634
272 4079 3150
272 4079 3551
272 4079 3848
272 4079 4079
1193 16 16
1193 16 272
1193 16 1193
1193 16 1972
1193 16 2634
1193 16 3150
1193 16 3551
1193 16 3848
1193 16 4079
1193 272 16
1193 272 272
1193 272 1193
1193 272 1972
1193 272 2634
1193 272 3150
1193 272 3551
1193 272 3848
1193 272 4079
1193 1193 16
1193 1193 272
1193 1193 1193
1193 1193 1972
1193 1193 2634
1193 1193 3150
1193 1193 3551
1193 1193 3848
1193 1193 4079
1193 1972 16
1193 1972 272
1193 1972 1193
1193 1972 1972
1193 1972 2634
1193 1972 3150
1193 1972 3551
1193 1972 3848
1193 1972 4079
1193 2634 16
1193 2634 272
1193 2634 1193
1193 2634 1972
1193 2634 2634
1193 2634 3150
1193 2634 3551
1193 2634 3848
1193 2634 4079
1193 3150 16
1193 3150 272
1193 3150 1193
1193 3150 1972
1193 3150 2634
1193 3150 3150
1193 3150 3551
1193 3150 3848
1193 3150 4079
1193 3551 16
1193 3551 272
1193 3551 1193
1193 3551 1972
1193 3551 2634
1193 3551 3150
1193 3551 3551
1193 3551 3848
1193 3551 4079
1193 3848 16
1193 3848 272
1193 3848 1193
1193 3848 1972
1193 3848 2634
1193 3848 3150
1193 3848 3551
1193 3848 3848
1193 3848 4079
1193 4079 16
1193 4079 272
1193 4079 1193
1193 4079 1972
1193 4079 2634
1193 4079 3150
1193 4079 3551
1193 4079 3848
1193 4079 4079
1972 16 16
1972 16 272
1972 16 1193
1972 16 1972
1972 16 2634
1972 16 3150
1972 16 3551
1972 16 3848
1972 16 4079
1972 272 16
1972 272 272
1972 272 1193
1972 272 1972
1972 272 2634
1972 272 3150
1972 272 3551
1972 272 3848
1972 272 4079
1972 1193 16
1972 1193 272
1972 1193 1193
1972 1193 1972
1972 1193 2634
1972 1193 3150
1972 1193 3551
1972 1193 3848
1972 1193 4079
1972 1972 16
1972 1972 272
1972 1972 1193
1972 1972 1972
1972 1972 2634
1972 1972 3150
1972 1972 3551
1972 1972 3848
1972 1972 4079
1972 2634 16
1972 2634 272
1972 2634 1193
1972 2634 1972
1972 2634 2634
1972 2634 3150
1972 2634 3551
1972 2634 3848
1972 2634 4079
1972 3150 16
1972 3150 272
1972 3150 1193
1972 3150 1972
1972 3150 2634
1972 3150 3150
1972 3150 3551
1972 3150 3848
1972 3150 4079
1972 3551 16
1972 3551 272
1972 3551 1193
1972 3551 1972
1972 3551 2634
1972 3551 3150
1972 3551 3551
1972 3551 3848
1972 3551 4079
1972 3848 16
1972 3848 272
1972 3848 1193
1972 3848 1972
1972 3848 2634
1972 3848 3150
1972 3848 3551
1972 3848 3848
1972 3848 4079
1972 4079 16
1972 4079 272
1972 4079 1193
1972 4079 1972
1972 4079 2634
1972 4079 3150
1972 4079 3551
1972 4079 3848
1972 4079 4079
2634 16 16
2634 16 272
2634 16 1193
2634 16 1972
2634 16 2634
2634 16 3150
2634 16 3551
2634 16 3848
2634 16 4079
2634 272 16
2634 272 272
2634 272 1193
2634 272 1972
2634 272 2634
2634 272 3150
2634 272 3551
2634 272 3848
2634 272 4079
2634 1193 16
2634 1193 272
2634 1193 1193
2634 1193 1972
2634 1193 2634
2634 1193 3150
2634 1193 3551
2634 1193 3848
2634 1193 4079
2634 1972 16
2634 1972 272
2634 1972 1193
2634 1972 1972
2634 1972 2634
2634 1972 3150
2634 1972 3551
2634 1972 3848
2634 1972 4079
2634 2634 16
2634 2634 272
2634 2634 1193
2634 2634 1972
2634 2634 2634
2634 2634 3150
2634 2634 3551
2634 2634 3848
2634 2634 4079
2634 3150 16
2634 3150 272
2634 3150 1193
2634 3150 1972
2634 3150 2634
2634 3150 3150
2634 3150 3551
2634 3150 3848
2634 3150 4079
2634 3551 16
2634 3551 272
2634 3551 1193
2634 3551 1972
2634 3551 2634
2634 3551 3150
2634 3551 3551
2634 3551 3848
2634 3551 4079
2634 3848 16
2634 3848 272
2634 3848 1193
2634 3848 1972
2634 3848 2634
2634 3848 3150
2634 3848 3551
2634 3848 3848
2634 3848 4079
2634 4079 16
2634 4079 272
2634 4079 1193
2634 4079 1972
2634 4079 2634
2634 4079 3150
2634 4079 3551
2634 4079 3848
2634 4079 4079
3150 16 16
3150 16 272
3150 16 1193
3150 16 1972
3150 16 2634
3150 16 3150
3150 16 3551
3150 16 3848
3150 16 4079
3150 272 16
3150 272 272
3150 272 1193
3150 272 1972
3150 272 2634
3150 272 3150
3150 272 3551
3150 272 3848
3150 272 4079
3150 1193 16
3150 1193 272
3150 1193 1193
3150 1193 1972
3150 1193 2634
3150 1193 3150
3150 1193 3551
3150 1193 3848
3150 1193 4079
3150 1972 16
3150 1972 272
3150 1972 1193
3150 1972 1972
3150 1972 2634
3150 1972 3150
3150 1972 3551
3150 1972 3848
3150 1972 4079
3150 2634 16
3150 2634 272
3150 2634 1193
3150 2634 1972
3150 2634 2634
3150 2634 3150
3150 2634 3551
3150 2634 3848
3150 2634 4079
3150 3150 16
3150 3150 272
3150 3150 1193
3150 3150 1972
3150 3150 2634
3150 3150 3150
3150 3150 3551
3150 3150 3848
3150 3150 4079
3150 3551 16
3150 3551 272
3150 3551 1193
3150 3551 1972
3150 3551 2634
3150 3551 3150
3150 3551 3551
3150 3551 3848
3150 3551 4079
3150 3848 16
3150 3848 272
3150 3848 1193
3150 3848 1972
3150 3848 2634
3150 3848 3150
3150 3848 3551
3150 3848 3848
3150 3848 4079
3150 4079 16
3150 4079 272
3150 4079 1193
3150 4079 1972
3150 4079 2634
3150 4079 3150
3150 4079 3551
3150 4079 3848
3150 4079 4079
3551 16 16
3551 16 272
3551 16 1193
3551 16 1972
3551 16 2634
3551 16 3150
3551 16 3551
3551 16 3848
3551 16 4079
3551 272 16
3551 272 272
3551 272 1193
3551 272 1972
3551 272 2634
3551 272 3150
3551 272 3551
3551 272 3848
3551 272 4079
3551 1193 16
3551 1193 272
3551 1193 1193
3551 1193 1972
3551 1193 2634
3551 1193 3150
3551 1193 3551
3551 1193 3848
3551 1193 4079
3551 1972 16
3551 1972 272
3551 1972 1193
3551 1972 1972
3551 1972 2634
3551 1972 3150
3551 1972 3551
3551 1972 3848
3551 1972 4079
3551 2634 16
3551 2634 272
3551 2634 1193
3551 2634 1972
3551 2634 2634
3551 2634 3150
3551 2634 3551
3551 2634 3848
3551 2634 4079
3551 3150 16
3551 3150 272
3551 3150 1193
3551 3150 1972
3551 3150 2634
3551 3150 3150
3551 3150 3551
3551 3150 3848
3551 3150 4079
3551 3551 16
3551 3551 272
3551 3551 1193
3551 3551 1972
3551 3551 2634
3551 3551 3150
3551 3551 3551
3551 3551 3848
3551 3551 4079
3551 3848 16
3551 3848 272
3551 3848 1193
3551 3848 1972
3551 3848 2634
3551 3848 3150
3551 3848 3551
3551 3848 3848
3551 3848 4079
3551 4079 16
3551 4079 272
3551 4079 1193
3551 4079 1972
3551 4079 2634
3551 4079 3150
3551 4079 3551
3551 4079 3848
3551 4079 4079
3848 16 16
3848 16 272
3848 16 1193
3848 16 1972
3848 16 2634
3848 16 3150
3848 16 3551
3848 16 3848
3848 16 4079
3848 272 16
3848 272 272
3848 272 1193
3848 272 1972
3848 272 2634
3848 272 3150
3848 272 3551
3848 272 3848
3848 272 4079
3848 1193 16
3848 1193 272
3848 1193 1193
3848 1193 1972
3848 1193 2634
3848 1193 3150
3848 1193 3551
3848 1193 3848
3848 1193 4079
3848 1972 16
3848 1972 272
3848 1972 1193
3848 1972 1972
3848 1972 2634
3848 1972 3150
3848 1972 3551
3848 1972 3848
3848 1972 4079
3848 2634 16
3848 2634 272
3848 2634 1193
3848 2634 1972
3848 2634 2634
3848 2634 3150
3848 2634 3551
3848 2634 3848
3848 2634 4079
3848 3150 16
3848 3150 272
3848 3150 1193
3848 3150 1972
3848 3150 2634
3848 3150 3150
3848 3150 3551
3848 3150 3848
3848 3150 4079
3848 3551 16
3848 3551 272
3848 3551 1193
3848 3551 1972
3848 3551 2634
3848 3551 3150
3848 3551 3551
3848 3551 3848
3848 3551 4079
3848 3848 16
3848 3848 272
3848 3848 1193
3848 3848 1972
3848 3848 2634
3848 3848 3150
3848 3848 3551
3848 3848 3848
3848 3848 4079
3848 4079 16
3848 4079 272
3848 4079 1193
3848 4079 1972
3848 4079 2634
3848 4079 3150
3848 4079 3551
3848 4079 3848
3848 4079 4079
4079 16 16
4079 16 272
4079 16 1193
4079 16 1972
4079 16 2634
4079 16 3150
4079 16 3551
4079 16 3848
4079 16 4079
4079 272 16
4079 272 272
4079 272 1193
4079 272 1972
4079 272 2634
4079 272 3150
4079 272 3551
4079 272 3848
4079 272 4079
4079 1193 16
4079 1193 272
4079 1193 1193
4079 1193 1972
4079 1193 2634
4079 1193 3150
4079 1193 3551
4079 1193 3848
4079 1193 4079
4079 1972 16
4079 1972 272
4079 1972 1193
4079 1972 1972
4079 1972 2634
4079 1972 3150
4079 1972 3551
4079 1972 3848
4079 1972 4079
4079 2634 16
4079 2634 272
4079 2634 1193
4079 2634 1972
4079 2634 2634
4079 2634 3150
4079 2634 3551
4079 2634 3848
4079 2634 4079
4079 3150 16
4079 3150 272
4079 3150 1193
4079 3150 1972
4079 3150 2634
4079 3150 3150
4079 3150 3551
4079 3150 3848
4079 3150 4079
4079 3551 16
4079 3551 272
4079 3551 1193
4079 3551 1972
4079 3551 2634
4079 3551 3150
4079 3551 3551
4079 3551 3848
4079 3551 4079
4079 3848 16
4079 3848 272
4079 3848 1193
4079 3848 1972
4079 3848 2634
4079 3848 3150
4079 3848 3551
4079 3848 3848
4079 3848 4079
4079 4079 16
4079 4079 272
4079 4079 1193
4079 4079 1972
4079 4079 2634
4079 4079 3150
4079 4079 3551
4079 4079 3848
4079 4079 4079
