Postproduction/IWLTBAP - Humble/LUTs by IWLTBAP (3DL)/UTILITY/Canon C-Log to Rec.709/U-CANON-C-LOG-V5-LTR.3dl
# Copyright: (C) Copyright 2010-2018 by IWLTBAP SAS
# Cannot be resold, shared or otherwise redistributed
# Website: https://luts.iwltbap.com
0 256 512 768 1023
270 270 270
270 270 1278
270 270 2511
270 270 3297
270 270 3749
270 1278 270
270 1278 1278
270 1278 2511
270 1278 3297
270 1278 3749
270 2511 270
270 2511 1278
270 2511 2511
270 2511 3297
270 2511 3749
270 3297 270
270 3297 1278
270 3297 2511
270 3297 3297
270 3297 3749
270 3749 270
270 3749 1278
270 3749 2511
270 3749 3297
270 3749 3749
1278 270 270
1278 270 1278
1278 270 2511
1278 270 3297
1278 270 3749
1278 1278 270
1278 1278 1278
1278 1278 2511
1278 1278 3297
1278 1278 3749
1278 2511 270
1278 2511 1278
1278 2511 2511
1278 2511 3297
1278 2511 3749
1278 3297 270
1278 3297 1278
1278 3297 2511
1278 3297 3297
1278 3297 3749
1278 3749 270
1278 3749 1278
1278 3749 2511
1278 3749 3297
1278 3749 3749
2511 270 270
2511 270 1278
2511 270 2511
2511 270 3297
2511 270 3749
2511 1278 270
2511 1278 1278
2511 1278 2511
2511 1278 3297
2511 1278 3749
2511 2511 270
2511 2511 1278
2511 2511 2511
2511 2511 3297
2511 2511 3749
2511 3297 270
2511 3297 1278
2511 3297 2511
2511 3297 3297
2511 3297 3749
2511 3749 270
2511 3749 1278
2511 3749 2511
2511 3749 3297
2511 3749 3749
3297 270 270
3297 270 1278
3297 270 2511
3297 270 3297
3297 270 3749
3297 1278 270
3297 1278 1278
3297 1278 2511
3297 1278 3297
3297 1278 3749
3297 2511 270
3297 2511 1278
3297 2511 2511
3297 2511 3297
3297 2511 3749
3297 3297 270
3297 3297 1278
3297 3297 2511
3297 3297 3297
3297 3297 3749
3297 3749 270
3297 3749 1278
3297 3749 2511
3297 3749 3297
3297 3749 3749
3749 270 270
3749 270 1278
3749 270 2511
3749 270 3297
3749 270 3749
3749 1278 270
3749 1278 1278
3749 1278 2511
3749 1278 3297
3749 1278 3749
3749 2511 270
3749 2511 1278
3749 2511 2511
3749 2511 3297
3749 2511 3749
3749 3297 270
3749 3297 1278
3749 3297 2511
3749 3297 3297
3749 3297 3749
3749 3749 270
3749 3749 1278
3749 3749 2511
3749 3749 3297
3749 3749 3749
