Postproduction/IWLTBAP - Humble/LUTs by IWLTBAP (3DL)/UTILITY/Canon C-Log to Rec.709/U-CANON-C-LOG-V3-LTR.3dl
# Copyright: (C) Copyright 2010-2018 by IWLTBAP SAS
# Cannot be resold, shared or otherwise redistributed
# Website: https://luts.iwltbap.com
0 256 512 768 1023
270 270 270
270 270 1276
270 270 2734
270 270 3749
270 270 3749
270 1276 270
270 1276 1276
270 1276 2734
270 1276 3749
270 1276 3749
270 2734 270
270 2734 1276
270 2734 2734
270 2734 3749
270 2734 3749
270 3749 270
270 3749 1276
270 3749 2734
270 3749 3749
270 3749 3749
270 3749 270
270 3749 1276
270 3749 2734
270 3749 3749
270 3749 3749
1276 270 270
1276 270 1276
1276 270 2734
1276 270 3749
1276 270 3749
1276 1276 270
1276 1276 1276
1276 1276 2734
1276 1276 3749
1276 1276 3749
1276 2734 270
1276 2734 1276
1276 2734 2734
1276 2734 3749
1276 2734 3749
1276 3749 270
1276 3749 1276
1276 3749 2734
1276 3749 3749
1276 3749 3749
1276 3749 270
1276 3749 1276
1276 3749 2734
1276 3749 3749
1276 3749 3749
2734 270 270
2734 270 1276
2734 270 2734
2734 270 3749
2734 270 3749
2734 1276 270
2734 1276 1276
2734 1276 2734
2734 1276 3749
2734 1276 3749
2734 2734 270
2734 2734 1276
2734 2734 2734
2734 2734 3749
2734 2734 3749
2734 3749 270
2734 3749 1276
2734 3749 2734
2734 3749 3749
2734 3749 3749
2734 3749 270
2734 3749 1276
2734 3749 2734
2734 3749 3749
2734 3749 3749
3749 270 270
3749 270 1276
3749 270 2734
3749 270 3749
3749 270 3749
3749 1276 270
3749 1276 1276
3749 1276 2734
3749 1276 3749
3749 1276 3749
3749 2734 270
3749 2734 1276
3749 2734 2734
3749 2734 3749
3749 2734 3749
3749 3749 270
3749 3749 1276
3749 3749 2734
3749 3749 3749
3749 3749 3749
3749 3749 270
3749 3749 1276
3749 3749 2734
3749 3749 3749
3749 3749 3749
3749 270 270
3749 270 1276
3749 270 2734
3749 270 3749
3749 270 3749
3749 1276 270
3749 1276 1276
3749 1276 2734
3749 1276 3749
3749 1276 3749
3749 2734 270
3749 2734 1276
3749 2734 2734
3749 2734 3749
3749 2734 3749
3749 3749 270
3749 3749 1276
3749 3749 2734
3749 3749 3749
3749 3749 3749
3749 3749 270
3749 3749 1276
3749 3749 2734
3749 3749 3749
3749 3749 3749
