Postproduction/IWLTBAP - Humble/LUTs by IWLTBAP (3DL)/UTILITY/Canon C-Log to Rec.709/U-CANON-C-LOG-V1-LTR.3dl
# Copyright: (C) Copyright 2010-2018 by IWLTBAP SAS
# Cannot be resold, shared or otherwise redistributed
# Website: https://luts.iwltbap.com
0 64 128 192 256 320 384 448 512 576 640 704 768 832 896 960 1023
4 4 4
4 4 166
4 4 430
4 4 791
4 4 1157
4 4 1535
4 4 1937
4 4 2372
4 4 2824
4 4 3177
4 4 3462
4 4 3752
4 4 4022
4 4 4087
4 4 4091
4 4 4091
4 4 4091
4 141 4
4 138 139
4 135 392
4 131 745
4 127 1115
4 123 1492
4 119 1892
4 114 2324
4 109 2781
4 105 3149
4 100 3434
4 95 3724
4 90 3997
4 85 4085
4 80 4091
4 75 4091
4 75 4091
4 352 4
4 348 105
4 344 344
4 338 686
4 332 1062
4 327 1439
4 320 1838
4 314 2266
4 308 2726
4 301 3110
4 295 3399
4 288 3689
4 281 3966
4 274 4083
4 267 4091
4 261 4091
4 260 4091
4 639 4
4 634 68
4 628 292
4 622 622
4 615 1003
4 608 1380
4 601 1777
4 593 2203
4 585 2666
4 578 3063
4 570 3360
4 561 3651
4 553 3931
4 545 4080
4 536 4091
4 528 4091
4 527 4091
4 962 4
4 958 30
4 953 238
4 947 556
4 940 940
4 933 1318
4 926 1713
4 919 2136
4 912 2595
4 904 3013
4 896 3319
4 888 3610
4 881 3895
4 872 4077
4 864 4091
4 856 4091
4 855 4091
4 1282 4
4 1278 10
4 1272 186
4 1266 487
4 1260 873
4 1254 1254
4 1247 1647
4 1240 2067
4 1233 2521
4 1225 2961
4 1218 3277
4 1210 3567
4 1202 3856
4 1195 4074
4 1187 4091
4 1179 4091
4 1178 4091
4 1614 4
4 1610 7
4 1604 143
4 1598 422
4 1592 803
4 1585 1186
4 1578 1578
4 1571 1995
4 1564 2446
4 1556 2900
4 1549 3232
4 1541 3522
4 1533 3816
4 1525 4069
4 1517 4091
4 1509 4091
4 1509 4091
4 1966 4
4 1961 6
4 1956 100
4 1950 359
4 1943 728
4 1936 1117
4 1929 1508
4 1922 1922
4 1914 2368
4 1907 2831
4 1899 3186
4 1891 3476
4 1883 3771
4 1874 4047
4 1866 4090
4 1858 4091
4 1857 4091
4 2343 4
4 2338 5
4 2332 56
4 2326 297
4 2319 650
4 2312 1046
4 2304 1437
4 2297 1848
4 2289 2289
4 2281 2756
4 2273 3139
4 2264 3429
4 2256 3724
4 2247 4006
4 2238 4088
4 2230 4091
4 2229 4091
4 2741 4
4 2737 4
4 2731 20
4 2725 234
4 2719 573
4 2712 972
4 2705 1363
4 2697 1773
4 2690 2209
4 2682 2680
4 2674 3083
4 2666 3381
4 2658 3676
4 2649 3962
4 2639 4086
4 2630 4091
4 2630 4091
4 3077 4
4 3073 4
4 3069 12
4 3064 177
4 3059 494
4 3054 895
4 3048 1289
4 3042 1696
4 3037 2130
4 3030 2599
4 3024 3022
4 3018 3332
4 3012 3627
4 3005 3917
4 2999 4083
4 2992 4091
4 2992 4091
4 3330 4
4 3327 4
4 3323 10
4 3320 131
4 3316 419
4 3311 817
4 3307 1214
4 3302 1619
4 3297 2049
4 3292 2513
4 3288 2960
4 3282 3282
4 3277 3577
4 3272 3871
4 3267 4081
4 3262 4091
4 3261 4091
4 3579 4
4 3576 4
4 3573 7
4 3569 85
4 3565 350
4 3560 735
4 3556 1137
4 3551 1541
4 3547 1967
4 3542 2427
4 3537 2892
4 3532 3232
4 3527 3527
4 3521 3824
4 3516 4077
4 3511 4091
4 3511 4091
4 3832 4
4 3829 4
4 3826 5
4 3822 39
4 3818 283
4 3813 649
4 3809 1059
4 3804 1462
4 3800 1885
4 3795 2339
4 3790 2814
4 3785 3180
4 3780 3475
4 3774 3774
4 3769 4061
4 3764 4091
4 3764 4091
4 4074 4
4 4072 4
4 4068 4
4 4065 20
4 4061 219
4 4057 566
4 4052 979
4 4048 1383
4 4044 1803
4 4039 2252
4 4034 2730
4 4030 3127
4 4025 3423
4 4020 3722
4 4015 4013
4 4010 4090
4 4010 4091
4 4091 4
4 4091 4
4 4091 4
4 4091 16
4 4090 164
4 4090 485
4 4090 899
4 4090 1305
4 4090 1723
4 4090 2167
4 4090 2647
4 4090 3066
4 4089 3371
4 4089 3671
4 4089 3964
4 4089 4089
4 4089 4091
4 4091 4
4 4091 4
4 4091 4
4 4091 16
4 4091 161
4 4091 478
4 4091 892
4 4091 1299
4 4091 1716
4 4091 2161
4 4091 2640
4 4091 3061
4 4091 3367
4 4091 3667
4 4091 3960
4 4091 4087
4 4091 4091
161 4 4
158 4 158
155 4 419
151 4 777
147 4 1145
142 4 1522
138 4 1924
134 4 2358
129 4 2811
124 4 3169
120 4 3454
115 4 3744
110 4 4015
105 4 4087
100 4 4091
95 4 4091
94 4 4091
134 133 4
131 130 131
127 127 380
124 123 731
120 119 1102
115 115 1480
111 111 1880
107 106 2311
102 101 2768
97 97 3141
92 92 3426
88 87 3716
83 82 3990
78 77 4085
72 72 4091
67 67 4091
67 66 4091
100 341 4
97 337 97
93 332 332
90 327 672
86 321 1049
81 315 1426
77 309 1825
73 303 2253
68 297 2713
63 290 3100
58 284 3391
54 277 3681
49 270 3959
44 263 4082
39 256 4091
34 250 4091
33 249 4091
62 625 4
59 620 59
56 614 281
52 608 609
48 601 990
44 594 1367
40 587 1764
36 580 2189
32 572 2651
27 564 3053
23 556 3352
18 548 3642
14 540 3924
12 531 4080
11 523 4091
10 514 4091
10 514 4091
24 950 4
22 945 22
19 940 227
16 934 543
13 927 927
12 920 1306
12 913 1700
11 906 2123
10 899 2580
10 891 3003
9 883 3311
9 876 3601
8 868 3887
8 859 4077
7 851 4091
7 843 4091
7 842 4091
10 1269 4
9 1265 9
9 1260 178
8 1254 473
8 1248 860
8 1241 1241
7 1234 1634
7 1227 2053
7 1220 2507
7 1213 2949
7 1205 3268
7 1198 3558
6 1190 3849
6 1182 4073
6 1174 4091
6 1166 4091
6 1166 4091
7 1601 4
7 1597 7
7 1591 135
6 1585 410
6 1579 790
6 1572 1174
6 1566 1566
6 1558 1981
6 1551 2432
6 1544 2888
6 1536 3224
5 1529 3514
5 1521 3808
5 1513 4067
5 1505 4091
5 1497 4091
5 1496 4091
6 1953 4
5 1948 5
5 1943 92
5 1937 348
5 1930 714
5 1923 1104
5 1916 1496
5 1909 1909
5 1901 2354
5 1893 2818
4 1886 3178
4 1878 3468
4 1869 3763
4 1861 4040
4 1853 4090
4 1845 4091
4 1844 4091
4 2329 4
4 2324 4
4 2318 49
4 2312 286
4 2305 636
4 2298 1033
4 2291 1424
4 2283 1835
4 2275 2275
4 2267 2743
4 2259 3130
4 2250 3421
4 2242 3716
4 2233 3999
4 2225 4088
4 2216 4091
4 2215 4091
4 2728 4
4 2724 4
4 2718 18
4 2712 224
4 2705 559
4 2699 959
4 2692 1351
4 2684 1760
4 2677 2196
4 2669 2667
4 2661 3073
4 2652 3373
4 2643 3668
4 2634 3954
4 2625 4086
4 2616 4091
4 2615 4091
4 3067 4
4 3063 4
4 3059 12
4 3054 169
4 3049 481
4 3043 882
4 3038 1277
4 3032 1683
4 3026 2116
4 3020 2584
4 3014 3012
4 3008 3324
4 3001 3619
4 2995 3909
4 2988 4083
4 2982 4091
4 2981 4091
4 3322 4
4 3319 4
4 3315 9
4 3311 124
4 3307 408
4 3303 804
4 3298 1201
4 3294 1606
4 3289 2035
4 3284 2498
4 3279 2949
4 3274 3274
4 3269 3569
4 3264 3863
4 3259 4080
4 3253 4091
4 3253 4091
4 3571 4
4 3568 4
4 3564 6
4 3561 77
4 3556 338
4 3552 721
4 3548 1124
4 3543 1528
4 3538 1953
4 3533 2412
4 3528 2880
4 3523 3223
4 3518 3518
4 3513 3816
4 3508 4076
4 3503 4091
4 3502 4091
4 3824 4
4 3821 4
4 3818 4
4 3814 32
4 3810 272
4 3805 636
4 3801 1046
4 3796 1450
4 3791 1872
4 3786 2325
4 3782 2800
4 3777 3172
4 3771 3467
4 3766 3766
4 3761 4053
4 3756 4091
4 3755 4091
4 4066 4
4 4064 4
4 4060 4
4 4057 19
4 4053 209
4 4049 553
4 4045 966
4 4040 1370
4 4036 1790
4 4031 2238
4 4027 2716
4 4022 3119
4 4017 3415
4 4012 3714
4 4007 4005
4 4002 4090
4 4002 4091
4 4091 4
4 4091 4
4 4090 4
4 4090 15
4 4090 157
4 4090 472
4 4090 886
4 4090 1292
4 4090 1710
4 4090 2154
4 4089 2634
4 4089 3055
4 4089 3363
4 4089 3663
4 4089 3956
4 4089 4089
4 4089 4091
4 4091 4
4 4091 4
4 4091 4
4 4091 15
4 4091 153
4 4091 465
4 4091 879
4 4091 1286
4 4091 1703
4 4091 2147
4 4091 2627
4 4091 3050
4 4091 3359
4 4091 3658
4 4091 3952
4 4091 4087
4 4091 4091
413 4 4
409 4 148
404 4 404
399 4 760
393 4 1129
387 4 1506
381 4 1907
375 4 2340
368 4 2795
362 4 3158
355 4 3443
348 4 3733
341 4 4006
334 4 4086
327 4 4091
320 4 4091
319 4 4091
375 123 4
371 120 121
366 117 366
361 113 713
355 109 1087
349 105 1464
343 100 1863
336 96 2293
330 91 2751
324 87 3130
317 82 3415
310 77 3705
303 72 3980
297 67 4084
290 62 4091
283 57 4091
282 56 4091
327 327 4
323 323 87
318 318 318
313 313 655
308 307 1033
302 301 1410
296 295 1808
290 289 2235
284 283 2696
277 277 3087
271 270 3380
264 263 3670
257 256 3949
250 250 4082
243 243 4091
236 236 4091
236 235 4091
276 608 4
272 603 50
267 598 267
262 591 592
256 585 974
251 578 1352
245 570 1748
239 563 2173
232 555 2634
226 547 3040
219 539 3342
213 531 3632
206 523 3915
200 515 4079
194 506 4091
189 498 4091
189 497 4091
221 933 4
218 929 13
213 923 213
208 917 526
202 911 910
198 904 1290
193 897 1684
188 890 2106
183 882 2562
179 875 2990
174 867 3301
169 859 3591
164 851 3878
159 843 4076
154 835 4091
149 827 4091
149 826 4091
173 1254 4
171 1249 8
167 1244 168
164 1238 458
160 1232 843
156 1225 1225
151 1218 1618
147 1212 2036
142 1204 2489
138 1197 2936
133 1190 3258
128 1182 3548
124 1174 3839
119 1166 4072
114 1158 4091
109 1150 4091
109 1150 4091
131 1585 4
129 1581 6
125 1575 126
122 1569 396
118 1563 773
114 1556 1158
109 1550 1550
105 1542 1965
100 1535 2414
96 1528 2873
91 1520 3213
86 1513 3504
82 1505 3798
77 1497 4065
72 1489 4091
67 1481 4091
66 1480 4091
88 1936 4
85 1932 5
82 1926 82
78 1920 334
74 1913 697
70 1907 1089
66 1899 1480
62 1892 1892
58 1885 2336
53 1877 2801
49 1869 3168
45 1861 3458
41 1853 3753
36 1845 4032
32 1837 4090
27 1829 4091
27 1828 4091
45 2312 4
43 2307 4
40 2301 40
37 2295 272
33 2288 620
30 2281 1017
26 2273 1408
22 2266 1818
20 2258 2258
19 2250 2727
18 2242 3119
17 2233 3411
16 2225 3706
16 2216 3989
15 2207 4088
14 2199 4091
14 2198 4091
17 2712 4
17 2707 4
16 2702 16
15 2695 211
15 2689 543
14 2682 943
13 2675 1335
13 2668 1743
12 2660 2179
12 2651 2650
11 2643 3060
11 2634 3363
11 2625 3658
11 2616 3945
10 2607 4085
10 2598 4091
10 2597 4091
11 3054 4
11 3050 4
11 3046 11
11 3041 160
10 3036 465
10 3030 866
10 3025 1261
10 3019 1667
9 3013 2099
9 3007 2566
9 3001 2999
9 2995 3314
8 2988 3609
8 2982 3900
8 2975 4082
8 2969 4091
7 2968 4091
9 3311 4
8 3308 4
8 3305 8
8 3301 114
8 3297 393
7 3292 787
7 3288 1186
7 3283 1590
7 3279 2018
6 3274 2481
6 3269 2936
6 3264 3264
6 3259 3559
6 3253 3854
5 3248 4080
5 3243 4091
5 3243 4091
6 3560 4
6 3558 4
6 3554 6
5 3550 67
5 3546 325
5 3542 704
5 3537 1109
5 3533 1512
5 3528 1937
4 3523 2395
4 3518 2865
4 3513 3213
4 3508 3508
4 3503 3806
4 3497 4074
4 3492 4091
4 3492 4091
4 3814 4
4 3811 4
4 3807 4
4 3803 25
4 3799 259
4 3795 619
4 3790 1030
4 3786 1434
4 3781 1856
4 3776 2308
4 3771 2784
4 3766 3161
4 3761 3456
4 3756 3756
4 3750 4044
4 3745 4091
4 3745 4091
4 4057 4
4 4054 4
4 4051 4
4 4047 17
4 4043 197
4 4039 536
4 4035 950
4 4031 1354
4 4026 1774
4 4021 2221
4 4017 2700
4 4012 3107
4 4007 3404
4 4002 3703
4 3997 3995
4 3992 4090
4 3992 4091
4 4090 4
4 4090 4
4 4090 4
4 4090 14
4 4090 147
4 4090 455
4 4090 869
4 4090 1277
4 4089 1694
4 4089 2137
4 4089 2617
4 4089 3042
4 4089 3353
4 4089 3652
4 4089 3946
4 4088 4088
4 4088 4091
4 4091 4
4 4091 4
4 4091 4
4 4091 14
4 4091 144
4 4091 449
4 4091 862
4 4091 1270
4 4091 1687
4 4091 2131
4 4091 2609
4 4091 3037
4 4091 3349
4 4091 3648
4 4091 3942
4 4091 4087
4 4091 4091
758 4 4
753 4 137
747 4 389
741 4 741
734 4 1112
727 4 1489
719 4 1889
711 4 2321
703 4 2777
695 4 3147
687 4 3432
679 4 3722
670 4 3995
661 4 4085
652 4 4091
644 4 4091
643 4 4091
711 112 4
706 109 110
701 106 350
694 102 694
687 98 1069
680 94 1446
672 89 1845
665 85 2274
657 80 2733
649 75 3116
640 71 3404
632 66 3694
624 61 3970
616 56 4083
607 51 4091
599 46 4091
