Postproduction/IWLTBAP - Humble/LUTs by IWLTBAP (3DL)/UTILITY/Canon C-Log to Rec.709/U-CANON-C-LOG-V4-LTR.3dl
# Copyright: (C) Copyright 2010-2018 by IWLTBAP SAS
# Cannot be resold, shared or otherwise redistributed
# Website: https://luts.iwltbap.com
0 64 128 192 256 320 384 448 512 576 640 704 768 832 896 960 1023
16 16 16
16 16 23
16 16 272
16 16 768
16 16 1193
16 16 1586
16 16 1972
16 16 2327
16 16 2634
16 16 2907
16 16 3150
16 16 3364
16 16 3551
16 16 3711
16 16 3848
16 16 3968
16 16 4079
16 23 16
16 23 23
16 23 272
16 23 768
16 23 1193
16 23 1586
16 23 1972
16 23 2327
16 23 2634
16 23 2907
16 23 3150
16 23 3364
16 23 3551
16 23 3711
16 23 3848
16 23 3968
16 23 4079
16 272 16
16 272 23
16 272 272
16 272 768
16 272 1193
16 272 1586
16 272 1972
16 272 2327
16 272 2634
16 272 2907
16 272 3150
16 272 3364
16 272 3551
16 272 3711
16 272 3848
16 272 3968
16 272 4079
16 768 16
16 768 23
16 768 272
16 768 768
16 768 1193
16 768 1586
16 768 1972
16 768 2327
16 768 2634
16 768 2907
16 768 3150
16 768 3364
16 768 3551
16 768 3711
16 768 3848
16 768 3968
16 768 4079
16 1193 16
16 1193 23
16 1193 272
16 1193 768
16 1193 1193
16 1193 1586
16 1193 1972
16 1193 2327
16 1193 2634
16 1193 2907
16 1193 3150
16 1193 3364
16 1193 3551
16 1193 3711
16 1193 3848
16 1193 3968
16 1193 4079
16 1586 16
16 1586 23
16 1586 272
16 1586 768
16 1586 1193
16 1586 1586
16 1586 1972
16 1586 2327
16 1586 2634
16 1586 2907
16 1586 3150
16 1586 3364
16 1586 3551
16 1586 3711
16 1586 3848
16 1586 3968
16 1586 4079
16 1972 16
16 1972 23
16 1972 272
16 1972 768
16 1972 1193
16 1972 1586
16 1972 1972
16 1972 2327
16 1972 2634
16 1972 2907
16 1972 3150
16 1972 3364
16 1972 3551
16 1972 3711
16 1972 3848
16 1972 3968
16 1972 4079
16 2327 16
16 2327 23
16 2327 272
16 2327 768
16 2327 1193
16 2327 1586
16 2327 1972
16 2327 2327
16 2327 2634
16 2327 2907
16 2327 3150
16 2327 3364
16 2327 3551
16 2327 3711
16 2327 3848
16 2327 3968
16 2327 4079
16 2634 16
16 2634 23
16 2634 272
16 2634 768
16 2634 1193
16 2634 1586
16 2634 1972
16 2634 2327
16 2634 2634
16 2634 2907
16 2634 3150
16 2634 3364
16 2634 3551
16 2634 3711
16 2634 3848
16 2634 3968
16 2634 4079
16 2907 16
16 2907 23
16 2907 272
16 2907 768
16 2907 1193
16 2907 1586
16 2907 1972
16 2907 2327
16 2907 2634
16 2907 2907
16 2907 3150
16 2907 3364
16 2907 3551
16 2907 3711
16 2907 3848
16 2907 3968
16 2907 4079
16 3150 16
16 3150 23
16 3150 272
16 3150 768
16 3150 1193
16 3150 1586
16 3150 1972
16 3150 2327
16 3150 2634
16 3150 2907
16 3150 3150
16 3150 3364
16 3150 3551
16 3150 3711
16 3150 3848
16 3150 3968
16 3150 4079
16 3364 16
16 3364 23
16 3364 272
16 3364 768
16 3364 1193
16 3364 1586
16 3364 1972
16 3364 2327
16 3364 2634
16 3364 2907
16 3364 3150
16 3364 3364
16 3364 3551
16 3364 3711
16 3364 3848
16 3364 3968
16 3364 4079
16 3551 16
16 3551 23
16 3551 272
16 3551 768
16 3551 1193
16 3551 1586
16 3551 1972
16 3551 2327
16 3551 2634
16 3551 2907
16 3551 3150
16 3551 3364
16 3551 3551
16 3551 3711
16 3551 3848
16 3551 3968
16 3551 4079
16 3711 16
16 3711 23
16 3711 272
16 3711 768
16 3711 1193
16 3711 1586
16 3711 1972
16 3711 2327
16 3711 2634
16 3711 2907
16 3711 3150
16 3711 3364
16 3711 3551
16 3711 3711
16 3711 3848
16 3711 3968
16 3711 4079
16 3848 16
16 3848 23
16 3848 272
16 3848 768
16 3848 1193
16 3848 1586
16 3848 1972
16 3848 2327
16 3848 2634
16 3848 2907
16 3848 3150
16 3848 3364
16 3848 3551
16 3848 3711
16 3848 3848
16 3848 3968
16 3848 4079
16 3968 16
16 3968 23
16 3968 272
16 3968 768
16 3968 1193
16 3968 1586
16 3968 1972
16 3968 2327
16 3968 2634
16 3968 2907
16 3968 3150
16 3968 3364
16 3968 3551
16 3968 3711
16 3968 3848
16 3968 3968
16 3968 4079
16 4079 16
16 4079 23
16 4079 272
16 4079 768
16 4079 1193
16 4079 1586
16 4079 1972
16 4079 2327
16 4079 2634
16 4079 2907
16 4079 3150
16 4079 3364
16 4079 3551
16 4079 3711
16 4079 3848
16 4079 3968
16 4079 4079
23 16 16
23 16 23
23 16 272
23 16 768
23 16 1193
23 16 1586
23 16 1972
23 16 2327
23 16 2634
23 16 2907
23 16 3150
23 16 3364
23 16 3551
23 16 3711
23 16 3848
23 16 3968
23 16 4079
23 23 16
23 23 23
23 23 272
23 23 768
23 23 1193
23 23 1586
23 23 1972
23 23 2327
23 23 2634
23 23 2907
23 23 3150
23 23 3364
23 23 3551
23 23 3711
23 23 3848
23 23 3968
23 23 4079
23 272 16
23 272 23
23 272 272
23 272 768
23 272 1193
23 272 1586
23 272 1972
23 272 2327
23 272 2634
23 272 2907
23 272 3150
23 272 3364
23 272 3551
23 272 3711
23 272 3848
23 272 3968
23 272 4079
23 768 16
23 768 23
23 768 272
23 768 768
23 768 1193
23 768 1586
23 768 1972
23 768 2327
23 768 2634
23 768 2907
23 768 3150
23 768 3364
23 768 3551
23 768 3711
23 768 3848
23 768 3968
23 768 4079
23 1193 16
23 1193 23
23 1193 272
23 1193 768
23 1193 1193
23 1193 1586
23 1193 1972
23 1193 2327
23 1193 2634
23 1193 2907
23 1193 3150
23 1193 3364
23 1193 3551
23 1193 3711
23 1193 3848
23 1193 3968
23 1193 4079
23 1586 16
23 1586 23
23 1586 272
23 1586 768
23 1586 1193
23 1586 1586
23 1586 1972
23 1586 2327
23 1586 2634
23 1586 2907
23 1586 3150
23 1586 3364
23 1586 3551
23 1586 3711
23 1586 3848
23 1586 3968
23 1586 4079
23 1972 16
23 1972 23
23 1972 272
23 1972 768
23 1972 1193
23 1972 1586
23 1972 1972
23 1972 2327
23 1972 2634
23 1972 2907
23 1972 3150
23 1972 3364
23 1972 3551
23 1972 3711
23 1972 3848
23 1972 3968
23 1972 4079
23 2327 16
23 2327 23
23 2327 272
23 2327 768
23 2327 1193
23 2327 1586
23 2327 1972
23 2327 2327
23 2327 2634
23 2327 2907
23 2327 3150
23 2327 3364
23 2327 3551
23 2327 3711
23 2327 3848
23 2327 3968
23 2327 4079
23 2634 16
23 2634 23
23 2634 272
23 2634 768
23 2634 1193
23 2634 1586
23 2634 1972
23 2634 2327
23 2634 2634
23 2634 2907
23 2634 3150
23 2634 3364
23 2634 3551
23 2634 3711
23 2634 3848
23 2634 3968
23 2634 4079
23 2907 16
23 2907 23
23 2907 272
23 2907 768
23 2907 1193
23 2907 1586
23 2907 1972
23 2907 2327
23 2907 2634
23 2907 2907
23 2907 3150
23 2907 3364
23 2907 3551
23 2907 3711
23 2907 3848
23 2907 3968
23 2907 4079
23 3150 16
23 3150 23
23 3150 272
23 3150 768
23 3150 1193
23 3150 1586
23 3150 1972
23 3150 2327
23 3150 2634
23 3150 2907
23 3150 3150
23 3150 3364
23 3150 3551
23 3150 3711
23 3150 3848
23 3150 3968
23 3150 4079
23 3364 16
23 3364 23
23 3364 272
23 3364 768
23 3364 1193
23 3364 1586
23 3364 1972
23 3364 2327
23 3364 2634
23 3364 2907
23 3364 3150
23 3364 3364
23 3364 3551
23 3364 3711
23 3364 3848
23 3364 3968
23 3364 4079
23 3551 16
23 3551 23
23 3551 272
23 3551 768
23 3551 1193
23 3551 1586
23 3551 1972
23 3551 2327
23 3551 2634
23 3551 2907
23 3551 3150
23 3551 3364
23 3551 3551
23 3551 3711
23 3551 3848
23 3551 3968
23 3551 4079
23 3711 16
23 3711 23
23 3711 272
23 3711 768
23 3711 1193
23 3711 1586
23 3711 1972
23 3711 2327
23 3711 2634
23 3711 2907
23 3711 3150
23 3711 3364
23 3711 3551
23 3711 3711
23 3711 3848
23 3711 3968
23 3711 4079
23 3848 16
23 3848 23
23 3848 272
23 3848 768
23 3848 1193
23 3848 1586
23 3848 1972
23 3848 2327
23 3848 2634
23 3848 2907
23 3848 3150
23 3848 3364
23 3848 3551
23 3848 3711
23 3848 3848
23 3848 3968
23 3848 4079
23 3968 16
23 3968 23
23 3968 272
23 3968 768
23 3968 1193
23 3968 1586
23 3968 1972
23 3968 2327
23 3968 2634
23 3968 2907
23 3968 3150
23 3968 3364
23 3968 3551
23 3968 3711
23 3968 3848
23 3968 3968
23 3968 4079
23 4079 16
23 4079 23
23 4079 272
23 4079 768
23 4079 1193
23 4079 1586
23 4079 1972
23 4079 2327
23 4079 2634
23 4079 2907
23 4079 3150
23 4079 3364
23 4079 3551
23 4079 3711
23 4079 3848
23 4079 3968
23 4079 4079
272 16 16
272 16 23
272 16 272
272 16 768
272 16 1193
272 16 1586
272 16 1972
272 16 2327
272 16 2634
272 16 2907
272 16 3150
272 16 3364
272 16 3551
272 16 3711
272 16 3848
272 16 3968
272 16 4079
272 23 16
272 23 23
272 23 272
272 23 768
272 23 1193
272 23 1586
272 23 1972
272 23 2327
272 23 2634
272 23 2907
272 23 3150
272 23 3364
272 23 3551
272 23 3711
272 23 3848
272 23 3968
272 23 4079
272 272 16
272 272 23
272 272 272
272 272 768
272 272 1193
272 272 1586
272 272 1972
272 272 2327
272 272 2634
272 272 2907
272 272 3150
272 272 3364
272 272 3551
272 272 3711
272 272 3848
272 272 3968
272 272 4079
272 768 16
272 768 23
272 768 272
272 768 768
272 768 1193
272 768 1586
272 768 1972
272 768 2327
272 768 2634
272 768 2907
272 768 3150
272 768 3364
272 768 3551
272 768 3711
272 768 3848
272 768 3968
272 768 4079
272 1193 16
272 1193 23
272 1193 272
272 1193 768
272 1193 1193
272 1193 1586
272 1193 1972
272 1193 2327
272 1193 2634
272 1193 2907
272 1193 3150
272 1193 3364
272 1193 3551
272 1193 3711
272 1193 3848
272 1193 3968
272 1193 4079
272 1586 16
272 1586 23
272 1586 272
272 1586 768
272 1586 1193
272 1586 1586
272 1586 1972
272 1586 2327
272 1586 2634
272 1586 2907
272 1586 3150
272 1586 3364
272 1586 3551
272 1586 3711
272 1586 3848
272 1586 3968
272 1586 4079
272 1972 16
272 1972 23
272 1972 272
272 1972 768
272 1972 1193
272 1972 1586
272 1972 1972
272 1972 2327
272 1972 2634
272 1972 2907
272 1972 3150
272 1972 3364
272 1972 3551
272 1972 3711
272 1972 3848
272 1972 3968
272 1972 4079
272 2327 16
272 2327 23
272 2327 272
272 2327 768
272 2327 1193
272 2327 1586
272 2327 1972
272 2327 2327
272 2327 2634
272 2327 2907
272 2327 3150
272 2327 3364
272 2327 3551
272 2327 3711
272 2327 3848
272 2327 3968
272 2327 4079
272 2634 16
272 2634 23
272 2634 272
272 2634 768
272 2634 1193
272 2634 1586
272 2634 1972
272 2634 2327
272 2634 2634
272 2634 2907
272 2634 3150
272 2634 3364
272 2634 3551
272 2634 3711
272 2634 3848
272 2634 3968
272 2634 4079
272 2907 16
272 2907 23
272 2907 272
272 2907 768
272 2907 1193
272 2907 1586
272 2907 1972
272 2907 2327
272 2907 2634
272 2907 2907
272 2907 3150
272 2907 3364
272 2907 3551
272 2907 3711
272 2907 3848
272 2907 3968
272 2907 4079
272 3150 16
272 3150 23
272 3150 272
272 3150 768
272 3150 1193
272 3150 1586
272 3150 1972
272 3150 2327
272 3150 2634
272 3150 2907
272 3150 3150
272 3150 3364
272 3150 3551
272 3150 3711
272 3150 3848
272 3150 3968
272 3150 4079
272 3364 16
272 3364 23
272 3364 272
272 3364 768
272 3364 1193
272 3364 1586
272 3364 1972
272 3364 2327
272 3364 2634
272 3364 2907
272 3364 3150
272 3364 3364
272 3364 3551
272 3364 3711
272 3364 3848
272 3364 3968
272 3364 4079
272 3551 16
272 3551 23
272 3551 272
272 3551 768
272 3551 1193
272 3551 1586
272 3551 1972
272 3551 2327
272 3551 2634
272 3551 2907
272 3551 3150
272 3551 3364
272 3551 3551
272 3551 3711
272 3551 3848
272 3551 3968
272 3551 4079
272 3711 16
272 3711 23
272 3711 272
272 3711 768
272 3711 1193
272 3711 1586
272 3711 1972
272 3711 2327
272 3711 2634
272 3711 2907
272 3711 3150
272 3711 3364
272 3711 3551
272 3711 3711
272 3711 3848
272 3711 3968
272 3711 4079
272 3848 16
272 3848 23
272 3848 272
272 3848 768
272 3848 1193
272 3848 1586
272 3848 1972
272 3848 2327
272 3848 2634
272 3848 2907
272 3848 3150
272 3848 3364
272 3848 3551
272 3848 3711
272 3848 3848
272 3848 3968
272 3848 4079
272 3968 16
272 3968 23
272 3968 272
272 3968 768
272 3968 1193
272 3968 1586
272 3968 1972
272 3968 2327
272 3968 2634
272 3968 2907
272 3968 3150
272 3968 3364
272 3968 3551
272 3968 3711
272 3968 3848
272 3968 3968
272 3968 4079
272 4079 16
272 4079 23
272 4079 272
272 4079 768
272 4079 1193
272 4079 1586
272 4079 1972
272 4079 2327
272 4079 2634
272 4079 2907
272 4079 3150
272 4079 3364
272 4079 3551
272 4079 3711
272 4079 3848
272 4079 3968
272 4079 4079
768 16 16
768 16 23
768 16 272
768 16 768
768 16 1193
768 16 1586
768 16 1972
768 16 2327
768 16 2634
768 16 2907
768 16 3150
768 16 3364
768 16 3551
768 16 3711
768 16 3848
768 16 3968
768 16 4079
768 23 16
768 23 23
768 23 272
768 23 768
768 23 1193
768 23 1586
768 23 1972
768 23 2327
768 23 2634
768 23 2907
768 23 3150
768 23 3364
768 23 3551
768 23 3711
768 23 3848
768 23 3968
