Postproduction/IWLTBAP - Humble/LUTs by IWLTBAP (3DL)/UTILITY/Canon C-Log to Rec.709/U-CANON-C-LOG-V2-LTR.3dl
# Copyright: (C) Copyright 2010-2018 by IWLTBAP SAS
# Cannot be resold, shared or otherwise redistributed
# Website: https://luts.iwltbap.com
0 64 128 192 256 320 384 448 512 576 640 704 768 832 896 960 1023
16 16 16
16 16 23
16 16 272
16 16 772
16 16 1191
16 16 1583
16 16 1986
16 16 2418
16 16 2894
16 16 3427
16 16 3951
16 16 4072
16 16 4079
16 16 4079
16 16 4079
16 16 4079
16 16 4079
16 23 16
16 23 23
16 23 272
16 23 772
16 23 1191
16 23 1583
16 23 1986
16 23 2418
16 23 2894
16 23 3427
16 23 3951
16 23 4072
16 23 4079
16 23 4079
16 23 4079
16 23 4079
16 23 4079
16 272 16
16 272 23
16 272 272
16 272 772
16 272 1191
16 272 1583
16 272 1986
16 272 2418
16 272 2894
16 272 3427
16 272 3951
16 272 4072
16 272 4079
16 272 4079
16 272 4079
16 272 4079
16 272 4079
16 772 16
16 772 23
16 772 272
16 772 772
16 772 1191
16 772 1583
16 772 1986
16 772 2418
16 772 2894
16 772 3427
16 772 3951
16 772 4072
16 772 4079
16 772 4079
16 772 4079
16 772 4079
16 772 4079
16 1191 16
16 1191 23
16 1191 272
16 1191 772
16 1191 1191
16 1191 1583
16 1191 1986
16 1191 2418
16 1191 2894
16 1191 3427
16 1191 3951
16 1191 4072
16 1191 4079
16 1191 4079
16 1191 4079
16 1191 4079
16 1191 4079
16 1583 16
16 1583 23
16 1583 272
16 1583 772
16 1583 1191
16 1583 1583
16 1583 1986
16 1583 2418
16 1583 2894
16 1583 3427
16 1583 3951
16 1583 4072
16 1583 4079
16 1583 4079
16 1583 4079
16 1583 4079
16 1583 4079
16 1986 16
16 1986 23
16 1986 272
16 1986 772
16 1986 1191
16 1986 1583
16 1986 1986
16 1986 2418
16 1986 2894
16 1986 3427
16 1986 3951
16 1986 4072
16 1986 4079
16 1986 4079
16 1986 4079
16 1986 4079
16 1986 4079
16 2418 16
16 2418 23
16 2418 272
16 2418 772
16 2418 1191
16 2418 1583
16 2418 1986
16 2418 2418
16 2418 2894
16 2418 3427
16 2418 3951
16 2418 4072
16 2418 4079
16 2418 4079
16 2418 4079
16 2418 4079
16 2418 4079
16 2894 16
16 2894 23
16 2894 272
16 2894 772
16 2894 1191
16 2894 1583
16 2894 1986
16 2894 2418
16 2894 2894
16 2894 3427
16 2894 3951
16 2894 4072
16 2894 4079
16 2894 4079
16 2894 4079
16 2894 4079
16 2894 4079
16 3427 16
16 3427 23
16 3427 272
16 3427 772
16 3427 1191
16 3427 1583
16 3427 1986
16 3427 2418
16 3427 2894
16 3427 3427
16 3427 3951
16 3427 4072
16 3427 4079
16 3427 4079
16 3427 4079
16 3427 4079
16 3427 4079
16 3951 16
16 3951 23
16 3951 272
16 3951 772
16 3951 1191
16 3951 1583
16 3951 1986
16 3951 2418
16 3951 2894
16 3951 3427
16 3951 3951
16 3951 4072
16 3951 4079
16 3951 4079
16 3951 4079
16 3951 4079
16 3951 4079
16 4072 16
16 4072 23
16 4072 272
16 4072 772
16 4072 1191
16 4072 1583
16 4072 1986
16 4072 2418
16 4072 2894
16 4072 3427
16 4072 3951
16 4072 4072
16 4072 4079
16 4072 4079
16 4072 4079
16 4072 4079
16 4072 4079
16 4079 16
16 4079 23
16 4079 272
16 4079 772
16 4079 1191
16 4079 1583
16 4079 1986
16 4079 2418
16 4079 2894
16 4079 3427
16 4079 3951
16 4079 4072
16 4079 4079
16 4079 4079
16 4079 4079
16 4079 4079
16 4079 4079
16 4079 16
16 4079 23
16 4079 272
16 4079 772
16 4079 1191
16 4079 1583
16 4079 1986
16 4079 2418
16 4079 2894
16 4079 3427
16 4079 3951
16 4079 4072
16 4079 4079
16 4079 4079
16 4079 4079
16 4079 4079
16 4079 4079
16 4079 16
16 4079 23
16 4079 272
16 4079 772
16 4079 1191
16 4079 1583
16 4079 1986
16 4079 2418
16 4079 2894
16 4079 3427
16 4079 3951
16 4079 4072
16 4079 4079
16 4079 4079
16 4079 4079
16 4079 4079
16 4079 4079
16 4079 16
16 4079 23
16 4079 272
16 4079 772
16 4079 1191
16 4079 1583
16 4079 1986
16 4079 2418
16 4079 2894
16 4079 3427
16 4079 3951
16 4079 4072
16 4079 4079
16 4079 4079
16 4079 4079
16 4079 4079
16 4079 4079
16 4079 16
16 4079 23
16 4079 272
16 4079 772
16 4079 1191
16 4079 1583
16 4079 1986
16 4079 2418
16 4079 2894
16 4079 3427
16 4079 3951
16 4079 4072
16 4079 4079
16 4079 4079
16 4079 4079
16 4079 4079
16 4079 4079
23 16 16
23 16 23
23 16 272
23 16 772
23 16 1191
23 16 1583
23 16 1986
23 16 2418
23 16 2894
23 16 3427
23 16 3951
23 16 4072
23 16 4079
23 16 4079
23 16 4079
23 16 4079
23 16 4079
23 23 16
23 23 23
23 23 272
23 23 772
23 23 1191
23 23 1583
23 23 1986
23 23 2418
23 23 2894
23 23 3427
23 23 3951
23 23 4072
23 23 4079
23 23 4079
23 23 4079
23 23 4079
23 23 4079
23 272 16
23 272 23
23 272 272
23 272 772
23 272 1191
23 272 1583
23 272 1986
23 272 2418
23 272 2894
23 272 3427
23 272 3951
23 272 4072
23 272 4079
23 272 4079
23 272 4079
23 272 4079
23 272 4079
23 772 16
23 772 23
23 772 272
23 772 772
23 772 1191
23 772 1583
23 772 1986
23 772 2418
23 772 2894
23 772 3427
23 772 3951
23 772 4072
23 772 4079
23 772 4079
23 772 4079
23 772 4079
23 772 4079
23 1191 16
23 1191 23
23 1191 272
23 1191 772
23 1191 1191
23 1191 1583
23 1191 1986
23 1191 2418
23 1191 2894
23 1191 3427
23 1191 3951
23 1191 4072
23 1191 4079
23 1191 4079
23 1191 4079
23 1191 4079
23 1191 4079
23 1583 16
23 1583 23
23 1583 272
23 1583 772
23 1583 1191
23 1583 1583
23 1583 1986
23 1583 2418
23 1583 2894
23 1583 3427
23 1583 3951
23 1583 4072
23 1583 4079
23 1583 4079
23 1583 4079
23 1583 4079
23 1583 4079
23 1986 16
23 1986 23
23 1986 272
23 1986 772
23 1986 1191
23 1986 1583
23 1986 1986
23 1986 2418
23 1986 2894
23 1986 3427
23 1986 3951
23 1986 4072
23 1986 4079
23 1986 4079
23 1986 4079
23 1986 4079
23 1986 4079
23 2418 16
23 2418 23
23 2418 272
23 2418 772
23 2418 1191
23 2418 1583
23 2418 1986
23 2418 2418
23 2418 2894
23 2418 3427
23 2418 3951
23 2418 4072
23 2418 4079
23 2418 4079
23 2418 4079
23 2418 4079
23 2418 4079
23 2894 16
23 2894 23
23 2894 272
23 2894 772
23 2894 1191
23 2894 1583
23 2894 1986
23 2894 2418
23 2894 2894
23 2894 3427
23 2894 3951
23 2894 4072
23 2894 4079
23 2894 4079
23 2894 4079
23 2894 4079
23 2894 4079
23 3427 16
23 3427 23
23 3427 272
23 3427 772
23 3427 1191
23 3427 1583
23 3427 1986
23 3427 2418
23 3427 2894
23 3427 3427
23 3427 3951
23 3427 4072
23 3427 4079
23 3427 4079
23 3427 4079
23 3427 4079
23 3427 4079
23 3951 16
23 3951 23
23 3951 272
23 3951 772
23 3951 1191
23 3951 1583
23 3951 1986
23 3951 2418
23 3951 2894
23 3951 3427
23 3951 3951
23 3951 4072
23 3951 4079
23 3951 4079
23 3951 4079
23 3951 4079
23 3951 4079
23 4072 16
23 4072 23
23 4072 272
23 4072 772
23 4072 1191
23 4072 1583
23 4072 1986
23 4072 2418
23 4072 2894
23 4072 3427
23 4072 3951
23 4072 4072
23 4072 4079
23 4072 4079
23 4072 4079
23 4072 4079
23 4072 4079
23 4079 16
23 4079 23
23 4079 272
23 4079 772
23 4079 1191
23 4079 1583
23 4079 1986
23 4079 2418
23 4079 2894
23 4079 3427
23 4079 3951
23 4079 4072
23 4079 4079
23 4079 4079
23 4079 4079
23 4079 4079
23 4079 4079
23 4079 16
23 4079 23
23 4079 272
23 4079 772
23 4079 1191
23 4079 1583
23 4079 1986
23 4079 2418
23 4079 2894
23 4079 3427
23 4079 3951
23 4079 4072
23 4079 4079
23 4079 4079
23 4079 4079
23 4079 4079
23 4079 4079
23 4079 16
23 4079 23
23 4079 272
23 4079 772
23 4079 1191
23 4079 1583
23 4079 1986
23 4079 2418
23 4079 2894
23 4079 3427
23 4079 3951
23 4079 4072
23 4079 4079
23 4079 4079
23 4079 4079
23 4079 4079
23 4079 4079
23 4079 16
23 4079 23
23 4079 272
23 4079 772
23 4079 1191
23 4079 1583
23 4079 1986
23 4079 2418
23 4079 2894
23 4079 3427
23 4079 3951
23 4079 4072
23 4079 4079
23 4079 4079
23 4079 4079
23 4079 4079
23 4079 4079
23 4079 16
23 4079 23
23 4079 272
23 4079 772
23 4079 1191
23 4079 1583
23 4079 1986
23 4079 2418
23 4079 2894
23 4079 3427
23 4079 3951
23 4079 4072
23 4079 4079
23 4079 4079
23 4079 4079
23 4079 4079
23 4079 4079
272 16 16
272 16 23
272 16 272
272 16 772
272 16 1191
272 16 1583
272 16 1986
272 16 2418
272 16 2894
272 16 3427
272 16 3951
272 16 4072
272 16 4079
272 16 4079
272 16 4079
272 16 4079
272 16 4079
272 23 16
272 23 23
272 23 272
272 23 772
272 23 1191
272 23 1583
272 23 1986
272 23 2418
272 23 2894
272 23 3427
272 23 3951
272 23 4072
272 23 4079
272 23 4079
272 23 4079
272 23 4079
272 23 4079
272 272 16
272 272 23
272 272 272
272 272 772
272 272 1191
272 272 1583
272 272 1986
272 272 2418
272 272 2894
272 272 3427
272 272 3951
272 272 4072
272 272 4079
272 272 4079
272 272 4079
272 272 4079
272 272 4079
272 772 16
272 772 23
272 772 272
272 772 772
272 772 1191
272 772 1583
272 772 1986
272 772 2418
272 772 2894
272 772 3427
272 772 3951
272 772 4072
272 772 4079
272 772 4079
272 772 4079
272 772 4079
272 772 4079
272 1191 16
272 1191 23
272 1191 272
272 1191 772
272 1191 1191
272 1191 1583
272 1191 1986
272 1191 2418
272 1191 2894
272 1191 3427
272 1191 3951
272 1191 4072
272 1191 4079
272 1191 4079
272 1191 4079
272 1191 4079
272 1191 4079
272 1583 16
272 1583 23
272 1583 272
272 1583 772
272 1583 1191
272 1583 1583
272 1583 1986
272 1583 2418
272 1583 2894
272 1583 3427
272 1583 3951
272 1583 4072
272 1583 4079
272 1583 4079
272 1583 4079
272 1583 4079
272 1583 4079
272 1986 16
272 1986 23
272 1986 272
272 1986 772
272 1986 1191
272 1986 1583
272 1986 1986
272 1986 2418
272 1986 2894
272 1986 3427
272 1986 3951
272 1986 4072
272 1986 4079
272 1986 4079
272 1986 4079
272 1986 4079
272 1986 4079
272 2418 16
272 2418 23
272 2418 272
272 2418 772
272 2418 1191
272 2418 1583
272 2418 1986
272 2418 2418
272 2418 2894
272 2418 3427
272 2418 3951
272 2418 4072
272 2418 4079
272 2418 4079
272 2418 4079
272 2418 4079
272 2418 4079
272 2894 16
272 2894 23
272 2894 272
272 2894 772
272 2894 1191
272 2894 1583
272 2894 1986
272 2894 2418
272 2894 2894
272 2894 3427
272 2894 3951
272 2894 4072
272 2894 4079
272 2894 4079
272 2894 4079
272 2894 4079
272 2894 4079
272 3427 16
272 3427 23
272 3427 272
272 3427 772
272 3427 1191
272 3427 1583
272 3427 1986
272 3427 2418
272 3427 2894
272 3427 3427
272 3427 3951
272 3427 4072
272 3427 4079
272 3427 4079
272 3427 4079
272 3427 4079
272 3427 4079
272 3951 16
272 3951 23
272 3951 272
272 3951 772
272 3951 1191
272 3951 1583
272 3951 1986
272 3951 2418
272 3951 2894
272 3951 3427
272 3951 3951
272 3951 4072
272 3951 4079
272 3951 4079
272 3951 4079
272 3951 4079
272 3951 4079
272 4072 16
272 4072 23
272 4072 272
272 4072 772
272 4072 1191
272 4072 1583
272 4072 1986
272 4072 2418
272 4072 2894
272 4072 3427
272 4072 3951
272 4072 4072
272 4072 4079
272 4072 4079
272 4072 4079
272 4072 4079
272 4072 4079
272 4079 16
272 4079 23
272 4079 272
272 4079 772
272 4079 1191
272 4079 1583
272 4079 1986
272 4079 2418
272 4079 2894
272 4079 3427
272 4079 3951
272 4079 4072
272 4079 4079
272 4079 4079
272 4079 4079
272 4079 4079
272 4079 4079
272 4079 16
272 4079 23
272 4079 272
272 4079 772
272 4079 1191
272 4079 1583
272 4079 1986
272 4079 2418
272 4079 2894
272 4079 3427
272 4079 3951
272 4079 4072
272 4079 4079
272 4079 4079
272 4079 4079
272 4079 4079
272 4079 4079
272 4079 16
272 4079 23
272 4079 272
272 4079 772
272 4079 1191
272 4079 1583
272 4079 1986
272 4079 2418
272 4079 2894
272 4079 3427
272 4079 3951
272 4079 4072
272 4079 4079
272 4079 4079
272 4079 4079
272 4079 4079
272 4079 4079
272 4079 16
272 4079 23
272 4079 272
272 4079 772
272 4079 1191
272 4079 1583
272 4079 1986
272 4079 2418
272 4079 2894
272 4079 3427
272 4079 3951
272 4079 4072
272 4079 4079
272 4079 4079
272 4079 4079
272 4079 4079
272 4079 4079
272 4079 16
272 4079 23
272 4079 272
272 4079 772
272 4079 1191
272 4079 1583
272 4079 1986
272 4079 2418
272 4079 2894
272 4079 3427
272 4079 3951
272 4079 4072
272 4079 4079
272 4079 4079
272 4079 4079
272 4079 4079
272 4079 4079
772 16 16
772 16 23
772 16 272
772 16 772
772 16 1191
772 16 1583
772 16 1986
772 16 2418
772 16 2894
772 16 3427
772 16 3951
772 16 4072
772 16 4079
772 16 4079
772 16 4079
772 16 4079
772 16 4079
772 23 16
772 23 23
772 23 272
772 23 772
772 23 1191
772 23 1583
772 23 1986
772 23 2418
772 23 2894
772 23 3427
772 23 3951
772 23 4072
772 23 4079
772 23 4079
772 23 4079
772 23 4079
