Postproduction/IWLTBAP - Humble/LUTs by IWLTBAP (3DL)/UTILITY/Canon C-Log to Rec.709/U-CANON-C-LOG-V5-LTR.3dl
# Copyright: (C) Copyright 2010-2018 by IWLTBAP SAS
# Cannot be resold, shared or otherwise redistributed
# Website: https://luts.iwltbap.com
0 128 256 384 512 640 768 896 1023
270 270 270
270 270 489
270 270 1278
270 270 1945
270 270 2511
270 270 2954
270 270 3297
270 270 3552
270 270 3749
270 489 270
270 489 489
270 489 1278
270 489 1945
270 489 2511
270 489 2954
270 489 3297
270 489 3552
270 489 3749
270 1278 270
270 1278 489
270 1278 1278
270 1278 1945
270 1278 2511
270 1278 2954
270 1278 3297
270 1278 3552
270 1278 3749
270 1945 270
270 1945 489
270 1945 1278
270 1945 1945
270 1945 2511
270 1945 2954
270 1945 3297
270 1945 3552
270 1945 3749
270 2511 270
270 2511 489
270 2511 1278
270 2511 1945
270 2511 2511
270 2511 2954
270 2511 3297
270 2511 3552
270 2511 3749
270 2954 270
270 2954 489
270 2954 1278
270 2954 1945
270 2954 2511
270 2954 2954
270 2954 3297
270 2954 3552
270 2954 3749
270 3297 270
270 3297 489
270 3297 1278
270 3297 1945
270 3297 2511
270 3297 2954
270 3297 3297
270 3297 3552
270 3297 3749
270 3552 270
270 3552 489
270 3552 1278
270 3552 1945
270 3552 2511
270 3552 2954
270 3552 3297
270 3552 3552
270 3552 3749
270 3749 270
270 3749 489
270 3749 1278
270 3749 1945
270 3749 2511
270 3749 2954
270 3749 3297
270 3749 3552
270 3749 3749
489 270 270
489 270 489
489 270 1278
489 270 1945
489 270 2511
489 270 2954
489 270 3297
489 270 3552
489 270 3749
489 489 270
489 489 489
489 489 1278
489 489 1945
489 489 2511
489 489 2954
489 489 3297
489 489 3552
489 489 3749
489 1278 270
489 1278 489
489 1278 1278
489 1278 1945
489 1278 2511
489 1278 2954
489 1278 3297
489 1278 3552
489 1278 3749
489 1945 270
489 1945 489
489 1945 1278
489 1945 1945
489 1945 2511
489 1945 2954
489 1945 3297
489 1945 3552
489 1945 3749
489 2511 270
489 2511 489
489 2511 1278
489 2511 1945
489 2511 2511
489 2511 2954
489 2511 3297
489 2511 3552
489 2511 3749
489 2954 270
489 2954 489
489 2954 1278
489 2954 1945
489 2954 2511
489 2954 2954
489 2954 3297
489 2954 3552
489 2954 3749
489 3297 270
489 3297 489
489 3297 1278
489 3297 1945
489 3297 2511
489 3297 2954
489 3297 3297
489 3297 3552
489 3297 3749
489 3552 270
489 3552 489
489 3552 1278
489 3552 1945
489 3552 2511
489 3552 2954
489 3552 3297
489 3552 3552
489 3552 3749
489 3749 270
489 3749 489
489 3749 1278
489 3749 1945
489 3749 2511
489 3749 2954
489 3749 3297
489 3749 3552
489 3749 3749
1278 270 270
1278 270 489
1278 270 1278
1278 270 1945
1278 270 2511
1278 270 2954
1278 270 3297
1278 270 3552
1278 270 3749
1278 489 270
1278 489 489
1278 489 1278
1278 489 1945
1278 489 2511
1278 489 2954
1278 489 3297
1278 489 3552
1278 489 3749
1278 1278 270
1278 1278 489
1278 1278 1278
1278 1278 1945
1278 1278 2511
1278 1278 2954
1278 1278 3297
1278 1278 3552
1278 1278 3749
1278 1945 270
1278 1945 489
1278 1945 1278
1278 1945 1945
1278 1945 2511
1278 1945 2954
1278 1945 3297
1278 1945 3552
1278 1945 3749
1278 2511 270
1278 2511 489
1278 2511 1278
1278 2511 1945
1278 2511 2511
1278 2511 2954
1278 2511 3297
1278 2511 3552
1278 2511 3749
1278 2954 270
1278 2954 489
1278 2954 1278
1278 2954 1945
1278 2954 2511
1278 2954 2954
1278 2954 3297
1278 2954 3552
1278 2954 3749
1278 3297 270
1278 3297 489
1278 3297 1278
1278 3297 1945
1278 3297 2511
1278 3297 2954
1278 3297 3297
1278 3297 3552
1278 3297 3749
1278 3552 270
1278 3552 489
1278 3552 1278
1278 3552 1945
1278 3552 2511
1278 3552 2954
1278 3552 3297
1278 3552 3552
1278 3552 3749
1278 3749 270
1278 3749 489
1278 3749 1278
1278 3749 1945
1278 3749 2511
1278 3749 2954
1278 3749 3297
1278 3749 3552
1278 3749 3749
1945 270 270
1945 270 489
1945 270 1278
1945 270 1945
1945 270 2511
1945 270 2954
1945 270 3297
1945 270 3552
1945 270 3749
1945 489 270
1945 489 489
1945 489 1278
1945 489 1945
1945 489 2511
1945 489 2954
1945 489 3297
1945 489 3552
1945 489 3749
1945 1278 270
1945 1278 489
1945 1278 1278
1945 1278 1945
1945 1278 2511
1945 1278 2954
1945 1278 3297
1945 1278 3552
1945 1278 3749
1945 1945 270
1945 1945 489
1945 1945 1278
1945 1945 1945
1945 1945 2511
1945 1945 2954
1945 1945 3297
1945 1945 3552
1945 1945 3749
1945 2511 270
1945 2511 489
1945 2511 1278
1945 2511 1945
1945 2511 2511
1945 2511 2954
1945 2511 3297
1945 2511 3552
1945 2511 3749
1945 2954 270
1945 2954 489
1945 2954 1278
1945 2954 1945
1945 2954 2511
1945 2954 2954
1945 2954 3297
1945 2954 3552
1945 2954 3749
1945 3297 270
1945 3297 489
1945 3297 1278
1945 3297 1945
1945 3297 2511
1945 3297 2954
1945 3297 3297
1945 3297 3552
1945 3297 3749
1945 3552 270
1945 3552 489
1945 3552 1278
1945 3552 1945
1945 3552 2511
1945 3552 2954
1945 3552 3297
1945 3552 3552
1945 3552 3749
1945 3749 270
1945 3749 489
1945 3749 1278
1945 3749 1945
1945 3749 2511
1945 3749 2954
1945 3749 3297
1945 3749 3552
1945 3749 3749
2511 270 270
2511 270 489
2511 270 1278
2511 270 1945
2511 270 2511
2511 270 2954
2511 270 3297
2511 270 3552
2511 270 3749
2511 489 270
2511 489 489
2511 489 1278
2511 489 1945
2511 489 2511
2511 489 2954
2511 489 3297
2511 489 3552
2511 489 3749
2511 1278 270
2511 1278 489
2511 1278 1278
2511 1278 1945
2511 1278 2511
2511 1278 2954
2511 1278 3297
2511 1278 3552
2511 1278 3749
2511 1945 270
2511 1945 489
2511 1945 1278
2511 1945 1945
2511 1945 2511
2511 1945 2954
2511 1945 3297
2511 1945 3552
2511 1945 3749
2511 2511 270
2511 2511 489
2511 2511 1278
2511 2511 1945
2511 2511 2511
2511 2511 2954
2511 2511 3297
2511 2511 3552
2511 2511 3749
2511 2954 270
2511 2954 489
2511 2954 1278
2511 2954 1945
2511 2954 2511
2511 2954 2954
2511 2954 3297
2511 2954 3552
2511 2954 3749
2511 3297 270
2511 3297 489
2511 3297 1278
2511 3297 1945
2511 3297 2511
2511 3297 2954
2511 3297 3297
2511 3297 3552
2511 3297 3749
2511 3552 270
2511 3552 489
2511 3552 1278
2511 3552 1945
2511 3552 2511
2511 3552 2954
2511 3552 3297
2511 3552 3552
2511 3552 3749
2511 3749 270
2511 3749 489
2511 3749 1278
2511 3749 1945
2511 3749 2511
2511 3749 2954
2511 3749 3297
2511 3749 3552
2511 3749 3749
2954 270 270
2954 270 489
2954 270 1278
2954 270 1945
2954 270 2511
2954 270 2954
2954 270 3297
2954 270 3552
2954 270 3749
2954 489 270
2954 489 489
2954 489 1278
2954 489 1945
2954 489 2511
2954 489 2954
2954 489 3297
2954 489 3552
2954 489 3749
2954 1278 270
2954 1278 489
2954 1278 1278
2954 1278 1945
2954 1278 2511
2954 1278 2954
2954 1278 3297
2954 1278 3552
2954 1278 3749
2954 1945 270
2954 1945 489
2954 1945 1278
2954 1945 1945
2954 1945 2511
2954 1945 2954
2954 1945 3297
2954 1945 3552
2954 1945 3749
2954 2511 270
2954 2511 489
2954 2511 1278
2954 2511 1945
2954 2511 2511
2954 2511 2954
2954 2511 3297
2954 2511 3552
2954 2511 3749
2954 2954 270
2954 2954 489
2954 2954 1278
2954 2954 1945
2954 2954 2511
2954 2954 2954
2954 2954 3297
2954 2954 3552
2954 2954 3749
2954 3297 270
2954 3297 489
2954 3297 1278
2954 3297 1945
2954 3297 2511
2954 3297 2954
2954 3297 3297
2954 3297 3552
2954 3297 3749
2954 3552 270
2954 3552 489
2954 3552 1278
2954 3552 1945
2954 3552 2511
2954 3552 2954
2954 3552 3297
2954 3552 3552
2954 3552 3749
2954 3749 270
2954 3749 489
2954 3749 1278
2954 3749 1945
2954 3749 2511
2954 3749 2954
2954 3749 3297
2954 3749 3552
2954 3749 3749
3297 270 270
3297 270 489
3297 270 1278
3297 270 1945
3297 270 2511
3297 270 2954
3297 270 3297
3297 270 3552
3297 270 3749
3297 489 270
3297 489 489
3297 489 1278
3297 489 1945
3297 489 2511
3297 489 2954
3297 489 3297
3297 489 3552
3297 489 3749
3297 1278 270
3297 1278 489
3297 1278 1278
3297 1278 1945
3297 1278 2511
3297 1278 2954
3297 1278 3297
3297 1278 3552
3297 1278 3749
3297 1945 270
3297 1945 489
3297 1945 1278
3297 1945 1945
3297 1945 2511
3297 1945 2954
3297 1945 3297
3297 1945 3552
3297 1945 3749
3297 2511 270
3297 2511 489
3297 2511 1278
3297 2511 1945
3297 2511 2511
3297 2511 2954
3297 2511 3297
3297 2511 3552
3297 2511 3749
3297 2954 270
3297 2954 489
3297 2954 1278
3297 2954 1945
3297 2954 2511
3297 2954 2954
3297 2954 3297
3297 2954 3552
3297 2954 3749
3297 3297 270
3297 3297 489
3297 3297 1278
3297 3297 1945
3297 3297 2511
3297 3297 2954
3297 3297 3297
3297 3297 3552
3297 3297 3749
3297 3552 270
3297 3552 489
3297 3552 1278
3297 3552 1945
3297 3552 2511
3297 3552 2954
3297 3552 3297
3297 3552 3552
3297 3552 3749
3297 3749 270
3297 3749 489
3297 3749 1278
3297 3749 1945
3297 3749 2511
3297 3749 2954
3297 3749 3297
3297 3749 3552
3297 3749 3749
3552 270 270
3552 270 489
3552 270 1278
3552 270 1945
3552 270 2511
3552 270 2954
3552 270 3297
3552 270 3552
3552 270 3749
3552 489 270
3552 489 489
3552 489 1278
3552 489 1945
3552 489 2511
3552 489 2954
3552 489 3297
3552 489 3552
3552 489 3749
3552 1278 270
3552 1278 489
3552 1278 1278
3552 1278 1945
3552 1278 2511
3552 1278 2954
3552 1278 3297
3552 1278 3552
3552 1278 3749
3552 1945 270
3552 1945 489
3552 1945 1278
3552 1945 1945
3552 1945 2511
3552 1945 2954
3552 1945 3297
3552 1945 3552
3552 1945 3749
3552 2511 270
3552 2511 489
3552 2511 1278
3552 2511 1945
3552 2511 2511
3552 2511 2954
3552 2511 3297
3552 2511 3552
3552 2511 3749
3552 2954 270
3552 2954 489
3552 2954 1278
3552 2954 1945
3552 2954 2511
3552 2954 2954
3552 2954 3297
3552 2954 3552
3552 2954 3749
3552 3297 270
3552 3297 489
3552 3297 1278
3552 3297 1945
3552 3297 2511
3552 3297 2954
3552 3297 3297
3552 3297 3552
3552 3297 3749
3552 3552 270
3552 3552 489
3552 3552 1278
3552 3552 1945
3552 3552 2511
3552 3552 2954
3552 3552 3297
3552 3552 3552
3552 3552 3749
3552 3749 270
3552 3749 489
3552 3749 1278
3552 3749 1945
3552 3749 2511
3552 3749 2954
3552 3749 3297
3552 3749 3552
3552 3749 3749
3749 270 270
3749 270 489
3749 270 1278
3749 270 1945
3749 270 2511
3749 270 2954
3749 270 3297
3749 270 3552
3749 270 3749
3749 489 270
3749 489 489
3749 489 1278
3749 489 1945
3749 489 2511
3749 489 2954
3749 489 3297
3749 489 3552
3749 489 3749
3749 1278 270
3749 1278 489
3749 1278 1278
3749 1278 1945
3749 1278 2511
3749 1278 2954
3749 1278 3297
3749 1278 3552
3749 1278 3749
3749 1945 270
3749 1945 489
3749 1945 1278
3749 1945 1945
3749 1945 2511
3749 1945 2954
3749 1945 3297
3749 1945 3552
3749 1945 3749
3749 2511 270
3749 2511 489
3749 2511 1278
3749 2511 1945
3749 2511 2511
3749 2511 2954
3749 2511 3297
3749 2511 3552
3749 2511 3749
3749 2954 270
3749 2954 489
3749 2954 1278
3749 2954 1945
3749 2954 2511
3749 2954 2954
3749 2954 3297
3749 2954 3552
3749 2954 3749
3749 3297 270
3749 3297 489
3749 3297 1278
3749 3297 1945
3749 3297 2511
3749 3297 2954
3749 3297 3297
3749 3297 3552
3749 3297 3749
3749 3552 270
3749 3552 489
3749 3552 1278
3749 3552 1945
3749 3552 2511
3749 3552 2954
3749 3552 3297
3749 3552 3552
3749 3552 3749
3749 3749 270
3749 3749 489
3749 3749 1278
3749 3749 1945
3749 3749 2511
3749 3749 2954
3749 3749 3297
3749 3749 3552
3749 3749 3749
