Postproduction/IWLTBAP - Humble/LUTs by IWLTBAP (3DL)/UTILITY/Canon C-Log to Rec.709/U-CANON-C-LOG-V3-LTR.3dl
# Copyright: (C) Copyright 2010-2018 by IWLTBAP SAS
# Cannot be resold, shared or otherwise redistributed
# Website: https://luts.iwltbap.com
0 64 128 192 256 320 384 448 512 576 640 704 768 832 896 960 1023
270 270 270
270 270 276
270 270 490
270 270 917
270 270 1276
270 270 1612
270 270 1957
270 270 2327
270 270 2734
270 270 3191
270 270 3640
270 270 3743
270 270 3749
270 270 3749
270 270 3749
270 270 3749
270 270 3749
270 276 270
270 276 276
270 276 490
270 276 917
270 276 1276
270 276 1612
270 276 1957
270 276 2327
270 276 2734
270 276 3191
270 276 3640
270 276 3743
270 276 3749
270 276 3749
270 276 3749
270 276 3749
270 276 3749
270 490 270
270 490 276
270 490 490
270 490 917
270 490 1276
270 490 1612
270 490 1957
270 490 2327
270 490 2734
270 490 3191
270 490 3640
270 490 3743
270 490 3749
270 490 3749
270 490 3749
270 490 3749
270 490 3749
270 917 270
270 917 276
270 917 490
270 917 917
270 917 1276
270 917 1612
270 917 1957
270 917 2327
270 917 2734
270 917 3191
270 917 3640
270 917 3743
270 917 3749
270 917 3749
270 917 3749
270 917 3749
270 917 3749
270 1276 270
270 1276 276
270 1276 490
270 1276 917
270 1276 1276
270 1276 1612
270 1276 1957
270 1276 2327
270 1276 2734
270 1276 3191
270 1276 3640
270 1276 3743
270 1276 3749
270 1276 3749
270 1276 3749
270 1276 3749
270 1276 3749
270 1612 270
270 1612 276
270 1612 490
270 1612 917
270 1612 1276
270 1612 1612
270 1612 1957
270 1612 2327
270 1612 2734
270 1612 3191
270 1612 3640
270 1612 3743
270 1612 3749
270 1612 3749
270 1612 3749
270 1612 3749
270 1612 3749
270 1957 270
270 1957 276
270 1957 490
270 1957 917
270 1957 1276
270 1957 1612
270 1957 1957
270 1957 2327
270 1957 2734
270 1957 3191
270 1957 3640
270 1957 3743
270 1957 3749
270 1957 3749
270 1957 3749
270 1957 3749
270 1957 3749
270 2327 270
270 2327 276
270 2327 490
270 2327 917
270 2327 1276
270 2327 1612
270 2327 1957
270 2327 2327
270 2327 2734
270 2327 3191
270 2327 3640
270 2327 3743
270 2327 3749
270 2327 3749
270 2327 3749
270 2327 3749
270 2327 3749
270 2734 270
270 2734 276
270 2734 490
270 2734 917
270 2734 1276
270 2734 1612
270 2734 1957
270 2734 2327
270 2734 2734
270 2734 3191
270 2734 3640
270 2734 3743
270 2734 3749
270 2734 3749
270 2734 3749
270 2734 3749
270 2734 3749
270 3191 270
270 3191 276
270 3191 490
270 3191 917
270 3191 1276
270 3191 1612
270 3191 1957
270 3191 2327
270 3191 2734
270 3191 3191
270 3191 3640
270 3191 3743
270 3191 3749
270 3191 3749
270 3191 3749
270 3191 3749
270 3191 3749
270 3640 270
270 3640 276
270 3640 490
270 3640 917
270 3640 1276
270 3640 1612
270 3640 1957
270 3640 2327
270 3640 2734
270 3640 3191
270 3640 3640
270 3640 3743
270 3640 3749
270 3640 3749
270 3640 3749
270 3640 3749
270 3640 3749
270 3743 270
270 3743 276
270 3743 490
270 3743 917
270 3743 1276
270 3743 1612
270 3743 1957
270 3743 2327
270 3743 2734
270 3743 3191
270 3743 3640
270 3743 3743
270 3743 3749
270 3743 3749
270 3743 3749
270 3743 3749
270 3743 3749
270 3749 270
270 3749 276
270 3749 490
270 3749 917
270 3749 1276
270 3749 1612
270 3749 1957
270 3749 2327
270 3749 2734
270 3749 3191
270 3749 3640
270 3749 3743
270 3749 3749
270 3749 3749
270 3749 3749
270 3749 3749
270 3749 3749
270 3749 270
270 3749 276
270 3749 490
270 3749 917
270 3749 1276
270 3749 1612
270 3749 1957
270 3749 2327
270 3749 2734
270 3749 3191
270 3749 3640
270 3749 3743
270 3749 3749
270 3749 3749
270 3749 3749
270 3749 3749
270 3749 3749
270 3749 270
270 3749 276
270 3749 490
270 3749 917
270 3749 1276
270 3749 1612
270 3749 1957
270 3749 2327
270 3749 2734
270 3749 3191
270 3749 3640
270 3749 3743
270 3749 3749
270 3749 3749
270 3749 3749
270 3749 3749
270 3749 3749
270 3749 270
270 3749 276
270 3749 490
270 3749 917
270 3749 1276
270 3749 1612
270 3749 1957
270 3749 2327
270 3749 2734
270 3749 3191
270 3749 3640
270 3749 3743
270 3749 3749
270 3749 3749
270 3749 3749
270 3749 3749
270 3749 3749
270 3749 270
270 3749 276
270 3749 490
270 3749 917
270 3749 1276
270 3749 1612
270 3749 1957
270 3749 2327
270 3749 2734
270 3749 3191
270 3749 3640
270 3749 3743
270 3749 3749
270 3749 3749
270 3749 3749
270 3749 3749
270 3749 3749
276 270 270
276 270 276
276 270 490
276 270 917
276 270 1276
276 270 1612
276 270 1957
276 270 2327
276 270 2734
276 270 3191
276 270 3640
276 270 3743
276 270 3749
276 270 3749
276 270 3749
276 270 3749
276 270 3749
276 276 270
276 276 276
276 276 490
276 276 917
276 276 1276
276 276 1612
276 276 1957
276 276 2327
276 276 2734
276 276 3191
276 276 3640
276 276 3743
276 276 3749
276 276 3749
276 276 3749
276 276 3749
276 276 3749
276 490 270
276 490 276
276 490 490
276 490 917
276 490 1276
276 490 1612
276 490 1957
276 490 2327
276 490 2734
276 490 3191
276 490 3640
276 490 3743
276 490 3749
276 490 3749
276 490 3749
276 490 3749
276 490 3749
276 917 270
276 917 276
276 917 490
276 917 917
276 917 1276
276 917 1612
276 917 1957
276 917 2327
276 917 2734
276 917 3191
276 917 3640
276 917 3743
276 917 3749
276 917 3749
276 917 3749
276 917 3749
276 917 3749
276 1276 270
276 1276 276
276 1276 490
276 1276 917
276 1276 1276
276 1276 1612
276 1276 1957
276 1276 2327
276 1276 2734
276 1276 3191
276 1276 3640
276 1276 3743
276 1276 3749
276 1276 3749
276 1276 3749
276 1276 3749
276 1276 3749
276 1612 270
276 1612 276
276 1612 490
276 1612 917
276 1612 1276
276 1612 1612
276 1612 1957
276 1612 2327
276 1612 2734
276 1612 3191
276 1612 3640
276 1612 3743
276 1612 3749
276 1612 3749
276 1612 3749
276 1612 3749
276 1612 3749
276 1957 270
276 1957 276
276 1957 490
276 1957 917
276 1957 1276
276 1957 1612
276 1957 1957
276 1957 2327
276 1957 2734
276 1957 3191
276 1957 3640
276 1957 3743
276 1957 3749
276 1957 3749
276 1957 3749
276 1957 3749
276 1957 3749
276 2327 270
276 2327 276
276 2327 490
276 2327 917
276 2327 1276
276 2327 1612
276 2327 1957
276 2327 2327
276 2327 2734
276 2327 3191
276 2327 3640
276 2327 3743
276 2327 3749
276 2327 3749
276 2327 3749
276 2327 3749
276 2327 3749
276 2734 270
276 2734 276
276 2734 490
276 2734 917
276 2734 1276
276 2734 1612
276 2734 1957
276 2734 2327
276 2734 2734
276 2734 3191
276 2734 3640
276 2734 3743
276 2734 3749
276 2734 3749
276 2734 3749
276 2734 3749
276 2734 3749
276 3191 270
276 3191 276
276 3191 490
276 3191 917
276 3191 1276
276 3191 1612
276 3191 1957
276 3191 2327
276 3191 2734
276 3191 3191
276 3191 3640
276 3191 3743
276 3191 3749
276 3191 3749
276 3191 3749
276 3191 3749
276 3191 3749
276 3640 270
276 3640 276
276 3640 490
276 3640 917
276 3640 1276
276 3640 1612
276 3640 1957
276 3640 2327
276 3640 2734
276 3640 3191
276 3640 3640
276 3640 3743
276 3640 3749
276 3640 3749
276 3640 3749
276 3640 3749
276 3640 3749
276 3743 270
276 3743 276
276 3743 490
276 3743 917
276 3743 1276
276 3743 1612
276 3743 1957
276 3743 2327
276 3743 2734
276 3743 3191
276 3743 3640
276 3743 3743
276 3743 3749
276 3743 3749
276 3743 3749
276 3743 3749
276 3743 3749
276 3749 270
276 3749 276
276 3749 490
276 3749 917
276 3749 1276
276 3749 1612
276 3749 1957
276 3749 2327
276 3749 2734
276 3749 3191
276 3749 3640
276 3749 3743
276 3749 3749
276 3749 3749
276 3749 3749
276 3749 3749
276 3749 3749
276 3749 270
276 3749 276
276 3749 490
276 3749 917
276 3749 1276
276 3749 1612
276 3749 1957
276 3749 2327
276 3749 2734
276 3749 3191
276 3749 3640
276 3749 3743
276 3749 3749
276 3749 3749
276 3749 3749
276 3749 3749
276 3749 3749
276 3749 270
276 3749 276
276 3749 490
276 3749 917
276 3749 1276
276 3749 1612
276 3749 1957
276 3749 2327
276 3749 2734
276 3749 3191
276 3749 3640
276 3749 3743
276 3749 3749
276 3749 3749
276 3749 3749
276 3749 3749
276 3749 3749
276 3749 270
276 3749 276
276 3749 490
276 3749 917
276 3749 1276
276 3749 1612
276 3749 1957
276 3749 2327
276 3749 2734
276 3749 3191
276 3749 3640
276 3749 3743
276 3749 3749
276 3749 3749
276 3749 3749
276 3749 3749
276 3749 3749
276 3749 270
276 3749 276
276 3749 490
276 3749 917
276 3749 1276
276 3749 1612
276 3749 1957
276 3749 2327
276 3749 2734
276 3749 3191
276 3749 3640
276 3749 3743
276 3749 3749
276 3749 3749
276 3749 3749
276 3749 3749
276 3749 3749
490 270 270
490 270 276
490 270 490
490 270 917
490 270 1276
490 270 1612
490 270 1957
490 270 2327
490 270 2734
490 270 3191
490 270 3640
490 270 3743
490 270 3749
490 270 3749
490 270 3749
490 270 3749
490 270 3749
490 276 270
490 276 276
490 276 490
490 276 917
490 276 1276
490 276 1612
490 276 1957
490 276 2327
490 276 2734
490 276 3191
490 276 3640
490 276 3743
490 276 3749
490 276 3749
490 276 3749
490 276 3749
490 276 3749
490 490 270
490 490 276
490 490 490
490 490 917
490 490 1276
490 490 1612
490 490 1957
490 490 2327
490 490 2734
490 490 3191
490 490 3640
490 490 3743
490 490 3749
490 490 3749
490 490 3749
490 490 3749
490 490 3749
490 917 270
490 917 276
490 917 490
490 917 917
490 917 1276
490 917 1612
490 917 1957
490 917 2327
490 917 2734
490 917 3191
490 917 3640
490 917 3743
490 917 3749
490 917 3749
490 917 3749
490 917 3749
490 917 3749
490 1276 270
490 1276 276
490 1276 490
490 1276 917
490 1276 1276
490 1276 1612
490 1276 1957
490 1276 2327
490 1276 2734
490 1276 3191
490 1276 3640
490 1276 3743
490 1276 3749
490 1276 3749
490 1276 3749
490 1276 3749
490 1276 3749
490 1612 270
490 1612 276
490 1612 490
490 1612 917
490 1612 1276
490 1612 1612
490 1612 1957
490 1612 2327
490 1612 2734
490 1612 3191
490 1612 3640
490 1612 3743
490 1612 3749
490 1612 3749
490 1612 3749
490 1612 3749
490 1612 3749
490 1957 270
490 1957 276
490 1957 490
490 1957 917
490 1957 1276
490 1957 1612
490 1957 1957
490 1957 2327
490 1957 2734
490 1957 3191
490 1957 3640
490 1957 3743
490 1957 3749
490 1957 3749
490 1957 3749
490 1957 3749
490 1957 3749
490 2327 270
490 2327 276
490 2327 490
490 2327 917
490 2327 1276
490 2327 1612
490 2327 1957
490 2327 2327
490 2327 2734
490 2327 3191
490 2327 3640
490 2327 3743
490 2327 3749
490 2327 3749
490 2327 3749
490 2327 3749
490 2327 3749
490 2734 270
490 2734 276
490 2734 490
490 2734 917
490 2734 1276
490 2734 1612
490 2734 1957
490 2734 2327
490 2734 2734
490 2734 3191
490 2734 3640
490 2734 3743
490 2734 3749
490 2734 3749
490 2734 3749
490 2734 3749
490 2734 3749
490 3191 270
490 3191 276
490 3191 490
490 3191 917
490 3191 1276
490 3191 1612
490 3191 1957
490 3191 2327
490 3191 2734
490 3191 3191
490 3191 3640
490 3191 3743
490 3191 3749
490 3191 3749
490 3191 3749
490 3191 3749
490 3191 3749
490 3640 270
490 3640 276
490 3640 490
490 3640 917
490 3640 1276
490 3640 1612
490 3640 1957
490 3640 2327
490 3640 2734
490 3640 3191
490 3640 3640
490 3640 3743
490 3640 3749
490 3640 3749
490 3640 3749
490 3640 3749
490 3640 3749
490 3743 270
490 3743 276
490 3743 490
490 3743 917
490 3743 1276
490 3743 1612
490 3743 1957
490 3743 2327
490 3743 2734
490 3743 3191
490 3743 3640
490 3743 3743
490 3743 3749
490 3743 3749
490 3743 3749
490 3743 3749
490 3743 3749
490 3749 270
490 3749 276
490 3749 490
490 3749 917
490 3749 1276
490 3749 1612
490 3749 1957
490 3749 2327
490 3749 2734
490 3749 3191
490 3749 3640
490 3749 3743
490 3749 3749
490 3749 3749
490 3749 3749
490 3749 3749
490 3749 3749
490 3749 270
490 3749 276
490 3749 490
490 3749 917
490 3749 1276
490 3749 1612
490 3749 1957
490 3749 2327
490 3749 2734
490 3749 3191
490 3749 3640
490 3749 3743
490 3749 3749
490 3749 3749
490 3749 3749
490 3749 3749
490 3749 3749
490 3749 270
490 3749 276
490 3749 490
490 3749 917
490 3749 1276
490 3749 1612
490 3749 1957
490 3749 2327
490 3749 2734
490 3749 3191
490 3749 3640
490 3749 3743
490 3749 3749
490 3749 3749
490 3749 3749
490 3749 3749
490 3749 3749
490 3749 270
490 3749 276
490 3749 490
490 3749 917
490 3749 1276
490 3749 1612
490 3749 1957
490 3749 2327
490 3749 2734
490 3749 3191
490 3749 3640
490 3749 3743
490 3749 3749
490 3749 3749
490 3749 3749
490 3749 3749
490 3749 3749
490 3749 270
490 3749 276
490 3749 490
490 3749 917
490 3749 1276
490 3749 1612
490 3749 1957
490 3749 2327
490 3749 2734
490 3749 3191
490 3749 3640
490 3749 3743
490 3749 3749
490 3749 3749
490 3749 3749
490 3749 3749
490 3749 3749
917 270 270
917 270 276
917 270 490
917 270 917
917 270 1276
917 270 1612
917 270 1957
917 270 2327
917 270 2734
917 270 3191
917 270 3640
917 270 3743
917 270 3749
917 270 3749
917 270 3749
917 270 3749
917 270 3749
917 276 270
917 276 276
917 276 490
917 276 917
917 276 1276
917 276 1612
917 276 1957
917 276 2327
917 276 2734
917 276 3191
917 276 3640
917 276 3743
917 276 3749
917 276 3749
917 276 3749
917 276 3749
