Postproduction/IWLTBAP - Humble/LUTs by IWLTBAP (3DL)/UTILITY/Canon C-Log to Rec.709/U-CANON-C-LOG-V1-LTR.3dl
# Copyright: (C) Copyright 2010-2018 by IWLTBAP SAS
# Cannot be resold, shared or otherwise redistributed
# Website: https://luts.iwltbap.com
0 128 256 384 512 640 768 896 1023
4 4 4
4 4 430
4 4 1157
4 4 1937
4 4 2824
4 4 3462
4 4 4022
4 4 4091
4 4 4091
4 352 4
4 344 344
4 332 1062
4 320 1838
4 308 2726
4 295 3399
4 281 3966
4 267 4091
4 260 4091
4 962 4
4 953 238
4 940 940
4 926 1713
4 912 2595
4 896 3319
4 881 3895
4 864 4091
4 855 4091
4 1614 4
4 1604 143
4 1592 803
4 1578 1578
4 1564 2446
4 1549 3232
4 1533 3816
4 1517 4091
4 1509 4091
4 2343 4
4 2332 56
4 2319 650
4 2304 1437
4 2289 2289
4 2273 3139
4 2256 3724
4 2238 4088
4 2229 4091
4 3077 4
4 3069 12
4 3059 494
4 3048 1289
4 3037 2130
4 3024 3022
4 3012 3627
4 2999 4083
4 2992 4091
4 3579 4
4 3573 7
4 3565 350
4 3556 1137
4 3547 1967
4 3537 2892
4 3527 3527
4 3516 4077
4 3511 4091
4 4074 4
4 4068 4
4 4061 219
4 4052 979
4 4044 1803
4 4034 2730
4 4025 3423
4 4015 4013
4 4010 4091
4 4091 4
4 4091 4
4 4091 161
4 4091 892
4 4091 1716
4 4091 2640
4 4091 3367
4 4091 3960
4 4091 4091
413 4 4
404 4 404
393 4 1129
381 4 1907
368 4 2795
355 4 3443
341 4 4006
327 4 4091
319 4 4091
327 327 4
318 318 318
308 307 1033
296 295 1808
284 283 2696
271 270 3380
257 256 3949
243 243 4091
236 235 4091
221 933 4
213 923 213
202 911 910
193 897 1684
183 882 2562
174 867 3301
164 851 3878
154 835 4091
149 826 4091
131 1585 4
125 1575 126
118 1563 773
109 1550 1550
100 1535 2414
91 1520 3213
82 1505 3798
72 1489 4091
66 1480 4091
45 2312 4
40 2301 40
33 2288 620
26 2273 1408
20 2258 2258
18 2242 3119
16 2225 3706
15 2207 4088
14 2198 4091
11 3054 4
11 3046 11
10 3036 465
10 3025 1261
9 3013 2099
9 3001 2999
8 2988 3609
8 2975 4082
7 2968 4091
6 3560 4
6 3554 6
5 3546 325
5 3537 1109
5 3528 1937
4 3518 2865
4 3508 3508
4 3497 4074
4 3492 4091
4 4057 4
4 4051 4
4 4043 197
4 4035 950
4 4026 1774
4 4017 2700
4 4007 3404
4 3997 3995
4 3992 4091
4 4091 4
4 4091 4
4 4091 144
4 4091 862
4 4091 1687
4 4091 2609
4 4091 3349
4 4091 3942
4 4091 4091
1115 4 4
1105 4 372
1093 4 1093
1080 4 1870
1065 4 2758
1050 4 3420
1035 4 3984
1019 4 4091
1010 4 4091
1019 295 4
1009 286 287
997 276 997
984 264 1771
969 252 2659
954 239 3357
938 225 3928
922 211 4091
913 204 4091
896 896 4
886 886 186
874 874 873
860 860 1647
845 846 2522
830 830 3277
814 814 3857
798 798 4091
789 789 4091
758 1549 4
748 1539 103
734 1527 734
719 1514 1514
704 1499 2374
687 1484 3190
670 1469 3775
653 1453 4091
644 1444 4091
605 2273 4
594 2262 21
582 2249 582
568 2234 1372
553 2219 2219
537 2202 3090
521 2186 3682
504 2169 4086
495 2160 4091
451 3024 4
441 3016 10
429 3006 430
417 2995 1225
405 2984 2061
391 2972 2970
377 2959 3585
363 2944 4081
355 2937 4091
312 3537 4
304 3530 5
294 3522 294
283 3514 1073
271 3504 1900
258 3494 2829
246 3484 3484
233 3474 4068
226 3468 4091
185 4034 4
178 4028 4
171 4021 171
163 4013 913
154 4004 1737
146 3995 2662
136 3985 3380
127 3975 3973
122 3970 4091
135 4091 4
129 4091 4
121 4091 122
113 4091 825
105 4091 1650
96 4091 2568
87 4091 3325
78 4091 3920
73 4091 4091
1866 4 4
1856 4 336
1843 4 1054
1829 4 1829
1815 4 2717
1799 4 3394
1783 4 3961
1767 4 4091
1758 4 4091
1767 260 4
1757 252 253
1744 241 957
1730 230 1730
1716 217 2614
1700 204 3331
1685 192 3905
1668 182 4091
1660 176 4091
1643 856 4
1633 846 161
1621 833 833
1608 820 1608
1593 805 2478
1578 790 3251
1562 773 3833
1546 755 4091
1538 746 4091
1509 1509 4
1500 1500 79
1487 1487 691
1474 1474 1474
1460 1460 2330
1445 1445 3164
1429 1429 3749
1413 1413 4090
1405 1405 4091
1368 2230 4
1358 2219 16
1346 2206 540
1333 2191 1333
1319 2176 2176
1304 2160 3058
1289 2144 3656
1273 2127 4085
1264 2118 4091
1221 2992 4
1212 2984 8
1200 2974 394
1186 2963 1186
1172 2951 2019
1157 2937 2936
1142 2923 3559
1126 2908 4080
1117 2900 4091
1069 3511 4
1059 3504 4
1047 3496 261
1033 3488 1033
1019 3478 1859
1004 3468 2787
989 3458 3458
972 3448 4045
964 3442 4091
909 4010 4
899 4004 4
886 3997 148
872 3988 872
857 3979 1696
842 3970 2619
826 3961 3355
809 3951 3948
800 3945 4091
821 4091 4
811 4091 4
798 4091 99
784 4091 784
769 4091 1610
754 4091 2523
737 4091 3299
720 4091 3895
710 4091 4091
2726 4 4
2716 4 300
2703 4 1012
2689 4 1786
2675 4 2674
2659 4 3366
2641 4 3936
2623 4 4091
2613 4 4091
2623 224 4
2612 215 216
2598 205 914
2583 194 1687
2566 185 2566
2549 175 3303
2532 165 3880
2514 155 4091
2505 150 4091
2486 813 4
2476 803 135
2462 790 790
2447 776 1565
2431 760 2431
2414 744 3224
2397 727 3808
2379 709 4091
2370 700 4091
2338 1467 4
2327 1458 54
2314 1445 645
2299 1432 1432
2284 1418 2284
2267 1403 3136
2251 1387 3721
2233 1371 4088
2224 1363 4091
2184 2184 4
2174 2174 12
2161 2161 496
2147 2147 1291
2132 2131 2132
2116 2115 3024
2099 2099 3629
2082 2082 4084
2073 2073 4091
2027 2957 4
2017 2949 7
2004 2938 356
1989 2925 1144
1974 2912 1974
1959 2899 2899
1943 2885 3531
1926 2870 4077
1917 2862 4091
1866 3483 4
1856 3477 4
1844 3469 228
1830 3460 991
1815 3451 1816
1800 3441 2742
1784 3431 3431
1768 3420 4020
1759 3415 4091
1704 3984 4
1694 3978 4
1682 3971 123
1668 3962 828
1653 3953 1653
1638 3944 2572
1623 3935 3327
1607 3925 3922
1598 3919 4091
1618 4091 4
1608 4091 4
1596 4091 74
1582 4091 740
1568 4091 1568
1553 4091 2477
1537 4091 3271
1522 4091 3869
1513 4091 4091
3380 4 4
3373 4 261
3365 4 967
3356 4 1741
3347 4 2626
3337 4 3337
3327 4 3910
3317 4 4091
3311 4 4091
3317 188 4
3310 182 183
3302 174 869
3293 166 1643
3284 157 2517
3274 148 3274
3264 138 3854
3254 128 4091
3248 123 4091
3237 766 4
3231 756 108
3223 742 742
3214 728 1521
3205 712 2382
3195 695 3195
3185 678 3780
3174 661 4091
3168 652 4091
3150 1423 4
3143 1413 29
3135 1401 598
3126 1388 1388
3115 1374 2236
3104 1359 3103
3091 1344 3692
3078 1328 4087
3071 1319 4091
3041 2137 4
3033 2127 10
3023 2114 451
3012 2100 1248
3001 2085 2085
2988 2069 2988
2976 2052 3600
2963 2035 4082
2955 2026 4091
2917 2917 4
2909 2909 5
2897 2897 318
2885 2885 1101
2872 2872 1928
2857 2858 2857
2842 2844 3503
2825 2827 4073
2816 2818 4091
2765 3454 4
2754 3448 4
2741 3440 194
2727 3431 947
2712 3422 1770
2696 3412 2696
2680 3402 3402
2663 3391 3993
2654 3386 4091
2595 3957 4
2584 3951 4
2570 3943 97
2555 3935 783
2539 3926 1609
2522 3917 2522
2504 3907 3298
2487 3897 3895
2477 3892 4091
2499 4091 4
2489 4091 4
2475 4091 48
2460 4091 692
2444 4091 1524
2428 4091 2428
2411 4091 3242
2393 4091 3842
2384 4091 4091
3931 4 4
3925 4 222
3918 4 920
3910 4 1694
3902 4 2574
3893 4 3307
3884 4 3883
3874 4 4091
3869 4 4091
3875 159 4
3869 153 155
3862 146 822
3854 137 1597
3845 129 2466
3836 119 3244
3827 110 3827
3817 100 4091
3812 95 4091
3802 716 4
3796 706 80
3788 692 692
3779 677 1475
3770 662 2331
3760 645 3165
3750 628 3750
3739 611 4090
3734 602 4091
3715 1378 4
3709 1368 17
3701 1356 551
3692 1343 1343
3683 1328 2187
3673 1314 3066
3663 1298 3663
3652 1283 4085
3646 1274 4091
3622 2089 4
3616 2078 9
3608 2065 409
3599 2051 1202
3590 2036 2036
3580 2020 2950
3570 2004 3570
3559 1987 4080
3554 1978 4091
3525 2876 4
3519 2867 4
3511 2856 279
3502 2843 1055
3493 2827 1881
3483 2812 2810
3473 2795 3473
3462 2779 4057
3457 2770 4091
3424 3424 4
3418 3418 4
3410 3410 163
3401 3401 899
3392 3392 1724
3382 3382 2648
3372 3372 3372
3361 3361 3965
3356 3356 4091
3321 3928 4
3314 3923 4
3306 3915 70
3297 3907 735
3288 3898 1563
3278 3889 2471
3268 3879 3268
3258 3869 3867
3252 3864 4091
3265 4091 4
3259 4091 4
3251 4091 27
3242 4091 642
3232 4091 1478
3223 4091 2377
3213 4091 3212
3202 4091 3814
3196 4091 4091
4091 4 4
4091 4 186
4091 4 872
4091 4 1646
4091 4 2521
4091 4 3276
4091 4 3855
4091 4 4091
4091 4 4091
4091 130 4
4091 124 126
4091 117 773
4091 108 1550
4091 100 2414
4091 90 3213
4091 81 3798
4091 71 4091
4091 66 4091
4091 665 4
4091 654 51
4090 641 641
4090 626 1428
4090 611 2280
4089 595 3134
4089 579 3719
4088 562 4088
4088 553 4091
4087 1331 4
4087 1322 12
4086 1309 501
4086 1296 1296
4085 1282 2137
4085 1267 3028
4084 1252 3632
4084 1236 4084
4083 1228 4091
4082 2039 4
4082 2028 7
4081 2015 366
4081 2001 1156
4080 1986 1986
4080 1971 2909
4079 1954 3539
4079 1938 4079
4078 1929 4091
4074 2830 4
4073 2820 4
4071 2807 241
4065 2793 1008
4057 2778 1833
4049 2762 2760
4040 2746 3442
4031 2729 4031
4026 2720 4091
3996 3394 4
3990 3387 4
3982 3379 135
3974 3370 851
3965 3361 1676
3956 3351 2596
3946 3341 3341
3936 3331 3936
3931 3325 4091
3897 3899 4
3891 3893 4
3884 3886 44
3876 3877 683
3867 3869 1516
3857 3859 2419
3848 3850 3237
3838 3840 3837
3833 3834 4091
3845 4091 4
3839 4091 4
3831 4091 24
3823 4091 593
3814 4091 1431
3805 4091 2325
3795 4091 3182
3785 4091 3785
3779 4091 4091
4091 4 4
4091 4 170
4091 4 847
4091 4 1621
4091 4 2493
4091 4 3260
4091 4 3840
4091 4 4091
4091 4 4091
4091 115 4
4091 109 110
4091 101 746
4091 93 1524
4091 84 2386
4091 75 3197
4091 65 3782
4091 55 4091
4091 50 4091
4091 637 4
4091 626 36
4091 613 614
4091 599 1403
4091 584 2252
4091 569 3115
4091 552 3702
4091 536 4087
4091 527 4091
4091 1306 4
4091 1297 11
4091 1284 475
4091 1271 1271
4091 1257 2110
4091 1242 3007
4091 1227 3615
4091 1211 4082
4091 1203 4091
4091 2012 4
4091 2002 6
4091 1989 344
4091 1975 1131
4091 1960 1960
4091 1944 2886
4091 1928 3522
4091 1912 4076
4091 1903 4091
4091 2804 4
4091 2793 4
4091 2781 221
4091 2766 983
4091 2751 1807
4091 2736 2734
4091 2719 3425
4091 2702 4015
4091 2693 4091
4091 3377 4
4091 3371 4
4091 3363 121
4091 3354 824
4091 3344 1650
4091 3335 2568
4091 3324 3324
4091 3314 3920
4091 3308 4091
4091 3884 4
4091 3878 4
4091 3870 30
4091 3862 656
4091 3853 1491
4091 3844 2391
4091 3834 3221
4091 3824 3822
4091 3818 4091
4091 4091 4
4091 4091 4
4091 4091 23
4091 4091 567
4091 4091 1406
4091 4091 2298
4091 4091 3165
4091 4091 3768
4091 4091 4091
