Postproduction/IWLTBAP - Humble/LUTs by IWLTBAP (3DL)/UTILITY/Canon C-Log to Rec.709/U-CANON-C-LOG-V1-LTR.3dl
# Copyright: (C) Copyright 2010-2018 by IWLTBAP SAS
# Cannot be resold, shared or otherwise redistributed
# Website: https://luts.iwltbap.com
0 256 512 768 1023
4 4 4
4 4 1157
4 4 2824
4 4 4022
4 4 4091
4 962 4
4 940 940
4 912 2595
4 881 3895
4 855 4091
4 2343 4
4 2319 650
4 2289 2289
4 2256 3724
4 2229 4091
4 3579 4
4 3565 350
4 3547 1967
4 3527 3527
4 3511 4091
4 4091 4
4 4091 161
4 4091 1716
4 4091 3367
4 4091 4091
1115 4 4
1093 4 1093
1065 4 2758
1035 4 3984
1010 4 4091
896 896 4
874 874 873
845 846 2522
814 814 3857
789 789 4091
605 2273 4
582 2249 582
553 2219 2219
521 2186 3682
495 2160 4091
312 3537 4
294 3522 294
271 3504 1900
246 3484 3484
226 3468 4091
135 4091 4
121 4091 122
105 4091 1650
87 4091 3325
73 4091 4091
2726 4 4
2703 4 1012
2675 4 2674
2641 4 3936
2613 4 4091
2486 813 4
2462 790 790
2431 760 2431
2397 727 3808
2370 700 4091
2184 2184 4
2161 2161 496
2132 2131 2132
2099 2099 3629
2073 2073 4091
1866 3483 4
1844 3469 228
1815 3451 1816
1784 3431 3431
1759 3415 4091
1618 4091 4
1596 4091 74
1568 4091 1568
1537 4091 3271
1513 4091 4091
3931 4 4
3918 4 920
3902 4 2574
3884 4 3883
3869 4 4091
3802 716 4
3788 692 692
3770 662 2331
3750 628 3750
3734 602 4091
3622 2089 4
3608 2065 409
3590 2036 2036
3570 2004 3570
3554 1978 4091
3424 3424 4
3410 3410 163
3392 3392 1724
3372 3372 3372
3356 3356 4091
3265 4091 4
3251 4091 27
3232 4091 1478
3213 4091 3212
3196 4091 4091
4091 4 4
4091 4 847
4091 4 2493
4091 4 3840
4091 4 4091
4091 637 4
4091 613 614
4091 584 2252
4091 552 3702
4091 527 4091
4091 2012 4
4091 1989 344
4091 1960 1960
4091 1928 3522
4091 1903 4091
4091 3377 4
4091 3363 121
4091 3344 1650
4091 3324 3324
4091 3308 4091
4091 4091 4
4091 4091 23
4091 4091 1406
4091 4091 3165
4091 4091 4091
