Postproduction/IWLTBAP - Humble/LUTs by IWLTBAP (CUBE)/UTILITY/Generic Rec.709 to LOG/U-9090-RTL.cube
# Copyright: (C) Copyright 2010-2018 by IWLTBAP SAS
# Cannot be resold, shared or otherwise redistributed
# Website: https://luts.iwltbap.com
TITLE "IWLTBAP 9090 (Utility Rec.709 to LOG)"
LUT_3D_SIZE 8
DOMAIN_MIN 0.000000 0.000000 0.000000
DOMAIN_MAX 0.903226 0.903226 0.903226
0.098114 0.098114 0.098114
0.178198 0.107521 0.107521
0.259289 0.116336 0.116336
0.340234 0.127593 0.127593
0.421210 0.140639 0.140639
0.502246 0.154938 0.154938
0.583270 0.170281 0.170281
0.664436 0.186411 0.186411
0.116426 0.188945 0.116426
0.198441 0.198441 0.126698
0.277424 0.206404 0.138087
0.357526 0.215686 0.148641
0.438029 0.226268 0.160882
0.518662 0.237931 0.174441
0.599439 0.250575 0.189033
0.680385 0.264046 0.204435
0.137400 0.279332 0.137400
0.216509 0.288299 0.147350
0.297874 0.297874 0.158479
0.376290 0.305500 0.171595
0.455930 0.314855 0.183753
0.536045 0.325041 0.196486
0.616407 0.336040 0.210239
0.696974 0.347780 0.224913
0.162953 0.369107 0.162953
0.237569 0.377807 0.172388
0.316225 0.387017 0.182908
0.396629 0.396629 0.194496
0.475063 0.404464 0.207042
0.554307 0.413854 0.220572
0.634164 0.423819 0.233591
0.714288 0.434410 0.247356
0.190212 0.458978 0.190212
0.260885 0.467421 0.199210
0.336859 0.476368 0.209246
0.415401 0.485626 0.220193
0.495266 0.495266 0.232017
0.573715 0.503405 0.244190
0.652729 0.512648 0.258312
0.732389 0.522496 0.271587
0.218632 0.548762 0.218632
0.285788 0.557141 0.227263
0.359178 0.565782 0.236766
0.435796 0.574776 0.247180
0.514255 0.584180 0.258461
0.593865 0.593837 0.270478
0.672257 0.602150 0.282436
0.751201 0.611374 0.296566
0.247783 0.638602 0.247783
0.311865 0.646852 0.256124
0.382757 0.655388 0.265232
0.457520 0.664183 0.275192
0.534487 0.673281 0.285894
0.613016 0.682710 0.297358
0.692418 0.692402 0.309526
0.770709 0.700787 0.321593
0.277545 0.728429 0.277545
0.338917 0.736565 0.285578
0.407464 0.744986 0.294338
0.480361 0.753662 0.303915
0.555891 0.762507 0.314136
0.633157 0.771711 0.325110
0.711567 0.781162 0.336745
0.790879 0.790879 0.348998
0.097079 0.097079 0.172167
0.181678 0.107640 0.181702
0.262407 0.117871 0.189496
0.343185 0.129820 0.199132
0.424155 0.143024 0.210054
0.505134 0.157375 0.222153
0.586185 0.172678 0.235094
0.667256 0.188675 0.248894
0.119081 0.191829 0.191829
0.199694 0.199801 0.199802
0.280013 0.209006 0.209017
0.360667 0.217593 0.217597
0.441351 0.226922 0.226929
0.522103 0.237446 0.237453
0.602851 0.249170 0.249180
0.683639 0.261937 0.261924
0.140133 0.282274 0.210023
0.215289 0.291768 0.215298
0.301351 0.301344 0.225548
0.379244 0.308252 0.239117
0.459244 0.316878 0.248142
0.539410 0.326236 0.258301
0.619786 0.336430 0.269588
0.700254 0.347531 0.281904
0.165538 0.372051 0.231220
0.235076 0.381777 0.235074
0.317435 0.391004 0.245091
0.400595 0.400591 0.256005
0.478557 0.407213 0.269331
0.557757 0.416047 0.280930
0.637558 0.425321 0.291785
0.717597 0.435377 0.303585
0.192753 0.461879 0.254726
0.257681 0.471454 0.257682
0.336775 0.480347 0.267427
0.417633 0.489685 0.278017
0.499301 0.499283 0.289285
0.577414 0.506119 0.301286
0.656134 0.515016 0.315409
0.735684 0.524287 0.326730
0.221095 0.551705 0.279802
0.282300 0.561037 0.282301
0.358220 0.569741 0.291675
0.436815 0.578744 0.301897
0.516929 0.588145 0.312878
0.597785 0.597780 0.324416
0.675946 0.604902 0.335648
0.754453 0.613722 0.350428
0.250215 0.641543 0.306059
0.308233 0.650584 0.308235
0.381289 0.659076 0.317371
0.457776 0.667902 0.327287
0.536180 0.677014 0.337819
0.615756 0.686467 0.349021
0.696094 0.696080 0.360819
0.774187 0.703506 0.371789
0.279891 0.731356 0.333234
0.335211 0.740095 0.335212
0.405654 0.748483 0.344117
0.480021 0.757124 0.353711
0.556749 0.766066 0.363924
0.635050 0.775198 0.374749
0.714317 0.784638 0.386140
0.794354 0.794354 0.398094
0.095520 0.095520 0.247068
0.181153 0.105985 0.256002
0.265487 0.118165 0.265487
0.346162 0.131512 0.273417
0.427005 0.145157 0.282964
0.507988 0.159649 0.293562
0.589018 0.174944 0.304960
0.670105 0.190987 0.317100
0.117687 0.191105 0.265227
0.195892 0.195902 0.274535
0.284065 0.206532 0.284088
0.363992 0.218138 0.290676
0.444393 0.228501 0.299412
0.525053 0.239470 0.309120
0.605781 0.251407 0.319661
0.686511 0.264278 0.331051
0.142828 0.285065 0.285066
0.217938 0.294528 0.294528
0.301317 0.301495 0.301512
0.381524 0.310911 0.310930
0.461948 0.319576 0.319584
0.542443 0.328325 0.328330
0.622973 0.337712 0.337728
0.703481 0.347941 0.347964
0.168178 0.374996 0.303604
0.237784 0.384695 0.310782
0.316684 0.393816 0.316684
0.403388 0.403373 0.326786
0.480840 0.410144 0.340823
0.560700 0.418667 0.349514
0.640713 0.427428 0.358712
0.720791 0.436765 0.368679
0.195304 0.464788 0.324459
0.260391 0.474406 0.330168
0.334865 0.483891 0.334863
0.418780 0.493237 0.344969
0.502819 0.502819 0.355650
0.580443 0.508864 0.369131
0.659228 0.517589 0.380985
0.738819 0.526392 0.390734
0.223534 0.554575 0.346919
0.284909 0.563945 0.351754
0.355684 0.573420 0.355693
0.436860 0.582466 0.365516
0.519013 0.591859 0.376120
0.601480 0.601470 0.387191
0.679336 0.607581 0.398670
0.757595 0.616358 0.413825
0.252562 0.644406 0.370760
0.310767 0.653460 0.375009
0.378425 0.662752 0.378449
0.457017 0.671575 0.388004
0.537197 0.680704 0.398349
0.618243 0.690143 0.409210
0.699784 0.699782 0.420588
0.777605 0.706164 0.430798
0.282222 0.734205 0.395662
0.337726 0.742983 0.399475
0.402529 0.751971 0.402532
0.478758 0.760640 0.411933
0.557070 0.769523 0.422026
0.636595 0.778712 0.432614
0.716932 0.788130 0.443745
0.797796 0.797790 0.455300
0.096828 0.096884 0.321957
0.182076 0.107411 0.330511
0.265880 0.119476 0.339529
0.349124 0.132773 0.349124
0.429970 0.147146 0.357449
0.510884 0.161877 0.366977
0.591907 0.177288 0.377294
0.672947 0.193307 0.388312
0.118997 0.191965 0.339206
0.194702 0.194702 0.348593
0.281749 0.205094 0.357768
0.367379 0.216601 0.367379
0.447552 0.229246 0.374186
0.528021 0.241102 0.382884
0.608677 0.253433 0.392472
0.689373 0.266516 0.402866
0.143912 0.285186 0.357847
0.216614 0.292030 0.367410
0.297518 0.297511 0.376351
0.385875 0.308006 0.385904
0.465539 0.319559 0.392239
0.545622 0.329336 0.400651
0.625962 0.339305 0.409712
0.706392 0.349870 0.419389
0.170810 0.377817 0.377846
0.240507 0.387480 0.387480
0.319264 0.396478 0.396494
0.403042 0.403194 0.403220
0.483069 0.412694 0.412719
0.563216 0.421594 0.421602
0.643478 0.430259 0.430288
0.723727 0.439158 0.439182
0.197833 0.467697 0.396792
0.263142 0.477289 0.404647
0.337617 0.486811 0.411983
0.418467 0.495595 0.418479
0.505147 0.505147 0.428514
0.582297 0.511893 0.442679
0.661990 0.520504 0.451371
0.741735 0.529105 0.460206
0.226008 0.557522 0.417380
0.287586 0.566857 0.424066
0.358369 0.576352 0.430191
0.435865 0.585622 0.435859
0.520283 0.595032 0.445956
0.604617 0.604627 0.456566
0.682055 0.610420 0.469892
0.760446 0.619220 0.482232
0.255012 0.647314 0.439404
0.313406 0.656366 0.445176
0.381037 0.665633 0.450413
0.455506 0.674979 0.455484
0.537646 0.684081 0.465436
0.620319 0.693560 0.475991
0.703203 0.703181 0.486908
0.780757 0.708823 0.497840
0.284551 0.737094 0.462421
0.340280 0.745839 0.467592
0.405111 0.754871 0.472251
0.476894 0.764015 0.476920
0.556867 0.772860 0.486675
0.637822 0.782044 0.496997
0.719346 0.791531 0.507798
0.801136 0.801132 0.519053
0.098973 0.098973 0.397152
0.183804 0.109439 0.405395
0.267203 0.121299 0.414081
0.350137 0.134498 0.423244
0.432844 0.148790 0.432867
0.513769 0.163938 0.441495
0.594756 0.179464 0.451009
0.675841 0.195515 0.461168
0.120917 0.193671 0.413773
0.195161 0.195148 0.422971
0.281342 0.205413 0.431775
0.366320 0.216770 0.441030
0.450632 0.229021 0.450628
0.531029 0.242285 0.457910
0.611582 0.255290 0.466654
0.692263 0.268600 0.476191
0.145608 0.286334 0.431589
0.216795 0.291529 0.440927
0.295418 0.295418 0.450179
0.382842 0.305676 0.459495
0.469080 0.316874 0.469086
0.548901 0.329296 0.475320
0.629023 0.340362 0.483477
0.709294 0.351520 0.492487
0.172284 0.378552 0.450557
0.240526 0.386256 0.459980
0.317113 0.393303 0.469343
0.399509 0.399491 0.478022
0.487528 0.409922 0.487574
0.566938 0.421392 0.493888
0.646736 0.431008 0.502227
0.726725 0.440470 0.510984
0.200346 0.470536 0.470536
0.265796 0.480065 0.480065
0.340327 0.489509 0.489533
0.421043 0.498200 0.498203
0.504801 0.504934 0.504919
0.584587 0.514437 0.514477
0.664455 0.523535 0.523547
0.744409 0.532308 0.532308
0.228516 0.560442 0.489772
0.290303 0.569737 0.497877
0.361180 0.579237 0.505823
0.438606 0.588498 0.513396
0.520539 0.597090 0.520543
0.606694 0.606684 0.530600
0.683706 0.613576 0.544520
0.763146 0.622357 0.553314
0.257446 0.650206 0.510253
0.316065 0.659271 0.517280
0.383839 0.668540 0.524164
0.458259 0.677851 0.530819
0.537611 0.686944 0.537619
0.621879 0.696394 0.547738
0.706034 0.706032 0.558262
0.783317 0.711831 0.571230
0.286918 0.739993 0.531817
0.342865 0.748772 0.538093
0.407854 0.757761 0.544147
0.479559 0.766849 0.550156
0.556549 0.775989 0.556555
0.638865 0.785167 0.566552
0.721515 0.794627 0.577094
0.804321 0.804321 0.587930
0.101302 0.101302 0.472497
0.185924 0.111777 0.480563
0.269065 0.123508 0.488994
0.351764 0.136563 0.497825
0.434245 0.150723 0.507024
0.516617 0.165757 0.516617
0.597651 0.181504 0.525475
0.678623 0.197698 0.535015
0.123107 0.195706 0.488668
0.196509 0.196514 0.497625
0.282124 0.206635 0.506121
0.366565 0.217859 0.515085
0.450486 0.229953 0.524374
0.533973 0.242922 0.533974
0.614511 0.256735 0.541671
0.695157 0.270522 0.550470
0.147655 0.288126 0.505835
0.217928 0.292257 0.514877
0.294927 0.294927 0.524113
0.381525 0.305062 0.533098
0.467186 0.316136 0.542473
0.552111 0.327860 0.552093
0.632097 0.340790 0.558653
0.712279 0.352811 0.566778
0.174116 0.379942 0.524057
0.241446 0.386318 0.533170
0.316403 0.391942 0.542487
0.396963 0.396949 0.551567
0.484254 0.407167 0.561020
0.570585 0.418247 0.570583
0.650099 0.430473 0.576501
0.729834 0.441145 0.584438
0.202043 0.471664 0.543190
0.266559 0.479665 0.552433
0.339567 0.487445 0.561823
0.418573 0.494858 0.571001
0.501771 0.501791 0.579500
0.589049 0.512110 0.589084
0.668205 0.523404 0.595540
0.747711 0.532967 0.603908
0.230929 0.563236 0.563236
0.292918 0.572574 0.572572
0.363937 0.581995 0.581995
0.441358 0.591203 0.591208
0.523189 0.599722 0.599722
0.606579 0.606651 0.606651
0.686084 0.616187 0.616203
0.765641 0.625474 0.625470
0.259811 0.653098 0.582636
0.318700 0.662158 0.590764
0.386595 0.671466 0.598894
0.461084 0.680733 0.606996
0.540418 0.689822 0.614982
0.622842 0.698342 0.622873
0.708004 0.707998 0.632928
0.785014 0.715243 0.646352
0.289246 0.742888 0.602985
0.345459 0.751624 0.610262
0.410599 0.760636 0.617405
0.482442 0.769746 0.624602
0.559325 0.778890 0.631998
0.640001 0.787884 0.639999
0.723513 0.797317 0.650131
0.806958 0.806954 0.660580
0.103752 0.103752 0.547893
0.188270 0.114205 0.555831
0.271269 0.125841 0.564073
0.353834 0.138855 0.572654
0.436074 0.152869 0.581592
0.518325 0.167870 0.590842
0.600528 0.183515 0.600522
0.681534 0.199770 0.609504
0.125504 0.198001 0.563789
0.198313 0.198302 0.572467
0.283529 0.208341 0.580764
0.367619 0.219467 0.589432
0.451174 0.231489 0.598443
0.534416 0.244329 0.607784
0.617424 0.257855 0.617426
0.698037 0.272227 0.625468
0.149882 0.290242 0.580541
0.219544 0.293584 0.589307
0.295442 0.295438 0.598258
0.381474 0.305498 0.607026
0.466520 0.316468 0.616051
0.551069 0.328054 0.625449
0.635096 0.340367 0.635097
0.715225 0.353621 0.642074
0.176233 0.381871 0.598129
0.242940 0.387256 0.606945
0.316781 0.391764 0.616029
0.395839 0.395837 0.625121
0.482385 0.406022 0.634236
0.568217 0.416880 0.643662
0.653362 0.428340 0.653356
0.732906 0.440971 0.659453
0.203972 0.473271 0.616549
0.267866 0.480158 0.625501
0.339759 0.486671 0.634653
0.417303 0.492920 0.643802
0.499166 0.499142 0.652772
0.585908 0.509414 0.662227
0.671884 0.520250 0.671887
0.750986 0.532271 0.677725
0.232683 0.564627 0.635873
0.294058 0.572679 0.644868
0.363982 0.580739 0.654098
0.440120 0.588697 0.663299
0.520706 0.596518 0.672312
0.604225 0.604246 0.680787
0.690408 0.614524 0.690440
0.769272 0.625523 0.697177
0.262221 0.655991 0.655991
0.321299 0.665017 0.665004
0.389355 0.674262 0.674258
0.463869 0.683525 0.683525
0.543254 0.692553 0.692561
0.625600 0.701064 0.701066
0.708304 0.708336 0.708336
0.787565 0.717976 0.717975
0.291600 0.745753 0.675431
0.348092 0.754503 0.683473
0.413337 0.763469 0.691593
0.485235 0.772591 0.699800
0.562239 0.781729 0.708145
0.642857 0.790753 0.716618
0.725336 0.799351 0.725343
0.809078 0.809078 0.735438
0.106377 0.106377 0.623397
0.190788 0.116668 0.631221
0.273606 0.128287 0.639345
0.355998 0.141228 0.647725
0.438198 0.155197 0.656423
0.520289 0.170008 0.665408
0.602395 0.185619 0.674738
0.684388 0.201785 0.684380
0.127949 0.200445 0.639072
0.200274 0.200274 0.647399
0.285334 0.210354 0.655627
0.369171 0.221438 0.664098
0.452468 0.233362 0.672856
0.535409 0.246088 0.681894
0.618237 0.259546 0.691309
0.700948 0.273661 0.700949
0.152286 0.292496 0.655443
0.221521 0.295310 0.663889
0.296617 0.296615 0.672687
0.382176 0.306585 0.681177
0.466826 0.317457 0.690013
0.550928 0.329010 0.699088
0.634690 0.341192 0.708496
0.718203 0.353907 0.718205
0.178462 0.384006 0.672571
0.244756 0.388719 0.681109
0.317789 0.392421 0.689939
0.395754 0.395752 0.698828
0.481713 0.405839 0.707659
0.566918 0.416625 0.716839
0.651676 0.427946 0.726304
0.735949 0.439790 0.735945
0.206040 0.475264 0.690446
0.269524 0.481303 0.699100
0.340630 0.486902 0.707939
0.417054 0.492146 0.716900
0.497715 0.497713 0.725883
0.583804 0.507898 0.735059
0.669294 0.518677 0.744550
0.754242 0.529888 0.754247
0.234691 0.566400 0.709173
0.295599 0.573480 0.717817
0.364724 0.580430 0.726690
0.439745 0.587327 0.735708
0.519182 0.594389 0.744760
0.601910 0.601910 0.753684
0.687643 0.612185 0.763149
0.772838 0.622901 0.772840
0.264041 0.657518 0.728491
0.322724 0.665467 0.737231
0.389936 0.673581 0.746177
0.463466 0.681688 0.755249
0.541720 0.689896 0.764345
0.623394 0.698270 0.773273
0.706863 0.706863 0.781886
0.791611 0.717084 0.791625
0.293943 0.748584 0.748584
0.350627 0.757406 0.757406
0.416064 0.766339 0.766346
0.488031 0.775466 0.775455
0.565097 0.784555 0.784555
0.645717 0.793550 0.793551
0.728129 0.802181 0.802179
0.810007 0.810012 0.810011
