Postproduction/IWLTBAP - Humble/LUTs by IWLTBAP (CUBE)/UTILITY/Generic Rec.709 to LOG/U-9091-RTL.cube
# Copyright: (C) Copyright 2010-2018 by IWLTBAP SAS
# Cannot be resold, shared or otherwise redistributed
# Website: https://luts.iwltbap.com
TITLE "IWLTBAP 9091 (Utility Rec.709 to LOG)"
LUT_3D_SIZE 5
0.047119 0.047119 0.047119
0.516693 0.084320 0.080414
0.674561 0.151001 0.152954
0.767670 0.221558 0.220581
0.866699 0.270599 0.266693
0.166626 0.449036 0.163696
0.437225 0.429413 0.175507
0.637268 0.374512 0.211761
0.744141 0.350983 0.257812
0.854889 0.355896 0.296051
0.294159 0.576447 0.290192
0.389221 0.574493 0.298035
0.562744 0.562744 0.303894
0.702942 0.524506 0.332367
0.841156 0.509796 0.350952
0.386261 0.674530 0.389191
0.422546 0.671600 0.383331
0.527466 0.666626 0.386261
0.662720 0.663696 0.389191
0.827484 0.667633 0.393188
0.403900 0.858795 0.403900
0.437256 0.853912 0.399994
0.543091 0.856842 0.396088
0.703888 0.875458 0.399994
0.905884 0.902008 0.388214
0.106842 0.110779 0.471558
0.451935 0.171600 0.451935
0.631348 0.274536 0.399017
0.717621 0.365662 0.421600
0.836273 0.384277 0.425507
0.256836 0.432343 0.433319
0.429413 0.428406 0.426514
0.593140 0.424530 0.424530
0.700989 0.421600 0.425507
0.832367 0.430389 0.432343
0.372559 0.569641 0.431366
0.433319 0.569641 0.438263
0.562744 0.560760 0.436249
0.680389 0.541138 0.442200
0.826477 0.537262 0.445129
0.421539 0.666626 0.454865
0.455841 0.666626 0.453918
0.544098 0.665649 0.459778
0.666626 0.663696 0.459778
0.829437 0.677460 0.456848
0.410797 0.854889 0.452942
0.445129 0.854889 0.446106
0.550018 0.863708 0.447083
0.703888 0.879395 0.445129
0.909790 0.905884 0.429413
0.213684 0.209808 0.617645
0.372559 0.252930 0.604919
0.588257 0.315704 0.586304
0.710785 0.383331 0.550018
0.823486 0.425507 0.547089
0.355865 0.427460 0.581360
0.434296 0.433319 0.577423
0.569641 0.440216 0.568665
0.685303 0.460785 0.552948
0.818634 0.476440 0.553925
0.407837 0.558807 0.560760
0.461761 0.562744 0.561737
0.562744 0.560760 0.562744
0.666626 0.560760 0.558807
0.817657 0.554901 0.558807
0.462708 0.664673 0.555878
0.489227 0.663696 0.556854
0.554901 0.666626 0.558807
0.663696 0.666626 0.554901
0.830414 0.677460 0.553925
0.370605 0.860748 0.537262
0.411743 0.864685 0.531403
0.527466 0.872559 0.527466
0.695099 0.889221 0.527466
0.917603 0.909790 0.515717
0.280365 0.283386 0.705902
0.369598 0.301971 0.701904
0.524506 0.351959 0.692169
0.678406 0.397064 0.681335
0.824493 0.431396 0.671600
0.390228 0.430389 0.679382
0.434296 0.435272 0.680359
0.541138 0.449036 0.675507
0.674530 0.460785 0.672577
0.820557 0.476440 0.674530
0.449036 0.553925 0.671600
0.484314 0.557831 0.670624
0.558807 0.560760 0.667633
0.667633 0.558807 0.665649
0.824493 0.550995 0.674530
0.464722 0.663696 0.670624
0.488251 0.667633 0.667633
0.550964 0.667633 0.667633
0.667633 0.667633 0.666626
0.856842 0.662720 0.666626
0.288239 0.875458 0.684296
0.325500 0.878387 0.677460
0.432312 0.888245 0.663727
0.644104 0.902985 0.645081
0.921600 0.921600 0.640198
0.313690 0.313690 0.886292
0.385284 0.328430 0.886292
0.529419 0.358856 0.884338
0.699982 0.393188 0.878387
0.874481 0.411804 0.874481
0.389252 0.434296 0.882385
0.435272 0.438202 0.878387
0.550018 0.444153 0.874481
0.705902 0.451965 0.878387
0.878387 0.456848 0.878387
0.409790 0.560760 0.884338
0.447083 0.553925 0.882385
0.552948 0.552948 0.884338
0.705902 0.546082 0.884338
0.892151 0.531403 0.888245
0.340210 0.699982 0.895081
0.374512 0.695099 0.894104
0.477448 0.681335 0.897064
0.655884 0.659790 0.897980
0.898987 0.644104 0.898987
0.011810 0.917603 0.917603
0.022522 0.921600 0.917603
0.270599 0.921600 0.921600
0.538239 0.925507 0.922577
0.925507 0.925507 0.929382
