Postproduction/IWLTBAP - Humble/LUTs by IWLTBAP (CUBE)/UTILITY/Generic Rec.709 to LOG/U-9091-RTL.cube
# Copyright: (C) Copyright 2010-2018 by IWLTBAP SAS
# Cannot be resold, shared or otherwise redistributed
# Website: https://luts.iwltbap.com
TITLE "IWLTBAP 9091 (Utility Rec.709 to LOG)"
LUT_3D_SIZE 9
0.047119 0.047119 0.047119
0.346527 0.050507 0.050507
0.516693 0.084320 0.080414
0.610779 0.118622 0.122528
0.674561 0.151001 0.152954
0.725983 0.184845 0.184845
0.767670 0.221558 0.220581
0.813263 0.248077 0.248077
0.866699 0.270599 0.266693
0.096039 0.334351 0.092133
0.323517 0.319611 0.099548
0.483826 0.286285 0.118652
0.588226 0.256866 0.145081
0.659332 0.249023 0.175476
0.714722 0.253906 0.205902
0.756348 0.262238 0.236267
0.805878 0.281403 0.259308
0.858795 0.296539 0.274506
0.166626 0.449036 0.163696
0.283356 0.441711 0.167603
0.437225 0.429413 0.175507
0.553925 0.404449 0.187775
0.637268 0.374512 0.211761
0.694153 0.352448 0.236267
0.744141 0.350983 0.257812
0.791168 0.351990 0.277435
0.854889 0.355896 0.296051
0.231842 0.518158 0.231842
0.288727 0.518646 0.233307
0.392181 0.515228 0.238739
0.511749 0.506348 0.247559
0.602966 0.483826 0.257812
0.670074 0.458832 0.276978
0.720581 0.439697 0.289215
0.779938 0.432343 0.311249
0.852448 0.431854 0.320099
0.294159 0.576447 0.290192
0.327454 0.576447 0.297546
0.389221 0.574493 0.298035
0.470581 0.570129 0.299988
0.562744 0.562744 0.303894
0.644592 0.546082 0.319611
0.702942 0.524506 0.332367
0.763245 0.513275 0.339691
0.841156 0.509796 0.350952
0.345581 0.620117 0.345581
0.364197 0.620605 0.345093
0.399506 0.617676 0.348541
0.463257 0.616180 0.349518
0.531891 0.615692 0.351471
0.609802 0.612213 0.354889
0.680847 0.596039 0.360809
0.746094 0.589233 0.370056
0.833832 0.589233 0.373993
0.386261 0.674530 0.389191
0.396576 0.670624 0.385284
0.422546 0.671600 0.383331
0.465698 0.668121 0.382355
0.527466 0.666626 0.386261
0.594574 0.662720 0.389191
0.662720 0.663696 0.389191
0.739258 0.663696 0.393188
0.827484 0.667633 0.393188
0.411804 0.748047 0.408295
0.415710 0.740723 0.407318
0.437256 0.740234 0.404388
0.476501 0.740234 0.402435
0.529938 0.740234 0.404388
0.596039 0.741699 0.404388
0.664673 0.744629 0.404388
0.744629 0.748535 0.407806
0.836273 0.752441 0.407806
0.403900 0.858795 0.403900
0.411285 0.850983 0.399994
0.437256 0.853912 0.399994
0.481873 0.854889 0.399994
0.543091 0.856842 0.396088
0.616638 0.864197 0.396088
0.703888 0.875458 0.399994
0.802948 0.886780 0.399506
0.905884 0.902008 0.388214
0.061737 0.061737 0.335327
0.323029 0.092133 0.323517
0.490662 0.151489 0.298065
0.580353 0.219147 0.293091
0.644135 0.246094 0.297607
0.697052 0.265717 0.305389
0.745117 0.284821 0.315674
0.794647 0.304413 0.326935
0.851471 0.319641 0.334839
0.137756 0.319611 0.319611
0.312714 0.312714 0.312714
0.457336 0.308319 0.308319
0.554443 0.300995 0.305878
0.631348 0.301971 0.307343
0.693176 0.311249 0.314697
0.740234 0.319153 0.322052
0.790680 0.330872 0.330872
0.844086 0.338257 0.338745
0.228424 0.441711 0.308807
0.309296 0.436737 0.312714
0.429901 0.429413 0.311737
0.537750 0.411285 0.309296
0.618164 0.395081 0.316681
0.678467 0.385803 0.326447
0.725983 0.378906 0.330872
0.780426 0.382812 0.345581
0.844604 0.383820 0.349945
0.283813 0.518646 0.320618
0.324493 0.518158 0.324493
0.406891 0.514740 0.324493
0.510254 0.506348 0.325958
0.595581 0.490662 0.331390
0.657349 0.467621 0.339722
0.708344 0.454376 0.348999
0.768616 0.450470 0.360291
0.839691 0.446564 0.367615
0.325989 0.573029 0.347046
0.350494 0.574493 0.350494
0.405914 0.571075 0.354401
0.479431 0.567139 0.356842
0.564697 0.562744 0.358826
0.633850 0.547577 0.362732
0.692169 0.529938 0.370087
0.753906 0.523010 0.377472
0.831879 0.522522 0.384766
0.364197 0.617676 0.379425
0.383362 0.617676 0.383789
0.418121 0.616180 0.383789
0.468109 0.616180 0.384277
0.537262 0.612213 0.387756
0.612213 0.609802 0.389709
0.675018 0.598541 0.396088
0.746582 0.593597 0.400482
0.827972 0.595062 0.400482
0.396576 0.666626 0.403900
0.407349 0.667114 0.407349
0.433807 0.666626 0.407837
0.476990 0.666626 0.407837
0.530914 0.666626 0.407837
0.595062 0.666626 0.411774
0.663696 0.663696 0.411774
0.739746 0.663696 0.415680
0.831390 0.671600 0.419098
0.415222 0.740234 0.419098
0.422516 0.737244 0.422028
0.448059 0.740234 0.423035
0.487732 0.740723 0.423035
0.537262 0.742188 0.422516
0.598053 0.744141 0.422516
0.668610 0.744629 0.423004
0.745117 0.745117 0.423035
0.836273 0.752930 0.425995
0.403900 0.854401 0.415222
0.415222 0.850983 0.415222
0.440674 0.854889 0.414703
0.488220 0.854889 0.414703
0.547089 0.858795 0.415222
0.620605 0.866699 0.415222
0.703888 0.879395 0.413727
0.802948 0.890686 0.410797
0.909790 0.905884 0.406830
0.106842 0.110779 0.471558
0.278961 0.130371 0.464233
0.451935 0.171600 0.451935
0.564667 0.221619 0.418610
0.631348 0.274536 0.399017
0.681366 0.322510 0.404388
0.717621 0.365662 0.421600
0.771545 0.376984 0.425507
0.836273 0.384277 0.425507
0.217133 0.308319 0.456329
0.309784 0.312225 0.445099
0.437714 0.312714 0.433807
0.544586 0.320618 0.422089
0.611267 0.339722 0.413239
0.665680 0.367157 0.418152
0.710785 0.385284 0.421600
0.768616 0.393158 0.425507
0.832855 0.399994 0.428925
0.256836 0.432343 0.433319
0.328430 0.429413 0.429413
0.429413 0.428406 0.426514
0.519623 0.425995 0.425995
0.593140 0.424530 0.424530
0.654419 0.424530 0.425507
0.700989 0.421600 0.425507
0.761780 0.426514 0.429901
0.832367 0.430389 0.432343
0.324982 0.513763 0.421600
0.361755 0.511261 0.425507
0.425507 0.510254 0.425507
0.506348 0.506348 0.427948
0.580872 0.493134 0.425507
0.639191 0.484802 0.429413
0.693634 0.478455 0.433807
0.753906 0.474548 0.438751
0.828461 0.478455 0.440704
0.372559 0.569641 0.431366
0.393158 0.567627 0.432343
0.433319 0.569641 0.438263
0.492126 0.565674 0.435272
0.562744 0.560760 0.436249
0.624512 0.551971 0.435760
0.680389 0.541138 0.442200
0.746582 0.538239 0.444153
0.826477 0.537262 0.445129
0.406372 0.616180 0.444641
0.414703 0.614685 0.444641
0.444641 0.614685 0.447571
0.491150 0.613678 0.447571
0.544586 0.610748 0.448547
0.608337 0.608337 0.448547
0.670105 0.603943 0.448059
0.739716 0.601501 0.450989
0.827484 0.602478 0.453400
0.421539 0.666626 0.454865
0.436768 0.667114 0.456360
0.455841 0.666626 0.453918
0.492645 0.666626 0.456848
0.544098 0.665649 0.459778
0.601013 0.665161 0.455841
0.666626 0.663696 0.459778
0.738251 0.666626 0.456848
0.829437 0.677460 0.456848
0.429932 0.740234 0.459778
0.437744 0.739746 0.459778
0.462280 0.740234 0.460266
0.496613 0.740234 0.459778
0.546570 0.740723 0.460754
0.603455 0.744629 0.461761
0.671600 0.744629 0.460266
0.748047 0.745605 0.462769
0.836761 0.756836 0.462769
0.410797 0.854889 0.452942
0.422028 0.854889 0.445129
0.445129 0.854889 0.446106
0.488220 0.857330 0.445129
0.550018 0.863708 0.447083
0.620605 0.871094 0.445129
0.703888 0.879395 0.445129
0.803436 0.893616 0.443665
0.909790 0.905884 0.429413
0.162720 0.158813 0.565155
0.264252 0.178894 0.557831
0.406372 0.217621 0.546539
0.536774 0.252899 0.537750
0.628906 0.298523 0.513733
0.676483 0.340179 0.487732
0.717133 0.379913 0.484314
0.763733 0.404907 0.484802
0.823486 0.422028 0.493622
0.264709 0.312225 0.538727
0.318634 0.319153 0.536774
0.415192 0.324005 0.529938
0.522522 0.335297 0.522522
0.609802 0.353424 0.506836
0.661285 0.381378 0.492645
0.702942 0.406372 0.487732
0.754852 0.426483 0.492645
0.820068 0.443176 0.502441
0.309784 0.421600 0.521576
0.357849 0.428925 0.518158
0.433319 0.433319 0.515228
0.514252 0.431854 0.511261
0.585815 0.437225 0.504395
0.642151 0.447571 0.499023
0.688721 0.455353 0.499023
0.747070 0.464722 0.502930
0.820068 0.469604 0.505371
0.344086 0.506348 0.503906
0.374023 0.507812 0.510254
0.440704 0.507812 0.509277
0.507812 0.507812 0.507812
0.570129 0.506348 0.506348
0.625488 0.502441 0.506348
0.677460 0.502441 0.504883
0.738708 0.503906 0.503906
0.817169 0.502441 0.503906
0.390686 0.566650 0.498535
0.415161 0.566162 0.499512
0.456329 0.565674 0.506348
0.508301 0.564697 0.506348
0.560760 0.562256 0.506348
0.618134 0.555878 0.506348
0.668610 0.551483 0.507812
0.737244 0.548065 0.507812
0.819092 0.551483 0.505859
0.436768 0.612213 0.505371
0.450470 0.612213 0.507324
0.475006 0.612213 0.509277
0.507812 0.611237 0.507812
0.553436 0.609802 0.507812
0.609802 0.606873 0.507812
0.665161 0.605896 0.507812
0.735748 0.608337 0.507812
0.821045 0.608337 0.503906
0.451965 0.665161 0.510773
0.459290 0.663208 0.511261
0.476471 0.663208 0.510773
0.507812 0.666626 0.510284
0.553436 0.665649 0.508789
0.605896 0.663696 0.510284
0.662720 0.665161 0.508789
0.736237 0.666626 0.507324
0.828461 0.679382 0.506836
0.444611 0.736725 0.508820
0.451965 0.740234 0.504883
0.471558 0.743164 0.507324
0.504883 0.740723 0.506836
0.551483 0.742676 0.505371
0.608826 0.744629 0.503418
0.670105 0.745117 0.502930
0.745117 0.747559 0.500977
0.838715 0.756836 0.499512
0.401459 0.858795 0.489716
0.416687 0.857330 0.488708
0.442627 0.857819 0.486267
0.485779 0.861237 0.485779
0.548553 0.864685 0.485779
0.616638 0.872070 0.484314
0.702423 0.880890 0.481873
0.803436 0.894592 0.477966
0.913696 0.908325 0.473999
0.213684 0.209808 0.617645
0.266693 0.221100 0.608337
0.372559 0.252930 0.604919
0.484314 0.283325 0.595612
0.588257 0.315704 0.586304
0.664703 0.349518 0.573517
0.710785 0.383331 0.550018
0.760803 0.408783 0.543610
0.823486 0.425507 0.547089
0.289703 0.324005 0.594604
0.327423 0.325470 0.591187
0.398499 0.335327 0.586792
0.487244 0.343628 0.580383
0.578400 0.362732 0.576935
0.650024 0.382355 0.565186
0.695587 0.409790 0.550018
0.751465 0.428955 0.545105
0.819580 0.442627 0.552460
0.355865 0.427460 0.581360
0.382324 0.428925 0.577423
0.434296 0.433319 0.577423
0.495636 0.436737 0.573029
0.569641 0.440216 0.568665
0.635803 0.448547 0.561249
0.685303 0.460785 0.552948
0.740723 0.469116 0.551971
0.818634 0.476440 0.553925
0.383331 0.496613 0.570129
0.405396 0.499512 0.568115
0.452911 0.506836 0.567627
0.507812 0.507812 0.568665
0.562744 0.508301 0.566162
0.619629 0.511749 0.560760
0.672577 0.514221 0.558807
0.735748 0.515198 0.557343
0.817657 0.514679 0.560760
0.407837 0.558807 0.560760
0.428436 0.562744 0.562744
0.461761 0.562744 0.561737
0.511749 0.562744 0.562744
0.562744 0.560760 0.562744
0.609802 0.560760 0.562744
0.666626 0.560760 0.558807
0.732330 0.560272 0.558807
0.817657 0.554901 0.558807
0.444122 0.612213 0.555389
0.459290 0.610260 0.556854
0.483826 0.610748 0.557831
0.518646 0.609802 0.559784
0.562744 0.609802 0.562744
0.608337 0.607849 0.562744
0.662720 0.608826 0.556854
0.735748 0.609802 0.557343
0.825012 0.613678 0.556854
0.462708 0.664673 0.555878
0.470123 0.663696 0.558319
0.489227 0.663696 0.556854
0.516174 0.665649 0.558807
0.554901 0.666626 0.558807
0.606384 0.663696 0.557831
0.663696 0.666626 0.554901
0.736237 0.667114 0.554413
0.830414 0.677460 0.553925
0.443634 0.738739 0.555878
0.447571 0.742188 0.552460
0.469116 0.743652 0.550507
0.502441 0.742676 0.553925
0.550507 0.744629 0.550507
0.607849 0.746582 0.550507
0.674042 0.749023 0.546570
0.749023 0.749512 0.550018
0.846558 0.762268 0.546570
0.370605 0.860748 0.537262
0.383362 0.864685 0.531403
0.411743 0.864685 0.531403
0.462708 0.865204 0.528931
0.527466 0.872559 0.527466
0.606873 0.881866 0.528961
0.695099 0.889221 0.527466
0.800018 0.898499 0.521057
0.917603 0.909790 0.515717
0.246063 0.243622 0.651489
0.289703 0.258850 0.654907
0.367615 0.280884 0.647522
0.458832 0.308350 0.645081
0.546082 0.338715 0.635803
0.629395 0.365173 0.629395
0.700470 0.390167 0.618164
0.757355 0.412781 0.609802
0.823486 0.427490 0.609802
0.304901 0.326447 0.633850
0.335327 0.333862 0.637787
0.392151 0.343628 0.633850
0.467163 0.358826 0.628418
0.546082 0.377960 0.627930
0.620605 0.393646 0.624023
0.693146 0.412750 0.614685
0.750488 0.432373 0.605896
0.823486 0.446106 0.609802
0.374054 0.425507 0.622559
0.395599 0.425507 0.625977
0.430389 0.432343 0.623535
0.484802 0.438721 0.623047
0.550507 0.445618 0.620117
0.616180 0.451447 0.617157
0.681854 0.460785 0.614685
0.740234 0.468140 0.609802
0.819580 0.476440 0.612701
0.413208 0.494659 0.617676
0.431885 0.499512 0.616180
0.463257 0.503906 0.615173
0.506348 0.506348 0.615173
0.555878 0.507812 0.616180
0.612213 0.511749 0.613678
0.669586 0.511749 0.612213
0.735260 0.514709 0.609802
0.819580 0.514679 0.611237
0.438721 0.552948 0.616180
0.448029 0.553436 0.610260
0.475983 0.554901 0.610748
0.517181 0.558807 0.611725
0.560760 0.560760 0.609802
0.609802 0.562744 0.609802
0.663696 0.562744 0.608337
0.734772 0.558319 0.609802
0.823486 0.550995 0.609802
0.453918 0.612213 0.613678
0.467163 0.611725 0.612213
0.489716 0.609802 0.610748
0.520111 0.608337 0.609802
0.561279 0.608337 0.609802
0.608337 0.605896 0.608337
0.666626 0.605896 0.605896
0.737732 0.608337 0.604431
0.832855 0.608337 0.605896
0.465698 0.670624 0.612213
0.473022 0.663696 0.609802
0.491180 0.666626 0.609802
0.517639 0.666656 0.607361
0.556366 0.665680 0.606384
0.604919 0.666626 0.607361
0.663696 0.667633 0.604919
0.741211 0.667633 0.601990
0.841675 0.674042 0.604919
0.436737 0.746094 0.613190
0.444641 0.745117 0.609314
0.459778 0.747559 0.605408
0.489227 0.746094 0.606873
0.534790 0.750488 0.601471
0.600983 0.752930 0.600006
0.671600 0.753906 0.600494
0.750000 0.754395 0.597076
0.860748 0.764740 0.593597
0.318634 0.872070 0.597046
0.329895 0.872070 0.593597
0.357330 0.875000 0.590179
0.408813 0.875946 0.583862
0.484314 0.883850 0.582397
0.579895 0.889221 0.578400
0.679871 0.895081 0.578400
0.798553 0.906372 0.574493
0.923065 0.915161 0.568146
0.280365 0.283386 0.705902
0.313202 0.290680 0.705902
0.369598 0.301971 0.701904
0.447540 0.331390 0.695587
0.524506 0.351959 0.692169
0.607849 0.374969 0.688751
0.678406 0.397064 0.681335
0.750488 0.416199 0.677948
0.824493 0.431396 0.671600
0.328400 0.344116 0.690704
0.347534 0.348022 0.691193
0.395599 0.354919 0.687775
0.459808 0.370087 0.686798
0.529419 0.381866 0.682312
0.603455 0.399994 0.678406
0.674530 0.419586 0.675018
0.746582 0.434814 0.674042
0.824005 0.446594 0.675018
0.390228 0.430389 0.679382
0.400482 0.433319 0.678894
0.434296 0.435272 0.680359
0.479919 0.440704 0.678406
0.541138 0.449036 0.675507
0.606384 0.454865 0.675018
0.674530 0.460785 0.672577
0.739746 0.471558 0.672089
0.820557 0.476440 0.674530
0.433350 0.500977 0.672089
0.447052 0.503418 0.674530
0.468628 0.504883 0.673065
0.506348 0.507812 0.670624
0.553436 0.507812 0.670135
0.609802 0.511749 0.667633
0.667633 0.511749 0.667633
0.735748 0.513214 0.670624
0.819580 0.513214 0.674530
0.449036 0.553925 0.671600
0.457336 0.553925 0.669617
0.484314 0.557831 0.670624
0.518158 0.559784 0.670624
0.558807 0.560760 0.667633
0.610779 0.559784 0.670135
0.667633 0.558807 0.665649
0.733307 0.558319 0.670624
0.824493 0.550995 0.674530
0.460266 0.609802 0.670624
0.467651 0.609802 0.667633
0.487274 0.609802 0.668610
0.520081 0.611237 0.670135
0.557831 0.608826 0.668121
0.608337 0.608337 0.668121
0.667633 0.605896 0.667633
0.741699 0.605408 0.670135
0.837738 0.598053 0.671600
0.464722 0.663696 0.670624
0.472046 0.667145 0.667633
0.488251 0.667633 0.667633
0.514221 0.667633 0.667633
0.550964 0.667633 0.667633
0.603912 0.664703 0.667633
0.667633 0.667633 0.666626
0.745605 0.667114 0.663696
0.856842 0.662720 0.666626
0.428955 0.744629 0.671600
0.439178 0.745605 0.671112
0.454407 0.748535 0.671600
0.484344 0.750488 0.675018
0.525482 0.751953 0.667633
0.584808 0.752930 0.665649
0.659790 0.755859 0.662231
0.753418 0.753418 0.659302
0.868652 0.763733 0.655884
0.288239 0.875458 0.684296
0.299530 0.878387 0.680359
0.325500 0.878387 0.677460
0.372528 0.884827 0.671082
0.432312 0.888245 0.663727
0.518616 0.895569 0.651489
0.644104 0.902985 0.645081
0.778931 0.910278 0.647522
0.921600 0.921600 0.640198
0.306396 0.306396 0.783356
0.328918 0.310303 0.779449
0.380859 0.321075 0.776459
0.448029 0.340240 0.773010
0.521545 0.360809 0.766174
0.601013 0.381866 0.760315
0.678894 0.400970 0.759338
0.748535 0.416199 0.755859
0.828461 0.430908 0.752441
0.340210 0.351440 0.767639
0.361755 0.358337 0.764709
0.400482 0.366150 0.764221
0.456848 0.377472 0.764221
0.530914 0.392670 0.759827
0.603943 0.404388 0.756836
0.675995 0.419586 0.755859
0.751953 0.434326 0.752441
0.824982 0.442139 0.752441
0.393158 0.433319 0.757812
0.405365 0.434296 0.756348
0.434296 0.438690 0.759308
0.486267 0.442200 0.756348
0.542633 0.448547 0.755859
0.606873 0.454865 0.754883
0.679382 0.461243 0.755371
0.748535 0.468140 0.752441
0.824982 0.472046 0.749023
0.432373 0.503906 0.752930
0.443146 0.502441 0.753906
0.466187 0.503906 0.754395
0.506348 0.507324 0.753906
0.555389 0.507812 0.753906
0.614197 0.507324 0.753418
0.679382 0.511261 0.752441
0.748535 0.508820 0.749023
0.824493 0.510284 0.749023
0.450500 0.557343 0.754395
0.455872 0.556854 0.754883
0.478424 0.558807 0.752930
0.512238 0.558807 0.752441
0.558807 0.558319 0.752441
0.613190 0.558319 0.754395
0.679382 0.557343 0.752930
0.752441 0.550507 0.752930
0.834320 0.550507 0.754395
0.444641 0.614197 0.752930
0.451965 0.614197 0.752930
0.473999 0.613678 0.752930
0.501953 0.611237 0.752930
0.546570 0.608337 0.754883
0.607849 0.605408 0.752930
0.671600 0.605408 0.752930
0.753906 0.601471 0.756836
0.849060 0.597565 0.760315
0.435303 0.679382 0.752930
0.442657 0.676971 0.753906
0.459290 0.676483 0.754883
0.488739 0.675018 0.752930
0.533325 0.674042 0.757324
0.592133 0.670624 0.756836
0.666626 0.667114 0.756836
0.752930 0.662720 0.756836
0.867676 0.655884 0.760803
0.402893 0.752930 0.756836
0.410309 0.752930 0.757324
0.429901 0.754395 0.757324
0.462250 0.755859 0.756836
0.510315 0.753418 0.756836
0.570099 0.753418 0.753418
0.651031 0.755859 0.756836
0.752930 0.752930 0.752930
0.884338 0.753418 0.752930
0.249023 0.878387 0.779449
0.256836 0.878906 0.779449
0.286774 0.882385 0.779449
0.337738 0.884827 0.777435
0.401001 0.888245 0.774475
0.487732 0.899506 0.767181
0.591156 0.906372 0.756836
0.742188 0.914673 0.745605
0.925507 0.921600 0.741699
0.313690 0.313690 0.886292
0.339722 0.321106 0.890198
0.385284 0.328430 0.886292
0.453888 0.339752 0.886292
0.529419 0.358856 0.884338
0.612762 0.377960 0.880890
0.699982 0.393188 0.878387
0.790649 0.404388 0.877899
0.874481 0.411804 0.874481
0.347534 0.358826 0.882385
0.362732 0.362244 0.882385
0.403900 0.370056 0.878906
0.463745 0.377472 0.879913
0.536774 0.389221 0.878906
0.616638 0.399994 0.876434
0.699982 0.411774 0.874481
0.787231 0.419586 0.874969
0.878387 0.427002 0.878387
0.389252 0.434296 0.882385
0.404388 0.434296 0.878906
0.435272 0.438202 0.878387
0.486267 0.439209 0.878387
0.550018 0.444153 0.874481
0.627441 0.448059 0.878387
0.705902 0.451965 0.878387
0.791168 0.452942 0.877411
0.878387 0.456848 0.878387
0.412750 0.502441 0.878387
0.429443 0.502441 0.878387
0.452942 0.500000 0.878387
0.502441 0.501465 0.879913
0.559296 0.501953 0.880402
0.629883 0.503906 0.878387
0.709351 0.501465 0.878387
0.792664 0.497070 0.880890
0.882385 0.491180 0.882385
0.409790 0.560760 0.884338
0.417175 0.558807 0.880402
0.447083 0.553925 0.882385
0.492157 0.552948 0.882385
0.552948 0.552948 0.884338
0.622559 0.550995 0.882874
0.705902 0.546082 0.884338
0.791168 0.542664 0.884338
0.892151 0.531403 0.888245
0.389252 0.623047 0.886292
0.395081 0.623047 0.886292
0.417175 0.620117 0.888733
0.460297 0.615173 0.887756
0.515167 0.605896 0.887756
0.601990 0.601990 0.889221
0.683807 0.597076 0.890198
0.790192 0.589691 0.891663
0.895569 0.582397 0.891663
0.340210 0.699982 0.895081
0.348511 0.699982 0.891174
0.374512 0.695099 0.894104
0.417694 0.688263 0.891174
0.477448 0.681335 0.897064
0.551483 0.668610 0.898987
0.655884 0.659790 0.897980
0.774963 0.655396 0.899475
0.898987 0.644104 0.898987
0.225983 0.799530 0.898499
0.246094 0.799042 0.901978
0.279419 0.796112 0.902496
0.339203 0.793152 0.902496
0.414703 0.786285 0.906372
0.498535 0.778931 0.904449
0.602478 0.764252 0.907349
0.749512 0.749512 0.906372
0.914185 0.745605 0.914185
0.011810 0.917603 0.917603
0.015717 0.921112 0.917603
0.022522 0.921600 0.917603
0.097534 0.917603 0.920105
0.270599 0.921600 0.921600
0.401428 0.921600 0.921600
0.538239 0.925507 0.922577
0.696075 0.925507 0.925507
0.925507 0.925507 0.929382
