Postproduction/IWLTBAP - Humble/LUTs by IWLTBAP (CUBE)/UTILITY/Generic Rec.709 to LOG/U-9090-RTL.cube
# Copyright: (C) Copyright 2010-2018 by IWLTBAP SAS
# Cannot be resold, shared or otherwise redistributed
# Website: https://luts.iwltbap.com
TITLE "IWLTBAP 9090 (Utility Rec.709 to LOG)"
LUT_3D_SIZE 32
0.098114 0.098114 0.098114
0.117812 0.100533 0.100533
0.137845 0.102976 0.102976
0.158061 0.105218 0.105218
0.178198 0.107521 0.107521
0.198509 0.109674 0.109674
0.218850 0.111816 0.111816
0.239141 0.113956 0.113956
0.259289 0.116336 0.116336
0.279574 0.118972 0.118972
0.299829 0.121698 0.121698
0.320017 0.124613 0.124613
0.340234 0.127593 0.127593
0.360439 0.130775 0.130775
0.380778 0.133926 0.133926
0.400994 0.137226 0.137226
0.421210 0.140639 0.140639
0.441477 0.144084 0.144084
0.461714 0.147652 0.147652
0.481970 0.151255 0.151255
0.502246 0.154938 0.154938
0.522467 0.158692 0.158692
0.542788 0.162558 0.162558
0.563030 0.166413 0.166413
0.583270 0.170281 0.170281
0.603562 0.174207 0.174207
0.623878 0.178294 0.178294
0.644098 0.182239 0.182239
0.664436 0.186411 0.186411
0.684657 0.190483 0.190483
0.704999 0.194638 0.194638
0.725189 0.198792 0.198792
0.102671 0.120753 0.102671
0.123184 0.123196 0.105100
0.142727 0.125224 0.108127
0.162747 0.127658 0.110520
0.182865 0.129895 0.112727
0.202982 0.132109 0.114841
0.223298 0.134154 0.116907
0.243515 0.136408 0.119135
0.263731 0.138664 0.121424
0.283834 0.141201 0.124052
0.304099 0.143770 0.126846
0.324286 0.146507 0.129611
0.344444 0.149268 0.132629
0.364609 0.152158 0.135613
0.384883 0.155208 0.138811
0.405103 0.158350 0.142054
0.425335 0.161554 0.145459
0.445528 0.164808 0.148795
0.465778 0.168105 0.152337
0.486032 0.171552 0.155921
0.506307 0.175012 0.159531
0.526457 0.178573 0.163291
0.546759 0.182116 0.167036
0.567001 0.185856 0.170813
0.587218 0.189574 0.174754
0.607509 0.193334 0.178599
0.627846 0.197088 0.182555
0.648066 0.200955 0.186613
0.668288 0.204801 0.190592
0.688623 0.208766 0.194734
0.708937 0.212729 0.198796
0.729156 0.216785 0.202979
0.107259 0.143515 0.107259
0.127673 0.145872 0.109689
0.148389 0.148382 0.112290
0.167923 0.150236 0.115077
0.187660 0.152470 0.118074
0.207737 0.154616 0.120235
0.227874 0.156819 0.122304
0.247986 0.158957 0.124448
0.268133 0.161211 0.126817
0.288317 0.163561 0.129361
0.308446 0.166012 0.132091
0.328545 0.168639 0.134882
0.348763 0.171309 0.137752
0.368878 0.173985 0.140806
0.389122 0.176876 0.143886
0.409276 0.179824 0.147098
0.429492 0.182853 0.150395
0.449666 0.185966 0.153808
0.469897 0.189145 0.157245
0.490099 0.192348 0.160775
0.510342 0.195678 0.164354
0.530601 0.199050 0.167971
0.550842 0.202457 0.171744
0.571040 0.205992 0.175499
0.591279 0.209464 0.179320
0.611519 0.213084 0.183192
0.631816 0.216651 0.187150
0.652036 0.220310 0.191080
0.672268 0.224049 0.195056
0.692565 0.227900 0.199111
0.712824 0.231656 0.203172
0.733038 0.235500 0.207348
0.111816 0.166267 0.111816
0.132222 0.168541 0.114265
0.152787 0.170952 0.116820
0.173375 0.173375 0.119396
0.193198 0.175154 0.121662
0.212633 0.177246 0.125377
0.232621 0.179373 0.127895
0.252675 0.181536 0.130034
0.272763 0.183701 0.132382
0.292793 0.186077 0.134855
0.312911 0.188433 0.137484
0.333033 0.190834 0.140257
0.353134 0.193374 0.143108
0.373246 0.196111 0.146093
0.393375 0.198746 0.149177
0.413545 0.201523 0.152287
0.433713 0.204419 0.155580
0.453880 0.207445 0.158888
0.474102 0.210456 0.162337
0.494271 0.213538 0.165790
0.514483 0.216652 0.169315
0.534665 0.219880 0.172968
0.554919 0.223132 0.176626
0.575127 0.226449 0.180350
0.595372 0.229837 0.184102
0.615583 0.233252 0.187967
0.635807 0.236785 0.191800
0.656089 0.240249 0.195694
0.676320 0.243795 0.199643
0.696542 0.247445 0.203705
0.716870 0.251104 0.207759
0.737091 0.254751 0.211822
0.116426 0.188945 0.116426
0.136703 0.191181 0.118915
0.157235 0.193617 0.121363
0.177784 0.196064 0.123935
0.198441 0.198441 0.126698
0.218270 0.200034 0.128413
0.237739 0.201981 0.132434
0.257454 0.204192 0.135641
0.277424 0.206404 0.138087
0.297356 0.208566 0.140512
0.317444 0.210830 0.143101
0.337474 0.213248 0.145838
0.357526 0.215686 0.148641
0.377629 0.218219 0.151548
0.397754 0.220846 0.154577
0.417873 0.223526 0.157686
0.438029 0.226268 0.160882
0.458190 0.229053 0.164182
0.478332 0.231961 0.167533
0.498493 0.234925 0.170983
0.518662 0.237931 0.174441
0.538831 0.240991 0.178056
0.559092 0.244191 0.181609
0.579281 0.247332 0.185347
0.599439 0.250575 0.189033
0.619644 0.253823 0.192846
0.639869 0.257163 0.196602
0.660162 0.260578 0.200486
0.680385 0.264046 0.204435
0.700605 0.267475 0.208363
0.720853 0.271024 0.212344
0.741044 0.274579 0.216394
0.121203 0.211584 0.121203
0.141286 0.213919 0.123548
0.161726 0.216249 0.126077
0.182171 0.218575 0.128719
0.202778 0.221018 0.131356
0.223491 0.223487 0.134022
0.243264 0.225013 0.135875
0.262720 0.226778 0.139613
0.282296 0.228965 0.143454
0.302116 0.231129 0.146334
0.322051 0.233433 0.148891
0.342082 0.235686 0.151543
0.362092 0.238041 0.154319
0.382104 0.240463 0.157186
0.402213 0.242954 0.160125
0.422293 0.245538 0.163276
0.442363 0.248206 0.166385
0.462472 0.250936 0.169608
0.482656 0.253730 0.172934
0.502752 0.256581 0.176286
0.522924 0.259408 0.179727
0.543096 0.262417 0.183236
0.563265 0.265420 0.186824
0.583439 0.268488 0.190449
0.603605 0.271611 0.194109
0.623815 0.274750 0.197824
0.644024 0.277988 0.201609
0.664230 0.281243 0.205451
0.684449 0.284564 0.209327
0.704663 0.287899 0.213268
0.724891 0.291273 0.217238
0.745106 0.294720 0.221184
0.126204 0.234261 0.126204
0.146172 0.236494 0.128636
0.166304 0.238824 0.131079
0.186715 0.241142 0.133629
0.207218 0.243509 0.136267
0.227769 0.245937 0.139017
0.248395 0.248380 0.141788
0.268100 0.249983 0.143792
0.287596 0.251661 0.147394
0.307108 0.253775 0.151403
0.326849 0.256014 0.154765
0.346731 0.258199 0.157436
0.366738 0.260508 0.160194
0.386693 0.262902 0.162992
0.406726 0.265270 0.165932
0.426765 0.267773 0.168973
0.446843 0.270382 0.172037
0.466903 0.272926 0.175225
0.487028 0.275650 0.178471
0.507096 0.278380 0.181782
0.527204 0.281177 0.185148
0.547386 0.284026 0.188655
0.567544 0.286942 0.192133
0.587657 0.289876 0.195751
0.607856 0.292897 0.199406
0.627980 0.296016 0.203065
0.648226 0.299075 0.206786
0.668423 0.302227 0.210555
0.688624 0.305434 0.214412
0.708753 0.308687 0.218258
0.729000 0.311942 0.222133
0.749212 0.315272 0.226100
0.131619 0.256811 0.131619
0.151293 0.259044 0.133953
0.171287 0.261349 0.136423
0.191413 0.263632 0.138966
0.211732 0.265965 0.141610
0.232129 0.268386 0.144322
0.252679 0.270807 0.147114
0.273174 0.273174 0.149963
0.292841 0.274733 0.152238
0.312331 0.276513 0.155570
0.331917 0.278481 0.159530
0.351538 0.280771 0.163199
0.371412 0.283024 0.166170
0.391317 0.285310 0.168953
0.411293 0.287643 0.171811
0.431304 0.290075 0.174779
0.451309 0.292583 0.177834
0.471367 0.295093 0.180927
0.491453 0.297705 0.184140
0.511497 0.300345 0.187416
0.531584 0.303061 0.190765
0.551710 0.305775 0.194182
0.571801 0.308622 0.197622
0.591957 0.311520 0.201166
0.612135 0.314407 0.204721
0.632258 0.317393 0.208378
0.652480 0.320368 0.212094
0.672597 0.323437 0.215774
0.692716 0.326536 0.219611
0.712940 0.329640 0.223364
0.733158 0.332875 0.227239
0.753347 0.336032 0.231156
0.137400 0.279332 0.137400
0.156826 0.281588 0.139795
0.176532 0.283708 0.142267
0.196428 0.286053 0.144772
0.216509 0.288299 0.147350
0.236718 0.290693 0.150080
0.257112 0.293076 0.152814
0.277492 0.295482 0.155667
0.297874 0.297874 0.158479
0.317524 0.299568 0.160971
0.337074 0.301310 0.164034
0.356613 0.303282 0.167965
0.376290 0.305500 0.171595
0.396077 0.307813 0.174969
0.416026 0.310095 0.177896
0.435934 0.312420 0.180750
0.455930 0.314855 0.183753
0.475860 0.317289 0.186829
0.495942 0.319870 0.189981
0.515961 0.322414 0.193211
0.536045 0.325041 0.196486
0.556085 0.327744 0.199812
0.576188 0.330458 0.203231
0.596312 0.333213 0.206749
0.616407 0.336040 0.210239
0.636531 0.338961 0.213858
0.656668 0.341905 0.217513
0.676790 0.344832 0.221172
0.696974 0.347780 0.224913
0.717162 0.350819 0.228672
0.737338 0.353925 0.232511
0.757509 0.357086 0.236356
0.143595 0.301782 0.143595
0.162646 0.303949 0.145897
0.182036 0.306148 0.148380
0.201602 0.308389 0.150804
0.221511 0.310636 0.153381
0.241484 0.312982 0.156021
0.261685 0.315312 0.158812
0.281923 0.317753 0.161585
0.302247 0.320166 0.164436
0.322573 0.322567 0.167314
0.342227 0.324276 0.169892
0.361834 0.326088 0.172695
0.381340 0.328065 0.176537
0.400975 0.330189 0.180212
0.420784 0.332524 0.183783
0.440616 0.334828 0.186850
0.460541 0.337198 0.189795
0.480468 0.339570 0.192789
0.500500 0.342034 0.195924
0.520458 0.344547 0.199076
0.540525 0.347088 0.202307
0.560528 0.349728 0.205680
0.580594 0.352358 0.209029
0.600686 0.355066 0.212429
0.620778 0.357799 0.215923
0.640827 0.360626 0.219461
0.661004 0.363470 0.223039
0.681129 0.366304 0.226688
0.701253 0.369221 0.230343
0.721377 0.372186 0.234058
0.741592 0.375218 0.237818
0.761711 0.378253 0.241659
0.149899 0.324253 0.149899
0.168574 0.326394 0.152246
0.187724 0.328623 0.154584
0.207097 0.330804 0.157034
0.226698 0.333093 0.159578
0.246493 0.335335 0.162209
0.266489 0.337692 0.164923
0.286578 0.340025 0.167623
0.306728 0.342451 0.170465
0.327004 0.344899 0.173376
0.347318 0.347324 0.176280
0.366919 0.349080 0.178884
0.386499 0.350860 0.181644
0.406073 0.352873 0.185317
0.425692 0.355025 0.189029
0.445439 0.357286 0.192601
0.465285 0.359635 0.195917
0.485216 0.361990 0.198911
0.505115 0.364360 0.201976
0.525091 0.366792 0.205098
0.545023 0.369296 0.208307
0.565074 0.371834 0.211549
0.585084 0.374447 0.214882
0.605152 0.377068 0.218214
0.625197 0.379746 0.221716
0.645255 0.382442 0.225196
0.665405 0.385243 0.228741
0.685445 0.388019 0.232271
0.705616 0.390917 0.235931
0.725657 0.393764 0.239590
0.745874 0.396682 0.243311
0.765968 0.399626 0.247082
0.156349 0.346702 0.156349
0.174682 0.348842 0.158642
0.193530 0.351015 0.161006
0.212716 0.353218 0.163424
0.232036 0.355450 0.165914
0.251666 0.357690 0.168520
0.271485 0.360018 0.171156
0.291385 0.362362 0.173902
0.311413 0.364712 0.176657
0.331571 0.367149 0.179478
0.351778 0.369584 0.182393
0.371968 0.371940 0.185357
0.391566 0.373801 0.188026
0.411192 0.375652 0.190779
0.430777 0.377628 0.194247
0.450418 0.379779 0.197961
0.470128 0.382042 0.201542
0.489925 0.384364 0.204995
0.509815 0.386700 0.208162
0.529715 0.389122 0.211267
0.549643 0.391543 0.214403
0.569611 0.394007 0.217575
0.589624 0.396525 0.220907
0.609625 0.399105 0.224201
0.629654 0.401737 0.227551
0.649671 0.404373 0.231014
0.669804 0.407110 0.234457
0.689869 0.409816 0.238017
0.709921 0.412563 0.241629
0.730031 0.415412 0.245209
0.750143 0.418246 0.248910
0.770248 0.421157 0.252662
0.162953 0.369107 0.162953
0.180990 0.371291 0.165187
0.199536 0.373434 0.167517
0.218397 0.375661 0.169965
0.237569 0.377807 0.172388
0.257023 0.380049 0.174944
0.276605 0.382376 0.177560
0.296383 0.384673 0.180196
0.316225 0.387017 0.182908
0.336219 0.389401 0.185763
0.356307 0.391808 0.188634
0.376503 0.394245 0.191543
0.396629 0.396629 0.194496
0.416181 0.398485 0.197190
0.435857 0.400389 0.199964
0.455482 0.402341 0.203327
0.475063 0.404464 0.207042
0.494743 0.406738 0.210604
0.514571 0.409081 0.214102
0.534412 0.411478 0.217494
0.554307 0.413854 0.220572
0.574221 0.416254 0.223765
0.594185 0.418700 0.226937
0.614154 0.421249 0.230234
0.634164 0.423819 0.233591
0.654189 0.426363 0.236942
0.674246 0.429008 0.240356
0.694274 0.431717 0.243901
0.714288 0.434410 0.247356
0.734405 0.437156 0.251006
0.754495 0.439968 0.254630
0.774619 0.442745 0.258289
0.169582 0.391530 0.169582
0.187383 0.393669 0.171816
0.205650 0.395830 0.174152
0.224258 0.398023 0.176515
0.243194 0.400227 0.178944
0.262447 0.402472 0.181432
0.281890 0.404722 0.184030
0.301482 0.406997 0.186650
0.321192 0.409293 0.189350
0.341044 0.411648 0.192120
0.361039 0.414024 0.194961
0.381074 0.416437 0.197838
0.401185 0.418921 0.200785
0.421284 0.421284 0.203779
0.440922 0.423195 0.206526
0.460524 0.425095 0.209329
0.480102 0.427053 0.212545
0.499707 0.429242 0.216186
0.519433 0.431469 0.219782
0.539226 0.433757 0.223325
0.559047 0.436136 0.226739
0.578889 0.438513 0.229905
0.598824 0.440948 0.233141
0.618785 0.443439 0.236359
0.638744 0.445919 0.239630
0.658699 0.448470 0.242951
0.678739 0.451048 0.246386
0.698747 0.453658 0.249810
0.718776 0.456296 0.253349
0.738831 0.458985 0.256800
0.758903 0.461780 0.260428
0.778977 0.464471 0.264087
0.176440 0.414080 0.176440
0.193838 0.416201 0.178583
0.211887 0.418292 0.180868
0.230252 0.420468 0.183214
0.249007 0.422614 0.185605
0.267988 0.424847 0.188095
0.287263 0.427080 0.190602
0.306693 0.429340 0.193202
0.326327 0.431667 0.195878
0.346011 0.433991 0.198627
0.365852 0.436353 0.201393
0.385784 0.438735 0.204246
0.405832 0.441175 0.207165
0.425895 0.443571 0.210156
0.445995 0.446003 0.213126
0.465575 0.447908 0.215882
0.485167 0.449829 0.218744
0.504773 0.451852 0.221817
0.524433 0.453958 0.225414
0.544132 0.456238 0.229032
0.563865 0.458549 0.232591
0.583652 0.460897 0.236059
0.603557 0.463326 0.239424
0.623414 0.465713 0.242586
0.643361 0.468153 0.245842
0.663292 0.470599 0.249139
0.683315 0.473182 0.252488
0.703219 0.475725 0.255889
0.723250 0.478311 0.259348
0.743250 0.481008 0.262794
0.763398 0.483644 0.266310
0.783402 0.486330 0.269925
0.183249 0.436529 0.183249
0.200424 0.438606 0.185482
0.218176 0.440687 0.187715
0.236376 0.442870 0.189971
0.254894 0.445057 0.192355
0.273708 0.447204 0.194797
0.292784 0.449449 0.197327
0.312066 0.451683 0.199879
0.331536 0.453974 0.202513
0.351113 0.456260 0.205197
0.370858 0.458643 0.207968
0.390645 0.460944 0.210774
0.410559 0.463343 0.213638
0.430517 0.465775 0.216586
0.450595 0.468238 0.219555
0.470606 0.470629 0.222557
0.490242 0.472581 0.225371
0.509778 0.474569 0.228164
0.529442 0.476548 0.231209
0.549060 0.478661 0.234762
0.568713 0.480917 0.238391
0.588506 0.483202 0.241946
0.608292 0.485572 0.245414
0.628125 0.487966 0.248873
0.648039 0.490411 0.252136
0.667913 0.492834 0.255393
0.687899 0.495284 0.258688
0.707846 0.497822 0.261991
0.727807 0.500358 0.265382
0.747770 0.502948 0.268854
0.767864 0.505582 0.272343
0.787867 0.508218 0.275861
0.190212 0.458978 0.190212
0.207118 0.461059 0.192336
0.224630 0.463196 0.194630
0.242570 0.465276 0.196862
0.260885 0.467421 0.199210
0.279526 0.469653 0.201602
0.298418 0.471833 0.204097
0.317543 0.474027 0.206599
0.336859 0.476368 0.209246
0.356224 0.478600 0.211886
0.375897 0.480954 0.214603
0.395588 0.483279 0.217362
0.415401 0.485626 0.220193
0.435266 0.488007 0.223057
0.455242 0.490475 0.226023
0.475272 0.492908 0.229029
0.495266 0.495266 0.232017
0.514847 0.497280 0.234869
0.534467 0.499202 0.237715
0.554046 0.501245 0.240705
0.573715 0.503405 0.244190
0.593410 0.505621 0.247833
0.613121 0.507898 0.251339
0.632930 0.510238 0.254859
0.652729 0.512648 0.258312
0.672592 0.515086 0.261678
0.692513 0.517492 0.264943
0.712411 0.519966 0.268279
0.732389 0.522496 0.271587
0.752347 0.525041 0.274999
0.772333 0.527586 0.278407
0.792333 0.530173 0.281955
0.197220 0.481428 0.197220
0.213870 0.483510 0.199295
0.231110 0.485585 0.201544
0.248855 0.487725 0.203827
0.267007 0.489865 0.206122
0.285438 0.492051 0.208491
0.304188 0.494244 0.210916
0.323101 0.496467 0.213446
0.342270 0.498668 0.216003
0.361569 0.500906 0.218603
0.381018 0.503232 0.221300
0.400651 0.505578 0.224042
0.420337 0.507889 0.226864
0.440113 0.510229 0.229662
0.459994 0.512643 0.232563
0.479981 0.515081 0.235560
0.499919 0.517484 0.238528
0.519926 0.519926 0.241559
0.539547 0.521886 0.244420
0.559109 0.523896 0.247297
0.578696 0.525921 0.250305
0.598328 0.528086 0.253714
0.618078 0.530303 0.257262
0.637744 0.532603 0.260799
0.657520 0.534903 0.264355
0.677351 0.537296 0.267819
0.697238 0.539733 0.271279
0.717093 0.542157 0.274559
0.737001 0.544647 0.277841
0.756927 0.547134 0.281206
0.776890 0.549637 0.284594
0.796890 0.552219 0.288047
0.204339 0.503907 0.204339
0.220739 0.505977 0.206408
0.237770 0.508065 0.208603
0.255248 0.510152 0.210854
0.273196 0.512319 0.213125
0.291411 0.514454 0.215477
0.310030 0.516616 0.217885
0.328802 0.518834 0.220349
0.347796 0.521067 0.222846
0.367001 0.523300 0.225458
0.386385 0.525593 0.228111
0.405840 0.527887 0.230773
0.425406 0.530231 0.233567
0.445099 0.532582 0.236385
0.464881 0.534940 0.239242
0.484738 0.537300 0.242114
0.504594 0.539753 0.245086
0.524615 0.542196 0.248151
0.544571 0.544571 0.251211
0.564138 0.546590 0.254086
0.583721 0.548592 0.256915
0.603372 0.550669 0.259906
0.623056 0.552798 0.263175
0.642694 0.555015 0.266785
0.662399 0.557248 0.270301
0.682202 0.559614 0.273809
0.701970 0.562010 0.277370
0.721828 0.564485 0.280832
0.741683 0.566872 0.284241
0.761592 0.569358 0.287501
0.781531 0.571808 0.290849
0.801477 0.574332 0.294301
0.211441 0.526344 0.211441
0.227651 0.528374 0.213490
0.244422 0.530465 0.215683
0.261716 0.532605 0.217867
0.279446 0.534742 0.220139
0.297537 0.536818 0.222477
0.315946 0.539044 0.224885
0.334567 0.541192 0.227320
0.353422 0.543424 0.229800
0.372475 0.545657 0.232355
0.391723 0.547890 0.234959
0.411078 0.550233 0.237609
0.430526 0.552535 0.240321
0.450163 0.554817 0.243118
0.469831 0.557205 0.245940
0.489572 0.559560 0.248793
0.509404 0.561980 0.251801
0.529285 0.564362 0.254758
0.549290 0.566814 0.257769
0.569221 0.569243 0.260797
0.588821 0.571244 0.263693
0.608392 0.573275 0.266620
0.627966 0.575306 0.269591
0.647632 0.577441 0.272821
0.667298 0.579697 0.276354
0.686989 0.581975 0.279914
0.706812 0.584284 0.283452
0.726603 0.586687 0.286922
0.746370 0.589051 0.290477
0.766274 0.591504 0.293897
0.786213 0.594003 0.297246
0.806035 0.596491 0.300595
0.218632 0.548762 0.218632
0.234534 0.550822 0.220694
0.251167 0.552960 0.222822
0.268310 0.555004 0.224972
0.285788 0.557141 0.227263
0.303675 0.559262 0.229552
0.321970 0.561408 0.231895
0.340449 0.563634 0.234330
0.359178 0.565782 0.236766
0.378045 0.568015 0.239275
0.397193 0.570258 0.241848
0.416416 0.572520 0.244494
0.435796 0.574776 0.247180
0.455282 0.577159 0.249939
0.474900 0.579466 0.252728
0.494538 0.581797 0.255613
0.514255 0.584180 0.258461
0.534075 0.586595 0.261410
0.554012 0.589019 0.264408
0.573887 0.591468 0.267425
0.593865 0.593837 0.270478
0.613399 0.595900 0.273372
0.633018 0.597960 0.276306
0.652622 0.600001 0.279351
0.672257 0.602150 0.282436
0.691968 0.604373 0.285994
0.711658 0.606612 0.289515
0.731393 0.608946 0.293021
0.751201 0.611374 0.296566
0.770959 0.613762 0.300037
0.790883 0.616183 0.303558
0.810681 0.618632 0.306968
0.225868 0.571255 0.225868
0.241617 0.573273 0.227906
0.257979 0.575379 0.230019
0.274865 0.577431 0.232189
0.292200 0.579571 0.234422
0.309920 0.581677 0.236634
0.328059 0.583828 0.238999
0.346381 0.585998 0.241355
0.364938 0.588202 0.243818
0.383696 0.590372 0.246317
0.402711 0.592615 0.248826
0.421822 0.594849 0.251465
0.441120 0.597124 0.254111
0.460469 0.599395 0.256855
0.480019 0.601749 0.259563
0.499556 0.604088 0.262384
0.519215 0.606419 0.265226
0.538942 0.608816 0.268143
0.558814 0.611212 0.271106
0.578661 0.613609 0.274078
0.598569 0.616051 0.277145
0.618464 0.618437 0.280214
0.638104 0.620530 0.283128
0.657609 0.622545 0.286057
0.677251 0.624678 0.289018
0.696839 0.626804 0.292207
0.716562 0.629048 0.295651
0.736264 0.631314 0.299182
0.755983 0.633618 0.302728
0.775795 0.635968 0.306225
0.795609 0.638413 0.309740
0.815415 0.640772 0.313234
0.233147 0.593704 0.233147
0.248719 0.595749 0.235193
0.264831 0.597853 0.237251
0.281557 0.599932 0.239388
0.298672 0.602020 0.241589
0.316274 0.604148 0.243831
0.334233 0.606318 0.246181
0.352367 0.608463 0.248459
0.370807 0.610605 0.250954
0.389458 0.612795 0.253385
0.408353 0.615076 0.255904
0.427352 0.617276 0.258472
0.446492 0.619550 0.261118
0.465772 0.621783 0.263758
0.485198 0.624071 0.266461
0.504660 0.626420 0.269230
0.524238 0.628754 0.272076
0.543914 0.631081 0.274956
0.563651 0.633477 0.277891
0.583434 0.635885 0.280852
0.603274 0.638304 0.283821
0.623246 0.640746 0.286861
0.643152 0.643152 0.289986
0.662694 0.645229 0.292869
0.682293 0.647268 0.295814
0.701841 0.649373 0.298862
0.721528 0.651511 0.301925
0.741160 0.653761 0.305367
0.760854 0.655976 0.308929
0.780574 0.658263 0.312427
0.800409 0.660682 0.315943
0.820127 0.663036 0.319435
0.240465 0.616153 0.240465
0.255777 0.618257 0.242511
0.271744 0.620305 0.244528
0.288314 0.622354 0.246672
0.305265 0.624463 0.248816
0.322684 0.626542 0.251069
0.340425 0.628660 0.253330
0.358461 0.630805 0.255675
0.376789 0.632997 0.258083
0.395301 0.635179 0.260531
0.414029 0.637402 0.262982
0.432929 0.639605 0.265532
0.451955 0.641795 0.268101
0.471183 0.644071 0.270763
0.490474 0.646396 0.273453
0.509872 0.648690 0.276203
0.529344 0.650988 0.278957
0.548938 0.653328 0.281787
0.568624 0.655754 0.284653
0.588334 0.658039 0.287598
0.608057 0.660462 0.290544
0.627932 0.662902 0.293558
0.647871 0.665331 0.296643
0.667787 0.667787 0.299723
0.687284 0.669819 0.302682
0.706892 0.671916 0.305630
0.726514 0.673993 0.308687
0.746119 0.676132 0.311699
0.765748 0.678356 0.315126
0.785443 0.680588 0.318585
0.805187 0.682943 0.322148
0.824970 0.685291 0.325636
0.247783 0.638602 0.247783
0.262945 0.640649 0.249829
0.278719 0.642693 0.251846
0.295060 0.644784 0.253984
0.311865 0.646852 0.256124
0.329156 0.648977 0.258307
0.346703 0.651098 0.260600
0.364637 0.653218 0.262881
0.382757 0.655388 0.265232
0.401186 0.657536 0.267664
0.419826 0.659769 0.270099
0.438581 0.661949 0.272627
0.457520 0.664183 0.275192
0.476589 0.666456 0.277772
0.495797 0.668661 0.280462
0.515115 0.671012 0.283151
0.534487 0.673281 0.285894
0.554034 0.675612 0.288701
0.573619 0.677972 0.291550
0.593274 0.680347 0.294467
0.613016 0.682710 0.297358
0.632801 0.685123 0.300378
0.652640 0.687516 0.303397
0.672473 0.689921 0.306469
0.692418 0.692402 0.309526
0.711932 0.694498 0.312487
0.731478 0.696528 0.315432
0.751112 0.698653 0.318469
0.770709 0.700787 0.321593
0.790338 0.703018 0.324901
0.810056 0.705278 0.328371
0.829818 0.707531 0.331908
0.255193 0.661076 0.255193
0.270148 0.663097 0.257149
0.285743 0.665137 0.259261
0.301920 0.667257 0.261310
0.318572 0.669274 0.263453
0.335648 0.671391 0.265589
0.353077 0.673550 0.267830
0.370890 0.675612 0.270150
0.388847 0.677753 0.272437
0.407130 0.679950 0.274856
0.425615 0.682127 0.277323
0.444305 0.684336 0.279779
0.463164 0.686510 0.282323
0.482118 0.688713 0.284875
0.501223 0.691058 0.287511
0.520425 0.693290 0.290162
0.539750 0.695592 0.292902
0.559183 0.697860 0.295690
0.578688 0.700212 0.298463
0.598303 0.702562 0.301301
0.617970 0.704947 0.304244
0.637681 0.707285 0.307188
0.657436 0.709735 0.310214
0.677248 0.712135 0.313185
0.697120 0.714621 0.316281
0.717019 0.717004 0.319365
0.736556 0.719093 0.322324
0.756082 0.721115 0.325289
0.775701 0.723247 0.328386
0.795306 0.725402 0.331471
0.815005 0.727635 0.334648
0.834622 0.729942 0.338203
0.262633 0.683633 0.262633
0.277386 0.685573 0.264558
0.292844 0.687594 0.266579
0.308833 0.689712 0.268699
0.325316 0.691771 0.270771
0.342224 0.693895 0.272976
0.359551 0.695932 0.275145
0.377097 0.698066 0.277469
0.395006 0.700224 0.279727
0.413157 0.702369 0.282093
0.431549 0.704554 0.284508
0.450104 0.706717 0.286956
0.468848 0.708970 0.289492
0.487694 0.711202 0.292038
0.506725 0.713441 0.294629
0.525857 0.715674 0.297267
0.545082 0.717916 0.299963
0.564395 0.720236 0.302656
0.583883 0.722536 0.305461
0.603388 0.724885 0.308323
0.622954 0.727212 0.311150
0.642573 0.729602 0.314070
0.662321 0.731983 0.317013
0.682106 0.734348 0.320070
0.701897 0.736774 0.323061
0.721733 0.739223 0.326145
0.741643 0.741639 0.329287
0.761147 0.743701 0.332196
0.780669 0.745822 0.335211
0.800290 0.747955 0.338255
0.819919 0.750113 0.341308
0.839607 0.752343 0.344499
0.270123 0.705979 0.270123
0.284686 0.708022 0.272047
0.299945 0.710042 0.274019
0.315808 0.712093 0.276110
0.332127 0.714187 0.278179
0.348828 0.716240 0.280320
0.366039 0.718378 0.282527
0.383463 0.720428 0.284716
0.401260 0.722619 0.287040
0.419220 0.724755 0.289380
0.437520 0.726903 0.291728
0.455947 0.729071 0.294168
0.474587 0.731292 0.296651
0.493348 0.733445 0.299195
0.512257 0.735677 0.301745
0.531301 0.737964 0.304375
0.550456 0.740239 0.307019
