Postproduction/IWLTBAP - Humble/LUTs by IWLTBAP (CUBE)/UTILITY/Generic Rec.709 to LOG/U-9090-RTL.cube
# Copyright: (C) Copyright 2010-2018 by IWLTBAP SAS
# Cannot be resold, shared or otherwise redistributed
# Website: https://luts.iwltbap.com
TITLE "IWLTBAP 9090 (Utility Rec.709 to LOG)"
LUT_3D_SIZE 5
DOMAIN_MIN 0.000000 0.000000 0.000000
DOMAIN_MAX 0.903226 0.903226 0.903226
0.098114 0.098114 0.098114
0.239141 0.113956 0.113956
0.380778 0.133926 0.133926
0.522467 0.158692 0.158692
0.664436 0.186411 0.186411
0.131619 0.256811 0.131619
0.273174 0.273174 0.149963
0.411293 0.287643 0.171811
0.551710 0.305775 0.194182
0.692716 0.326536 0.219611
0.176440 0.414080 0.176440
0.306693 0.429340 0.193202
0.445995 0.446003 0.213126
0.583652 0.460897 0.236059
0.723250 0.478311 0.259348
0.225868 0.571255 0.225868
0.346381 0.585998 0.241355
0.480019 0.601749 0.259563
0.618464 0.618437 0.280214
0.755983 0.633618 0.302728
0.277545 0.728429 0.277545
0.389868 0.742847 0.292105
0.517829 0.758036 0.308951
0.652663 0.774038 0.327980
0.790879 0.790879 0.348998
0.095682 0.095682 0.228392
0.244585 0.115048 0.244569
0.385844 0.137743 0.259502
0.527520 0.162850 0.278333
0.669390 0.190375 0.299703
0.136263 0.261907 0.261907
0.275856 0.276043 0.276055
0.416487 0.291944 0.291951
0.557454 0.307602 0.307620
0.698400 0.325764 0.325765
0.180970 0.419175 0.295762
0.304856 0.435951 0.304864
0.452581 0.452563 0.322992
0.589352 0.465341 0.345414
0.728924 0.481001 0.362782
0.230138 0.576289 0.335761
0.342374 0.592669 0.342376
0.482326 0.608469 0.359805
0.625179 0.625180 0.379196
0.761763 0.637906 0.401903
0.281609 0.733493 0.379588
0.384970 0.749024 0.384984
0.517882 0.764190 0.401701
0.656165 0.780175 0.420222
0.796979 0.796973 0.440386
0.097947 0.097947 0.359557
0.245608 0.117229 0.374514
0.390983 0.140605 0.390983
0.532560 0.166733 0.406525
0.674375 0.194348 0.424595
0.138255 0.262467 0.389939
0.270430 0.270432 0.406316
0.422907 0.289186 0.422923
0.562885 0.309672 0.435317
0.703553 0.329226 0.451417
0.185422 0.424216 0.424216
0.309622 0.440858 0.440880
0.453967 0.454131 0.454125
0.593807 0.470378 0.470395
0.734017 0.485690 0.485721
0.234418 0.581400 0.458604
0.347120 0.597746 0.470883
0.482180 0.613931 0.482172
0.630625 0.630635 0.500175
0.766612 0.643295 0.523057
0.285790 0.738569 0.496861
0.389586 0.754033 0.506677
0.516173 0.770004 0.516197
0.658832 0.786005 0.533867
0.802767 0.802766 0.552931
0.101922 0.101922 0.491330
0.248907 0.121058 0.505634
0.393501 0.144089 0.521032
0.537549 0.170169 0.537576
0.679408 0.198224 0.553531
0.141887 0.265665 0.520118
0.270139 0.270131 0.535901
0.420362 0.288451 0.551579
0.568279 0.309235 0.568299
0.708680 0.331863 0.581308
0.188443 0.426244 0.551882
0.308797 0.438059 0.567936
0.448544 0.448544 0.583856
0.600568 0.466969 0.600579
0.739513 0.486750 0.612347
0.238740 0.586399 0.586379
0.351923 0.602692 0.602692
0.486969 0.618811 0.618811
0.632001 0.632075 0.632066
0.771078 0.648624 0.648626
0.289859 0.743528 0.620979
0.394270 0.759093 0.634035
0.521087 0.775023 0.647161
0.661237 0.790784 0.661221
0.807592 0.807596 0.679227
0.106377 0.106377 0.623397
0.252974 0.125216 0.637302
0.397141 0.148088 0.652054
0.540810 0.173860 0.667724
0.684388 0.201785 0.684380
0.146055 0.269619 0.651285
0.272287 0.272285 0.666224
0.421177 0.290411 0.681193
0.567902 0.310840 0.697043
0.713774 0.333256 0.713776
0.192113 0.429642 0.681417
0.310500 0.438715 0.696641
0.446427 0.446428 0.712266
0.596577 0.464559 0.728225
0.745043 0.484418 0.745047
0.241922 0.589151 0.713950
0.353152 0.601912 0.729300
0.484668 0.614641 0.745065
0.628164 0.628186 0.760696
0.777519 0.646400 0.777519
0.293943 0.748584 0.748584
0.399012 0.764097 0.764099
0.526063 0.780001 0.780001
0.666243 0.795732 0.795732
0.810007 0.810012 0.810011
