Postproduction/IWLTBAP - Humble/LUTs by IWLTBAP (CUBE)/UTILITY/Generic Rec.709 to LOG/U-9091-RTL.cube
# Copyright: (C) Copyright 2010-2018 by IWLTBAP SAS
# Cannot be resold, shared or otherwise redistributed
# Website: https://luts.iwltbap.com
TITLE "IWLTBAP 9091 (Utility Rec.709 to LOG)"
LUT_3D_SIZE 33
0.047119 0.047119 0.047119
0.142029 0.043243 0.047119
0.236969 0.043121 0.047119
0.296478 0.046722 0.047119
0.346527 0.050507 0.050507
0.395935 0.057587 0.057587
0.442169 0.065216 0.068390
0.481628 0.075836 0.073639
0.516693 0.084320 0.080414
0.545197 0.094696 0.093597
0.569122 0.103424 0.106110
0.589355 0.111023 0.114929
0.610779 0.118622 0.122528
0.628906 0.126221 0.130127
0.644135 0.133850 0.135559
0.659332 0.141449 0.143524
0.674561 0.151001 0.152954
0.687897 0.160553 0.160553
0.699249 0.168121 0.168121
0.712280 0.175720 0.175720
0.725983 0.184845 0.184845
0.737366 0.196228 0.196228
0.747528 0.206360 0.206360
0.756226 0.213989 0.213989
0.767670 0.221558 0.220581
0.779938 0.229218 0.225220
0.793671 0.236755 0.232880
0.801849 0.243744 0.240448
0.813263 0.248077 0.248077
0.824982 0.255280 0.255280
0.840179 0.259277 0.259033
0.855286 0.266815 0.262817
0.866699 0.270599 0.266693
0.054657 0.134491 0.054657
0.138275 0.130615 0.054657
0.225891 0.130493 0.058319
0.288605 0.130493 0.058441
0.342377 0.130615 0.061859
0.392151 0.130737 0.069000
0.438385 0.130981 0.076569
0.477844 0.134338 0.084320
0.509888 0.135468 0.091797
0.537598 0.141296 0.102203
0.564178 0.143616 0.111023
0.585541 0.146423 0.118774
0.607025 0.150330 0.126343
0.625153 0.154297 0.133972
0.640350 0.158234 0.139374
0.655518 0.164215 0.147308
0.670685 0.171814 0.156738
0.685883 0.177734 0.164337
0.699249 0.183319 0.171936
0.710663 0.190918 0.179535
0.722137 0.198547 0.188599
0.733582 0.206238 0.198669
0.743774 0.213989 0.206360
0.752441 0.221558 0.213989
0.763855 0.229187 0.221558
0.776062 0.235901 0.229065
0.789795 0.240570 0.236633
0.798035 0.248199 0.243622
0.809387 0.255157 0.248077
0.821198 0.259033 0.255646
0.836395 0.263062 0.262817
0.851624 0.270599 0.266693
0.866699 0.274384 0.270477
0.062225 0.221863 0.062225
0.138519 0.221741 0.065948
0.218353 0.221619 0.069611
0.284424 0.214447 0.069855
0.341888 0.210785 0.073273
0.388733 0.207245 0.080414
0.434540 0.200470 0.087982
0.474060 0.196442 0.095551
0.506104 0.190247 0.103180
0.533722 0.188782 0.110779
0.560272 0.186523 0.118652
0.581696 0.185516 0.123657
0.603210 0.185760 0.130127
0.623688 0.186005 0.137756
0.640228 0.186249 0.145355
0.655396 0.190674 0.152710
0.670563 0.196320 0.162506
0.685760 0.198517 0.171814
0.699249 0.200470 0.179413
0.709076 0.206116 0.187012
0.718353 0.212280 0.194641
0.729797 0.217651 0.202423
0.741211 0.225250 0.210022
0.752319 0.232849 0.217651
0.763733 0.239441 0.225220
0.775940 0.243500 0.232880
0.789673 0.248077 0.240448
0.797913 0.255646 0.247467
0.809265 0.262726 0.251740
0.821075 0.266571 0.259277
0.836273 0.270355 0.266693
0.851501 0.274384 0.270477
0.866699 0.278168 0.274261
0.080566 0.280792 0.076935
0.145813 0.280792 0.077179
0.211304 0.280792 0.081055
0.276886 0.273621 0.081299
0.331177 0.269470 0.084717
0.378052 0.262390 0.091766
0.423676 0.255127 0.096161
0.463135 0.247559 0.103424
0.495270 0.240295 0.110992
0.522797 0.232727 0.118652
0.549408 0.228577 0.126221
0.573425 0.224792 0.131226
0.595825 0.221313 0.137512
0.616272 0.220184 0.145081
0.633087 0.220184 0.150452
0.648285 0.220184 0.158813
0.663483 0.222931 0.167877
0.678680 0.224915 0.175842
0.692139 0.226624 0.183441
0.705109 0.230408 0.191040
0.718109 0.234558 0.198669
0.729553 0.238342 0.206238
0.739746 0.242523 0.213867
0.748779 0.246735 0.221466
0.760193 0.250854 0.229065
0.771545 0.254639 0.236633
0.783356 0.259186 0.244232
0.795013 0.266205 0.251251
0.809265 0.270355 0.255524
0.821075 0.274139 0.262695
0.836029 0.277924 0.266937
0.847839 0.281769 0.270721
0.859528 0.285553 0.274506
0.096039 0.334351 0.092133
0.153839 0.330933 0.092133
0.208130 0.330933 0.095795
0.269226 0.323761 0.096039
0.323517 0.319611 0.099548
0.366760 0.312469 0.103333
0.412231 0.304901 0.107605
0.451691 0.294189 0.111359
0.483826 0.286285 0.118652
0.511383 0.275818 0.126221
0.537994 0.267639 0.133850
0.564545 0.263153 0.138885
0.588226 0.256866 0.145081
0.608704 0.254395 0.152710
0.625519 0.252197 0.158112
0.642792 0.250977 0.166016
0.659332 0.249023 0.175476
0.674561 0.248047 0.181244
0.688019 0.249756 0.187256
0.700958 0.251953 0.196472
0.714722 0.253906 0.205902
0.726105 0.256348 0.212158
0.736267 0.258057 0.217651
0.744995 0.260742 0.226318
0.756348 0.262238 0.236267
0.768616 0.266937 0.243866
0.781860 0.273254 0.250732
0.791168 0.277557 0.255035
0.805878 0.281403 0.259308
0.817657 0.285187 0.266571
0.832886 0.288971 0.270355
0.847473 0.292755 0.274017
0.858795 0.296539 0.274506
0.107971 0.367615 0.107361
0.158356 0.367126 0.107361
0.204987 0.367004 0.110992
0.258667 0.359924 0.111237
0.309296 0.355774 0.114655
0.352600 0.351990 0.115173
0.397522 0.344330 0.119019
0.440094 0.333740 0.122803
0.475403 0.325226 0.129517
0.503326 0.314789 0.134338
0.529938 0.306122 0.141418
0.556519 0.298553 0.148987
0.580597 0.291534 0.156006
0.601074 0.286255 0.163574
0.620117 0.283112 0.168976
0.638519 0.281403 0.174866
0.655518 0.279449 0.183075
0.670685 0.275604 0.188873
0.684174 0.274109 0.194366
0.697174 0.274719 0.201935
0.710907 0.276215 0.210144
0.722290 0.278717 0.217773
0.733704 0.279938 0.224762
0.744507 0.282623 0.232361
0.755859 0.282623 0.239563
0.768127 0.284943 0.244843
0.781860 0.291779 0.252472
0.790039 0.294922 0.258789
0.802582 0.296051 0.263092
0.817169 0.299561 0.270355
0.832397 0.300415 0.274139
0.847473 0.304169 0.277802
0.858795 0.307953 0.277802
0.122559 0.398010 0.122559
0.162384 0.398010 0.122559
0.204865 0.398010 0.126221
0.251221 0.390930 0.126465
0.294556 0.386810 0.129883
0.337402 0.386200 0.130371
0.382324 0.382324 0.133606
0.427948 0.371704 0.137421
0.463989 0.366150 0.141174
0.492493 0.356018 0.145691
0.519135 0.347260 0.152222
0.545685 0.337158 0.159821
0.572296 0.328918 0.167358
0.593506 0.321320 0.174988
0.612488 0.316681 0.182587
0.631500 0.312866 0.187378
0.648529 0.309784 0.191925
0.663727 0.306000 0.198273
0.678925 0.302216 0.203400
0.693420 0.299164 0.209534
0.707123 0.297577 0.217133
0.718475 0.298340 0.226105
0.729919 0.299561 0.234314
0.741333 0.302216 0.238831
0.752686 0.302216 0.243378
0.764954 0.303070 0.248047
0.778687 0.307587 0.255646
0.786865 0.310760 0.262604
0.798798 0.311249 0.266937
0.813995 0.314667 0.274139
0.829193 0.314941 0.277924
0.844238 0.318665 0.281647
0.855621 0.319397 0.281647
0.143860 0.425385 0.143860
0.175751 0.425385 0.143860
0.208221 0.425385 0.147522
0.250488 0.421356 0.147766
0.289581 0.417145 0.148132
0.325226 0.416656 0.148621
0.367126 0.413483 0.151855
0.412720 0.406647 0.155670
0.449524 0.401062 0.159454
0.480896 0.394470 0.163208
0.510376 0.386078 0.169739
0.537384 0.375854 0.172211
0.561493 0.366882 0.178802
0.582825 0.359283 0.186401
0.604065 0.351746 0.191803
0.623932 0.347046 0.198517
0.642914 0.343231 0.203278
0.659210 0.339447 0.208954
0.674408 0.335663 0.214813
0.688019 0.330261 0.220215
0.701721 0.326447 0.227844
0.714722 0.326447 0.235413
0.726105 0.326447 0.242645
0.737488 0.327301 0.246460
0.748901 0.327301 0.250244
0.761169 0.327301 0.254913
0.774872 0.328918 0.261749
0.783112 0.332123 0.266418
0.795013 0.332123 0.270721
0.810516 0.332977 0.277924
0.828461 0.333221 0.281769
0.843475 0.336914 0.285583
0.854889 0.336914 0.288483
0.166626 0.449036 0.163696
0.188263 0.449036 0.163696
0.212769 0.449036 0.167358
0.250854 0.445496 0.167603
0.283356 0.441711 0.167603
0.318024 0.441193 0.167603
0.355652 0.437958 0.170837
0.397522 0.434052 0.171722
0.437225 0.429413 0.175507
0.471436 0.425629 0.179291
0.501953 0.418121 0.183044
0.529785 0.410553 0.185272
0.553925 0.404449 0.187775
0.574402 0.394958 0.194855
0.595581 0.386780 0.200256
0.616272 0.379181 0.206146
0.637268 0.374512 0.211761
0.655396 0.368866 0.217377
0.668854 0.363953 0.223297
0.681274 0.358582 0.228699
0.694153 0.352448 0.236267
0.709320 0.350983 0.243866
0.722290 0.350983 0.250244
0.733704 0.350983 0.254059
0.744141 0.350983 0.257812
0.754425 0.350983 0.262482
0.768860 0.350983 0.269348
0.779297 0.351990 0.273163
0.791168 0.351990 0.277435
0.806702 0.351990 0.284698
0.825470 0.351990 0.288483
0.840668 0.353088 0.292267
0.854889 0.355896 0.296051
0.183777 0.466187 0.179871
0.200012 0.466187 0.179871
0.219849 0.468994 0.183533
0.251221 0.465454 0.183777
0.282379 0.461670 0.183777
0.313202 0.461182 0.183777
0.347778 0.460815 0.187042
0.386078 0.459808 0.187775
0.422089 0.455963 0.190704
0.457184 0.452179 0.194489
0.488708 0.445740 0.198273
0.519135 0.440704 0.199493
0.545929 0.435760 0.201935
0.569122 0.427338 0.208099
0.588623 0.418121 0.213470
0.608704 0.410553 0.219391
0.627686 0.402924 0.225037
0.647797 0.396454 0.228821
0.663971 0.390564 0.233673
0.676483 0.385162 0.239105
0.689331 0.379028 0.246704
0.703186 0.375244 0.252930
0.716919 0.373779 0.257812
0.729919 0.373779 0.262726
0.740356 0.372803 0.268250
0.749634 0.370972 0.272919
0.764099 0.370972 0.279816
0.776093 0.370972 0.283600
0.790161 0.370972 0.287354
0.805756 0.370972 0.291901
0.824493 0.370972 0.293488
0.839691 0.371094 0.299896
0.854889 0.374878 0.303680
0.199005 0.484070 0.197784
0.214203 0.484070 0.197784
0.227722 0.487732 0.198761
0.254639 0.487122 0.201660
0.282379 0.483337 0.201660
0.312714 0.482849 0.201660
0.340912 0.482849 0.202179
0.375488 0.482849 0.202911
0.407867 0.479919 0.205902
0.442078 0.476135 0.209686
0.476257 0.472260 0.210785
0.506592 0.467285 0.214569
0.537018 0.463501 0.217133
0.561493 0.454987 0.220978
0.582092 0.445862 0.226013
0.601074 0.438202 0.231842
0.620117 0.430634 0.237488
0.639130 0.423035 0.241333
0.656372 0.417145 0.245117
0.671539 0.411774 0.250488
0.684082 0.405640 0.256592
0.696686 0.400482 0.261627
0.709320 0.396576 0.265442
0.723389 0.396576 0.270325
0.734833 0.395599 0.276978
0.745850 0.392670 0.281647
0.760315 0.391937 0.288483
0.772278 0.389984 0.292267
0.787476 0.389984 0.296051
0.803070 0.389984 0.299530
0.821808 0.390228 0.300018
0.837128 0.392670 0.307495
0.854889 0.393890 0.311249
0.214203 0.500488 0.214203
0.229401 0.500488 0.214203
0.240967 0.504150 0.216766
0.261414 0.504395 0.217743
0.282867 0.500977 0.218109
0.312714 0.500488 0.218109
0.337402 0.500488 0.218109
0.370117 0.500488 0.218109
0.398773 0.497589 0.221100
0.429413 0.496368 0.224915
0.463623 0.492493 0.226013
0.495270 0.488708 0.228546
0.525574 0.484924 0.232330
0.551361 0.481140 0.233795
0.571960 0.472412 0.237366
0.590942 0.464844 0.243286
0.611877 0.457214 0.248901
0.629669 0.449615 0.252686
0.647919 0.443787 0.256470
0.663971 0.438324 0.261902
0.677704 0.432220 0.268005
0.689117 0.427094 0.271790
0.701721 0.420715 0.275635
0.715790 0.418274 0.278351
0.728210 0.415802 0.282959
0.742065 0.412872 0.289215
0.756470 0.412140 0.296051
0.768494 0.408966 0.299896
0.783691 0.408966 0.303680
0.799286 0.408966 0.307129
0.818268 0.409210 0.307373
0.835907 0.412872 0.312469
0.854889 0.412872 0.316254
0.231842 0.518158 0.231842
0.244629 0.518158 0.231842
0.253662 0.521820 0.235504
0.272186 0.522064 0.233307
0.288727 0.518646 0.233307
0.312714 0.518158 0.233307
0.336792 0.515717 0.235748
0.363831 0.515717 0.235748
0.392181 0.515228 0.238739
0.421600 0.514252 0.240112
0.449768 0.511505 0.241211
0.481384 0.510132 0.243774
0.511749 0.506348 0.247559
0.537506 0.504883 0.249023
0.562500 0.499023 0.251190
0.581970 0.491394 0.252899
0.602966 0.483826 0.257812
0.622070 0.476227 0.263489
0.639008 0.470337 0.267883
0.656372 0.464966 0.271667
0.670074 0.458832 0.276978
0.681519 0.453674 0.280792
0.694122 0.447296 0.284546
0.708221 0.443512 0.287262
0.720581 0.439697 0.289215
0.735809 0.435913 0.296783
0.750977 0.434296 0.303680
0.764709 0.432831 0.307495
0.779938 0.432343 0.311249
0.795502 0.430389 0.314667
0.814484 0.430389 0.314941
0.833466 0.431854 0.318634
0.852448 0.431854 0.320099
0.248535 0.534821 0.248535
0.257568 0.534821 0.248535
0.265320 0.536163 0.249878
0.283569 0.536407 0.248901
0.299133 0.535309 0.250824
0.318634 0.534821 0.250824
0.336792 0.533966 0.251678
0.362610 0.533234 0.252411
0.386902 0.533234 0.253052
0.413971 0.533234 0.256378
0.439331 0.530548 0.258728
0.468506 0.529297 0.258972
0.498901 0.526794 0.260437
0.524597 0.523010 0.261902
0.549652 0.520844 0.264099
0.574127 0.515472 0.265808
0.595337 0.508057 0.267761
0.616302 0.500488 0.273407
0.631989 0.494659 0.279327
0.648804 0.489197 0.283081
0.662506 0.481628 0.286865
0.673889 0.476990 0.290680
0.686523 0.471558 0.294495
0.701721 0.466675 0.297211
0.715302 0.461670 0.298187
0.730530 0.457855 0.304382
0.745728 0.454742 0.311249
0.761536 0.454742 0.315063
0.778473 0.454254 0.318878
0.793671 0.450836 0.322296
0.810638 0.450836 0.322540
0.829803 0.450836 0.326355
0.850983 0.450836 0.328552
0.263733 0.550018 0.263733
0.269104 0.550018 0.263733
0.276733 0.550018 0.263733
0.292755 0.550018 0.263733
0.308319 0.550018 0.267151
0.324615 0.550018 0.267639
0.340454 0.550018 0.267639
0.362610 0.550018 0.267639
0.386292 0.550018 0.267639
0.409698 0.550018 0.270447
0.431366 0.547302 0.274292
0.457062 0.546082 0.275543
0.487488 0.543640 0.275543
0.515472 0.539825 0.275543
0.538239 0.536041 0.275543
0.562744 0.534332 0.277252
0.587524 0.530670 0.279205
0.610535 0.523254 0.284790
0.628174 0.517426 0.290680
0.643372 0.512024 0.294525
0.657104 0.504395 0.298309
0.668518 0.498169 0.300751
0.681122 0.494415 0.303650
0.696320 0.489441 0.307495
0.711517 0.482849 0.309570
0.726746 0.479065 0.313354
0.741943 0.475250 0.318878
0.757721 0.473785 0.322052
0.776215 0.473267 0.324280
0.791412 0.469818 0.328064
0.806824 0.469818 0.330139
0.825989 0.469818 0.333954
0.848816 0.469818 0.337738
0.278931 0.563110 0.276855
0.282715 0.563110 0.276855
0.288116 0.563110 0.278931
0.302795 0.563110 0.278931
0.317993 0.563110 0.282349
0.331146 0.563110 0.282837
0.346283 0.563110 0.282837
0.365540 0.563110 0.282837
0.386292 0.563110 0.282837
0.409088 0.563110 0.283569
0.429169 0.560425 0.287354
0.449127 0.559174 0.288605
0.478180 0.556732 0.288605
0.504150 0.555023 0.288605
0.528564 0.551239 0.288605
0.551361 0.549530 0.288605
0.576080 0.547546 0.290558
0.600830 0.543762 0.296234
0.621948 0.538116 0.302063
0.637482 0.532745 0.305847
0.651215 0.525116 0.309692
0.663940 0.518860 0.312103
0.677338 0.515106 0.313354
0.692535 0.510193 0.317169
0.706757 0.503540 0.320953
0.720825 0.499756 0.323853
0.736053 0.495972 0.326477
0.751831 0.492828 0.329651
0.770325 0.492310 0.330627
0.786255 0.488800 0.336029
0.805145 0.488800 0.339569
0.824097 0.488800 0.341553
0.844971 0.488800 0.345337
0.294159 0.576447 0.290192
0.297913 0.576447 0.290192
0.301697 0.576447 0.293915
0.314240 0.576447 0.294159
0.327454 0.576447 0.297546
0.339355 0.576447 0.298035
0.351959 0.574493 0.298035
0.370209 0.574493 0.298035
0.389221 0.574493 0.298035
0.409088 0.574493 0.298035
0.429169 0.571808 0.298767
0.448151 0.570618 0.299988
0.470581 0.570129 0.299988
0.496368 0.568665 0.299988
0.519135 0.566406 0.299988
0.539948 0.564697 0.301941
0.562744 0.562744 0.303894
0.589325 0.560760 0.307678
0.610535 0.557098 0.313507
0.627991 0.553314 0.317291
0.644592 0.546082 0.319611
0.658356 0.539795 0.322876
0.673553 0.536041 0.324707
0.688751 0.531158 0.328583
0.702942 0.524506 0.332367
0.715179 0.520691 0.335297
0.730408 0.516907 0.336029
0.745605 0.513763 0.339203
0.763245 0.513275 0.339691
0.780670 0.509796 0.345459
0.803192 0.509796 0.348999
0.822144 0.509796 0.348999
0.841156 0.509796 0.350952
0.307495 0.589813 0.303528
0.311249 0.589813 0.303528
0.315094 0.589813 0.307220
0.324158 0.589813 0.307495
0.335541 0.589813 0.310883
0.346924 0.589813 0.311371
0.358337 0.586670 0.313263
0.374054 0.585938 0.313263
0.391205 0.585938 0.313263
0.410187 0.585938 0.313263
0.429169 0.585083 0.313263
0.448151 0.583862 0.313263
0.467743 0.582001 0.313263
0.488708 0.582001 0.313263
0.511505 0.579773 0.313263
0.532257 0.578033 0.313507
0.553192 0.576080 0.317291
0.574127 0.574127 0.319244
0.597321 0.574127 0.322998
0.617889 0.570465 0.326843
0.635040 0.566650 0.329163
0.652679 0.559418 0.330536
0.667908 0.555145 0.334320
0.683105 0.550232 0.338104
0.697296 0.543640 0.341919
0.710449 0.540649 0.344849
0.727356 0.537842 0.345581
0.743652 0.534698 0.348755
0.758850 0.534698 0.349243
0.776825 0.532623 0.352692
0.799408 0.532623 0.355011
0.818390 0.532623 0.356598
0.837372 0.532623 0.356598
0.318848 0.601227 0.316681
0.322632 0.601227 0.314972
0.326477 0.601227 0.318634
0.333832 0.601227 0.318848
0.343140 0.601227 0.322266
0.354523 0.601227 0.322754
0.365906 0.598053 0.325958
0.378662 0.597321 0.326721
0.393890 0.597321 0.326721
0.410187 0.597321 0.326721
0.429169 0.597321 0.326721
0.446442 0.597321 0.326721
0.465454 0.594879 0.326721
0.484436 0.593353 0.326721
0.503906 0.591156 0.326721
0.524597 0.589447 0.326721
0.545593 0.587524 0.328705
0.566528 0.585571 0.330658
0.585571 0.585571 0.332367
0.604553 0.585571 0.334564
0.627197 0.581879 0.336761
0.645081 0.578033 0.339447
0.660278 0.572052 0.342407
0.675507 0.567169 0.344604
0.690674 0.560486 0.347778
0.704529 0.557587 0.351593
0.723541 0.556854 0.353180
0.741943 0.553680 0.356354
0.757111 0.553680 0.356354
0.773010 0.553680 0.358612
0.795624 0.553680 0.358856
0.814728 0.553680 0.362518
0.835297 0.553680 0.362518
0.331879 0.611023 0.331879
0.334076 0.611023 0.328094
0.337860 0.612579 0.330048
0.345215 0.612579 0.330292
0.352814 0.611023 0.333710
0.362122 0.611023 0.334198
0.373505 0.607849 0.335785
0.384918 0.607117 0.336517
0.396088 0.607117 0.338104
0.411285 0.607117 0.338104
0.429169 0.607117 0.338104
0.445587 0.607117 0.338104
0.463257 0.606262 0.338104
0.480652 0.604797 0.338104
0.498047 0.604187 0.338104
0.517059 0.602478 0.338104
0.537964 0.600494 0.340057
0.558929 0.598541 0.342041
0.577911 0.598541 0.342163
0.596954 0.598541 0.344360
0.617432 0.597076 0.345825
0.637482 0.593231 0.347321
0.653900 0.589447 0.352203
0.669495 0.584564 0.352203
0.684692 0.577911 0.353180
0.700684 0.574982 0.356964
0.718964 0.574249 0.360809
0.736542 0.571075 0.363953
0.752167 0.571075 0.363953
0.769226 0.571075 0.363953
0.792053 0.571075 0.364197
0.812531 0.571075 0.367859
0.835297 0.571075 0.367859
0.345581 0.620117 0.345581
0.345581 0.620117 0.341797
0.349274 0.623779 0.341675
0.356598 0.624023 0.341675
0.364197 0.620605 0.345093
0.371796 0.620117 0.345581
0.381104 0.618408 0.345581
0.391083 0.617676 0.345581
0.399506 0.617676 0.348541
0.412750 0.617676 0.349518
0.429169 0.616180 0.349518
0.445587 0.616180 0.349518
0.463257 0.616180 0.349518
0.479919 0.616180 0.349518
0.495148 0.616180 0.349518
0.510925 0.616180 0.349518
0.531891 0.615692 0.351471
0.551361 0.613678 0.353424
0.570343 0.612213 0.353424
0.589325 0.612213 0.353424
0.609802 0.612213 0.354889
0.629944 0.609802 0.357330
0.646301 0.606140 0.359833
0.665283 0.602356 0.359833
0.680847 0.596039 0.360809
0.696930 0.592255 0.363708
0.715179 0.591644 0.366882
0.730377 0.589233 0.370056
0.746094 0.589233 0.370056
0.765442 0.589233 0.370056
0.788208 0.589233 0.370300
0.811035 0.589233 0.373993
0.833832 0.589233 0.373993
0.356964 0.631531 0.356964
0.356964 0.631531 0.353180
0.360657 0.635193 0.353058
0.368042 0.635437 0.353058
0.374237 0.632019 0.356476
0.381866 0.631531 0.356964
0.390808 0.632874 0.356964
0.397064 0.632874 0.356964
0.404663 0.631531 0.359924
0.416534 0.631531 0.360931
0.430389 0.628815 0.360931
0.445587 0.627563 0.360931
0.463257 0.627563 0.360931
0.479919 0.627563 0.360931
0.495148 0.627563 0.360931
0.510284 0.627563 0.360931
0.528076 0.627563 0.362885
0.547180 0.627563 0.363495
0.564087 0.625854 0.363495
0.583130 0.623657 0.363495
0.602234 0.623657 0.364960
0.622314 0.623657 0.367401
0.638733 0.623657 0.368622
0.657745 0.621094 0.368774
0.675751 0.617554 0.368774
0.691803 0.613708 0.371307
0.710785 0.610626 0.372040
0.727234 0.610626 0.375214
0.743652 0.610626 0.375214
0.763000 0.610626 0.375214
0.785767 0.610626 0.375458
0.808533 0.610626 0.379181
0.831390 0.610626 0.379181
0.367157 0.644104 0.368378
0.368378 0.644104 0.364594
0.372040 0.647766 0.364471
0.378204 0.646790 0.364471
0.382355 0.644592 0.366669
0.388245 0.644104 0.367157
0.399017 0.647278 0.368378
0.404266 0.648010 0.368378
0.411041 0.645081 0.368835
0.421448 0.644104 0.369812
0.432831 0.641418 0.369812
0.446808 0.640198 0.369812
0.463257 0.640198 0.369812
0.479919 0.640198 0.369812
0.495148 0.640198 0.371063
0.510284 0.640198 0.371063
0.527466 0.640198 0.371796
0.544617 0.640198 0.373138
0.561462 0.638489 0.371063
0.579254 0.636322 0.371063
0.598297 0.636322 0.372528
0.615936 0.636322 0.374969
0.632385 0.636322 0.374969
0.651367 0.636322 0.377716
0.669373 0.635315 0.377716
0.685425 0.631531 0.377716
0.704437 0.628418 0.378448
0.723419 0.628418 0.381622
0.742920 0.628418 0.381622
0.763000 0.628418 0.381622
0.785522 0.628662 0.381866
0.807312 0.629639 0.385529
0.830170 0.629639 0.385529
0.375824 0.659332 0.379791
0.379669 0.659332 0.375946
0.383484 0.661865 0.375824
0.386169 0.658569 0.375824
0.389923 0.658234 0.375824
0.393768 0.658234 0.375824
0.402802 0.661377 0.377930
0.409180 0.662109 0.378693
0.415924 0.659180 0.375732
0.426361 0.658234 0.374725
0.436646 0.656647 0.374725
0.449493 0.655426 0.374725
0.464722 0.654297 0.374725
0.479919 0.654297 0.374725
0.495148 0.654297 0.376953
0.510284 0.654297 0.378693
0.527466 0.654297 0.378693
0.544617 0.654297 0.378693
0.561462 0.652588 0.379791
0.578888 0.650391 0.379791
0.595551 0.650391 0.380157
0.613190 0.650391 0.382599
0.628540 0.650391 0.382599
0.647522 0.650391 0.382599
0.666504 0.650391 0.382599
0.682678 0.647522 0.382599
0.701660 0.644714 0.383362
0.720673 0.644714 0.386536
0.740234 0.644714 0.386536
0.763000 0.644714 0.386536
0.785522 0.644958 0.386536
0.804657 0.648621 0.389343
0.827484 0.648621 0.389343
0.386261 0.674530 0.389191
0.389069 0.674530 0.386383
0.392914 0.674530 0.386261
0.393188 0.670990 0.386261
0.396576 0.670624 0.385284
0.400360 0.670624 0.385284
0.407349 0.673798 0.385284
0.414948 0.674530 0.385284
0.422546 0.671600 0.383331
0.432953 0.670624 0.382355
0.441650 0.670624 0.382355
0.451813 0.670624 0.382355
0.465698 0.668121 0.382355
0.480896 0.666626 0.382355
0.496124 0.666626 0.384583
0.510284 0.666626 0.386261
0.527466 0.666626 0.386261
0.544617 0.666626 0.386261
0.560486 0.665894 0.386993
0.577911 0.663696 0.389191
0.594574 0.662720 0.389191
0.613190 0.662720 0.389191
0.628418 0.662720 0.389191
0.643738 0.662720 0.389191
0.662720 0.663696 0.389191
0.681702 0.663696 0.389191
0.700684 0.663696 0.389923
0.719696 0.663696 0.393188
0.739258 0.663696 0.393188
0.762024 0.663696 0.393188
0.784790 0.663940 0.393188
0.804657 0.667633 0.393188
0.827484 0.667633 0.393188
0.393921 0.690582 0.393921
0.393921 0.690582 0.393921
0.397552 0.690582 0.393921
0.397797 0.687042 0.393921
0.400360 0.686676 0.390442
0.405029 0.686676 0.389923
0.412018 0.688995 0.389923
0.419617 0.689728 0.389923
0.427216 0.687653 0.389923
0.436768 0.686676 0.389923
0.445496 0.686676 0.389923
0.455627 0.686676 0.389923
0.469452 0.684174 0.390778
0.483826 0.682678 0.390778
0.499023 0.682678 0.392151
0.512115 0.682678 0.393921
0.527466 0.682678 0.393921
0.544617 0.682678 0.393921
0.559753 0.682678 0.393921
0.574982 0.682678 0.393921
0.591644 0.681213 0.393921
0.610626 0.678772 0.393921
0.628418 0.678772 0.393066
0.643616 0.678772 0.393066
0.659790 0.679749 0.393066
0.678772 0.682678 0.393921
0.697784 0.682678 0.393921
0.716766 0.682678 0.396942
0.736237 0.682678 0.396942
0.759094 0.682678 0.396942
0.781891 0.682922 0.396942
0.804779 0.686798 0.396942
0.828339 0.687531 0.396942
0.401459 0.709564 0.400726
0.400726 0.708832 0.400726
0.404388 0.708832 0.400726
0.404633 0.706055 0.400726
0.405396 0.705688 0.398041
0.411285 0.705688 0.397552
0.418854 0.704926 0.396820
0.426514 0.704926 0.396820
0.434082 0.704926 0.396820
0.441650 0.704926 0.396820
0.449249 0.704926 0.396820
0.459412 0.704926 0.396820
0.473267 0.703186 0.399261
0.486145 0.701660 0.400726
0.499023 0.701660 0.400726
0.512878 0.701660 0.400726
0.527466 0.701660 0.400726
0.544617 0.701660 0.400726
0.559753 0.701660 0.400726
0.574982 0.701660 0.400726
0.591644 0.700928 0.400726
0.610626 0.698517 0.400726
0.628418 0.698517 0.400238
