Postproduction/IWLTBAP - Humble/LUTs by IWLTBAP (CUBE)/UTILITY/Generic Rec.709 to LOG/U-9999-RTL.cube
# Copyright: (C) Copyright 2010-2018 by IWLTBAP SAS
# Cannot be resold, shared or otherwise redistributed
# Website: https://luts.iwltbap.com
TITLE "IWLTBAP 9999 (Utility Rec.709 to LOG)"
LUT_3D_SIZE 32
0.122375 0.122375 0.122375
0.155237 0.126377 0.126377
0.187536 0.130469 0.130469
0.218407 0.134469 0.134469
0.247529 0.138470 0.138470
0.274652 0.142471 0.142471
0.300003 0.146472 0.146472
0.323498 0.150489 0.150489
0.345175 0.154465 0.154465
0.365299 0.158425 0.158425
0.383979 0.162363 0.162363
0.401548 0.166270 0.166270
0.418388 0.170147 0.170147
0.434824 0.174054 0.174054
0.451206 0.177900 0.177900
0.467823 0.181778 0.181778
0.484911 0.185592 0.185592
0.502929 0.189359 0.189359
0.522066 0.193080 0.193080
0.542282 0.196813 0.196813
0.563573 0.200441 0.200441
0.585843 0.204100 0.204100
0.609108 0.207738 0.207738
0.633151 0.211304 0.211304
0.657936 0.214840 0.214840
0.683388 0.218303 0.218303
0.709496 0.221800 0.221800
0.736043 0.225182 0.225182
0.763086 0.228540 0.228540
0.790510 0.231889 0.231889
0.818256 0.235147 0.235147
0.846191 0.238403 0.238403
0.126377 0.155237 0.126377
0.155298 0.155298 0.126440
0.187536 0.159235 0.130469
0.218407 0.163174 0.134469
0.247529 0.167137 0.138470
0.274652 0.171016 0.142471
0.300003 0.174945 0.146472
0.323498 0.178849 0.150489
0.345175 0.182746 0.154465
0.365299 0.186556 0.158425
0.383979 0.190380 0.162363
0.401548 0.194109 0.166270
0.418388 0.197846 0.170147
0.434824 0.201562 0.174054
0.451206 0.205296 0.177900
0.467823 0.208923 0.181778
0.484911 0.212515 0.185592
0.502929 0.216047 0.189359
0.522066 0.219579 0.193080
0.542282 0.223060 0.196813
0.563573 0.226540 0.200441
0.585843 0.229926 0.204100
0.609108 0.233322 0.207738
0.633151 0.236617 0.211304
0.657936 0.239885 0.214840
0.683388 0.243136 0.218303
0.709496 0.246408 0.221800
0.736043 0.249522 0.225182
0.763086 0.252568 0.228540
0.790510 0.255630 0.231889
0.818256 0.258788 0.235147
0.846191 0.261795 0.238403
0.130469 0.187536 0.130469
0.159235 0.187536 0.130469
0.187651 0.187651 0.130589
0.218407 0.191350 0.134469
0.247529 0.195157 0.138470
0.274652 0.198899 0.142471
0.300003 0.202621 0.146472
0.323498 0.206350 0.150489
0.345175 0.210064 0.154465
0.365299 0.213646 0.158425
0.383979 0.217275 0.162363
0.401548 0.220825 0.166270
0.418388 0.224359 0.170147
0.434824 0.227842 0.174054
0.451206 0.231231 0.177900
0.467823 0.234694 0.181778
0.484911 0.238081 0.185592
0.502929 0.241378 0.189359
0.522066 0.244653 0.193080
0.542282 0.247883 0.196813
0.563573 0.251071 0.200441
0.585843 0.254225 0.204100
0.609108 0.257353 0.207738
0.633151 0.260446 0.211304
0.657936 0.263494 0.214840
0.683388 0.266529 0.218303
0.709496 0.269476 0.221800
0.736043 0.272386 0.225182
0.763086 0.275380 0.228540
0.790510 0.278175 0.231889
0.818256 0.281052 0.235147
0.846191 0.283833 0.238403
0.134469 0.218407 0.134469
0.163174 0.218407 0.134469
0.191350 0.218407 0.134469
0.218559 0.218559 0.134642
0.247529 0.222033 0.138470
0.274652 0.225586 0.142471
0.300003 0.229129 0.146472
0.323498 0.232595 0.150489
0.345175 0.236045 0.154465
0.365299 0.239460 0.158425
0.383979 0.242809 0.162363
0.401548 0.246110 0.166270
0.418388 0.249393 0.170147
0.434824 0.252605 0.174054
0.451206 0.255825 0.177900
0.467823 0.258961 0.181778
0.484911 0.262154 0.185592
0.502929 0.265205 0.189359
0.522066 0.268246 0.193080
0.542282 0.271276 0.196813
0.563573 0.274236 0.200441
0.585843 0.277172 0.204100
0.609108 0.280097 0.207738
0.633151 0.282932 0.211304
0.657936 0.285802 0.214840
0.683388 0.288648 0.218303
0.709496 0.291332 0.221800
0.736043 0.294042 0.225182
0.763086 0.296759 0.228540
0.790510 0.299360 0.231889
0.818256 0.302074 0.235147
0.846191 0.304525 0.238403
0.138470 0.247529 0.138470
0.167137 0.247529 0.138470
0.195157 0.247529 0.138470
0.222033 0.247529 0.138470
0.247715 0.247715 0.138693
0.274652 0.250848 0.142471
0.300003 0.254141 0.146472
0.323498 0.257355 0.150489
0.345175 0.260559 0.154465
0.365299 0.263704 0.158425
0.383979 0.266817 0.162363
0.401548 0.269944 0.166270
0.418388 0.272988 0.170147
0.434824 0.275960 0.174054
0.451206 0.278956 0.177900
0.467823 0.281907 0.181778
0.484911 0.284804 0.185592
0.502929 0.287720 0.189359
0.522066 0.290526 0.193080
0.542282 0.293308 0.196813
0.563573 0.296024 0.200441
0.585843 0.298793 0.204100
0.609108 0.301467 0.207738
0.633151 0.304099 0.211304
0.657936 0.306710 0.214840
0.683388 0.309253 0.218303
0.709496 0.311762 0.221800
0.736043 0.314284 0.225182
0.763086 0.316751 0.228540
0.790510 0.319170 0.231889
0.818256 0.321634 0.235147
0.846191 0.324042 0.238403
0.142471 0.274652 0.142471
0.171016 0.274652 0.142471
0.198899 0.274652 0.142471
0.225586 0.274652 0.142471
0.250848 0.274652 0.142471
0.274858 0.274858 0.142739
0.300003 0.277738 0.146472
0.323498 0.280752 0.150489
0.345175 0.283723 0.154465
0.365299 0.286721 0.158425
0.383979 0.289543 0.162363
0.401548 0.292456 0.166270
0.418388 0.295251 0.170147
0.434824 0.298030 0.174054
0.451206 0.300755 0.177900
0.467823 0.303523 0.181778
0.484911 0.306204 0.185592
0.502929 0.308830 0.189359
0.522066 0.311443 0.193080
0.542282 0.314027 0.196813
0.563573 0.316550 0.200441
0.585843 0.319026 0.204100
0.609108 0.321469 0.207738
0.633151 0.323906 0.211304
0.657936 0.326259 0.214840
0.683388 0.328698 0.218303
0.709496 0.330969 0.221800
0.736043 0.333245 0.225182
0.763086 0.335506 0.228540
0.790510 0.337717 0.231889
0.818256 0.339996 0.235147
0.846191 0.342158 0.238403
0.146472 0.300003 0.146472
0.174945 0.300003 0.146472
0.202621 0.300003 0.146472
0.229129 0.300003 0.146472
0.254141 0.300003 0.146472
0.277738 0.300003 0.146472
0.300222 0.300222 0.146781
0.323498 0.302795 0.150489
0.345175 0.305556 0.154465
0.365299 0.308294 0.158425
0.383979 0.310973 0.162363
0.401548 0.313589 0.166270
0.418388 0.316190 0.170147
0.434824 0.318716 0.174054
0.451206 0.321256 0.177900
0.467823 0.323753 0.181778
0.484911 0.326201 0.185592
0.502929 0.328658 0.189359
0.522066 0.331075 0.193080
0.542282 0.333396 0.196813
0.563573 0.335720 0.200441
0.585843 0.337990 0.204100
0.609108 0.340249 0.207738
0.633151 0.342460 0.211304
0.657936 0.344704 0.214840
0.683388 0.346855 0.218303
0.709496 0.348958 0.221800
0.736043 0.351033 0.225182
0.763086 0.353124 0.228540
0.790510 0.355103 0.231889
0.818256 0.357190 0.235147
0.846191 0.359219 0.238403
0.150489 0.323498 0.150489
0.178849 0.323498 0.150489
0.206350 0.323498 0.150489
0.232595 0.323498 0.150489
0.257355 0.323498 0.150489
0.280752 0.323498 0.150489
0.302795 0.323498 0.150489
0.323722 0.323722 0.150825
0.345175 0.326051 0.154465
0.365299 0.328489 0.158425
0.383979 0.330952 0.162363
0.401548 0.333371 0.166270
0.418388 0.335764 0.170147
0.434824 0.338146 0.174054
0.451206 0.340464 0.177900
0.467823 0.342731 0.181778
0.484911 0.344986 0.185592
0.502929 0.347190 0.189359
0.522066 0.349454 0.193080
0.542282 0.351589 0.196813
0.563573 0.353724 0.200441
0.585843 0.355776 0.204100
0.609108 0.357868 0.207738
0.633151 0.359903 0.211304
0.657936 0.361948 0.214840
0.683388 0.363949 0.218303
0.709496 0.365876 0.221800
0.736043 0.367814 0.225182
0.763086 0.369752 0.228540
0.790510 0.371690 0.231889
0.818256 0.373546 0.235147
0.846191 0.375400 0.238403
0.154465 0.345175 0.154465
0.182746 0.345175 0.154465
0.210064 0.345175 0.154465
0.236045 0.345175 0.154465
0.260559 0.345175 0.154465
0.283723 0.345175 0.154465
0.305556 0.345175 0.154465
0.326051 0.345175 0.154465
0.345397 0.345397 0.154839
0.365299 0.347453 0.158425
0.383979 0.349717 0.162363
0.401548 0.351939 0.166270
0.418388 0.354177 0.170147
0.434824 0.356308 0.174054
0.451206 0.358465 0.177900
0.467823 0.360574 0.181778
0.484911 0.362602 0.185592
0.502929 0.364639 0.189359
0.522066 0.366660 0.193080
0.542282 0.368666 0.196813
0.563573 0.370619 0.200441
0.585843 0.372541 0.204100
0.609108 0.374489 0.207738
0.633151 0.376424 0.211304
0.657936 0.378260 0.214840
0.683388 0.380134 0.218303
0.709496 0.381911 0.221800
0.736043 0.383767 0.225182
0.763086 0.385535 0.228540
0.790510 0.387375 0.231889
0.818256 0.389131 0.235147
0.846191 0.390891 0.238403
0.158425 0.365299 0.158425
0.186556 0.365299 0.158425
0.213646 0.365299 0.158425
0.239460 0.365299 0.158425
0.263704 0.365299 0.158425
0.286721 0.365299 0.158425
0.308294 0.365299 0.158425
0.328489 0.365299 0.158425
0.347453 0.365299 0.158425
0.365507 0.365507 0.158821
0.383979 0.367335 0.162363
0.401548 0.369373 0.166270
0.418388 0.371393 0.170147
0.434824 0.373399 0.174054
0.451206 0.375342 0.177900
0.467823 0.377278 0.181778
0.484911 0.379212 0.185592
0.502929 0.381086 0.189359
0.522066 0.382990 0.193080
0.542282 0.384852 0.196813
0.563573 0.386631 0.200441
0.585843 0.388486 0.204100
0.609108 0.390322 0.207738
0.633151 0.392097 0.211304
0.657936 0.393849 0.214840
0.683388 0.395629 0.218303
0.709496 0.397394 0.221800
0.736043 0.399091 0.225182
0.763086 0.400826 0.228540
0.790510 0.402523 0.231889
0.818256 0.404211 0.235147
0.846191 0.405909 0.238403
0.162363 0.383979 0.162363
0.190380 0.383979 0.162363
0.217275 0.383979 0.162363
0.242809 0.383979 0.162363
0.266817 0.383979 0.162363
0.289543 0.383979 0.162363
0.310973 0.383979 0.162363
0.330952 0.383979 0.162363
0.349717 0.383979 0.162363
0.367335 0.383979 0.162363
0.384186 0.384186 0.162784
0.401548 0.385881 0.166270
0.418388 0.387742 0.170147
0.434824 0.389583 0.174054
0.451206 0.391390 0.177900
0.467823 0.393224 0.181778
0.484911 0.395064 0.185592
0.502929 0.396837 0.189359
0.522066 0.398608 0.193080
0.542282 0.400370 0.196813
0.563573 0.402076 0.200441
0.585843 0.403823 0.204100
0.609108 0.405584 0.207738
0.633151 0.407266 0.211304
0.657936 0.408943 0.214840
0.683388 0.410630 0.218303
0.709496 0.412333 0.221800
0.736043 0.413998 0.225182
0.763086 0.415675 0.228540
0.790510 0.417280 0.231889
0.818256 0.418963 0.235147
0.846191 0.420607 0.238403
0.166270 0.401548 0.166270
0.194109 0.401548 0.166270
0.220825 0.401548 0.166270
0.246110 0.401548 0.166270
0.269944 0.401548 0.166270
0.292456 0.401548 0.166270
0.313589 0.401548 0.166270
0.333371 0.401548 0.166270
0.351939 0.401548 0.166270
0.369373 0.401548 0.166270
0.385881 0.401548 0.166270
0.401758 0.401758 0.166711
0.418388 0.403332 0.170147
0.434824 0.405100 0.174054
0.451206 0.406801 0.177900
0.467823 0.408552 0.181778
0.484911 0.410308 0.185592
0.502929 0.411993 0.189359
0.522066 0.413677 0.193080
0.542282 0.415360 0.196813
0.563573 0.417040 0.200441
0.585843 0.418700 0.204100
0.609108 0.420415 0.207738
0.633151 0.422067 0.211304
0.657936 0.423685 0.214840
0.683388 0.425341 0.218303
0.709496 0.427054 0.221800
0.736043 0.428702 0.225182
0.763086 0.430333 0.228540
0.790510 0.431987 0.231889
0.818256 0.433662 0.235147
0.846191 0.435286 0.238403
0.170147 0.418388 0.170147
0.197846 0.418388 0.170147
0.224359 0.418388 0.170147
0.249393 0.418388 0.170147
0.272988 0.418388 0.170147
0.295251 0.418388 0.170147
0.316190 0.418388 0.170147
0.335764 0.418388 0.170147
0.354177 0.418388 0.170147
0.371393 0.418388 0.170147
0.387742 0.418388 0.170147
0.403332 0.418388 0.170147
0.418598 0.418598 0.170604
0.434824 0.420096 0.174054
0.451206 0.421781 0.177900
0.467823 0.423434 0.181778
0.484911 0.425151 0.185592
0.502929 0.426813 0.189359
0.522066 0.428490 0.193080
0.542282 0.430086 0.196813
0.563573 0.431767 0.200441
0.585843 0.433383 0.204100
0.609108 0.435061 0.207738
0.633151 0.436713 0.211304
0.657936 0.438414 0.214840
0.683388 0.440023 0.218303
0.709496 0.441702 0.221800
0.736043 0.443363 0.225182
0.763086 0.445048 0.228540
0.790510 0.446732 0.231889
0.818256 0.448437 0.235147
0.846191 0.450186 0.238403
0.174054 0.434824 0.174054
0.201562 0.434824 0.174054
0.227842 0.434824 0.174054
0.252605 0.434824 0.174054
0.275960 0.434824 0.174054
0.298030 0.434824 0.174054
0.318716 0.434824 0.174054
0.338146 0.434824 0.174054
0.356308 0.434824 0.174054
0.373399 0.434824 0.174054
0.389583 0.434824 0.174054
0.405100 0.434824 0.174054
0.420096 0.434824 0.174054
0.435017 0.435017 0.174523
0.451206 0.436512 0.177900
0.467823 0.438178 0.181778
0.484911 0.439844 0.185592
0.502929 0.441456 0.189359
0.522066 0.443138 0.193080
0.542282 0.444755 0.196813
0.563573 0.446438 0.200441
0.585843 0.448098 0.204100
0.609108 0.449780 0.207738
0.633151 0.451467 0.211304
0.657936 0.453210 0.214840
0.683388 0.454896 0.218303
0.709496 0.456590 0.221800
0.736043 0.458275 0.225182
0.763086 0.460005 0.228540
0.790510 0.461785 0.231889
0.818256 0.463523 0.235147
0.846191 0.465297 0.238403
0.177900 0.451206 0.177900
0.205296 0.451206 0.177900
0.231231 0.451206 0.177900
0.255825 0.451206 0.177900
0.278956 0.451206 0.177900
0.300755 0.451206 0.177900
0.321256 0.451206 0.177900
0.340464 0.451206 0.177900
0.358465 0.451206 0.177900
0.375342 0.451206 0.177900
0.391390 0.451206 0.177900
0.406801 0.451206 0.177900
0.421781 0.451206 0.177900
0.436512 0.451206 0.177900
0.451403 0.451403 0.178377
0.467823 0.452858 0.181778
0.484911 0.454587 0.185592
0.502929 0.456229 0.189359
0.522066 0.457957 0.193080
0.542282 0.459651 0.196813
0.563573 0.461339 0.200441
0.585843 0.463067 0.204100
0.609108 0.464782 0.207738
0.633151 0.466528 0.211304
0.657936 0.468295 0.214840
0.683388 0.470061 0.218303
0.709496 0.471825 0.221800
0.736043 0.473635 0.225182
0.763086 0.475430 0.228540
0.790510 0.477285 0.231889
0.818256 0.479128 0.235147
0.846191 0.481018 0.238403
0.181778 0.467823 0.181778
0.208923 0.467823 0.181778
0.234694 0.467823 0.181778
0.258961 0.467823 0.181778
0.281907 0.467823 0.181778
0.303523 0.467823 0.181778
0.323753 0.467823 0.181778
0.342731 0.467823 0.181778
0.360574 0.467823 0.181778
0.377278 0.467823 0.181778
0.393224 0.467823 0.181778
0.408552 0.467823 0.181778
0.423434 0.467823 0.181778
0.438178 0.467823 0.181778
0.452858 0.467823 0.181778
0.468028 0.468028 0.182243
0.484911 0.469506 0.185592
0.502929 0.471256 0.189359
0.522066 0.473009 0.193080
0.542282 0.474776 0.196813
0.563573 0.476543 0.200441
0.585843 0.478376 0.204100
0.609108 0.480214 0.207738
0.633151 0.482003 0.211304
0.657936 0.483847 0.214840
0.683388 0.485746 0.218303
0.709496 0.487626 0.221800
0.736043 0.489483 0.225182
0.763086 0.491472 0.228540
0.790510 0.493460 0.231889
0.818256 0.495412 0.235147
0.846191 0.497410 0.238403
0.185592 0.484911 0.185592
0.212515 0.484911 0.185592
0.238081 0.484911 0.185592
0.262154 0.484911 0.185592
0.284804 0.484911 0.185592
0.306204 0.484911 0.185592
0.326201 0.484911 0.185592
0.344986 0.484911 0.185592
0.362602 0.484911 0.185592
0.379212 0.484911 0.185592
0.395064 0.484911 0.185592
0.410308 0.484911 0.185592
0.425151 0.484911 0.185592
0.439844 0.484911 0.185592
0.454587 0.484911 0.185592
0.469506 0.484911 0.185592
0.485132 0.485132 0.186057
0.502929 0.486734 0.189359
0.522066 0.488573 0.193080
0.542282 0.490425 0.196813
0.563573 0.492357 0.200441
0.585843 0.494285 0.204100
0.609108 0.496221 0.207738
0.633151 0.498147 0.211304
0.657936 0.500168 0.214840
0.683388 0.502135 0.218303
0.709496 0.504217 0.221800
0.736043 0.506223 0.225182
0.763086 0.508321 0.228540
0.790510 0.510416 0.231889
0.818256 0.512542 0.235147
0.846191 0.514651 0.238403
0.189359 0.502929 0.189359
0.216047 0.502929 0.189359
0.241378 0.502929 0.189359
0.265205 0.502929 0.189359
0.287720 0.502929 0.189359
0.308830 0.502929 0.189359
0.328658 0.502929 0.189359
0.347190 0.502929 0.189359
0.364639 0.502929 0.189359
0.381086 0.502929 0.189359
0.396837 0.502929 0.189359
0.411993 0.502929 0.189359
0.426813 0.502929 0.189359
0.441456 0.502929 0.189359
0.456229 0.502929 0.189359
0.471256 0.502929 0.189359
0.486734 0.502929 0.189359
0.503171 0.503171 0.189812
0.522066 0.504864 0.193080
0.542282 0.506857 0.196813
0.563573 0.508927 0.200441
0.585843 0.510956 0.204100
0.609108 0.513042 0.207738
0.633151 0.515172 0.211304
0.657936 0.517218 0.214840
0.683388 0.519389 0.218303
0.709496 0.521568 0.221800
0.736043 0.523801 0.225182
0.763086 0.525989 0.228540
0.790510 0.528226 0.231889
0.818256 0.530492 0.235147
0.846191 0.532742 0.238403
0.193080 0.522066 0.193080
0.219579 0.522066 0.193080
0.244653 0.522066 0.193080
0.268246 0.522066 0.193080
0.290526 0.522066 0.193080
0.311443 0.522066 0.193080
0.331075 0.522066 0.193080
0.349454 0.522066 0.193080
0.366660 0.522066 0.193080
0.382990 0.522066 0.193080
0.398608 0.522066 0.193080
0.413677 0.522066 0.193080
0.428490 0.522066 0.193080
0.443138 0.522066 0.193080
0.457957 0.522066 0.193080
0.473009 0.522066 0.193080
0.488573 0.522066 0.193080
0.504864 0.522066 0.193080
0.522304 0.522304 0.193526
0.542282 0.524142 0.196813
0.563573 0.526293 0.200441
0.585843 0.528534 0.204100
0.609108 0.530725 0.207738
0.633151 0.532974 0.211304
0.657936 0.535224 0.214840
0.683388 0.537535 0.218303
0.709496 0.539802 0.221800
0.736043 0.542144 0.225182
0.763086 0.544463 0.228540
0.790510 0.546834 0.231889
0.818256 0.549303 0.235147
0.846191 0.551654 0.238403
0.196813 0.542282 0.196813
0.223060 0.542282 0.196813
0.247883 0.542282 0.196813
0.271276 0.542282 0.196813
0.293308 0.542282 0.196813
0.314027 0.542282 0.196813
0.333396 0.542282 0.196813
0.351589 0.542282 0.196813
0.368666 0.542282 0.196813
0.384852 0.542282 0.196813
0.400370 0.542282 0.196813
0.415360 0.542282 0.196813
0.430086 0.542282 0.196813
0.444755 0.542282 0.196813
0.459651 0.542282 0.196813
0.474776 0.542282 0.196813
0.490425 0.542282 0.196813
0.506857 0.542282 0.196813
0.524142 0.542282 0.196813
0.542528 0.542528 0.197240
0.563573 0.544533 0.200441
0.585843 0.546872 0.204100
0.609108 0.549218 0.207738
0.633151 0.551598 0.211304
0.657936 0.553999 0.214840
0.683388 0.556445 0.218303
0.709496 0.558802 0.221800
0.736043 0.561287 0.225182
0.763086 0.563700 0.228540
0.790510 0.566280 0.231889
0.818256 0.568793 0.235147
0.846191 0.571379 0.238403
0.200441 0.563573 0.200441
0.226540 0.563573 0.200441
0.251071 0.563573 0.200441
0.274236 0.563573 0.200441
0.296024 0.563573 0.200441
0.316550 0.563573 0.200441
0.335720 0.563573 0.200441
0.353724 0.563573 0.200441
0.370619 0.563573 0.200441
0.386631 0.563573 0.200441
0.402076 0.563573 0.200441
0.417040 0.563573 0.200441
0.431767 0.563573 0.200441
0.446438 0.563573 0.200441
0.461339 0.563573 0.200441
0.476543 0.563573 0.200441
0.492357 0.563573 0.200441
0.508927 0.563573 0.200441
0.526293 0.563573 0.200441
0.544533 0.563573 0.200441
0.563838 0.563838 0.200853
0.585843 0.566007 0.204100
0.609108 0.568487 0.207738
0.633151 0.571007 0.211304
0.657936 0.573436 0.214840
0.683388 0.576024 0.218303
0.709496 0.578579 0.221800
0.736043 0.581118 0.225182
0.763086 0.583749 0.228540
0.790510 0.586344 0.231889
0.818256 0.589016 0.235147
0.846191 0.591692 0.238403
0.204100 0.585843 0.204100
0.229926 0.585843 0.204100
0.254225 0.585843 0.204100
0.277172 0.585843 0.204100
0.298793 0.585843 0.204100
0.319026 0.585843 0.204100
0.337990 0.585843 0.204100
0.355776 0.585843 0.204100
0.372541 0.585843 0.204100
0.388486 0.585843 0.204100
0.403823 0.585843 0.204100
0.418700 0.585843 0.204100
0.433383 0.585843 0.204100
0.448098 0.585843 0.204100
0.463067 0.585843 0.204100
0.478376 0.585843 0.204100
0.494285 0.585843 0.204100
0.510956 0.585843 0.204100
0.528534 0.585843 0.204100
0.546872 0.585843 0.204100
0.566007 0.585843 0.204100
0.586110 0.586110 0.204494
0.609108 0.588487 0.207738
0.633151 0.591062 0.211304
0.657936 0.593642 0.214840
0.683388 0.596364 0.218303
0.709496 0.598998 0.221800
0.736043 0.601650 0.225182
0.763086 0.604382 0.228540
0.790510 0.607061 0.231889
0.818256 0.609810 0.235147
0.846191 0.612549 0.238403
0.207738 0.609108 0.207738
0.233322 0.609108 0.207738
0.257353 0.609108 0.207738
0.280097 0.609108 0.207738
0.301467 0.609108 0.207738
0.321469 0.609108 0.207738
0.340249 0.609108 0.207738
0.357868 0.609108 0.207738
0.374489 0.609108 0.207738
0.390322 0.609108 0.207738
0.405584 0.609108 0.207738
0.420415 0.609108 0.207738
0.435061 0.609108 0.207738
0.449780 0.609108 0.207738
0.464782 0.609108 0.207738
0.480214 0.609108 0.207738
0.496221 0.609108 0.207738
0.513042 0.609108 0.207738
0.530725 0.609108 0.207738
0.549218 0.609108 0.207738
0.568487 0.609108 0.207738
0.588487 0.609108 0.207738
0.609378 0.609378 0.208103
0.633151 0.611856 0.211304
0.657936 0.614540 0.214840
0.683388 0.617222 0.218303
0.709496 0.620011 0.221800
0.736043 0.622815 0.225182
0.763086 0.625595 0.228540
0.790510 0.628348 0.231889
0.818256 0.631269 0.235147
0.846191 0.634085 0.238403
0.211304 0.633151 0.211304
0.236617 0.633151 0.211304
0.260446 0.633151 0.211304
0.282932 0.633151 0.211304
0.304099 0.633151 0.211304
0.323906 0.633151 0.211304
0.342460 0.633151 0.211304
0.359903 0.633151 0.211304
0.376424 0.633151 0.211304
0.392097 0.633151 0.211304
0.407266 0.633151 0.211304
0.422067 0.633151 0.211304
0.436713 0.633151 0.211304
0.451467 0.633151 0.211304
0.466528 0.633151 0.211304
0.482003 0.633151 0.211304
0.498147 0.633151 0.211304
0.515172 0.633151 0.211304
0.532974 0.633151 0.211304
0.551598 0.633151 0.211304
0.571007 0.633151 0.211304
0.591062 0.633151 0.211304
0.611856 0.633151 0.211304
0.633414 0.633414 0.211643
0.657936 0.635971 0.214840
0.683388 0.638790 0.218303
0.709496 0.641633 0.221800
0.736043 0.644464 0.225182
0.763086 0.647433 0.228540
0.790510 0.650364 0.231889
0.818256 0.653218 0.235147
0.846191 0.656177 0.238403
0.214840 0.657936 0.214840
0.239885 0.657936 0.214840
0.263494 0.657936 0.214840
0.285802 0.657936 0.214840
0.306710 0.657936 0.214840
0.326259 0.657936 0.214840
0.344704 0.657936 0.214840
0.361948 0.657936 0.214840
0.378260 0.657936 0.214840
0.393849 0.657936 0.214840
0.408943 0.657936 0.214840
0.423685 0.657936 0.214840
0.438414 0.657936 0.214840
0.453210 0.657936 0.214840
0.468295 0.657936 0.214840
0.483847 0.657936 0.214840
0.500168 0.657936 0.214840
0.517218 0.657936 0.214840
0.535224 0.657936 0.214840
0.553999 0.657936 0.214840
0.573436 0.657936 0.214840
0.593642 0.657936 0.214840
0.614540 0.657936 0.214840
0.635971 0.657936 0.214840
0.658176 0.658176 0.215150
0.683388 0.660833 0.218303
0.709496 0.663821 0.221800
0.736043 0.666728 0.225182
0.763086 0.669704 0.228540
0.790510 0.672704 0.231889
0.818256 0.675720 0.235147
0.846191 0.678705 0.238403
0.218303 0.683388 0.218303
0.243136 0.683388 0.218303
0.266529 0.683388 0.218303
0.288648 0.683388 0.218303
0.309253 0.683388 0.218303
0.328698 0.683388 0.218303
0.346855 0.683388 0.218303
0.363949 0.683388 0.218303
0.380134 0.683388 0.218303
0.395629 0.683388 0.218303
0.410630 0.683388 0.218303
0.425341 0.683388 0.218303
0.440023 0.683388 0.218303
0.454896 0.683388 0.218303
0.470061 0.683388 0.218303
0.485746 0.683388 0.218303
0.502135 0.683388 0.218303
0.519389 0.683388 0.218303
0.537535 0.683388 0.218303
0.556445 0.683388 0.218303
0.576024 0.683388 0.218303
0.596364 0.683388 0.218303
0.617222 0.683388 0.218303
0.638790 0.683388 0.218303
0.660833 0.683388 0.218303
0.683612 0.683612 0.218565
0.709496 0.686404 0.221800
0.736043 0.689459 0.225182
0.763086 0.692475 0.228540
0.790510 0.695537 0.231889
0.818256 0.698542 0.235147
0.846191 0.701691 0.238403
0.221800 0.709496 0.221800
0.246408 0.709496 0.221800
0.269476 0.709496 0.221800
0.291332 0.709496 0.221800
0.311762 0.709496 0.221800
0.330969 0.709496 0.221800
0.348958 0.709496 0.221800
0.365876 0.709496 0.221800
0.381911 0.709496 0.221800
0.397394 0.709496 0.221800
0.412333 0.709496 0.221800
0.427054 0.709496 0.221800
0.441702 0.709496 0.221800
0.456590 0.709496 0.221800
0.471825 0.709496 0.221800
0.487626 0.709496 0.221800
0.504217 0.709496 0.221800
0.521568 0.709496 0.221800
0.539802 0.709496 0.221800
0.558802 0.709496 0.221800
0.578579 0.709496 0.221800
0.598998 0.709496 0.221800
0.620011 0.709496 0.221800
0.641633 0.709496 0.221800
0.663821 0.709496 0.221800
0.686404 0.709496 0.221800
0.709694 0.709694 0.222032
0.736043 0.712592 0.225182
0.763086 0.715635 0.228540
0.790510 0.718809 0.231889
0.818256 0.721912 0.235147
0.846191 0.725042 0.238403
0.225182 0.736043 0.225182
0.249522 0.736043 0.225182
0.272386 0.736043 0.225182
0.294042 0.736043 0.225182
0.314284 0.736043 0.225182
0.333245 0.736043 0.225182
0.351033 0.736043 0.225182
0.367814 0.736043 0.225182
0.383767 0.736043 0.225182
0.399091 0.736043 0.225182
0.413998 0.736043 0.225182
0.428702 0.736043 0.225182
0.443363 0.736043 0.225182
0.458275 0.736043 0.225182
0.473635 0.736043 0.225182
0.489483 0.736043 0.225182
0.506223 0.736043 0.225182
