Postproduction/IWLTBAP - Humble/LUTs by IWLTBAP (CUBE)/UTILITY/Generic Rec.709 to LOG/U-9999-RTL.cube
# Copyright: (C) Copyright 2010-2018 by IWLTBAP SAS
# Cannot be resold, shared or otherwise redistributed
# Website: https://luts.iwltbap.com
TITLE "IWLTBAP 9999 (Utility Rec.709 to LOG)"
LUT_3D_SIZE 5
DOMAIN_MIN 0.000000 0.000000 0.000000
DOMAIN_MAX 0.903226 0.903226 0.903226
0.122375 0.122375 0.122375
0.323498 0.150489 0.150489
0.451206 0.177900 0.177900
0.585843 0.204100 0.204100
0.763086 0.228540 0.228540
0.150489 0.323498 0.150489
0.323722 0.323722 0.150825
0.451206 0.340464 0.177900
0.585843 0.355776 0.204100
0.763086 0.369752 0.228540
0.177900 0.451206 0.177900
0.340464 0.451206 0.177900
0.451403 0.451403 0.178377
0.585843 0.463067 0.204100
0.763086 0.475430 0.228540
0.204100 0.585843 0.204100
0.355776 0.585843 0.204100
0.463067 0.585843 0.204100
0.586110 0.586110 0.204494
0.763086 0.604382 0.228540
0.228540 0.763086 0.228540
0.369752 0.763086 0.228540
0.475430 0.763086 0.228540
0.604382 0.763086 0.228540
0.763222 0.763222 0.228684
0.150489 0.150489 0.323498
0.323722 0.150825 0.323722
0.451206 0.177900 0.340464
0.585843 0.204100 0.355776
0.763086 0.228540 0.369752
0.150825 0.323722 0.323722
0.340540 0.340540 0.340540
0.462945 0.355620 0.355620
0.604195 0.369562 0.369562
0.785550 0.382457 0.382457
0.177900 0.451206 0.340464
0.355620 0.462945 0.355620
0.463291 0.463291 0.356042
0.604424 0.475461 0.369717
0.785827 0.488694 0.382601
0.204100 0.585843 0.355776
0.369562 0.604195 0.369562
0.475461 0.604424 0.369717
0.604701 0.604701 0.369922
0.785827 0.623705 0.382601
0.228540 0.763086 0.369752
0.382457 0.785550 0.382457
0.488694 0.785827 0.382601
0.623705 0.785827 0.382601
0.785966 0.785966 0.382678
0.177900 0.177900 0.451206
0.340464 0.177900 0.451206
0.451403 0.178377 0.451403
0.585843 0.204100 0.463067
0.763086 0.228540 0.475430
0.177900 0.340464 0.451206
0.355620 0.355620 0.462945
0.463291 0.356042 0.463291
0.604424 0.369717 0.475461
0.785827 0.382601 0.488694
0.178377 0.451403 0.451403
0.356042 0.463291 0.463291
0.475508 0.475508 0.475508
0.623398 0.488483 0.488483
0.808494 0.502888 0.502888
0.204100 0.585843 0.463067
0.369717 0.604424 0.475461
0.488483 0.623398 0.488483
0.624034 0.624034 0.488943
0.808900 0.643824 0.503153
0.228540 0.763086 0.475430
0.382601 0.785827 0.488694
0.502888 0.808494 0.502888
0.643824 0.808900 0.503153
0.809040 0.809040 0.503244
0.204100 0.204100 0.585843
0.355776 0.204100 0.585843
0.463067 0.204100 0.585843
0.586110 0.204494 0.586110
0.763086 0.228540 0.604382
0.204100 0.355776 0.585843
0.369562 0.369562 0.604195
0.475461 0.369717 0.604424
0.604701 0.369922 0.604701
0.785827 0.382601 0.623705
0.204100 0.463067 0.585843
0.369717 0.475461 0.604424
0.488483 0.488483 0.623398
0.624034 0.488943 0.624034
0.808900 0.503153 0.643824
0.204494 0.586110 0.586110
0.369922 0.604701 0.604701
0.488943 0.624034 0.624034
0.643714 0.643714 0.643714
0.831778 0.664299 0.664299
0.228540 0.763086 0.604382
0.382601 0.785827 0.623705
0.503153 0.808900 0.643824
0.664299 0.831778 0.664299
0.832273 0.832273 0.664755
0.228540 0.228540 0.763086
0.369752 0.228540 0.763086
0.475430 0.228540 0.763086
0.604382 0.228540 0.763086
0.763222 0.228684 0.763222
0.228540 0.369752 0.763086
0.382457 0.382457 0.785550
0.488694 0.382601 0.785827
0.623705 0.382601 0.785827
0.785966 0.382678 0.785966
0.228540 0.475430 0.763086
0.382601 0.488694 0.785827
0.502888 0.502888 0.808494
0.643824 0.503153 0.808900
0.809040 0.503244 0.809040
0.228540 0.604382 0.763086
0.382601 0.623705 0.785827
0.503153 0.643824 0.808900
0.664299 0.664299 0.831778
0.832273 0.664755 0.832273
0.228684 0.763222 0.763222
0.382678 0.785966 0.785966
0.503244 0.809040 0.809040
0.664755 0.832273 0.832273
0.855583 0.855583 0.855583
