Postproduction/IWLTBAP - Humble/LUTs by IWLTBAP (CUBE)/UTILITY/Generic Rec.709 to LOG/U-9999-RTL.cube
# Copyright: (C) Copyright 2010-2018 by IWLTBAP SAS
# Cannot be resold, shared or otherwise redistributed
# Website: https://luts.iwltbap.com
TITLE "IWLTBAP 9999 (Utility Rec.709 to LOG)"
LUT_3D_SIZE 8
DOMAIN_MIN 0.000000 0.000000 0.000000
DOMAIN_MAX 0.903226 0.903226 0.903226
0.122375 0.122375 0.122375
0.247529 0.138470 0.138470
0.345175 0.154465 0.154465
0.418388 0.170147 0.170147
0.484911 0.185592 0.185592
0.563573 0.200441 0.200441
0.657936 0.214840 0.214840
0.763086 0.228540 0.228540
0.138470 0.247529 0.138470
0.247715 0.247715 0.138693
0.345175 0.260559 0.154465
0.418388 0.272988 0.170147
0.484911 0.284804 0.185592
0.563573 0.296024 0.200441
0.657936 0.306710 0.214840
0.763086 0.316751 0.228540
0.154465 0.345175 0.154465
0.260559 0.345175 0.154465
0.345397 0.345397 0.154839
0.418388 0.354177 0.170147
0.484911 0.362602 0.185592
0.563573 0.370619 0.200441
0.657936 0.378260 0.214840
0.763086 0.385535 0.228540
0.170147 0.418388 0.170147
0.272988 0.418388 0.170147
0.354177 0.418388 0.170147
0.418598 0.418598 0.170604
0.484911 0.425151 0.185592
0.563573 0.431767 0.200441
0.657936 0.438414 0.214840
0.763086 0.445048 0.228540
0.185592 0.484911 0.185592
0.284804 0.484911 0.185592
0.362602 0.484911 0.185592
0.425151 0.484911 0.185592
0.485132 0.485132 0.186057
0.563573 0.492357 0.200441
0.657936 0.500168 0.214840
0.763086 0.508321 0.228540
0.200441 0.563573 0.200441
0.296024 0.563573 0.200441
0.370619 0.563573 0.200441
0.431767 0.563573 0.200441
0.492357 0.563573 0.200441
0.563838 0.563838 0.200853
0.657936 0.573436 0.214840
0.763086 0.583749 0.228540
0.214840 0.657936 0.214840
0.306710 0.657936 0.214840
0.378260 0.657936 0.214840
0.438414 0.657936 0.214840
0.500168 0.657936 0.214840
0.573436 0.657936 0.214840
0.658176 0.658176 0.215150
0.763086 0.669704 0.228540
0.228540 0.763086 0.228540
0.316751 0.763086 0.228540
0.385535 0.763086 0.228540
0.445048 0.763086 0.228540
0.508321 0.763086 0.228540
0.583749 0.763086 0.228540
0.669704 0.763086 0.228540
0.763222 0.763222 0.228684
0.138470 0.138470 0.247529
0.247715 0.138693 0.247715
0.345175 0.154465 0.260559
0.418388 0.170147 0.272988
0.484911 0.185592 0.284804
0.563573 0.200441 0.296024
0.657936 0.214840 0.306710
0.763086 0.228540 0.316751
0.138693 0.247715 0.247715
0.260650 0.260650 0.260650
0.353962 0.272810 0.272810
0.425050 0.284629 0.284629
0.492271 0.295864 0.295864
0.573384 0.306565 0.306565
0.669546 0.316580 0.316580
0.775885 0.326081 0.326081
0.154465 0.345175 0.260559
0.272810 0.353962 0.272810
0.354292 0.354292 0.273251
0.425141 0.362598 0.284779
0.492379 0.370586 0.296005
0.573523 0.378246 0.306696
0.669714 0.385524 0.316705
0.776060 0.392665 0.326201
0.170147 0.418388 0.272988
0.284629 0.425050 0.284629
0.362598 0.425141 0.284779
0.425336 0.425336 0.285116
0.492379 0.431767 0.296005
0.573523 0.438402 0.306696
0.669714 0.445053 0.316705
0.776060 0.451866 0.326201
0.185592 0.484911 0.284804
0.295864 0.492271 0.295864
0.370586 0.492379 0.296005
0.431767 0.492379 0.296005
0.492606 0.492606 0.296344
0.573523 0.500149 0.306696
0.669714 0.508327 0.316705
0.776060 0.516912 0.326201
0.200441 0.563573 0.296024
0.306565 0.573384 0.306565
0.378246 0.573523 0.306696
0.438402 0.573523 0.306696
0.500149 0.573523 0.306696
0.573797 0.573797 0.306994
0.669714 0.583777 0.316705
0.776060 0.594289 0.326201
0.214840 0.657936 0.306710
0.316580 0.669546 0.316580
0.385524 0.669714 0.316705
0.445053 0.669714 0.316705
0.508327 0.669714 0.316705
0.583777 0.669714 0.316705
0.669964 0.669964 0.316922
0.776060 0.681704 0.326201
0.228540 0.763086 0.316751
0.326081 0.775885 0.326081
0.392665 0.776060 0.326201
0.451866 0.776060 0.326201
0.516912 0.776060 0.326201
0.594289 0.776060 0.326201
0.681704 0.776060 0.326201
0.776196 0.776196 0.326297
0.154465 0.154465 0.345175
0.260559 0.154465 0.345175
0.345397 0.154839 0.345397
0.418388 0.170147 0.354177
0.484911 0.185592 0.362602
0.563573 0.200441 0.370619
0.657936 0.214840 0.378260
0.763086 0.228540 0.385535
0.154465 0.260559 0.345175
0.272810 0.272810 0.353962
0.354292 0.273251 0.354292
0.425141 0.284779 0.362598
0.492379 0.296005 0.370586
0.573523 0.306696 0.378246
0.669714 0.316705 0.385524
0.776060 0.326201 0.392665
0.154839 0.345397 0.345397
0.273251 0.354292 0.354292
0.362678 0.362678 0.362678
0.431611 0.370401 0.370401
0.499984 0.378069 0.378069
0.583536 0.385390 0.385390
0.681429 0.392428 0.392428
0.788752 0.399296 0.399296
0.170147 0.418388 0.354177
0.284779 0.425141 0.362598
0.370401 0.431611 0.370401
0.431970 0.431970 0.370805
0.500171 0.438408 0.378236
0.583785 0.445059 0.385557
0.681720 0.451871 0.392586
0.789067 0.458819 0.399452
0.185592 0.484911 0.362602
0.296005 0.492379 0.370586
0.378069 0.499984 0.378069
0.438408 0.500171 0.378236
0.500404 0.500404 0.378468
0.583785 0.508342 0.385557
0.681720 0.516929 0.392586
0.789067 0.525793 0.399452
0.200441 0.563573 0.370619
0.306696 0.573523 0.378246
0.385390 0.583536 0.385390
0.445059 0.583785 0.385557
0.508342 0.583785 0.385557
0.584066 0.584066 0.385760
0.681720 0.594294 0.392586
0.789067 0.605099 0.399452
0.214840 0.657936 0.378260
0.316705 0.669714 0.385524
0.392428 0.681429 0.392428
0.451871 0.681720 0.392586
0.516929 0.681720 0.392586
0.594294 0.681720 0.392586
0.681976 0.681976 0.392738
0.789067 0.693922 0.399452
0.228540 0.763086 0.385535
0.326201 0.776060 0.392665
0.399296 0.788752 0.399296
0.458819 0.789067 0.399452
0.525793 0.789067 0.399452
0.605099 0.789067 0.399452
0.693922 0.789067 0.399452
0.789206 0.789206 0.399525
0.170147 0.170147 0.418388
0.272988 0.170147 0.418388
0.354177 0.170147 0.418388
0.418598 0.170604 0.418598
0.484911 0.185592 0.425151
0.563573 0.200441 0.431767
0.657936 0.214840 0.438414
0.763086 0.228540 0.445048
0.170147 0.272988 0.418388
0.284629 0.284629 0.425050
0.362598 0.284779 0.425141
0.425336 0.285116 0.425336
0.492379 0.296005 0.431767
0.573523 0.306696 0.438402
0.669714 0.316705 0.445053
0.776060 0.326201 0.451866
0.170147 0.354177 0.418388
0.284779 0.362598 0.425141
0.370401 0.370401 0.431611
0.431970 0.370805 0.431970
0.500171 0.378236 0.438408
0.583785 0.385557 0.445059
0.681720 0.392586 0.451871
0.789067 0.399452 0.458819
0.170604 0.418598 0.418598
0.285116 0.425336 0.425336
0.370805 0.431970 0.431970
0.438461 0.438461 0.438461
0.508134 0.444878 0.444878
0.594006 0.451677 0.451677
0.693568 0.458616 0.458616
0.801875 0.465785 0.465785
0.185592 0.484911 0.425151
0.296005 0.492379 0.431767
0.378236 0.500171 0.438408
0.444878 0.508134 0.444878
0.508621 0.508621 0.445283
0.594317 0.516935 0.451885
0.693929 0.525814 0.458826
0.802257 0.535070 0.465997
0.200441 0.563573 0.431767
0.306696 0.573523 0.438402
0.385557 0.583785 0.445059
0.451677 0.594006 0.451677
0.516935 0.594317 0.451885
0.594615 0.594615 0.452080
0.693929 0.605106 0.458826
0.802257 0.616208 0.465997
0.214840 0.657936 0.438414
0.316705 0.669714 0.445053
0.392586 0.681720 0.451871
0.458616 0.693568 0.458616
0.525814 0.693929 0.458826
0.605106 0.693929 0.458826
0.694187 0.694187 0.458978
0.802257 0.706304 0.465997
0.228540 0.763086 0.445048
0.326201 0.776060 0.451866
0.399452 0.789067 0.458819
0.465785 0.801875 0.465785
0.535070 0.802257 0.465997
0.616208 0.802257 0.465997
0.706304 0.802257 0.465997
0.802398 0.802398 0.466073
0.185592 0.185592 0.484911
0.284804 0.185592 0.484911
0.362602 0.185592 0.484911
0.425151 0.185592 0.484911
0.485132 0.186057 0.485132
0.563573 0.200441 0.492357
0.657936 0.214840 0.500168
0.763086 0.228540 0.508321
0.185592 0.284804 0.484911
0.295864 0.295864 0.492271
0.370586 0.296005 0.492379
0.431767 0.296005 0.492379
0.492606 0.296344 0.492606
0.573523 0.306696 0.500149
0.669714 0.316705 0.508327
0.776060 0.326201 0.516912
0.185592 0.362602 0.484911
0.296005 0.370586 0.492379
0.378069 0.378069 0.499984
0.438408 0.378236 0.500171
0.500404 0.378468 0.500404
0.583785 0.385557 0.508342
0.681720 0.392586 0.516929
0.789067 0.399452 0.525793
0.185592 0.425151 0.484911
0.296005 0.431767 0.492379
0.378236 0.438408 0.500171
0.444878 0.444878 0.508134
0.508621 0.445283 0.508621
0.594317 0.451885 0.516935
0.693929 0.458826 0.525814
0.802257 0.465997 0.535070
0.186057 0.485132 0.485132
0.296344 0.492606 0.492606
0.378468 0.500404 0.500404
0.445283 0.508621 0.508621
0.516944 0.516944 0.516944
0.604785 0.525547 0.525547
0.705944 0.534802 0.534802
0.815057 0.544411 0.544411
0.200441 0.563573 0.492357
0.306696 0.573523 0.500149
0.385557 0.583785 0.508342
0.451885 0.594317 0.516935
0.525547 0.604785 0.525547
0.605420 0.605420 0.526088
0.706324 0.616221 0.535106
0.815462 0.627536 0.544722
0.214840 0.657936 0.500168
0.316705 0.669714 0.508327
0.392586 0.681720 0.516929
0.458826 0.693929 0.525814
0.534802 0.705944 0.534802
0.616221 0.706324 0.535106
0.706588 0.706588 0.535311
0.815462 0.718886 0.544722
0.228540 0.763086 0.508321
0.326201 0.776060 0.516912
0.399452 0.789067 0.525793
0.465997 0.802257 0.535070
0.544411 0.815057 0.544411
0.627536 0.815462 0.544722
0.718886 0.815462 0.544722
0.815603 0.815603 0.544825
0.200441 0.200441 0.563573
0.296024 0.200441 0.563573
0.370619 0.200441 0.563573
0.431767 0.200441 0.563573
0.492357 0.200441 0.563573
0.563838 0.200853 0.563838
0.657936 0.214840 0.573436
0.763086 0.228540 0.583749
0.200441 0.296024 0.563573
0.306565 0.306565 0.573384
0.378246 0.306696 0.573523
0.438402 0.306696 0.573523
0.500149 0.306696 0.573523
0.573797 0.306994 0.573797
0.669714 0.316705 0.583777
0.776060 0.326201 0.594289
0.200441 0.370619 0.563573
0.306696 0.378246 0.573523
0.385390 0.385390 0.583536
0.445059 0.385557 0.583785
0.508342 0.385557 0.583785
0.584066 0.385760 0.584066
0.681720 0.392586 0.594294
0.789067 0.399452 0.605099
0.200441 0.431767 0.563573
0.306696 0.438402 0.573523
0.385557 0.445059 0.583785
0.451677 0.451677 0.594006
0.516935 0.451885 0.594317
0.594615 0.452080 0.594615
0.693929 0.458826 0.605106
0.802257 0.465997 0.616208
0.200441 0.492357 0.563573
0.306696 0.500149 0.573523
0.385557 0.508342 0.583785
0.451885 0.516935 0.594317
0.525547 0.525547 0.604785
0.605420 0.526088 0.605420
0.706324 0.535106 0.616221
0.815462 0.544722 0.627536
0.200853 0.563838 0.563838
0.306994 0.573797 0.573797
0.385760 0.584066 0.584066
0.452080 0.594615 0.594615
0.526088 0.605420 0.605420
0.616130 0.616130 0.616130
0.718542 0.627226 0.627226
0.828428 0.638787 0.638787
0.214840 0.657936 0.573436
0.316705 0.669714 0.583777
0.392586 0.681720 0.594294
0.458826 0.693929 0.605106
0.535106 0.706324 0.616221
0.627226 0.718542 0.627226
0.719160 0.719160 0.627791
0.828805 0.731520 0.639121
0.228540 0.763086 0.583749
0.326201 0.776060 0.594289
0.399452 0.789067 0.605099
0.465997 0.802257 0.616208
0.544722 0.815462 0.627536
0.638787 0.828428 0.638787
0.731520 0.828805 0.639121
0.828948 0.828948 0.639247
0.214840 0.214840 0.657936
0.306710 0.214840 0.657936
0.378260 0.214840 0.657936
0.438414 0.214840 0.657936
0.500168 0.214840 0.657936
0.573436 0.214840 0.657936
0.658176 0.215150 0.658176
0.763086 0.228540 0.669704
0.214840 0.306710 0.657936
0.316580 0.316580 0.669546
0.385524 0.316705 0.669714
0.445053 0.316705 0.669714
0.508327 0.316705 0.669714
0.583777 0.316705 0.669714
0.669964 0.316922 0.669964
0.776060 0.326201 0.681704
0.214840 0.378260 0.657936
0.316705 0.385524 0.669714
0.392428 0.392428 0.681429
0.451871 0.392586 0.681720
0.516929 0.392586 0.681720
0.594294 0.392586 0.681720
0.681976 0.392738 0.681976
0.789067 0.399452 0.693922
0.214840 0.438414 0.657936
0.316705 0.445053 0.669714
0.392586 0.451871 0.681720
0.458616 0.458616 0.693568
0.525814 0.458826 0.693929
0.605106 0.458826 0.693929
0.694187 0.458978 0.694187
0.802257 0.465997 0.706304
0.214840 0.500168 0.657936
0.316705 0.508327 0.669714
0.392586 0.516929 0.681720
0.458826 0.525814 0.693929
0.534802 0.534802 0.705944
0.616221 0.535106 0.706324
0.706588 0.535311 0.706588
0.815462 0.544722 0.718886
0.214840 0.573436 0.657936
0.316705 0.583777 0.669714
0.392586 0.594294 0.681720
0.458826 0.605106 0.693929
0.535106 0.616221 0.706324
0.627226 0.627226 0.718542
0.719160 0.627791 0.719160
0.828805 0.639121 0.731520
0.215150 0.658176 0.658176
0.316922 0.669964 0.669964
0.392738 0.681976 0.681976
0.458978 0.694187 0.694187
0.535311 0.706588 0.706588
0.627791 0.719160 0.719160
0.731372 0.731372 0.731372
0.841894 0.744046 0.744046
0.228540 0.763086 0.669704
0.326201 0.776060 0.681704
0.399452 0.789067 0.693922
0.465997 0.802257 0.706304
0.544722 0.815462 0.718886
0.639121 0.828805 0.731520
0.744046 0.841894 0.744046
0.842328 0.842328 0.744448
0.228540 0.228540 0.763086
0.316751 0.228540 0.763086
0.385535 0.228540 0.763086
0.445048 0.228540 0.763086
0.508321 0.228540 0.763086
0.583749 0.228540 0.763086
0.669704 0.228540 0.763086
0.763222 0.228684 0.763222
0.228540 0.316751 0.763086
0.326081 0.326081 0.775885
0.392665 0.326201 0.776060
0.451866 0.326201 0.776060
0.516912 0.326201 0.776060
0.594289 0.326201 0.776060
0.681704 0.326201 0.776060
0.776196 0.326297 0.776196
0.228540 0.385535 0.763086
0.326201 0.392665 0.776060
0.399296 0.399296 0.788752
0.458819 0.399452 0.789067
0.525793 0.399452 0.789067
0.605099 0.399452 0.789067
0.693922 0.399452 0.789067
0.789206 0.399525 0.789206
0.228540 0.445048 0.763086
0.326201 0.451866 0.776060
0.399452 0.458819 0.789067
0.465785 0.465785 0.801875
0.535070 0.465997 0.802257
0.616208 0.465997 0.802257
0.706304 0.465997 0.802257
0.802398 0.466073 0.802398
0.228540 0.508321 0.763086
0.326201 0.516912 0.776060
0.399452 0.525793 0.789067
0.465997 0.535070 0.802257
0.544411 0.544411 0.815057
0.627536 0.544722 0.815462
0.718886 0.544722 0.815462
0.815603 0.544825 0.815603
0.228540 0.583749 0.763086
0.326201 0.594289 0.776060
0.399452 0.605099 0.789067
0.465997 0.616208 0.802257
0.544722 0.627536 0.815462
0.638787 0.638787 0.828428
0.731520 0.639121 0.828805
0.828948 0.639247 0.828948
0.228540 0.669704 0.763086
0.326201 0.681704 0.776060
0.399452 0.693922 0.789067
0.465997 0.706304 0.802257
0.544722 0.718886 0.815462
0.639121 0.731520 0.828805
0.744046 0.744046 0.841894
0.842328 0.744448 0.842328
0.228684 0.763222 0.763222
0.326297 0.776196 0.776196
0.399525 0.789206 0.789206
0.466073 0.802398 0.802398
0.544825 0.815603 0.815603
0.639247 0.828948 0.828948
0.744448 0.842328 0.842328
0.855583 0.855583 0.855583
