Postproduction/IWLTBAP - Humble/LUTs by IWLTBAP (CUBE)/UTILITY/Generic Rec.709 to LOG/U-9998-RTL.cube
# Copyright: (C) Copyright 2010-2018 by IWLTBAP SAS
# Cannot be resold, shared or otherwise redistributed
# Website: https://luts.iwltbap.com
TITLE "IWLTBAP 9998 (Utility Rec.709 to LOG)"
LUT_3D_SIZE 5
DOMAIN_MIN 0.000000 0.000000 0.000000
DOMAIN_MAX 0.903226 0.903226 0.903226
0.058441 0.058441 0.058441
0.285512 0.093671 0.093671
0.442261 0.127060 0.127060
0.588236 0.159962 0.159982
0.689169 0.197869 0.197869
0.141692 0.317577 0.141692
0.328361 0.326255 0.155517
0.457530 0.339417 0.172599
0.576522 0.349555 0.186314
0.658106 0.366654 0.206502
0.201769 0.475110 0.201769
0.361942 0.468412 0.201262
0.476984 0.473350 0.211715
0.586636 0.479442 0.223237
0.663909 0.494759 0.243722
0.239219 0.596541 0.239219
0.391157 0.590265 0.241292
0.502732 0.597056 0.256438
0.609580 0.605941 0.274074
0.685511 0.623215 0.300215
0.316186 0.706202 0.316186
0.461849 0.702644 0.323881
0.566711 0.709373 0.341286
0.664068 0.715947 0.357751
0.731149 0.728094 0.378481
0.077847 0.077847 0.273126
0.293374 0.103822 0.292518
0.447721 0.136465 0.319785
0.591941 0.169167 0.347121
0.689721 0.204135 0.377480
0.150323 0.324129 0.325476
0.331935 0.329866 0.331168
0.458452 0.341532 0.342786
0.575929 0.351134 0.352391
0.656678 0.367967 0.369194
0.204697 0.475472 0.366858
0.363354 0.468823 0.362641
0.477557 0.473968 0.370044
0.586651 0.480510 0.378819
0.663855 0.496430 0.396931
0.242684 0.596589 0.393973
0.394175 0.591221 0.393541
0.505519 0.598780 0.406073
0.611840 0.608273 0.420778
0.687101 0.625558 0.443257
0.321944 0.707279 0.461648
0.466401 0.704162 0.465788
0.569994 0.710901 0.479258
0.666016 0.717282 0.491772
0.731988 0.728945 0.508807
0.094299 0.094299 0.421106
0.304446 0.116853 0.432557
0.457114 0.149383 0.455454
0.598599 0.180569 0.477416
0.693061 0.212246 0.501523
0.160743 0.332839 0.453300
0.338110 0.336062 0.453183
0.462433 0.346512 0.460931
0.578513 0.355641 0.467553
0.658475 0.372217 0.481839
0.210324 0.478892 0.481161
0.367670 0.472259 0.474457
0.481200 0.477646 0.479795
0.589868 0.484670 0.486781
0.667095 0.501287 0.503357
0.249233 0.600009 0.501463
0.400250 0.595382 0.499318
0.511231 0.603475 0.509929
0.616822 0.613263 0.522349
0.691439 0.630621 0.542271
0.330325 0.711281 0.562321
0.473158 0.708185 0.563632
0.575441 0.714776 0.574271
0.669992 0.720725 0.583850
0.734913 0.731921 0.598221
0.109051 0.109051 0.563064
0.315434 0.129801 0.568335
0.466405 0.162146 0.586832
0.604550 0.191024 0.602876
0.695909 0.219651 0.621277
0.170558 0.341016 0.576886
0.343976 0.341956 0.571596
0.466547 0.351649 0.575983
0.581309 0.360342 0.579788
0.660583 0.376785 0.591678
0.216073 0.482458 0.592474
0.372280 0.475989 0.583524
0.485147 0.481630 0.586826
0.593379 0.489120 0.591959
0.670506 0.506328 0.606735
0.255980 0.603621 0.606014
0.406755 0.599916 0.602246
0.517186 0.608442 0.610707
0.621876 0.618386 0.620599
0.695847 0.635738 0.637869
0.338877 0.715463 0.659580
0.480012 0.712360 0.658138
0.580759 0.718628 0.665891
0.673914 0.724126 0.672717
0.737584 0.734624 0.684349
0.125510 0.125510 0.656843
0.329192 0.145337 0.658541
0.478231 0.177163 0.673903
0.612749 0.203285 0.685400
0.701122 0.228953 0.699591
0.181499 0.350566 0.657707
0.351809 0.349811 0.649095
0.472713 0.358717 0.651204
0.586261 0.367005 0.653135
0.664894 0.383293 0.663460
0.223776 0.488198 0.665264
0.378945 0.481881 0.654930
0.491342 0.487838 0.657079
0.599259 0.495922 0.661255
0.676338 0.513739 0.675020
0.265069 0.609703 0.674971
0.415188 0.606516 0.670041
0.525099 0.615387 0.677148
0.628945 0.625481 0.685443
0.701846 0.642402 0.700635
0.348686 0.721317 0.723367
0.488423 0.718313 0.720291
0.587628 0.724087 0.726012
0.679313 0.729078 0.730952
0.741842 0.738859 0.740713
