Postproduction/IWLTBAP - Humble/LUTs by IWLTBAP (CUBE)/UTILITY/Generic Rec.709 to LOG/U-9998-RTL.cube
# Copyright: (C) Copyright 2010-2018 by IWLTBAP SAS
# Cannot be resold, shared or otherwise redistributed
# Website: https://luts.iwltbap.com
TITLE "IWLTBAP 9998 (Utility Rec.709 to LOG)"
LUT_3D_SIZE 32
0.058441 0.058441 0.058441
0.095427 0.067171 0.067171
0.130059 0.072871 0.072871
0.163531 0.077429 0.077429
0.196633 0.081337 0.081340
0.229071 0.084930 0.084956
0.258904 0.088974 0.088974
0.285512 0.093671 0.093671
0.309815 0.098439 0.098439
0.332818 0.103322 0.103322
0.355017 0.108159 0.108180
0.376756 0.113101 0.113101
0.398417 0.118012 0.118012
0.420106 0.122595 0.122595
0.442261 0.127060 0.127060
0.464861 0.131571 0.131602
0.487514 0.136020 0.136020
0.509678 0.140331 0.140331
0.531255 0.144871 0.144871
0.551689 0.149690 0.149690
0.570637 0.154671 0.154671
0.588236 0.159962 0.159982
0.604765 0.165597 0.165597
0.620369 0.171197 0.171197
0.635269 0.176725 0.176725
0.649606 0.182379 0.182379
0.663152 0.187640 0.187640
0.676205 0.192644 0.192644
0.689169 0.197869 0.197869
0.701809 0.202755 0.202755
0.714220 0.207445 0.207446
0.726654 0.212097 0.212097
0.079476 0.106951 0.079476
0.111213 0.110771 0.083365
0.143187 0.114132 0.086877
0.174873 0.117277 0.090143
0.206634 0.120173 0.093135
0.237973 0.122982 0.096070
0.266975 0.126480 0.099662
0.292502 0.130363 0.103640
0.316043 0.134598 0.107968
0.338511 0.139098 0.112542
0.360405 0.143872 0.117411
0.381696 0.148514 0.122158
0.402894 0.153134 0.126862
0.424452 0.157804 0.131639
0.446448 0.162375 0.136309
0.468551 0.166576 0.140576
0.490867 0.170835 0.144973
0.512804 0.175153 0.149371
0.533903 0.179401 0.153729
0.553980 0.184015 0.158410
0.572668 0.188843 0.163361
0.589751 0.193719 0.168333
0.605740 0.198761 0.173461
0.620631 0.203616 0.178397
0.634740 0.208291 0.183141
0.648374 0.213123 0.188055
0.661533 0.217923 0.192953
0.674125 0.222434 0.197554
0.686436 0.226913 0.202071
0.698365 0.230848 0.206127
0.710055 0.234601 0.209915
0.721834 0.238469 0.213847
0.091383 0.146552 0.091383
0.121937 0.149387 0.094494
0.152834 0.152038 0.097341
0.183588 0.154516 0.100096
0.214674 0.157099 0.102879
0.245127 0.159343 0.105369
0.273173 0.162190 0.108434
0.298277 0.165842 0.112303
0.321666 0.170169 0.116814
0.343781 0.174529 0.121342
0.365209 0.179004 0.126035
0.386301 0.183605 0.130866
0.407382 0.188306 0.135752
0.428444 0.192668 0.140287
0.450029 0.196988 0.144793
0.471951 0.201169 0.149180
0.493697 0.205058 0.153286
0.515189 0.209092 0.157522
0.535862 0.213076 0.161712
0.555113 0.216875 0.165701
0.572980 0.220956 0.169920
0.589367 0.225071 0.174243
0.604549 0.229283 0.178620
0.619040 0.233708 0.183203
0.632697 0.237903 0.187549
0.645562 0.241792 0.191646
0.658015 0.245764 0.195753
0.669875 0.249392 0.199506
0.681506 0.252975 0.203250
0.693211 0.256734 0.207135
0.704623 0.260203 0.210734
0.716142 0.263691 0.214376
0.101333 0.183263 0.101333
0.131067 0.185583 0.103972
0.161474 0.188006 0.106769
0.191518 0.190141 0.109228
0.221813 0.192200 0.111635
0.251829 0.194365 0.114178
0.279819 0.197431 0.117563
0.304548 0.200963 0.121404
0.327402 0.204893 0.125677
0.349232 0.209157 0.130224
0.370495 0.213686 0.135049
0.391130 0.217995 0.139654
0.411743 0.222336 0.144317
0.432570 0.226640 0.148951
0.453542 0.230484 0.153094
0.474767 0.234165 0.157030
0.495906 0.237558 0.160723
0.516352 0.240607 0.164068
0.536227 0.243828 0.167567
0.554921 0.247146 0.171147
0.572087 0.250482 0.174760
0.587927 0.254104 0.178643
0.602457 0.257563 0.182332
0.616011 0.260934 0.185924
0.629047 0.264391 0.189601
0.641409 0.267767 0.193218
0.653419 0.271241 0.196907
0.665102 0.274675 0.200562
0.676401 0.277901 0.203986
0.687764 0.281263 0.207539
0.698842 0.284334 0.210831
0.709932 0.287334 0.214046
0.109979 0.218601 0.109979
0.139411 0.220794 0.112676
0.169172 0.222852 0.115238
0.198857 0.224952 0.117788
0.229049 0.227204 0.120557
0.258635 0.229233 0.123061
0.285941 0.231868 0.126115
0.310469 0.235458 0.130166
0.332952 0.239200 0.134337
0.354284 0.243143 0.138675
0.375006 0.247261 0.143223
0.395318 0.251403 0.147733
0.415191 0.255150 0.151876
0.435163 0.258688 0.155799
0.455339 0.261823 0.159307
0.475600 0.264614 0.162491
0.496059 0.267404 0.165674
0.515973 0.270046 0.168667
0.535078 0.272595 0.171580
0.552963 0.275123 0.174398
0.569311 0.277585 0.177213
0.584414 0.280423 0.180361
0.598454 0.283398 0.183620
0.611642 0.286370 0.186905
0.624358 0.289548 0.190355
0.636425 0.292576 0.193673
0.648015 0.295589 0.196973
0.659428 0.298739 0.200397
0.670533 0.301716 0.203654
0.681678 0.304853 0.207047
0.692589 0.307762 0.210271
0.703493 0.310572 0.213308
0.118818 0.253192 0.118818
0.147780 0.255194 0.121421
0.177391 0.257354 0.124233
0.206637 0.259279 0.126735
0.236044 0.261077 0.129125
0.265333 0.263154 0.131818
0.292124 0.265518 0.134728
0.315907 0.268551 0.138287
0.337948 0.272052 0.142338
0.358667 0.275515 0.146294
0.378488 0.278845 0.150107
0.397894 0.282205 0.153922
0.416936 0.285203 0.157392
0.436170 0.288084 0.160731
0.455734 0.290764 0.163862
0.475308 0.292917 0.166472
0.494801 0.294831 0.168812
0.513878 0.296673 0.171063
0.532185 0.298424 0.173218
0.549580 0.300506 0.175705
0.565644 0.302770 0.178362
0.580340 0.305242 0.181196
0.594023 0.307885 0.184211
0.606854 0.310482 0.187178
0.619294 0.313362 0.190407
0.631108 0.316154 0.193542
0.642522 0.318946 0.196683
0.653774 0.321948 0.200007
0.664648 0.324721 0.203096
0.675545 0.327579 0.206312
0.686285 0.330318 0.209373
0.697026 0.332941 0.212341
0.129387 0.286509 0.129387
0.157943 0.288377 0.131980
0.186779 0.290047 0.134344
0.215706 0.291948 0.136950
0.244543 0.293414 0.139107
0.272807 0.294805 0.141165
0.298956 0.296812 0.143840
0.321799 0.299120 0.146717
0.342767 0.301679 0.149887
0.362818 0.304611 0.153344
0.381888 0.307315 0.156607
0.400498 0.309973 0.159792
0.418920 0.312488 0.162789
0.437202 0.314452 0.165292
0.455842 0.316283 0.167611
0.474822 0.317942 0.169767
0.493718 0.319391 0.171673
0.512385 0.320919 0.173708
0.530387 0.322455 0.175692
0.547338 0.324166 0.177857
0.562981 0.326104 0.180236
0.577303 0.328192 0.182757
0.590795 0.330648 0.185648
0.603455 0.333152 0.188540
0.615643 0.335779 0.191580
0.627252 0.338380 0.194586
0.638434 0.340949 0.197552
0.649446 0.343739 0.200743
0.660203 0.346374 0.203760
0.670867 0.348996 0.206763
0.681600 0.351711 0.209874
0.692196 0.354209 0.212737
0.141692 0.317577 0.141692
0.169867 0.319292 0.144243
0.197944 0.320501 0.146224
0.225695 0.321482 0.147944
0.253688 0.322440 0.149658
0.280993 0.323108 0.151041
0.306029 0.324306 0.152883
0.328361 0.326255 0.155517
0.348553 0.328229 0.158123
0.367660 0.330357 0.160822
0.385931 0.332374 0.163376
0.403671 0.334255 0.165800
0.421429 0.336194 0.168287
0.439278 0.337878 0.170526
0.457530 0.339417 0.172599
0.476072 0.340786 0.174499
0.494517 0.341870 0.176102
0.512758 0.343083 0.177855
0.530399 0.344388 0.179663
0.547014 0.345821 0.181597
0.562433 0.347617 0.183873
0.576522 0.349555 0.186314
0.589767 0.351827 0.189023
0.602198 0.354079 0.191740
0.614096 0.356461 0.194562
0.625604 0.358994 0.197550
0.636642 0.361483 0.200468
0.647547 0.364140 0.203596
0.658106 0.366654 0.206502
0.668680 0.369146 0.209454
0.679197 0.371725 0.212469
0.689702 0.374108 0.215264
0.154313 0.346183 0.154313
0.181313 0.347007 0.155982
0.208580 0.347707 0.157441
0.235431 0.348113 0.158644
0.262454 0.348394 0.159663
0.289019 0.348629 0.160670
0.313101 0.349078 0.161781
0.334443 0.350224 0.163622
0.353845 0.351553 0.165545
0.372286 0.353161 0.167729
0.390181 0.354907 0.170115
0.407495 0.356502 0.172283
0.424805 0.358102 0.174455
0.442247 0.359535 0.176445
0.460074 0.360726 0.178230
0.478251 0.361850 0.179919
0.496426 0.362796 0.181437
0.514383 0.363837 0.183034
0.531729 0.364961 0.184710
0.548019 0.366185 0.186487
0.563204 0.367804 0.188607
0.577084 0.369579 0.190910
0.590111 0.371713 0.193560
0.602374 0.373887 0.196214
0.614135 0.376136 0.198951
0.625455 0.378545 0.201841
0.636350 0.380900 0.204662
0.647107 0.383447 0.207708
0.657591 0.385869 0.210597
0.667996 0.388273 0.213477
0.678489 0.390803 0.216484
0.688827 0.393141 0.219280
0.165541 0.372042 0.165541
0.191585 0.372231 0.166549
0.217984 0.372352 0.167425
0.243922 0.372104 0.167952
0.269877 0.371621 0.168242
0.295654 0.371315 0.168696
0.319100 0.371336 0.169437
0.339838 0.372096 0.170861
0.359005 0.373313 0.172737
0.376930 0.374523 0.174589
0.394379 0.375993 0.176691
0.411343 0.377293 0.178618
0.428289 0.378637 0.180580
0.445489 0.379946 0.182494
0.462992 0.380958 0.184097
0.480870 0.381917 0.185646
0.498752 0.382679 0.187028
0.516419 0.383554 0.188490
0.533512 0.384542 0.190064
0.549538 0.385616 0.191707
0.564534 0.387128 0.193793
0.578255 0.388840 0.196038
0.591109 0.390846 0.198581
0.603203 0.392875 0.201157
0.614784 0.395029 0.203821
0.626011 0.397340 0.206661
0.636801 0.399639 0.209491
0.647453 0.402138 0.212497
0.657800 0.404488 0.215354
0.668218 0.406936 0.218305
0.678526 0.409327 0.221231
0.688813 0.411623 0.223993
0.174964 0.395341 0.174964
0.200087 0.394885 0.175284
0.225551 0.394343 0.175548
0.251059 0.393903 0.175913
0.276517 0.393164 0.175933
0.301779 0.392576 0.176145
0.324755 0.392359 0.176657
0.345033 0.392765 0.177806
0.363754 0.393749 0.179451
0.381339 0.394737 0.181098
0.398425 0.395941 0.182950
0.415221 0.397215 0.184889
0.431874 0.398400 0.186695
0.448776 0.399499 0.188435
0.465944 0.400308 0.189887
0.483572 0.401103 0.191323
0.501260 0.401833 0.192693
0.518700 0.402620 0.194105
0.535573 0.403485 0.195593
0.551391 0.404469 0.197157
0.566185 0.405848 0.199166
0.579741 0.407474 0.201379
0.592459 0.409401 0.203878
0.604423 0.411405 0.206448
0.615959 0.413512 0.209129
0.627020 0.415744 0.211925
0.637681 0.417976 0.214704
0.648251 0.420393 0.217715
0.658555 0.422710 0.220549
0.668878 0.425131 0.223539
0.679104 0.427500 0.226456
0.689357 0.429796 0.229290
0.182990 0.416679 0.182990
0.207662 0.415981 0.183129
0.232611 0.415139 0.183112
0.257618 0.414466 0.183237
0.282548 0.413424 0.183014
0.307252 0.412525 0.182901
0.330008 0.412241 0.183381
0.349947 0.412530 0.184408
0.368391 0.413336 0.185931
0.385689 0.414157 0.187429
0.402443 0.415167 0.189138
0.418970 0.416296 0.190941
0.435382 0.417350 0.192670
0.452057 0.418347 0.194334
0.469028 0.419062 0.195739
0.486396 0.419738 0.197081
0.503873 0.420384 0.198382
0.521098 0.421076 0.199738
0.537761 0.421843 0.201174
0.553448 0.422791 0.202750
0.568082 0.424107 0.204721
0.581525 0.425679 0.206898
0.594096 0.427550 0.209373
0.605959 0.429476 0.211933
0.617378 0.431592 0.214634
0.628367 0.433753 0.217405
0.638969 0.435957 0.220199
0.649463 0.438386 0.223245
0.659697 0.440675 0.226122
0.670005 0.443163 0.229220
0.680160 0.445465 0.232132
0.690424 0.447834 0.235081
0.190064 0.436808 0.190064
0.214421 0.435967 0.190103
0.238934 0.434944 0.189889
0.263569 0.434088 0.189897
0.288148 0.432919 0.189565
0.312434 0.431866 0.189337
0.334852 0.431433 0.189676
0.354477 0.431535 0.190584
0.372636 0.432211 0.191993
0.389685 0.432932 0.193403
0.406255 0.433833 0.195048
0.422561 0.434864 0.196787
0.438743 0.435798 0.198427
0.455208 0.436696 0.200038
0.471967 0.437351 0.201365
0.489145 0.437947 0.202695
0.506423 0.438528 0.203972
0.523515 0.439153 0.205309
0.540003 0.439899 0.206739
0.555533 0.440786 0.208313
0.570038 0.442099 0.210300
0.583331 0.443606 0.212446
0.595831 0.445454 0.214960
0.607611 0.447368 0.217537
0.619023 0.449497 0.220328
0.629889 0.451645 0.223100
0.640412 0.453820 0.225900
0.650865 0.456237 0.228989
0.661061 0.458554 0.231912
0.671372 0.461037 0.235072
0.681478 0.463369 0.238019
0.691831 0.465889 0.241221
0.196289 0.456169 0.196289
0.220381 0.455299 0.196320
0.244551 0.454101 0.196002
0.268770 0.453043 0.195829
0.293036 0.451805 0.195428
0.317022 0.450598 0.195066
0.339136 0.450082 0.195407
0.358505 0.450129 0.196237
0.376442 0.450689 0.197576
0.393278 0.451310 0.198937
0.409623 0.452119 0.200500
0.425740 0.453061 0.202200
0.441746 0.453925 0.203804
0.458053 0.454751 0.205361
0.474641 0.455372 0.206708
0.491672 0.455951 0.208054
0.508777 0.456487 0.209310
0.525671 0.457072 0.210648
0.542050 0.457782 0.212109
0.557500 0.458710 0.213759
0.571857 0.459932 0.215696
0.585051 0.461459 0.217909
0.597491 0.463276 0.220446
0.609202 0.465203 0.223060
0.620557 0.467348 0.225928
0.631400 0.469501 0.228730
0.641968 0.471782 0.231709
0.652315 0.474149 0.234767
0.662472 0.476485 0.237757
0.672746 0.479015 0.241024
0.682890 0.481391 0.244069
0.693232 0.483987 0.247378
0.201769 0.475110 0.201769
0.225512 0.474128 0.201687
0.249368 0.472834 0.201290
0.273255 0.471663 0.201018
0.297258 0.470347 0.200601
0.320934 0.469053 0.200192
0.342804 0.468462 0.200478
0.361942 0.468412 0.201262
0.379658 0.468890 0.202560
0.396341 0.469455 0.203905
0.412517 0.470218 0.205441
0.428477 0.471132 0.207135
0.444343 0.471934 0.208741
0.460485 0.472739 0.210312
0.476984 0.473350 0.211715
0.493811 0.473857 0.213023
0.510786 0.474393 0.214311
0.527562 0.474978 0.215679
0.543814 0.475697 0.217178
0.559221 0.476659 0.218942
0.573490 0.477916 0.220968
0.586636 0.479442 0.223237
0.598948 0.481240 0.225766
0.610629 0.483178 0.228448
0.621947 0.485354 0.231378
0.632766 0.487538 0.234278
0.643413 0.489945 0.237454
0.653707 0.492294 0.240518
0.663909 0.494759 0.243722
0.674141 0.497268 0.247003
0.684239 0.499702 0.250183
0.694606 0.502379 0.253664
0.206493 0.493644 0.206493
0.229969 0.492570 0.206379
0.253525 0.491180 0.205919
0.277149 0.489950 0.205634
0.300866 0.488550 0.205165
0.324305 0.487240 0.204768
0.345954 0.486576 0.205027
0.364916 0.486478 0.205799
0.382465 0.486924 0.207097
0.398969 0.487450 0.208436
0.415002 0.488180 0.209978
0.430821 0.489047 0.211682
0.446567 0.489858 0.213308
0.462610 0.490632 0.214943
0.478995 0.491283 0.216388
0.495778 0.491851 0.217803
0.512548 0.492270 0.219059
0.529214 0.492902 0.220498
0.545376 0.493628 0.222076
0.560728 0.494637 0.223924
0.574917 0.495916 0.226007
0.588080 0.497546 0.228442
0.600341 0.499355 0.231058
0.611936 0.501306 0.233769
0.623262 0.503506 0.236806
0.634075 0.505764 0.239849
0.644762 0.508247 0.243167
0.655041 0.510674 0.246366
0.665418 0.513349 0.249875
0.675555 0.515826 0.253201
0.685724 0.518425 0.256608
0.696034 0.521077 0.260140
0.210788 0.511801 0.210788
0.234028 0.510649 0.210659
0.257348 0.509228 0.210200
0.280747 0.507948 0.209912
0.304233 0.506536 0.209471
0.327422 0.505189 0.209035
0.348894 0.504497 0.209327
0.367663 0.504379 0.210125
0.385085 0.504797 0.211462
0.401496 0.505351 0.212847
0.417422 0.506053 0.214428
0.433100 0.506878 0.216138
0.448730 0.507682 0.217823
0.464675 0.508476 0.219499
0.480973 0.509159 0.221037
0.497656 0.509736 0.222516
0.514415 0.510272 0.223920
0.530963 0.510881 0.225422
0.547017 0.511632 0.227049
0.562291 0.512694 0.229013
0.576457 0.514005 0.231200
0.589620 0.515729 0.233777
0.601860 0.517604 0.236522
0.613559 0.519701 0.239496
0.624820 0.521926 0.242586
0.635641 0.524265 0.245766
0.646326 0.526825 0.249236
0.656647 0.529277 0.252616
0.667000 0.532030 0.256258
0.677122 0.534572 0.259712
0.687413 0.537338 0.263411
0.697631 0.539946 0.266948
0.215116 0.529564 0.215116
0.238133 0.528394 0.214957
0.261236 0.526915 0.214546
0.284471 0.525692 0.214319
0.307704 0.524213 0.213855
0.330740 0.522877 0.213522
0.351979 0.522171 0.213789
0.370635 0.522054 0.214650
0.387935 0.522478 0.216015
0.404242 0.523036 0.217479
0.420136 0.523802 0.219187
0.435676 0.524609 0.220915
0.451232 0.525446 0.222669
0.467092 0.526261 0.224404
0.483332 0.526964 0.226035
0.499943 0.527604 0.227633
0.516649 0.528202 0.229178
0.533129 0.528895 0.230809
0.549191 0.529742 0.232620
0.564367 0.530832 0.234629
0.578517 0.532239 0.236962
0.591670 0.534001 0.239694
0.603933 0.535962 0.242617
0.615690 0.538216 0.245824
0.626919 0.540475 0.249031
0.637821 0.542940 0.252469
0.648390 0.545471 0.255958
0.658770 0.548092 0.259539
0.669048 0.550778 0.263228
0.679191 0.553389 0.266806
0.689498 0.556233 0.270702
0.699622 0.558843 0.274320
0.219736 0.546931 0.219736
0.242567 0.545736 0.219638
0.265483 0.544300 0.219248
0.288561 0.543066 0.219083
0.311616 0.541616 0.218688
0.334535 0.540323 0.218455
0.355577 0.539598 0.218753
0.374103 0.539490 0.219652
0.391304 0.539960 0.221100
0.407567 0.540548 0.222665
0.423401 0.541370 0.224483
0.438882 0.542214 0.226293
0.454413 0.543108 0.228172
0.470143 0.543923 0.229954
0.486333 0.544697 0.231706
0.502904 0.545414 0.233444
0.519594 0.546113 0.235184
0.536079 0.546907 0.236982
0.552119 0.547885 0.238980
0.567293 0.549061 0.241199
0.581358 0.550502 0.243627
0.594461 0.552332 0.246522
0.606746 0.554369 0.249583
0.618485 0.556682 0.252927
0.629694 0.558983 0.256296
0.640672 0.561580 0.259934
0.651196 0.564092 0.263521
0.661619 0.566834 0.267320
0.671784 0.569472 0.271001
0.682008 0.572226 0.274825
0.692121 0.574926 0.278627
0.702249 0.577617 0.282391
0.225140 0.563907 0.225140
0.247790 0.562686 0.225080
0.270542 0.561255 0.224736
0.293448 0.560036 0.224623
0.316373 0.558643 0.224327
0.339203 0.557424 0.224254
0.360058 0.556701 0.224574
0.378529 0.556681 0.225591
0.395618 0.557140 0.227096
0.411810 0.557782 0.228779
0.427611 0.558671 0.230717
0.443081 0.559590 0.232665
0.458603 0.560602 0.234714
0.474350 0.561509 0.236692
0.490511 0.562344 0.238580
0.506994 0.563120 0.240436
0.523648 0.563914 0.242317
0.540069 0.564771 0.244306
0.556055 0.565828 0.246480
0.571202 0.567098 0.248843
0.585354 0.568691 0.251564
0.598356 0.570540 0.254485
0.610662 0.572693 0.257786
0.622292 0.574951 0.261152
0.633477 0.577304 0.264606
0.644394 0.579918 0.268333
0.654877 0.582448 0.271997
0.665287 0.585201 0.275928
0.675369 0.587834 0.279673
0.685604 0.590646 0.283676
0.695582 0.593280 0.287456
0.705750 0.596045 0.291417
0.231557 0.580354 0.231557
0.254021 0.579180 0.231503
0.276653 0.577777 0.231272
0.299455 0.576626 0.231282
0.322227 0.575294 0.231107
0.344982 0.574208 0.231167
0.365710 0.573503 0.231561
0.384155 0.573576 0.232761
0.401172 0.574084 0.234362
0.417345 0.574825 0.236186
0.433105 0.575766 0.238259
0.448567 0.576797 0.240375
0.464110 0.577879 0.242602
0.479819 0.578885 0.244733
0.496001 0.579839 0.246836
0.512435 0.580730 0.248897
0.529020 0.581547 0.250891
0.545367 0.582472 0.252995
0.561270 0.583584 0.255299
0.576343 0.584897 0.257800
0.590439 0.586555 0.260654
0.603416 0.588469 0.263725
0.615685 0.590644 0.267129
0.627224 0.592922 0.270547
0.638439 0.595365 0.274209
0.649176 0.597857 0.277893
0.659676 0.600483 0.281743
0.669930 0.603117 0.285603
0.679923 0.605727 0.289388
0.690056 0.608547 0.293424
0.699928 0.611091 0.297228
0.710045 0.613879 0.301244
0.239219 0.596541 0.239219
0.261436 0.595301 0.239166
0.284000 0.594044 0.239050
0.306629 0.592917 0.239161
0.329337 0.591635 0.239053
0.351993 0.590634 0.239287
0.372688 0.590058 0.239890
0.391157 0.590265 0.241292
0.408132 0.590849 0.243048
0.424353 0.591711 0.245089
0.439994 0.592657 0.247207
0.455433 0.593747 0.249467
0.470923 0.594922 0.251860
0.486609 0.596022 0.254155
0.502732 0.597056 0.256438
0.519167 0.598008 0.258616
0.535674 0.598929 0.260803
0.551964 0.599917 0.263067
0.567740 0.601039 0.265424
0.582803 0.602464 0.268106
0.596704 0.604065 0.270970
0.609580 0.605941 0.274074
0.621731 0.608152 0.277569
0.633213 0.610404 0.281068
0.644386 0.612905 0.284846
0.655036 0.615338 0.288530
0.665446 0.618009 0.292477
0.675521 0.620532 0.296248
0.685511 0.623215 0.300215
0.695393 0.625781 0.304062
0.705298 0.628477 0.308011
0.715147 0.631010 0.311825
0.247805 0.612404 0.247805
0.269923 0.611190 0.247843
0.292563 0.610149 0.248034
0.314995 0.609034 0.248154
0.337691 0.607928 0.248342
0.360236 0.606983 0.248664
0.380853 0.606502 0.249434
0.399311 0.606812 0.251045
0.416219 0.607431 0.252881
0.432464 0.608422 0.255132
0.448090 0.609479 0.257459
0.463531 0.610655 0.259900
0.478905 0.611834 0.262352
0.494528 0.612989 0.264761
0.510525 0.614046 0.267115
0.526837 0.615020 0.269400
0.543243 0.615982 0.271685
0.559431 0.617026 0.274057
0.575118 0.618192 0.276530
0.590048 0.619610 0.279291
0.603862 0.621219 0.282245
0.616704 0.623208 0.285520
0.628641 0.625261 0.288938
0.640120 0.627611 0.292601
0.651021 0.629909 0.296199
0.661545 0.632323 0.299914
0.671842 0.634889 0.303787
0.681781 0.637383 0.307580
0.691718 0.640066 0.311570
0.701434 0.642525 0.315300
0.711235 0.645192 0.319286
0.720847 0.647572 0.322920
0.257376 0.628157 0.257376
0.279449 0.627058 0.257582
0.302075 0.626139 0.258025
0.324437 0.625086 0.258262
0.347145 0.624160 0.258712
0.369495 0.623225 0.259126
0.390136 0.622901 0.260124
0.408408 0.623208 0.261761
0.425275 0.623907 0.263765
0.441449 0.624967 0.266177
0.457040 0.626051 0.268576
0.472445 0.627306 0.271198
0.487748 0.628553 0.273737
0.503289 0.629730 0.276276
0.519196 0.630831 0.278744
0.535370 0.631812 0.281086
0.551604 0.632746 0.283418
0.567614 0.633791 0.285845
0.583150 0.634927 0.288343
0.597893 0.636324 0.291140
0.611574 0.637918 0.294120
0.624252 0.639843 0.297421
0.636106 0.641886 0.300803
0.647416 0.644171 0.304480
0.658207 0.646435 0.308085
0.668679 0.648911 0.311877
0.678718 0.651283 0.315602
0.688660 0.653824 0.319458
0.698262 0.656238 0.323177
0.707955 0.658717 0.326953
0.717437 0.661115 0.330653
0.726889 0.663435 0.334230
0.267874 0.643849 0.267874
0.289836 0.642829 0.268220
0.312428 0.642003 0.268813
0.334670 0.641022 0.269224
0.357357 0.640242 0.269867
0.379578 0.639383 0.270424
0.400185 0.639193 0.271668
0.418314 0.639511 0.273350
0.435150 0.640280 0.275510
0.451178 0.641329 0.277943
0.466707 0.642519 0.280493
0.481927 0.643716 0.283104
0.497126 0.644944 0.285724
0.512579 0.646185 0.288385
0.528339 0.647277 0.290909
0.544404 0.648278 0.293349
0.560481 0.649245 0.295731
0.576290 0.650224 0.298128
0.591698 0.651388 0.300734
0.606172 0.652663 0.303441
0.619728 0.654264 0.306450
0.632220 0.656084 0.309671
0.643864 0.658065 0.313009
0.655028 0.660277 0.316601
0.665619 0.662433 0.320124
0.675929 0.664783 0.323848
0.685817 0.667071 0.327444
0.695596 0.669536 0.331217
0.705033 0.671820 0.334836
0.714589 0.674268 0.338609
0.723867 0.676522 0.342115
0.733285 0.678847 0.345727
0.279076 0.659492 0.279076
0.301243 0.658769 0.279848
0.323507 0.657852 0.280365
0.345635 0.656958 0.280944
0.368166 0.656226 0.281698
0.390245 0.655413 0.282334
0.410730 0.655269 0.283676
0.428772 0.655639 0.285474
0.445542 0.656498 0.287806
0.461414 0.657527 0.290260
0.476849 0.658731 0.292946
0.491937 0.659917 0.295601
0.507011 0.661167 0.298265
0.522306 0.662358 0.300959
0.537862 0.663393 0.303450
0.553655 0.664306 0.305827
0.569540 0.665254 0.308217
0.585196 0.666228 0.310658
0.600378 0.667348 0.313233
0.614689 0.668604 0.315956
0.628067 0.670157 0.318913
0.640327 0.671849 0.322010
0.651860 0.673806 0.325374
0.662712 0.675803 0.328701
0.673281 0.678021 0.332296
0.683294 0.680144 0.335785
0.693084 0.682422 0.339387
0.702584 0.684650 0.342930
0.711966 0.686963 0.346549
0.721162 0.689113 0.349928
0.730242 0.691212 0.353266
0.739497 0.693399 0.356724
0.290976 0.675177 0.290976
0.313043 0.674522 0.291865
0.335106 0.673632 0.292491
0.357269 0.672942 0.293293
0.379483 0.672102 0.294000
0.401507 0.671430 0.294892
0.421682 0.671188 0.296162
0.439577 0.671572 0.298037
0.456217 0.672453 0.300460
0.471918 0.673426 0.302910
0.487240 0.674632 0.305639
0.502135 0.675793 0.308278
0.517040 0.677018 0.311002
0.532107 0.678147 0.313629
0.547524 0.679198 0.316168
0.563160 0.680128 0.318592
0.578843 0.680992 0.320931
0.594266 0.681910 0.323374
0.609142 0.682898 0.325765
0.623193 0.684047 0.328347
0.636318 0.685452 0.331177
0.648361 0.687098 0.334173
0.659732 0.688963 0.337485
0.670423 0.690894 0.340742
0.680767 0.692973 0.344162
0.690578 0.694967 0.347468
0.700156 0.697104 0.350924
0.709392 0.699118 0.354200
0.718614 0.701318 0.357669
0.727576 0.703319 0.360883
0.736683 0.705474 0.364279
0.745556 0.707363 0.367353
0.303317 0.690697 0.303317
0.325194 0.690072 0.304243
0.347129 0.689212 0.304959
0.369155 0.688600 0.305957
0.391134 0.687747 0.306690
0.413018 0.687122 0.307714
0.432961 0.686862 0.309005
0.450753 0.687330 0.311020
0.467105 0.688079 0.313303
0.482693 0.689108 0.315860
0.497679 0.690135 0.318418
0.512429 0.691309 0.321093
0.527158 0.692460 0.323777
0.541982 0.693529 0.326312
0.557161 0.694509 0.328811
0.572537 0.695334 0.331110
0.587937 0.696118 0.333395
