Postproduction/IWLTBAP - Humble/LUTs by IWLTBAP (CUBE)/UTILITY/Generic Rec.709 to LOG/U-9998-RTL.cube
# Copyright: (C) Copyright 2010-2018 by IWLTBAP SAS
# Cannot be resold, shared or otherwise redistributed
# Website: https://luts.iwltbap.com
TITLE "IWLTBAP 9998 (Utility Rec.709 to LOG)"
LUT_3D_SIZE 8
DOMAIN_MIN 0.000000 0.000000 0.000000
DOMAIN_MAX 0.903226 0.903226 0.903226
0.058441 0.058441 0.058441
0.196633 0.081337 0.081340
0.309815 0.098439 0.098439
0.398417 0.118012 0.118012
0.487514 0.136020 0.136020
0.570637 0.154671 0.154671
0.635269 0.176725 0.176725
0.689169 0.197869 0.197869
0.109979 0.218601 0.109979
0.229049 0.227204 0.120557
0.332952 0.239200 0.134337
0.415191 0.255150 0.151876
0.496059 0.267404 0.165674
0.569311 0.277585 0.177213
0.624358 0.289548 0.190355
0.670533 0.301716 0.203654
0.154313 0.346183 0.154313
0.262454 0.348394 0.159663
0.353845 0.351553 0.165545
0.424805 0.358102 0.174455
0.496426 0.362796 0.181437
0.563204 0.367804 0.188607
0.614135 0.376136 0.198951
0.657591 0.385869 0.210597
0.190064 0.436808 0.190064
0.288148 0.432919 0.189565
0.372636 0.432211 0.191993
0.438743 0.435798 0.198427
0.506423 0.438528 0.203972
0.570038 0.442099 0.210300
0.619023 0.449497 0.220328
0.661061 0.458554 0.231912
0.210788 0.511801 0.210788
0.304233 0.506536 0.209471
0.385085 0.504797 0.211462
0.448730 0.507682 0.217823
0.514415 0.510272 0.223920
0.576457 0.514005 0.231200
0.624820 0.521926 0.242586
0.667000 0.532030 0.256258
0.231557 0.580354 0.231557
0.322227 0.575294 0.231107
0.401172 0.574084 0.234362
0.464110 0.577879 0.242602
0.529020 0.581547 0.250891
0.590439 0.586555 0.260654
0.638439 0.595365 0.274209
0.679923 0.605727 0.289388
0.267874 0.643849 0.267874
0.357357 0.640242 0.269867
0.435150 0.640280 0.275510
0.497126 0.644944 0.285724
0.560481 0.649245 0.295731
0.619728 0.654264 0.306450
0.665619 0.662433 0.320124
0.705033 0.671820 0.334836
0.316186 0.706202 0.316186
0.403000 0.703142 0.319577
0.477974 0.703352 0.326150
0.537208 0.707538 0.336455
0.596948 0.710824 0.345668
0.652431 0.714515 0.354934
0.695091 0.720993 0.366615
0.731149 0.728094 0.378481
0.070969 0.070969 0.186999
0.202332 0.087804 0.201595
0.313759 0.103899 0.215709
0.401456 0.123013 0.233147
0.490036 0.141102 0.249470
0.572579 0.159637 0.266268
0.636464 0.181263 0.286250
0.689284 0.201381 0.304862
0.115207 0.223099 0.224268
0.233453 0.231635 0.232796
0.336549 0.243486 0.244623
0.417527 0.258599 0.259707
0.497240 0.270127 0.271235
0.569169 0.279186 0.280278
0.623649 0.290773 0.291838
0.669441 0.302745 0.303760
0.158063 0.348677 0.261171
0.264856 0.350269 0.264181
0.354922 0.352660 0.267827
0.425223 0.358921 0.275184
0.496299 0.363425 0.280744
0.562619 0.368304 0.286619
0.613285 0.376600 0.295876
0.656466 0.386242 0.306411
0.191768 0.437143 0.290509
0.289078 0.433071 0.288455
0.373051 0.432313 0.289552
0.438795 0.435869 0.294844
0.506192 0.438648 0.299313
0.569576 0.442332 0.304674
0.618360 0.449791 0.313733
0.660391 0.459035 0.324537
0.212235 0.511589 0.307129
0.305096 0.506305 0.304519
0.385627 0.504699 0.305430
0.449178 0.507815 0.310968
0.514642 0.510514 0.316122
0.576596 0.514512 0.322581
0.624930 0.522654 0.333167
0.667057 0.532952 0.345990
0.233313 0.580183 0.324597
0.323601 0.575259 0.323020
0.402398 0.574313 0.325454
0.465256 0.578330 0.332842
0.530109 0.582314 0.340311
0.591368 0.587500 0.349110
0.639245 0.596465 0.361652
0.680717 0.607077 0.375912
0.270293 0.643951 0.357963
0.359610 0.640693 0.359036
0.437232 0.641001 0.363757
0.499081 0.645837 0.372943
0.562042 0.650149 0.381666
0.621000 0.655281 0.391178
0.666638 0.663468 0.403615
0.705737 0.672795 0.416994
0.319302 0.706640 0.402992
0.405796 0.703775 0.405252
0.480329 0.704039 0.410523
0.539010 0.708130 0.419359
0.598439 0.711499 0.427367
0.653471 0.715123 0.435325
0.695759 0.721487 0.445661
0.731451 0.728395 0.456283
0.080157 0.080157 0.295901
0.208688 0.094888 0.306287
0.318600 0.110102 0.317676
0.405595 0.129048 0.333226
0.493627 0.147086 0.347799
0.575527 0.165517 0.362823
0.638191 0.186013 0.380226
0.690213 0.205379 0.396763
0.121323 0.228532 0.323621
0.238879 0.237065 0.330315
0.341059 0.248638 0.340193
0.420552 0.262636 0.352686
0.499063 0.273285 0.361953
0.569997 0.281669 0.369136
0.623858 0.292791 0.379172
0.669377 0.304661 0.389995
0.162451 0.351940 0.353395
0.267648 0.352592 0.354002
0.356836 0.354603 0.356012
0.426461 0.360510 0.361907
0.497040 0.364877 0.366245
0.562940 0.369633 0.371001
0.613322 0.377883 0.379235
0.656389 0.387576 0.388894
0.194203 0.438264 0.376932
0.290845 0.434101 0.373574
0.374340 0.433293 0.373561
0.439836 0.436928 0.377916
0.506884 0.439685 0.381404
0.569973 0.443406 0.385809
0.618686 0.451005 0.394107
0.660742 0.460486 0.404256
0.214404 0.512233 0.389906
0.306811 0.506988 0.386254
0.387030 0.505483 0.386277
0.450467 0.508766 0.391035
0.515774 0.511674 0.395424
0.577657 0.515933 0.401206
0.625923 0.524254 0.411016
0.668039 0.534744 0.423077
0.235745 0.580786 0.404412
0.325943 0.576197 0.402173
0.404523 0.575453 0.403810
0.467352 0.579753 0.410490
0.532038 0.583905 0.417124
0.593114 0.589296 0.425023
0.640863 0.598368 0.436679
0.682107 0.608997 0.449854
0.273646 0.645040 0.435409
0.362652 0.641950 0.435572
0.440059 0.642478 0.439338
0.501673 0.647426 0.447575
0.564333 0.651820 0.455258
0.622937 0.656970 0.463657
0.668275 0.665130 0.474924
0.707182 0.674427 0.487199
0.323124 0.707815 0.477247
0.409167 0.705079 0.478451
0.483289 0.705444 0.482623
0.541647 0.709536 0.490349
0.600526 0.712814 0.497102
0.655087 0.716339 0.503868
0.696922 0.722479 0.512995
0.732389 0.729375 0.522700
0.089774 0.089774 0.379222
0.216171 0.102995 0.386566
0.324797 0.117516 0.395896
0.411303 0.136505 0.410108
0.498673 0.154437 0.423221
0.579850 0.172536 0.436681
0.641283 0.191891 0.451894
0.692205 0.210066 0.466363
0.128779 0.235391 0.399931
0.245637 0.243810 0.405176
0.346644 0.254799 0.413200
0.424804 0.267848 0.423686
0.501849 0.277308 0.430848
0.572143 0.285336 0.436769
0.625395 0.296005 0.445550
0.670528 0.307633 0.455373
0.167837 0.356316 0.423697
0.271504 0.356011 0.422341
0.359897 0.357670 0.423085
0.428959 0.363333 0.427885
0.499045 0.367534 0.431271
0.564531 0.372177 0.435122
0.614688 0.380381 0.442606
0.657537 0.390057 0.451540
0.197727 0.440637 0.442572
0.293895 0.436433 0.438350
0.376827 0.435506 0.437377
0.442012 0.439132 0.440983
0.508801 0.441934 0.443779
0.571693 0.445733 0.447542
0.620226 0.453377 0.455171
0.662243 0.462988 0.464757
0.217621 0.514060 0.452727
0.309806 0.509021 0.448485
0.389653 0.507516 0.447759
0.452882 0.510919 0.451905
0.518123 0.514042 0.455799
0.579902 0.518504 0.461016
0.628234 0.527144 0.470449
0.670240 0.537749 0.481849
0.239255 0.582640 0.465090
0.329287 0.578289 0.462343
0.407892 0.577870 0.463562
0.470577 0.582347 0.469648
0.535131 0.586697 0.475678
0.596001 0.592184 0.482898
0.643517 0.601299 0.493733
0.684585 0.611935 0.506101
0.278124 0.647406 0.494459
0.366772 0.644427 0.493844
0.443929 0.645084 0.496940
0.505305 0.650123 0.504398
0.567613 0.654530 0.511226
0.625832 0.659661 0.518736
0.670892 0.667756 0.529115
0.709403 0.676881 0.540370
0.327850 0.710072 0.533686
0.413466 0.707451 0.534079
0.487055 0.707780 0.537310
0.545034 0.711862 0.544179
0.603383 0.714976 0.549923
0.657593 0.718474 0.555876
0.698917 0.724320 0.563985
0.734072 0.731070 0.572835
0.098497 0.098497 0.465174
0.223136 0.110587 0.469880
0.330686 0.124670 0.477280
0.416733 0.143711 0.490072
0.503494 0.161508 0.501648
0.583623 0.178959 0.513180
0.644094 0.197502 0.526457
0.693664 0.214196 0.538593
0.135973 0.241987 0.479323
0.252064 0.250254 0.482987
0.351593 0.260316 0.488838
0.428672 0.272617 0.497483
0.504285 0.280959 0.502547
0.573909 0.288615 0.507193
0.626677 0.298983 0.514830
0.671470 0.310381 0.523651
0.172714 0.360188 0.496729
0.275058 0.359127 0.493602
0.362742 0.360499 0.493127
0.431203 0.365908 0.496783
0.500885 0.370005 0.499225
0.565932 0.374519 0.502136
0.615807 0.382654 0.508776
0.658543 0.392379 0.517024
0.201006 0.442731 0.511095
0.296680 0.438546 0.505981
0.379167 0.437530 0.504120
0.444008 0.441133 0.506894
0.510603 0.444076 0.509018
0.573259 0.447939 0.512075
0.621638 0.455642 0.518996
0.663626 0.465401 0.527990
0.220675 0.515723 0.518380
0.312577 0.510811 0.513463
0.392161 0.509437 0.512052
0.455246 0.512975 0.515546
0.520344 0.516288 0.518807
0.582087 0.521033 0.523528
0.630360 0.529855 0.532329
0.672413 0.540735 0.543151
0.242656 0.584366 0.528507
0.332582 0.580276 0.525196
0.411076 0.580108 0.525815
0.473767 0.584859 0.531346
0.538095 0.589343 0.536638
0.598811 0.595025 0.543169
0.646170 0.604237 0.553207
0.686934 0.614769 0.564576
0.282446 0.649581 0.555887
0.370969 0.646884 0.554690
0.447750 0.647606 0.556909
0.508802 0.652673 0.563464
0.570821 0.657147 0.569441
0.628603 0.662209 0.575949
0.673321 0.670215 0.585328
0.711458 0.679127 0.595560
0.332635 0.712328 0.592465
0.417649 0.709687 0.591881
0.490709 0.709960 0.594143
0.548286 0.714035 0.600088
0.606089 0.717008 0.604799
0.659855 0.720354 0.609802
0.700771 0.726035 0.616987
0.735538 0.732521 0.624911
0.106860 0.106860 0.546333
0.230073 0.118169 0.548841
0.336894 0.132113 0.554695
0.422337 0.151053 0.565964
0.508462 0.168747 0.576093
0.587243 0.185070 0.585422
0.646769 0.202804 0.596910
0.695294 0.218387 0.607137
0.143403 0.248817 0.554776
0.258536 0.256738 0.556752
0.356439 0.265692 0.560442
0.432298 0.277130 0.567227
0.506860 0.284699 0.570664
0.575801 0.291967 0.574070
0.628133 0.302079 0.580660
0.672594 0.313296 0.588516
0.177281 0.363797 0.565758
0.278693 0.362325 0.561263
0.365605 0.363395 0.559595
0.433549 0.368568 0.562227
0.502837 0.372592 0.563800
0.567587 0.377112 0.565933
0.617169 0.385133 0.571719
0.659722 0.394859 0.579234
0.204376 0.444997 0.576228
0.299601 0.440783 0.570270
0.381664 0.439771 0.567588
0.446204 0.443349 0.569595
0.512551 0.446349 0.571012
0.575035 0.450338 0.573458
0.623403 0.458245 0.579853
0.665254 0.468059 0.588158
0.223896 0.517560 0.580814
0.315493 0.512788 0.575217
0.394950 0.511633 0.573261
0.457837 0.515286 0.576112
0.522858 0.518833 0.578860
0.584464 0.523758 0.582946
0.632711 0.532806 0.591145
0.674685 0.543817 0.601292
0.246406 0.586401 0.588892
0.336138 0.582533 0.585005
0.414524 0.582631 0.585058
0.477081 0.587531 0.589926
0.541306 0.592249 0.594599
0.601764 0.598011 0.600315
0.648896 0.607229 0.609511
0.689559 0.617886 0.620134
0.286929 0.651937 0.614159
0.375193 0.649402 0.612260
0.451788 0.650323 0.613815
0.512495 0.655407 0.619487
0.574099 0.659866 0.624551
0.631539 0.664901 0.630185
0.675959 0.672878 0.638702
0.713743 0.681625 0.647963
0.337502 0.714687 0.648090
0.422066 0.712150 0.646718
0.494536 0.712369 0.648016
0.551596 0.716282 0.652965
0.608978 0.719211 0.656838
0.662179 0.722346 0.660887
0.702840 0.727952 0.667321
0.737160 0.734195 0.674327
0.116038 0.116038 0.606581
0.238026 0.126670 0.607480
0.344257 0.140683 0.612305
0.429232 0.159576 0.622549
0.514470 0.176809 0.631308
0.591835 0.192002 0.638846
0.650195 0.208568 0.648610
0.697988 0.223474 0.657644
0.151819 0.256659 0.610923
0.265746 0.263941 0.611406
0.362214 0.271993 0.613424
0.436630 0.282220 0.618502
0.510377 0.289291 0.620859
0.578703 0.296203 0.623315
0.630605 0.306050 0.629093
0.674747 0.317121 0.636260
0.182673 0.368331 0.616648
0.283149 0.366412 0.611108
0.369533 0.367337 0.608671
0.436947 0.372262 0.610504
0.505772 0.376126 0.611345
0.570208 0.380567 0.612885
0.619546 0.388570 0.618088
0.661942 0.398285 0.625096
0.208665 0.448265 0.624212
0.303398 0.443980 0.617587
0.385154 0.443002 0.614374
0.449435 0.446579 0.615834
0.515473 0.449562 0.616714
0.577811 0.453690 0.618723
0.626105 0.461753 0.624723
0.667968 0.471773 0.632691
0.228063 0.520462 0.626829
0.319341 0.515744 0.620730
0.398595 0.514767 0.618406
0.461419 0.518593 0.620887
0.526350 0.522340 0.623246
0.587918 0.527535 0.627005
0.635993 0.536652 0.634682
0.677886 0.547781 0.644325
0.251146 0.589494 0.633583
0.340701 0.585835 0.629298
0.418884 0.586073 0.628887
0.481344 0.591169 0.633338
0.545327 0.595966 0.637467
0.605569 0.601823 0.642648
0.652442 0.611048 0.651201
0.692858 0.621647 0.661152
0.292233 0.655202 0.657295
0.380280 0.652836 0.654916
0.456508 0.653823 0.655849
0.516928 0.658930 0.660925
0.578176 0.663384 0.665348
0.635193 0.668362 0.670272
0.679163 0.676121 0.677987
0.716721 0.684790 0.686648
0.342966 0.717813 0.689169
0.426949 0.715263 0.687082
0.499048 0.715524 0.687829
0.555521 0.719263 0.692006
0.612500 0.722097 0.695244
0.665130 0.724976 0.698487
0.705426 0.730412 0.704296
0.739331 0.736372 0.710585
0.125510 0.125510 0.656843
0.246477 0.135720 0.656519
0.352146 0.149701 0.660463
0.436497 0.168446 0.669760
0.520584 0.184911 0.677157
0.596936 0.199354 0.683379
0.653815 0.214387 0.691373
0.701122 0.228953 0.699591
0.160672 0.264957 0.657850
0.272960 0.271178 0.656710
0.368226 0.278451 0.657451
0.441228 0.287566 0.661025
0.514318 0.294279 0.662545
0.582055 0.300847 0.664255
0.633636 0.310540 0.669409
0.677378 0.321309 0.675887
0.188318 0.373139 0.658897
0.287958 0.370847 0.652485
0.373748 0.371547 0.649354
0.440727 0.376318 0.650562
0.509122 0.380044 0.650842
0.573275 0.384480 0.651907
0.622501 0.392577 0.656750
0.664643 0.402182 0.663222
0.213380 0.451945 0.664045
0.307620 0.447607 0.656891
0.389056 0.446657 0.653267
0.453076 0.450234 0.654268
0.518938 0.453318 0.654794
0.581040 0.457486 0.656406
0.629269 0.465692 0.662085
0.671199 0.475994 0.669828
0.232744 0.523877 0.665212
0.323641 0.519183 0.658662
0.402689 0.518329 0.655966
0.465490 0.522373 0.658228
0.530345 0.526325 0.660292
0.591762 0.531709 0.663724
0.639841 0.541047 0.671111
0.681491 0.552139 0.680199
0.256178 0.592986 0.670748
0.345741 0.589630 0.666276
0.423772 0.590063 0.665554
0.486039 0.595256 0.669567
0.549884 0.600197 0.673319
0.609798 0.606075 0.677987
0.656358 0.615234 0.685923
0.696511 0.625729 0.695283
0.298218 0.659115 0.693437
0.385701 0.656668 0.690423
0.461595 0.657718 0.690908
0.521706 0.662849 0.695475
0.582483 0.667190 0.699253
0.639130 0.672087 0.703635
0.682684 0.679638 0.710691
0.719927 0.688149 0.718744
0.348686 0.721317 0.723367
0.432140 0.718732 0.720740
0.503765 0.718977 0.720944
0.559667 0.722522 0.724458
0.616189 0.725185 0.727092
0.668360 0.727899 0.729755
0.708197 0.733089 0.734932
0.741842 0.738859 0.740713
