Postproduction/IWLTBAP - Humble/LUTs by IWLTBAP (3DL)/BONUS/Arapaho/IWLTBAP Arapaho - LOG.3dl
# Copyright: (C) Copyright 2016 by IWLTBAP for SmallHD
# Cannot be resold, shared or otherwise redistributed
# Website: http://luts.iwltbap.com
# IWLTBAP Arapaho (LOG)
0 64 128 192 256 320 384 448 512 576 640 704 768 832 896 960 1023
0 0 0
0 0 0
0 0 73
0 65 223
0 166 372
0 290 522
0 441 709
0 573 884
0 679 1027
0 800 1183
0 911 1329
0 984 1424
0 998 1442
0 998 1442
0 998 1442
0 998 1442
0 998 1442
0 2 0
0 2 2
0 5 52
0 49 191
0 144 343
0 265 494
0 406 665
0 548 851
0 658 998
0 766 1139
0 885 1295
0 977 1414
0 998 1442
0 998 1442
0 998 1442
0 998 1442
0 998 1442
77 123 0
64 107 0
0 96 124
0 169 320
0 243 466
0 345 590
0 454 728
0 564 872
0 662 1003
0 754 1123
0 874 1279
0 971 1408
0 1000 1444
0 1000 1444
0 998 1442
0 998 1442
0 998 1442
261 300 0
247 290 0
199 305 55
0 286 365
0 342 567
0 408 664
0 525 821
0 612 938
0 694 1045
0 794 1175
0 916 1334
0 1023 1478
0 1076 1546
0 1074 1544
0 1069 1538
0 1062 1528
0 1056 1520
497 449 0
490 443 0
483 448 10
362 512 155
0 518 667
0 492 743
0 582 885
0 670 1014
0 729 1092
0 808 1194
0 925 1349
0 1045 1509
0 1113 1600
0 1128 1618
0 1128 1617
0 1127 1616
0 1127 1615
744 644 0
739 641 0
742 643 0
686 665 82
452 760 261
0 748 925
0 707 1001
0 770 1125
0 809 1190
0 851 1246
0 943 1376
0 1060 1536
0 1149 1656
0 1170 1683
0 1169 1681
0 1167 1678
0 1165 1676
1075 894 0
1072 892 0
1078 896 0
1080 902 2
981 922 184
550 1031 449
0 997 1215
0 961 1327
0 969 1379
0 992 1415
0 1025 1465
0 1105 1586
0 1211 1732
0 1240 1774
0 1238 1772
0 1237 1770
0 1235 1768
1496 1178 0
1494 1176 0
1502 1182 0
1512 1187 0
1506 1185 0
1295 1216 366
701 1316 694
0 1337 1585
0 1228 1667
0 1236 1720
0 1223 1727
0 1234 1742
0 1315 1848
0 1352 1904
0 1350 1902
0 1348 1899
0 1346 1897
1983 1496 0
1982 1495 0
1992 1503 0
2001 1509 0
2017 1509 0
1929 1526 134
1613 1532 601
909 1639 1019
0 1662 1989
0 1536 2061
0 1517 2103
0 1508 2101
0 1532 2128
0 1527 2118
0 1525 2115
0 1521 2110
0 1518 2106
2397 1837 140
2398 1838 141
2406 1845 145
2413 1852 148
2421 1851 145
2403 1852 189
2253 1861 455
1894 1876 944
1115 1927 1397
0 2009 2408
0 1846 2475
0 1809 2486
0 1810 2477
0 1806 2471
0 1800 2464
0 1797 2461
0 1794 2457
2766 2172 259
2767 2173 259
2777 2182 262
2785 2190 264
2789 2191 260
2783 2177 260
2711 2184 467
2516 2185 841
2191 2169 1284
1367 2251 1854
12 2347 2819
0 2151 2880
0 2096 2840
0 2076 2806
0 2067 2790
0 2064 2788
0 2062 2785
3110 2550 415
3111 2551 416
3117 2562 421
3122 2571 425
3126 2576 426
3126 2552 385
3081 2548 522
2979 2552 804
2776 2515 1165
2505 2520 1604
1521 2660 2338
533 2664 3165
0 2461 3255
0 2390 3188
0 2368 3161
0 2365 3157
0 2364 3155
3397 3014 540
3399 3018 540
3407 3031 543
3414 3042 545
3419 3050 546
3411 3022 519
3380 3003 579
3321 3010 791
3183 3021 1127
3015 3003 1432
2726 3118 1851
1658 3133 2645
671 2990 3520
0 2809 3625
0 2749 3598
0 2747 3596
0 2745 3595
3711 3463 706
3714 3467 711
3723 3477 725
3731 3485 738
3736 3491 747
3731 3480 704
3710 3475 747
3646 3471 937
3549 3495 1233
3419 3511 1445
3224 3587 1763
2696 3656 2032
1565 3552 3323
1044 3313 3851
880 3229 3865
876 3228 3865
877 3228 3865
3846 3608 953
3846 3608 953
3846 3608 953
3846 3608 953
3846 3608 953
3841 3595 883
3815 3598 947
3758 3606 1127
3684 3627 1397
3576 3662 1598
3379 3747 1923
2976 3829 2179
1985 3775 3141
1631 3483 3884
1595 3438 3898
1595 3438 3898
1595 3438 3898
3846 3608 953
3846 3608 953
3846 3608 953
3846 3608 953
3846 3607 951
3840 3593 876
3814 3598 951
3759 3605 1123
3686 3627 1395
3580 3660 1590
3386 3743 1909
2995 3827 2175
1999 3782 3113
1629 3481 3885
1595 3438 3898
1595 3438 3898
1595 3438 3898
3846 3608 953
3846 3608 953
3846 3608 953
3846 3608 953
3846 3607 950
3839 3592 872
3812 3598 956
3761 3605 1118
3689 3627 1392
3583 3658 1582
3395 3739 1893
3014 3825 2171
2026 3789 3072
1632 3483 3884
1595 3438 3898
1595 3438 3898
1595 3438 3898
0 0 0
0 0 4
0 5 78
0 68 226
0 165 371
0 286 518
0 434 700
0 568 878
0 675 1021
0 793 1173
0 905 1321
0 982 1422
0 998 1442
0 998 1442
0 998 1442
0 998 1442
0 998 1442
0 0 0
0 0 0
0 0 31
0 37 170
0 133 328
0 253 480
0 391 645
0 538 837
0 650 986
0 753 1121
0 876 1282
0 971 1408
0 998 1442
0 998 1442
0 998 1442
0 998 1442
0 998 1442
45 80 0
32 62 0
0 54 73
0 128 260
0 205 419
0 301 538
0 413 675
0 537 836
0 641 974
0 736 1100
0 861 1262
0 962 1395
0 996 1439
0 998 1442
0 998 1442
0 998 1442
0 998 1442
225 275 0
213 267 0
170 276 44
0 257 327
0 323 542
0 388 640
0 507 797
0 597 918
0 682 1030
0 779 1155
0 904 1318
0 1015 1466
0 1068 1535
0 1067 1535
0 1061 1527
0 1055 1518
0 1049 1511
481 436 0
474 430 0
472 434 6
352 498 147
0 504 652
0 484 733
0 574 875
0 665 1007
0 725 1086
0 804 1189
0 922 1344
0 1043 1506
0 1113 1599
0 1128 1618
0 1128 1617
0 1127 1616
0 1127 1615
735 638 0
731 635 0
735 638 1
678 661 85
449 755 259
0 745 921
0 703 996
0 767 1122
0 806 1187
0 849 1243
0 942 1374
0 1059 1535
0 1148 1656
0 1170 1682
0 1168 1680
0 1167 1678
0 1165 1676
1072 892 0
1069 890 0
1075 894 0
1077 900 3
976 920 185
545 1030 451
0 996 1213
0 961 1327
0 969 1379
0 992 1415
0 1025 1465
0 1106 1586
0 1213 1735
0 1241 1775
0 1239 1773
0 1237 1771
0 1235 1769
1496 1178 0
1494 1176 0
1505 1183 0
1512 1188 0
1506 1187 2
1295 1218 370
698 1318 698
0 1339 1587
0 1231 1670
0 1239 1723
0 1225 1730
0 1236 1745
0 1319 1853
0 1353 1905
0 1351 1903
0 1350 1901
0 1348 1899
1987 1499 0
1986 1499 0
1997 1506 0
2006 1512 0
2023 1513 1
1934 1532 141
1615 1537 608
915 1644 1024
0 1668 1996
0 1542 2068
0 1523 2112
0 1514 2109
0 1538 2135
0 1531 2123
0 1528 2120
0 1526 2116
0 1523 2112
2404 1843 144
2403 1843 144
2412 1851 148
2420 1858 151
2428 1856 147
2408 1858 196
2257 1867 465
1899 1883 951
1118 1934 1408
0 2016 2417
0 1853 2485
0 1816 2494
0 1817 2487
0 1812 2478
0 1807 2473
0 1804 2469
0 1801 2466
2775 2180 261
2776 2182 262
2785 2190 264
2793 2198 266
2797 2198 262
2792 2186 267
2718 2192 477
2521 2194 854
2200 2177 1293
1375 2260 1866
13 2356 2829
0 2159 2891
0 2103 2848
0 2083 2814
0 2074 2800
0 2071 2796
0 2070 2794
3116 2561 420
3118 2563 421
3123 2572 426
3128 2581 430
3132 2586 430
3132 2561 387
3086 2559 534
2982 2565 821
2782 2528 1177
2512 2535 1612
1526 2674 2348
538 2674 3176
0 2470 3265
0 2397 3196
0 2378 3173
0 2375 3169
0 2373 3167
3407 3030 543
3408 3032 543
3416 3046 545
3423 3057 547
3428 3064 549
3419 3033 518
3388 3019 587
3329 3027 801
3190 3036 1135
3025 3022 1439
2732 3141 1857
1657 3152 2657
676 3000 3531
0 2817 3634
0 2763 3612
0 2762 3610
0 2759 3607
3724 3478 728
3726 3480 730
3736 3491 746
3743 3498 757
3749 3505 767
3740 3490 716
3719 3486 768
3655 3485 963
3561 3509 1251
3431 3527 1463
3233 3605 1784
2700 3673 2043
1586 3565 3330
1095 3323 3855
941 3247 3870
948 3249 3871
938 3246 3870
3846 3608 953
3846 3608 953
3846 3608 953
3846 3608 953
3846 3607 950
3840 3593 877
3813 3598 954
3755 3606 1136
3681 3627 1400
3573 3663 1605
3371 3750 1936
2948 3830 2181
1973 3764 3177
1624 3478 3886
1595 3438 3898
1595 3438 3898
1595 3438 3898
3846 3608 953
3846 3608 953
3846 3608 953
3846 3608 953
3846 3607 947
3839 3592 872
3812 3598 958
3757 3606 1131
3684 3627 1398
3576 3662 1598
3380 3747 1922
2979 3829 2179
1982 3773 3148
1626 3479 3886
1595 3438 3898
1595 3438 3898
1595 3438 3898
3846 3608 953
3846 3608 953
3846 3608 953
3846 3608 953
3846 3607 946
3838 3592 876
3810 3598 963
3758 3606 1126
3686 3627 1395
3580 3660 1588
3388 3742 1906
2999 3827 2174
2004 3783 3106
1630 3482 3884
1595 3438 3898
1595 3438 3898
1595 3438 3898
7 0 0
18 0 7
0 31 130
0 111 286
0 195 419
0 312 553
0 460 734
0 584 898
0 687 1036
0 806 1190
0 913 1332
0 1001 1447
0 1017 1467
0 1013 1461
0 1008 1455
0 1006 1452
0 1004 1450
3 0 0
3 0 0
0 12 58
0 70 214
0 154 363
0 267 500
0 403 661
0 542 843
0 651 989
0 751 1119
0 872 1277
0 969 1404
0 998 1442
0 999 1443
0 998 1442
0 998 1442
0 998 1442
94 54 0
66 36 0
0 64 86
0 142 274
0 213 427
0 296 532
0 412 674
0 534 832
0 636 968
0 734 1098
0 859 1259
0 960 1393
0 995 1438
0 998 1442
0 998 1442
0 998 1442
0 998 1442
260 271 0
246 262 0
181 290 63
0 272 349
0 334 556
0 395 648
0 514 806
0 600 922
0 683 1031
0 781 1158
0 906 1322
0 1018 1471
0 1072 1540
0 1072 1541
0 1067 1535
0 1061 1527
0 1056 1519
493 441 0
487 437 0
475 447 14
352 514 160
0 518 668
0 493 744
0 584 887
0 672 1016
0 730 1093
0 810 1197
0 927 1351
0 1050 1516
0 1117 1605
0 1129 1619
0 1128 1619
0 1128 1618
0 1128 1617
754 651 0
750 647 0
753 652 2
689 678 95
451 773 268
0 758 937
0 719 1016
0 778 1136
0 817 1200
0 858 1255
0 949 1384
0 1069 1549
0 1155 1665
0 1174 1689
0 1173 1687
0 1171 1684
0 1170 1682
1096 909 0
1092 906 0
1101 912 0
1100 918 3
994 941 203
549 1050 465
0 1018 1238
0 980 1351
0 986 1400
0 1005 1432
0 1037 1480
0 1120 1604
0 1224 1749
0 1247 1783
0 1246 1781
0 1244 1779
0 1242 1777
1530 1199 0
1528 1197 0
1537 1203 0
1548 1209 0
1535 1212 8
1314 1241 392
707 1344 726
0 1365 1618
0 1252 1697
0 1260 1751
0 1246 1758
0 1256 1772
0 1335 1873
0 1363 1916
0 1361 1914
0 1359 1912
0 1357 1910
2021 1525 2
2020 1523 2
2030 1531 3
2041 1539 4
2061 1541 5
1958 1558 169
1637 1563 636
928 1668 1056
0 1695 2029
0 1568 2102
0 1547 2144
0 1538 2140
0 1559 2163
0 1552 2151
0 1549 2148
0 1546 2144
0 1544 2140
2433 1869 156
2433 1869 156
2441 1877 159
2449 1883 162
2458 1880 155
2433 1886 219
2277 1894 500
1919 1908 982
1130 1962 1453
0 2046 2455
0 1878 2521
0 1840 2525
0 1843 2517
0 1834 2504
0 1831 2501
0 1828 2497
0 1825 2494
2807 2210 270
2808 2211 270
2818 2220 273
2826 2228 275
2830 2227 268
2822 2217 286
2742 2221 504
2540 2221 893
2227 2204 1329
1395 2289 1906
81 2385 2857
0 2185 2923
0 2130 2880
0 2104 2840
0 2098 2830
0 2096 2827
0 2093 2824
3137 2595 436
3138 2597 437
3144 2608 442
3150 2618 447
3153 2619 444
3150 2596 413
3100 2594 566
2994 2605 867
2801 2567 1206
2533 2579 1635
1551 2715 2369
556 2704 3209
0 2500 3300
0 2426 3232
0 2408 3210
0 2406 3207
0 2404 3206
3434 3075 551
3436 3078 551
3445 3092 553
3452 3102 554
3456 3107 553
3445 3071 518
3413 3066 605
3352 3076 832
3208 3075 1155
3050 3076 1459
2746 3203 1875
1640 3196 2705
687 3026 3561
0 2848 3662
0 2803 3650
0 2801 3648
0 2799 3646
3752 3508 773
3753 3509 775
3758 3515 785
3763 3520 794
3767 3524 799
3758 3507 741
3733 3508 817
3666 3509 1020
3574 3530 1288
3446 3559 1510
3236 3646 1845
2654 3709 2081
1620 3585 3406
1210 3347 3865
1092 3290 3883
1094 3291 3883
1089 3290 3883
3846 3608 953
3846 3608 953
3846 3608 953
3846 3608 953
3845 3606 944
3838 3592 875
3808 3598 968
3749 3608 1159
3673 3626 1408
3562 3668 1629
3346 3761 1974
2862 3833 2188
1937 3731 3278
1617 3468 3889
1595 3438 3898
1595 3438 3898
1595 3438 3898
3846 3608 953
3846 3608 953
3846 3608 953
3846 3608 953
3845 3606 942
3836 3592 881
3807 3598 972
3750 3608 1155
3675 3627 1406
3565 3667 1621
3355 3757 1960
2890 3832 2186
1947 3740 3250
1618 3470 3889
1595 3438 3898
1595 3438 3898
1595 3438 3898
3846 3608 953
3846 3608 953
3846 3608 953
3846 3608 953
3845 3606 940
3834 3593 885
3806 3599 977
3752 3607 1149
3678 3627 1403
3570 3665 1611
3367 3752 1943
2930 3831 2183
1961 3753 3210
1620 3473 3888
1595 3438 3898
1595 3438 3898
1595 3438 3898
211 11 0
210 12 10
284 62 125
147 136 298
0 237 497
0 341 605
0 479 762
0 597 915
0 697 1050
0 823 1213
0 934 1357
0 1020 1473
0 1067 1534
0 1066 1532
0 1062 1528
0 1058 1522
0 1054 1516
130 2 0
120 1 0
155 12 51
61 92 232
0 189 422
0 289 539
0 418 683
0 552 856
0 658 997
0 763 1136
0 885 1294
0 982 1423
0 1038 1496
0 1038 1496
0 1034 1490
0 1029 1483
