Postproduction/IWLTBAP - Humble/LUTs by IWLTBAP (3DL)/BONUS/Arapaho/IWLTBAP Arapaho - V-Log.3dl
# Copyright: (C) Copyright 2010-2017 by IWLTBAP SAS for SmallHD
# Cannot be resold, shared or otherwise redistributed
# Website: https://luts.iwltbap.com
# IWLTBAP Arapaho (V-Log)
0 256 512 768 1023
0 0 0
0 11 120
0 321 570
0 1019 1473
0 1108 1589
256 297 0
0 309 385
0 513 798
0 1083 1553
0 1140 1637
1316 1067 0
1164 1087 281
0 1236 1429
0 1296 1826
0 1389 1935
3516 3372 959
3460 3384 1108
3340 3388 1328
903 3304 3821
734 3199 3862
3709 3629 1348
3677 3629 1413
3573 3669 1613
1710 3561 3838
1589 3436 3902
72 0 0
88 60 184
0 353 626
0 1019 1473
0 1108 1577
622 313 0
44 373 465
0 566 887
0 1087 1565
0 1172 1670
1417 1116 0
1236 1152 305
0 1284 1489
0 1308 1838
0 1389 1951
3508 3368 931
3460 3384 1079
3344 3404 1328
827 3304 3821
578 3187 3862
3709 3629 1316
3661 3645 1429
3565 3685 1637
1674 3561 3838
1541 3436 3902
1212 232 0
1284 200 56
1196 481 602
0 1043 1589
0 1180 1750
1377 268 0
1328 317 108
1348 594 710
0 1083 1658
0 1220 1814
2481 1124 0
2697 1316 11
1124 1316 1324
0 1393 2039
0 1453 2111
3581 3396 802
3537 3396 911
3436 3416 1344
1099 3300 3801
634 3183 3874
3741 3629 1196
3709 3629 1296
3629 3677 1637
1770 3569 3817
1557 3420 3910
3259 529 385
3275 606 493
3300 742 678
3035 1280 1674
2866 1352 2119
3288 525 369
3304 614 489
3356 774 710
3035 1308 1782
2866 1369 2216
3416 718 168
3372 634 228
3388 1168 955
3019 1417 2212
2794 1465 2597
4095 3288 642
4095 3308 742
4095 3392 1220
3769 3585 3392
3669 3573 3508
4095 3557 1043
4095 3557 1128
4095 3621 1545
3854 3773 3292
3569 3749 3565
3420 642 497
3420 706 590
3444 843 778
3231 1340 1850
3019 1413 2344
3436 642 481
3448 706 590
3492 875 810
3219 1356 1927
3007 1413 2424
3524 891 385
3500 907 541
3516 1244 1043
3219 1505 2312
2906 1565 2762
4095 3356 1473
4095 3376 1585
4095 3460 1826
3842 3589 3392
3729 3549 3524
4095 3645 2119
4095 3677 2232
4095 3733 2529
4014 3773 3280
3886 3773 3565
