Postproduction/IWLTBAP - Humble/LUTs by IWLTBAP (3DL)/BONUS/Arapaho/IWLTBAP Arapaho - V-Log.3dl
# Copyright: (C) Copyright 2010-2017 by IWLTBAP SAS for SmallHD
# Cannot be resold, shared or otherwise redistributed
# Website: https://luts.iwltbap.com
# IWLTBAP Arapaho (V-Log)
0 128 256 384 512 640 768 896 1023
0 0 0
0 0 0
0 11 120
0 138 331
0 321 570
0 628 965
0 1019 1473
0 1091 1557
0 1108 1589
0 0 0
0 13 16
0 74 184
0 200 419
0 399 664
0 668 1011
0 1049 1505
0 1108 1589
0 1124 1605
256 297 0
222 309 46
0 309 385
0 375 610
0 513 798
0 714 1073
0 1083 1553
0 1124 1607
0 1140 1637
640 598 32
594 614 104
447 690 220
0 704 865
0 680 977
0 829 1210
0 1091 1579
0 1124 1621
0 1146 1643
1316 1067 0
1286 1083 78
1164 1087 281
881 1174 461
0 1236 1429
0 1178 1625
0 1296 1826
0 1373 1927
0 1389 1935
2440 1911 254
2408 1911 317
2354 1911 421
2234 1911 602
1911 1939 1039
54 2135 2507
0 1951 2655
0 1979 2681
0 1979 2675
3516 3372 959
3488 3372 1033
3460 3384 1108
3420 3372 1178
3340 3388 1328
3133 3486 1714
903 3304 3821
786 3233 3874
734 3199 3862
3631 3551 1254
3615 3551 1286
3597 3551 1318
3551 3565 1377
3478 3589 1527
3251 3691 1911
1441 3468 3850
1369 3388 3886
1290 3358 3902
3709 3629 1348
3693 3629 1381
3677 3629 1413
3635 3645 1471
3573 3669 1613
3332 3769 1989
1710 3561 3838
1605 3468 3902
1589 3436 3902
0 0 0
0 0 0
0 28 138
0 138 357
0 337 586
0 638 973
0 1023 1473
0 1091 1557
0 1108 1589
16 0 0
0 32 46
0 108 244
0 216 439
0 415 680
0 670 1021
0 1049 1509
0 1108 1591
0 1138 1621
303 309 0
240 339 62
0 325 417
0 389 628
0 531 829
0 718 1083
0 1083 1561
0 1136 1621
0 1156 1652
670 608 32
608 640 106
447 706 220
0 720 881
0 696 993
0 835 1220
0 1101 1589
0 1140 1623
0 1156 1654
1332 1089 7
1302 1099 86
1176 1104 285
887 1190 461
0 1252 1453
0 1194 1648
0 1304 1834
0 1379 1935
0 1389 1951
2440 1921 270
2414 1927 333
2354 1927 437
2234 1911 606
1919 1949 1039
46 2135 2517
0 1951 2655
0 1979 2681
0 1979 2675
3504 3368 943
3484 3372 1021
3456 3384 1099
3414 3384 1182
3340 3392 1336
3127 3486 1708
871 3304 3821
720 3231 3874
654 3187 3862
3629 3551 1238
3613 3565 1298
3583 3565 1334
3549 3567 1397
3478 3599 1543
3251 3691 1894
1425 3468 3850
1336 3388 3886
1260 3356 3902
3709 3629 1332
3693 3629 1381
3661 3629 1427
3629 3645 1487
3565 3677 1629
3332 3769 1979
1694 3561 3838
1575 3466 3902
1559 3436 3902
72 0 0
102 0 13
88 60 184
0 186 405
0 353 626
0 638 981
0 1019 1473
0 1091 1557
0 1108 1577
210 44 0
132 78 62
104 138 262
0 248 495
0 429 712
0 670 1029
0 1039 1503
0 1122 1591
0 1138 1621
622 313 0
598 357 0
44 373 465
0 425 692
0 566 887
0 734 1099
0 1087 1565
0 1152 1639
0 1172 1670
806 624 0
730 644 38
477 754 252
0 748 925
0 718 1031
0 839 1230
0 1114 1609
0 1156 1654
0 1172 1686
1417 1116 0
1377 1128 16
1236 1152 305
901 1216 485
0 1284 1489
0 1204 1668
0 1308 1838
0 1373 1931
0 1389 1951
2463 1937 270
2440 1943 325
2386 1943 427
2262 1927 600
1941 1955 1039
28 2151 2549
0 1953 2665
0 1979 2681
0 1979 2675
3508 3368 931
3484 3372 993
3460 3384 1079
3420 3388 1182
3344 3404 1328
3127 3494 1702
827 3304 3821
660 3231 3874
578 3187 3862
3629 3551 1220
3613 3565 1272
3583 3567 1334
3549 3581 1407
3478 3605 1551
3253 3691 1892
1405 3468 3850
1308 3388 3886
1230 3342 3902
3709 3629 1316
3679 3629 1367
3661 3645 1429
3629 3655 1493
3565 3685 1637
3332 3769 1973
1674 3561 3838
1557 3452 3902
1541 3436 3902
531 74 0
511 68 0
596 124 172
515 234 405
0 385 738
0 660 1049
0 1011 1471
0 1108 1583
0 1124 1599
660 126 0
608 152 9
658 188 232
576 293 457
0 447 817
0 700 1095
0 1043 1507
0 1134 1615
0 1154 1648
921 246 0
873 297 1
644 377 347
600 407 584
0 557 951
0 756 1168
0 1071 1553
0 1156 1650
0 1172 1680
1280 560 0
1316 604 0
1190 688 80
281 736 849
0 792 1186
0 887 1310
0 1158 1660
0 1214 1738
0 1230 1770
1609 1164 0
1591 1180 0
1579 1226 1
1170 1262 557
48 1358 1541
0 1228 1718
0 1312 1840
0 1340 1900
0 1363 1933
2515 1959 228
2509 1963 260
2477 1975 343
2350 1985 622
2003 1971 1057
96 2171 2559
0 1953 2665
0 1969 2675
0 1969 2665
3528 3380 901
3500 3384 963
3482 3384 1035
3436 3388 1144
3360 3412 1312
3143 3492 1686
808 3304 3821
608 3231 3874
501 3183 3874
3631 3551 1188
3615 3551 1238
3597 3565 1302
3557 3581 1391
3494 3605 1535
3261 3685 1872
1385 3468 3850
1272 3388 3886
1192 3342 3902
3709 3629 1284
3693 3629 1332
3677 3645 1397
3645 3661 1487
3573 3685 1629
3348 3763 1957
1658 3561 3838
1541 3452 3902
1525 3436 3918
1212 232 0
1236 194 0
1284 200 56
1310 297 285
1196 481 602
437 670 1136
0 1043 1589
0 1164 1734
0 1180 1750
1258 232 0
1258 240 0
1314 220 58
1346 327 309
1250 521 642
423 700 1182
0 1059 1619
0 1174 1750
0 1196 1766
1377 268 0
1385 268 0
1328 317 108
1379 407 385
1348 594 710
367 746 1260
0 1083 1658
0 1200 1794
0 1220 1814
1684 477 0
1678 501 0
1629 612 66
1244 664 618
1381 760 879
204 875 1455
0 1172 1772
0 1262 1874
0 1278 1896
2481 1124 0
2511 1156 0
2697 1316 11
2322 1290 204
1124 1316 1324
0 1302 1987
0 1393 2039
0 1437 2095
0 1453 2111
2752 2041 96
2744 2041 122
2727 2049 164
2695 2093 365
2378 2089 965
772 2218 2553
0 1969 2701
0 1969 2689
0 1969 2683
3581 3396 802
3565 3396 849
3537 3396 911
3500 3400 1021
3436 3416 1344
3217 3492 1740
1099 3300 3801
746 3229 3858
634 3183 3874
3669 3549 1085
3653 3549 1140
3631 3551 1202
3599 3565 1302
3551 3597 1543
3314 3683 1896
1501 3482 3834
1336 3372 3886
1258 3342 3902
3741 3629 1196
3725 3629 1244
3709 3629 1296
3677 3645 1399
3629 3677 1637
3396 3763 1975
1770 3569 3817
1581 3452 3902
1557 3420 3910
2071 252 0
2101 277 26
2125 323 94
2173 385 208
2288 485 357
2270 766 674
1507 1091 1597
646 1162 2083
383 1172 2131
2109 262 0
2125 285 26
2163 333 104
2204 401 214
2360 511 389
2302 782 706
1485 1091 1641
568 1162 2129
333 1178 2167
2185 285 0
2196 279 5
2228 339 104
2270 417 230
2463 539 423
2356 814 722
1401 1108 1740
425 1178 2192
242 1194 2224
2346 391 0
2346 383 0
2348 371 0
2290 560 293
2513 686 541
2382 909 871
1172 1148 1979
220 1226 2320
90 1242 2336
2954 899 0
2938 913 0
2942 953 13
2848 1148 266
2348 1222 1051
2304 1244 1393
566 1318 2449
38 1373 2597
18 1397 2589
3705 2061 0
3721 2075 0
3769 2131 0
3876 2288 56
3496 2250 764
2292 2206 2196
26 2083 3211
0 2055 3189
0 2065 3179
3866 3420 598
3854 3420 614
3850 3420 630
3830 3422 646
3741 3438 955
3502 3478 1882
1977 3382 3735
1668 3269 3821
1635 3237 3838
3928 3551 993
3922 3551 1039
3906 3551 1108
3874 3555 1178
3795 3567 1356
3587 3631 2033
2187 3551 3723
2041 3428 3832
1993 3396 3864
4000 3619 1104
3990 3629 1150
3968 3629 1214
3948 3629 1274
3876 3645 1453
3661 3709 2113
2354 3641 3687
2210 3522 3832
2187 3490 3848
3259 529 385
3259 572 443
3275 606 493
3275 660 557
3300 742 678
3386 851 782
3035 1280 1674
2898 1352 2039
2866 1352 2119
3271 529 385
3275 572 433
3292 618 497
3308 676 574
3328 758 694
3402 871 796
3035 1296 1718
2900 1352 2085
2866 1369 2165
3288 525 369
3296 557 419
3304 614 489
3336 680 584
3356 774 710
3430 897 821
3035 1308 1782
2914 1369 2131
2866 1369 2216
3322 505 327
3322 537 381
3322 590 451
3352 718 606
3380 812 744
3446 915 855
3035 1324 1862
2912 1369 2189
2878 1381 2274
3416 718 168
3404 710 192
3372 634 228
3352 648 401
3388 1168 955
3384 1276 1246
3019 1417 2212
2864 1451 2519
2794 1465 2597
4085 1738 277
4081 1744 321
4070 1764 377
4052 1822 551
3926 2061 909
3456 2175 1999
3035 1939 2954
2792 1925 3089
2687 1925 3117
4095 3288 642
4095 3292 682
4095 3308 742
4095 3334 865
4095 3392 1220
4095 3426 1487
3769 3585 3392
3697 3573 3490
3669 3573 3508
4095 3490 841
4095 3502 887
4095 3504 937
4095 3534 1126
4095 3563 1379
4095 3621 1786
3805 3713 3312
3569 3687 3530
3551 3659 3549
4095 3557 1043
4095 3557 1079
4095 3557 1128
4095 3585 1312
4095 3621 1545
4095 3671 1896
3854 3773 3292
3593 3773 3514
3569 3749 3565
3358 610 481
3370 642 515
3374 686 574
3374 732 636
3396 810 746
3454 911 847
3169 1324 1804
3003 1383 2234
2972 1397 2296
3372 612 481
3374 644 527
3400 692 578
3404 748 652
3422 835 764
3470 927 863
3167 1328 1834
2988 1397 2264
2970 1397 2328
3374 610 455
3374 642 511
3404 690 574
3422 754 652
3444 845 778
3484 943 893
3159 1344 1886
2986 1397 2314
2956 1413 2378
3390 588 419
3388 634 475
3390 684 543
3436 774 662
3454 869 804
3484 1001 955
3165 1383 2003
2962 1429 2420
2922 1439 2491
3476 859 353
3460 845 409
3438 867 505
3406 883 660
3468 1212 1013
3438 1292 1270
3157 1489 2288
2906 1533 2673
2850 1541 2738
4064 1900 680
4054 1931 726
4028 1975 790
3992 2027 867
3886 2129 1037
3516 2141 1993
3131 1892 2894
2930 1953 3107
2836 1953 3139
4095 3372 1405
4095 3376 1485
4095 3392 1535
4095 3426 1615
4095 3476 1802
4095 3492 1919
3826 3585 3392
3729 3561 3492
3699 3549 3508
4095 3597 1977
4095 3611 2023
4095 3615 2075
4095 3645 2171
4095 3677 2402
4095 3679 2517
3962 3713 3300
3854 3725 3516
3821 3711 3549
4095 3661 2149
4095 3677 2183
4095 3693 2248
4095 3725 2344
4095 3757 2529
4095 3757 2623
3996 3773 3296
3886 3773 3500
3854 3773 3565
3420 642 497
3420 674 543
3420 706 590
3420 754 652
3444 843 778
3484 937 879
3231 1340 1850
3051 1397 2282
3019 1413 2344
3420 642 497
3420 674 543
3436 718 594
3452 770 668
3468 859 794
3498 953 901
3219 1344 1878
3049 1397 2298
3019 1413 2376
3436 642 481
3436 672 529
3448 706 590
3468 780 684
3492 875 810
3506 975 933
3219 1356 1927
3035 1413 2356
3007 1413 2424
3452 626 449
3436 666 507
3436 702 572
3468 790 688
3500 901 827
3516 1029 997
3227 1399 2041
3009 1445 2467
2976 1445 2531
3524 891 385
3516 875 433
3500 907 541
3460 915 676
3516 1244 1043
3462 1324 1318
3219 1505 2312
2954 1549 2705
2906 1565 2762
4085 1947 712
4074 1963 764
4064 2013 823
4034 2057 895
3928 2161 1069
3565 2157 1983
3209 1909 2908
3005 1969 3123
2946 1979 3165
4095 3356 1473
4095 3370 1539
4095 3376 1585
4095 3410 1656
4095 3460 1826
4095 3480 1955
3842 3589 3392
3745 3561 3504
3729 3549 3524
4095 3567 1947
4095 3583 1995
4095 3599 2057
4095 3615 2163
4095 3653 2386
4095 3663 2503
3994 3713 3284
3870 3725 3516
3840 3725 3565
4095 3645 2119
4095 3661 2167
4095 3677 2232
4095 3709 2344
4095 3733 2529
4095 3741 2623
4014 3773 3280
3918 3773 3500
3886 3773 3565
