Postproduction/IWLTBAP - Humble/LUTs by IWLTBAP (3DL)/BONUS/Arapaho/IWLTBAP Arapaho - LOG.3dl
# Copyright: (C) Copyright 2016 by IWLTBAP for SmallHD
# Cannot be resold, shared or otherwise redistributed
# Website: http://luts.iwltbap.com
# IWLTBAP Arapaho (LOG)
0 128 256 384 512 640 768 896 1023
0 0 0
0 0 73
0 166 372
0 441 709
0 679 1027
0 911 1329
0 998 1442
0 998 1442
0 998 1442
77 123 0
0 96 124
0 243 466
0 454 728
0 662 1003
0 874 1279
0 1000 1444
0 998 1442
0 998 1442
497 449 0
483 448 10
0 518 667
0 582 885
0 729 1092
0 925 1349
0 1113 1600
0 1128 1617
0 1127 1615
1075 894 0
1078 896 0
981 922 184
0 997 1215
0 969 1379
0 1025 1465
0 1211 1732
0 1238 1772
0 1235 1768
1983 1496 0
1992 1503 0
2017 1509 0
1613 1532 601
0 1662 1989
0 1517 2103
0 1532 2128
0 1525 2115
0 1518 2106
2766 2172 259
2777 2182 262
2789 2191 260
2711 2184 467
2191 2169 1284
12 2347 2819
0 2096 2840
0 2067 2790
0 2062 2785
3397 3014 540
3407 3031 543
3419 3050 546
3380 3003 579
3183 3021 1127
2726 3118 1851
671 2990 3520
0 2749 3598
0 2745 3595
3846 3608 953
3846 3608 953
3846 3608 953
3815 3598 947
3684 3627 1397
3379 3747 1923
1985 3775 3141
1595 3438 3898
1595 3438 3898
3846 3608 953
3846 3608 953
3846 3607 950
3812 3598 956
3689 3627 1392
3395 3739 1893
2026 3789 3072
1595 3438 3898
1595 3438 3898
7 0 0
0 31 130
0 195 419
0 460 734
0 687 1036
0 913 1332
0 1017 1467
0 1008 1455
0 1004 1450
94 54 0
0 64 86
0 213 427
0 412 674
0 636 968
0 859 1259
0 995 1438
0 998 1442
0 998 1442
493 441 0
475 447 14
0 518 668
0 584 887
0 730 1093
0 927 1351
0 1117 1605
0 1128 1619
0 1128 1617
1096 909 0
1101 912 0
994 941 203
0 1018 1238
0 986 1400
0 1037 1480
0 1224 1749
0 1246 1781
0 1242 1777
2021 1525 2
2030 1531 3
2061 1541 5
1637 1563 636
0 1695 2029
0 1547 2144
0 1559 2163
0 1549 2148
0 1544 2140
2807 2210 270
2818 2220 273
2830 2227 268
2742 2221 504
2227 2204 1329
81 2385 2857
0 2130 2880
0 2098 2830
0 2093 2824
3434 3075 551
3445 3092 553
3456 3107 553
3413 3066 605
3208 3075 1155
2746 3203 1875
687 3026 3561
0 2803 3650
0 2799 3646
3846 3608 953
3846 3608 953
3845 3606 944
3808 3598 968
3673 3626 1408
3346 3761 1974
1937 3731 3278
1595 3438 3898
1595 3438 3898
3846 3608 953
3846 3608 953
3845 3606 940
3806 3599 977
3678 3627 1403
3367 3752 1943
1961 3753 3210
1595 3438 3898
1595 3438 3898
591 87 0
577 89 63
396 254 472
0 506 824
0 702 1057
0 942 1368
0 1092 1567
0 1089 1563
0 1085 1558
489 99 0
400 119 60
239 220 413
0 428 714
0 657 997
0 887 1296
0 1064 1530
0 1077 1547
0 1075 1543
817 411 0
809 418 0
127 562 678
0 652 985
0 769 1144
0 963 1401
0 1169 1675
0 1175 1682
0 1173 1678
1287 973 0
1296 979 0
1068 1018 277
0 1107 1342
0 1060 1494
0 1088 1545
0 1277 1819
0 1297 1847
0 1294 1843
2125 1595 12
2137 1604 13
2132 1627 56
1675 1646 730
0 1774 2122
0 1606 2216
0 1605 2219
0 1607 2219
0 1602 2212
2863 2258 273
2877 2270 274
2887 2288 304
2775 2278 580
2279 2262 1398
148 2439 2919
0 2166 2918
0 2139 2876
0 2135 2871
3479 3143 553
3490 3159 553
3501 3178 558
3454 3144 637
3240 3147 1188
2766 3297 1893
697 3073 3613
0 2866 3703
0 2861 3699
3844 3607 946
3844 3607 945
3841 3607 950
3800 3602 1003
3658 3631 1434
3310 3776 2024
1886 3682 3433
1587 3436 3899
1587 3436 3899
3843 3607 943
3843 3607 943
3840 3607 950
3797 3604 1015
3663 3632 1429
3334 3766 1986
1923 3716 3330
1587 3436 3899
1590 3437 3899
1296 200 0
1303 229 0
1394 296 230
1071 564 732
0 737 1206
0 923 1363
0 1076 1535
0 1089 1552
0 1090 1553
1146 191 0
1133 190 0
1215 233 169
907 478 665
0 694 1124
0 885 1308
0 1064 1519
0 1091 1555
0 1092 1557
1330 358 0
1330 362 0
1157 488 376
960 634 879
0 823 1302
0 977 1436
0 1163 1656
0 1177 1673
0 1175 1671
1695 822 0
1707 828 0
1637 934 0
813 1120 1185
0 1148 1713
0 1161 1691
0 1308 1868
0 1327 1894
0 1324 1890
2334 1629 3
2347 1638 3
2355 1666 49
2031 1709 529
297 1837 2159
0 1662 2334
0 1632 2279
0 1645 2291
0 1641 2286
2954 2299 233
2968 2311 236
2977 2327 271
2857 2333 616
2369 2307 1447
475 2463 2934
0 2189 2959
0 2169 2926
0 2165 2921
3507 3160 521
3519 3178 523
3532 3198 531
3492 3212 699
3272 3209 1237
2812 3326 1895
706 3113 3662
0 2902 3725
0 2898 3722
3851 3605 924
3851 3605 925
3849 3606 936
3810 3615 1080
3661 3653 1506
3310 3782 2050
1892 3657 3572
1547 3420 3904
1546 3420 3904
3851 3605 925
3852 3605 925
3848 3607 940
3810 3615 1082
3672 3647 1476
3357 3768 1996
1951 3729 3338
1530 3420 3905
1524 3419 3906
1962 281 0
1942 278 0
2029 291 38
2153 474 341
1728 814 922
237 938 1560
0 1125 1705
0 1155 1714
0 1151 1700
1819 262 0
1810 261 0
1896 248 0
2008 440 305
1640 788 904
79 924 1545
0 1113 1672
0 1150 1694
0 1147 1686
2011 362 0
2015 365 0
2028 377 28
2260 579 444
1775 898 1026
185 996 1682
0 1205 1834
0 1223 1844
0 1221 1835
2360 697 0
2374 702 0
2322 785 0
1918 1057 941
1723 1133 1335
0 1203 2038
0 1364 2065
0 1385 2082
0 1382 2076
2822 1494 0
2838 1505 0
2833 1532 24
2680 1626 329
1845 1818 1799
115 1784 2686
0 1751 2559
0 1765 2560
0 1761 2553
3202 2367 97
3217 2380 100
3236 2401 135
3204 2431 457
2885 2426 1114
1492 2502 2833
0 2275 3199
0 2232 3124
0 2229 3120
3654 3152 501
3668 3169 504
3683 3188 512
3650 3206 693
3464 3217 1235
3053 3281 1987
1398 3135 3594
771 2941 3766
760 2939 3765
3999 3606 906
4003 3606 906
4005 3607 915
3967 3616 1067
3832 3644 1506
3509 3743 2137
2221 3740 3375
2003 3454 3874
1997 3453 3875
3990 3606 908
3990 3606 908
3987 3606 915
3947 3615 1052
3829 3639 1432
3537 3727 2014
2356 3824 2949
1877 3443 3880
1864 3442 3881
2618 352 3
2599 348 0
2692 332 92
2783 536 430
2969 703 607
2398 1060 1130
1721 1171 1800
874 1177 2097
738 1175 2091
2517 337 0
2512 337 0
2605 317 44
2736 517 405
2929 686 593
2380 1047 1102
1635 1165 1818
840 1176 2096
746 1175 2091
2690 397 0
2695 398 0
2775 398 131
2907 616 515
3106 802 685
2427 1150 1350
1516 1224 2088
1149 1236 2241
1084 1232 2240
2977 815 0
2990 821 0
2972 887 46
2819 971 602
2923 1074 937
2374 1270 1646
761 1296 2514
268 1311 2581
235 1309 2574
3396 1238 0
3408 1248 0
3414 1274 46
3245 1445 397
2643 1802 1706
2405 1706 2222
107 1703 2995
0 1735 3038
0 1732 3033
3711 2267 0
3724 2281 0
3741 2298 0
3704 2335 163
3464 2431 934
2689 2551 2526
1462 2435 3341
961 2424 3531
952 2422 3531
3969 3175 372
3981 3188 378
3995 3205 389
3990 3225 548
3876 3248 1167
3522 3243 2002
2478 3221 3423
2022 3036 3672
2013 3033 3673
4094 3614 928
4094 3614 929
4094 3615 935
4094 3626 1057
4094 3652 1470
3880 3681 2189
3044 3820 2991
2710 3557 3769
2692 3554 3772
4094 3613 920
4094 3613 919
4094 3612 919
4094 3620 1008
4087 3644 1356
3864 3674 2009
3247 3818 2715
2517 3527 3799
2499 3524 3801
3231 454 127
3213 452 124
3218 441 162
3268 618 505
3318 798 738
3395 1070 1091
2806 1301 1776
2641 1333 2103
2624 1331 2100
3183 449 118
3185 449 119
3215 441 159
3275 616 501
3333 802 743
3422 1079 1111
2837 1313 1823
2706 1343 2112
2696 1341 2111
3376 522 151
3380 525 153
3388 536 255
3399 717 602
3469 919 849
3434 1196 1377
2942 1368 2114
2859 1381 2273
2853 1380 2266
3532 946 171
3544 958 176
3547 999 235
3411 1016 704
3440 1184 1088
3396 1360 1686
2909 1438 2447
2789 1463 2599
2791 1461 2594
3876 1406 178
3889 1420 184
3896 1455 244
3776 1636 584
3469 1836 1427
3283 1821 2081
2825 1747 2872
2493 1759 2997
2492 1757 2994
4095 1927 0
4095 1939 0
4095 1958 0
4095 2016 341
3969 2285 1078
3373 2558 2460
3062 2396 3083
2674 2363 3275
2670 2361 3274
4095 3034 0
4095 3048 0
4095 3066 0
4095 3099 0
4095 3110 535
4092 3198 1507
3486 3296 3179
3244 3238 3426
3238 3234 3425
4094 3636 692
4094 3630 685
4094 3623 679
4094 3627 800
4095 3680 1237
4095 3729 2053
3940 3743 2892
3414 3714 3578
3390 3708 3581
4095 3686 806
4095 3686 807
4095 3686 807
4095 3691 883
4095 3701 1215
4095 3698 1913
3929 3730 2691
3275 3673 3594
3263 3668 3596
3420 525 190
3420 525 190
3424 529 234
3411 663 528
3458 890 826
3510 1126 1193
3108 1337 1853
2994 1388 2217
2994 1388 2217
3420 525 190
3420 525 190
3425 527 241
3410 668 536
3460 894 830
3510 1138 1220
3070 1349 1934
2994 1388 2217
2994 1388 2217
3467 576 190
3467 578 191
3461 588 293
3450 735 611
3521 963 899
3497 1242 1483
3040 1393 2217
3003 1405 2325
3003 1404 2322
3637 1018 227
3642 1026 229
3627 1055 288
3481 1068 742
3498 1243 1155
3456 1408 1773
2983 1474 2551
2923 1493 2653
2924 1491 2649
4013 1522 263
4018 1530 264
4008 1562 339
3879 1736 670
3605 1896 1466
3401 1900 2165
3054 1816 2943
2868 1832 3086
2867 1829 3084
4095 2010 121
4095 2019 111
4095 2035 127
4095 2114 503
4086 2411 1203
3638 2627 2453
3460 2443 3102
3242 2420 3318
3240 2416 3317
4095 2902 112
4095 2918 132
4095 2940 162
4095 2959 264
4095 2989 801
4095 3097 1624
3788 3335 3213
3614 3228 3462
3613 3222 3461
4095 3476 865
4095 3476 865
4095 3476 865
4095 3481 945
4095 3508 1273
4095 3588 1906
4095 3742 2640
3877 3772 3557
3877 3772 3557
4095 3476 865
4095 3476 865
4095 3476 865
4095 3478 908
4095 3500 1180
4095 3559 1754
4095 3720 2419
3880 3771 3522
3854 3767 3559
3420 525 190
3420 525 190
3422 528 219
3413 644 502
3452 880 817
3510 1101 1144
3118 1334 1834
2994 1388 2217
2994 1388 2217
3420 525 190
3420 525 190
3424 528 236
3411 657 520
3456 887 823
3511 1121 1182
3075 1348 1923
2994 1388 2217
2994 1388 2217
3466 572 189
3467 575 190
3461 585 288
3444 720 592
3522 958 893
3509 1235 1461
3041 1392 2209
3003 1405 2323
3003 1404 2321
3634 1012 226
3639 1021 228
3620 1052 297
3480 1063 739
3498 1240 1150
3456 1406 1768
2983 1474 2552
2923 1492 2652
2925 1491 2648
4012 1521 263
4018 1530 264
4006 1565 348
3878 1739 674
3605 1897 1469
3402 1902 2168
3047 1819 2953
2868 1833 3087
2867 1830 3085
4095 2012 119
4095 2021 109
4095 2039 133
4095 2119 510
4087 2415 1207
3637 2630 2458
3454 2445 3108
3244 2422 3319
3242 2418 3317
4095 2907 119
4095 2924 140
4095 2945 169
4095 2963 271
4095 2995 804
4095 3100 1623
3788 3336 3214
3613 3226 3461
3611 3213 3460
4095 3476 865
4095 3476 865
4095 3476 865
4095 3480 929
4095 3505 1230
4095 3576 1847
4095 3733 2549
3877 3772 3557
3875 3770 3557
4095 3476 865
4095 3476 865
4095 3476 865
4095 3478 902
4095 3498 1163
4095 3554 1720
4095 3708 2378
3905 3771 3501
3877 3772 3557
