Postproduction/IWLTBAP - Humble/LUTs by IWLTBAP (3DL)/BONUS/Arapaho/IWLTBAP Arapaho - Standard.3dl
# Copyright: (C) Copyright 2016 by IWLTBAP for SmallHD
# Cannot be resold, shared or otherwise redistributed
# Website: http://luts.iwltbap.com
# IWLTBAP Arapaho (Rec.709)
0 256 512 768 1023
0 0 0
0 215 434
0 544 846
0 788 1167
0 998 1442
910 769 0
0 871 1075
0 897 1291
0 990 1423
0 1226 1758
2154 1626 15
1780 1644 651
0 1806 2163
0 1664 2298
0 1670 2305
3089 2515 399
2962 2490 732
2470 2483 1606
529 2657 3158
0 2374 3167
3846 3608 953
3748 3608 1160
3545 3676 1666
2721 3836 2200
1595 3438 3898
808 131 0
626 340 568
0 641 1018
0 843 1243
0 1097 1565
1437 692 0
586 942 1035
0 1032 1530
0 1079 1567
0 1297 1853
2417 1701 7
2112 1754 491
336 1904 2235
0 1737 2431
0 1722 2393
3200 2554 319
3044 2551 777
2574 2549 1668
834 2692 3172
0 2404 3231
3894 3605 921
3802 3625 1222
3595 3692 1771
2803 3846 2280
1702 3435 3891
1682 244 0
1878 399 265
1576 768 890
26 920 1541
0 1153 1704
2213 646 0
1837 921 789
1680 1073 1270
0 1166 1975
0 1367 2060
2985 1615 0
2811 1709 371
1993 1932 1907
352 1898 2818
0 1887 2764
3516 2668 158
3467 2701 619
3123 2704 1461
1903 2788 3073
98 2551 3570
4094 3608 908
4059 3631 1208
3845 3663 1840
3424 3790 2514
2391 3508 3817
2491 334 0
2739 511 395
2964 700 606
2423 1078 1170
1381 1204 2055
2960 799 0
2808 909 553
2952 1055 915
2413 1276 1669
636 1325 2626
3585 1399 0
3409 1575 480
2790 1969 1880
2573 1879 2456
543 1864 3209
4054 2592 0
4006 2639 277
3800 2771 1195
3065 2888 2835
2244 2773 3488
4094 3672 884
4095 3669 1193
4095 3680 1848
3923 3722 2590
3233 3657 3601
3420 525 190
3409 686 561
3470 914 846
3477 1205 1394
2994 1388 2217
3640 1024 228
3477 1053 731
3494 1266 1191
3451 1429 1857
2910 1508 2685
4085 1654 282
3950 1877 766
3615 2111 1737
3444 2058 2418
2938 1989 3174
4095 2369 0
4095 2424 614
4095 2685 1419
3691 2963 2850
3441 2790 3405
4095 3476 865
4095 3498 1156
4095 3557 1747
4095 3713 2408
3877 3772 3557
