Postproduction/IWLTBAP - Humble/LUTs by IWLTBAP (3DL)/BONUS/Arapaho/IWLTBAP Arapaho - Standard.3dl
# Copyright: (C) Copyright 2016 by IWLTBAP for SmallHD
# Cannot be resold, shared or otherwise redistributed
# Website: http://luts.iwltbap.com
# IWLTBAP Arapaho (Rec.709)
0 128 256 384 512 640 768 896 1023
0 0 0
0 66 225
0 215 434
0 375 626
0 544 846
0 664 1006
0 788 1167
0 911 1328
0 998 1442
449 410 0
0 481 626
0 487 746
0 623 946
0 701 1056
0 774 1150
0 886 1296
0 1000 1450
0 1132 1627
910 769 0
643 878 279
0 871 1075
0 865 1211
0 897 1291
0 940 1348
0 990 1423
0 1086 1564
0 1226 1758
1500 1180 0
1376 1202 237
798 1316 628
0 1354 1604
0 1253 1702
0 1274 1770
0 1269 1789
0 1289 1815
0 1381 1936
2154 1626 15
2102 1636 129
1780 1644 651
1026 1748 1122
0 1806 2163
0 1685 2248
0 1664 2298
0 1661 2296
0 1670 2305
2640 2057 228
2618 2052 303
2442 2062 657
2083 2067 1162
1260 2155 1741
0 2252 2721
0 2079 2786
0 2032 2766
0 2013 2722
3089 2515 399
3062 2487 443
2962 2490 732
2744 2467 1145
2470 2483 1606
1481 2641 2357
529 2657 3158
0 2465 3259
0 2374 3167
3441 3085 552
3402 3032 573
3341 3051 817
3192 3059 1165
3039 3081 1486
2721 3235 1905
1602 3223 2771
701 3053 3591
0 2845 3689
3846 3608 953
3818 3597 938
3748 3608 1160
3664 3626 1417
3545 3676 1666
3305 3778 2038
2721 3836 2200
1883 3682 3430
1595 3438 3898
220 12 0
169 147 314
0 286 557
0 439 715
0 585 901
0 700 1053
0 838 1231
0 960 1393
0 1087 1560
766 390 0
99 526 639
0 555 843
0 676 1021
0 744 1113
0 803 1185
0 920 1342
0 1038 1502
0 1186 1699
1148 805 0
756 911 335
0 944 1149
0 918 1288
0 947 1358
0 968 1391
0 1023 1467
0 1121 1611
0 1270 1818
1662 1224 0
1459 1266 265
864 1365 684
0 1396 1685
0 1306 1770
0 1304 1821
0 1307 1842
0 1329 1867
0 1416 1981
2235 1662 25
2145 1682 180
1806 1683 708
1022 1783 1188
0 1846 2214
0 1708 2292
0 1687 2325
0 1684 2325
0 1694 2333
2683 2073 189
2636 2090 365
2461 2094 704
2107 2101 1206
1267 2195 1808
0 2270 2728
0 2098 2806
0 2047 2774
0 2022 2731
3108 2518 360
3066 2518 495
2952 2514 789
2754 2497 1179
2477 2523 1640
1507 2646 2343
484 2678 3189
0 2466 3255
0 2378 3166
3444 3066 509
3403 3068 618
3347 3083 858
3187 3075 1191
3051 3127 1513
2734 3211 1892
1489 3241 2855
655 3070 3616
0 2834 3670
3847 3605 917
3819 3611 1012
3744 3622 1210
3665 3655 1475
3539 3702 1730
3316 3778 2023
2617 3848 2223
1914 3665 3528
1519 3419 3906
808 131 0
866 187 245
626 340 568
0 511 923
0 641 1018
0 728 1106
0 843 1243
0 968 1396
0 1097 1565
1118 324 0
805 525 501
434 543 811
0 708 1149
0 794 1221
0 849 1274
0 947 1386
0 1056 1521
0 1202 1714
1437 692 0
1296 834 94
586 942 1035
0 1004 1456
0 1032 1530
0 1043 1535
0 1079 1567
0 1155 1662
0 1297 1853
1867 1237 0
1844 1292 0
1349 1355 736
330 1460 1711
0 1376 1919
0 1348 1930
0 1361 1950
0 1378 1958
0 1452 2043
2417 1701 7
2361 1723 136
2112 1754 491
1492 1832 1208
336 1904 2235
0 1770 2413
0 1737 2431
0 1710 2390
0 1722 2393
2811 2113 132
2762 2129 325
2614 2141 615
2266 2128 1186
1507 2197 1746
485 2282 2720
0 2140 2897
0 2072 2838
0 2040 2785
3200 2554 319
3157 2556 472
3044 2551 777
2847 2534 1177
2574 2549 1668
1712 2661 2309
834 2692 3172
0 2499 3325
0 2404 3231
3497 3077 515
3472 3085 629
3399 3096 864
3265 3103 1202
3110 3128 1542
2840 3222 1936
1751 3271 2754
920 3075 3600
0 2878 3731
3894 3605 921
3864 3612 1025
3802 3625 1222
3714 3639 1493
3595 3692 1771
3376 3768 2058
2803 3846 2280
1960 3706 3418
1702 3435 3891
1259 196 0
1388 242 106
1432 378 409
1122 589 751
336 652 1127
0 776 1272
0 886 1349
0 981 1443
0 1102 1578
1475 388 0
1355 482 298
1435 567 616
1203 730 929
255 778 1316
0 900 1452
0 987 1503
0 1085 1592
0 1210 1737
1854 604 0
1674 740 140
1255 926 908
1194 973 1206
222 1038 1595
0 1121 1758
0 1171 1781
0 1237 1826
0 1349 1948
2243 1137 0
2173 1202 0
1959 1332 423
1302 1455 1483
517 1434 1970
0 1452 2203
0 1458 2173
0 1467 2141
0 1528 2189
2630 1765 0
2569 1767 167
2492 1804 341
2085 1860 1096
1060 1911 2175
425 1813 2471
0 1805 2620
0 1776 2548
0 1781 2519
2980 2166 58
2963 2187 249
2883 2213 537
2659 2223 906
2091 2233 1763
1166 2318 2677
457 2194 2968
0 2134 3001
0 2083 2906
3369 2616 209
3333 2619 386
3227 2619 728
3051 2616 1144
2796 2606 1631
2138 2657 2171
1313 2724 3153
478 2554 3394
0 2468 3381
3617 3097 492
3591 3107 627
3525 3119 858
3410 3134 1207
3234 3139 1583
3001 3215 1983
2143 3301 2621
1394 3111 3568
694 2914 3757
4000 3606 906
3977 3612 1008
3916 3627 1220
3832 3643 1492
3695 3670 1805
3507 3743 2140
3151 3825 2425
2241 3746 3358
2034 3457 3872
1682 244 0
1800 273 4
1878 399 265
2145 561 454
1576 768 890
1181 822 1171
26 920 1541
0 1032 1609
0 1153 1704
1886 417 0
1870 433 86
1967 553 424
2243 706 615
1660 887 1033
1199 916 1371
0 999 1701
0 1122 1762
0 1243 1860
2213 646 0
2079 794 114
1837 921 789
2057 996 1018
1680 1073 1270
951 1055 1670
0 1166 1975
0 1262 1996
0 1367 2060
2676 1005 0
2578 1066 8
2345 1224 531
1912 1446 1425
1792 1429 1627
897 1395 2046
0 1480 2432
0 1544 2397
0 1614 2411
2985 1615 0
2911 1646 166
2811 1709 371
2591 1845 870
1993 1932 1907
1282 1890 2385
352 1898 2818
0 1880 2843
0 1887 2764
3219 2265 0
3183 2273 188
3081 2281 562
3007 2310 791
2680 2315 1494
1879 2369 2515
1298 2257 2885
90 2220 3217
0 2171 3130
3516 2668 158
3503 2681 322
3467 2701 619
3351 2713 992
3123 2704 1461
2718 2696 2207
1903 2788 3073
1240 2608 3376
98 2551 3570
3809 3141 450
3779 3145 582
3707 3153 859
3591 3168 1218
3429 3179 1611
3219 3187 2075
2575 3297 2537
2000 3164 3514
1447 2967 3747
4094 3608 908
4086 3616 1009
4059 3631 1208
3980 3649 1502
3845 3663 1840
3672 3701 2201
3424 3790 2514
2603 3795 3225
2391 3508 3817
2082 297 0
2223 318 83
2322 441 298
2492 554 448
2602 682 533
2008 907 976
1676 1041 1248
976 1053 1671
0 1182 1949
2320 416 0
2311 432 105
2431 547 381
2612 673 559
2648 805 652
2091 1021 1130
1742 1098 1422
668 1104 1931
0 1236 2102
2619 711 0
2498 845 59
2407 890 550
2515 996 871
2611 1046 960
2047 1180 1397
1625 1178 1800
158 1214 2226
0 1356 2272
3025 976 0
2914 1062 82
2710 1294 523
2384 1469 1358
2434 1475 1552
2146 1448 1797
1374 1426 2280
0 1490 2629
0 1601 2616
3310 1473 0
3264 1512 153
3124 1589 414
2878 1769 1027
2383 1939 1906
2275 1877 2160
1515 1836 2615
286 1865 3016
0 1923 3081
3554 2116 0
3529 2136 0
3421 2194 455
3295 2250 785
3095 2342 1356
2524 2407 2386
2102 2347 2741
1300 2323 3228
198 2309 3508
3736 2765 57
3707 2780 263
3649 2777 591
3544 2787 1026
3488 2806 1262
3167 2805 1998
2521 2850 2900
1996 2702 3243
1239 2632 3577
3974 3174 371
3967 3184 485
3937 3203 771
3862 3224 1163
3702 3224 1617
3520 3236 2018
3181 3293 2627
2526 3240 3423
2118 3060 3664
4094 3615 933
4094 3622 1022
4094 3637 1227
4094 3653 1492
4052 3672 1847
3885 3682 2249
3658 3750 2576
3061 3816 3070
2816 3575 3745
2491 334 0
2656 373 182
2739 511 395
2841 609 531
2964 700 606
2931 846 674
2423 1078 1170
2086 1190 1569
1381 1204 2055
2724 437 0
2717 468 196
2811 590 452
2940 726 639
3050 817 703
2917 979 886
2406 1170 1405
2093 1214 1816
1088 1253 2348
2960 799 0
2881 895 159
2808 909 553
2898 993 810
2952 1055 915
2839 1177 1261
2413 1276 1669
1943 1284 2150
636 1325 2626
3304 1066 35
3220 1160 194
3054 1385 521
2826 1498 1230
2792 1519 1516
2780 1514 1745
2476 1504 2100
1691 1501 2544
181 1523 2915
3585 1399 0
3544 1440 221
3409 1575 480
3144 1853 1088
2790 1969 1880
2799 1967 2124
2573 1879 2456
1739 1838 2892
543 1864 3209
3822 1965 0
3789 1995 87
3703 2040 544
3573 2140 877
3348 2290 1521
2902 2450 2396
2798 2367 2660
2213 2297 3057
1399 2283 3406
4054 2592 0
4045 2605 0
4006 2639 277
3896 2701 806
3800 2771 1195
3599 2836 1753
3065 2888 2835
2720 2823 3109
2244 2773 3488
4095 3250 251
4095 3255 390
4095 3264 673
4065 3276 1082
3974 3275 1459
3924 3303 1709
3599 3315 2513
3065 3319 3263
2783 3173 3475
4094 3672 884
4095 3673 982
4095 3669 1193
4095 3675 1492
4095 3680 1848
4095 3697 2215
3923 3722 2590
3599 3794 3102
3233 3657 3601
2904 402 72
3048 414 235
3080 588 485
3140 698 633
3203 768 697
3318 899 807
3091 1096 1139
2689 1255 1614
2439 1306 2087
3074 482 75
3108 512 281
3137 655 539
3230 803 731
3277 872 788
3350 1031 1012
3039 1189 1389
2731 1299 1800
2398 1350 2352
3276 860 71
3241 942 257
3170 942 628
3212 1021 863
3239 1117 1001
3249 1213 1268
3018 1325 1667
2739 1368 2090
2180 1416 2572
3603 1178 111
3528 1260 290
3394 1469 542
3246 1487 1080
3174 1543 1452
3127 1565 1698
3058 1565 2041
2723 1564 2498
1994 1606 2843
3850 1474 132
3793 1539 353
3680 1706 608
3494 1955 1078
3220 2025 1791
3121 2022 2135
3157 1945 2394
2772 1903 2825
2044 1896 3130
4088 1844 0
4070 1873 190
3999 1954 609
3847 2149 964
3620 2392 1594
3261 2463 2371
3226 2434 2632
2973 2328 2996
2452 2293 3276
4095 2423 0
4095 2436 0
4095 2469 412
4089 2546 977
4047 2636 1290
3842 2777 1940
3387 2919 2840
3253 2835 3109
2887 2763 3376
4095 3086 0
4095 3106 0
4095 3107 0
4095 3133 582
4095 3177 1096
4095 3237 1552
4065 3305 2160
3543 3355 3228
3370 3321 3442
4094 3591 641
4094 3589 747
4094 3617 950
4095 3661 1264
4095 3693 1657
4095 3732 2176
4095 3740 2475
3940 3750 3041
3577 3748 3556
3420 525 190
3418 526 326
3409 686 561
3421 817 741
3470 914 846
3495 996 970
3477 1205 1394
3192 1308 1714
2994 1388 2217
3475 645 213
3474 659 391
3443 750 611
3493 926 846
3523 1009 952
3518 1127 1153
3465 1291 1609
3212 1369 1944
3003 1421 2435
3640 1024 228
3576 1053 403
3477 1053 731
3506 1138 982
3494 1266 1191
3455 1331 1408
3451 1429 1857
3243 1463 2185
2910 1508 2685
3884 1365 251
3828 1446 438
3698 1570 666
3585 1606 1148
3506 1600 1449
3414 1678 1811
3457 1685 2182
3293 1667 2523
2842 1708 2989
4085 1654 282
4056 1717 495
3950 1877 766
3799 2099 1166
3615 2111 1737
3434 2093 2172
3444 2058 2418
3378 1976 2805
2938 1989 3174
4095 1944 195
4095 1992 409
4095 2119 831
4072 2310 1123
3920 2518 1641
3628 2532 2338
3496 2499 2671
3527 2384 2993
3200 2356 3297
4095 2369 0
4095 2388 119
4095 2424 614
4095 2522 1044
4095 2685 1419
4054 2886 2059
3691 2963 2850
3625 2879 3136
3441 2790 3405
4095 2968 193
4095 2970 294
4095 2998 631
4095 3026 843
4095 3078 1308
4095 3152 1668
4095 3273 2449
3806 3400 3265
3631 3318 3470
4095 3476 865
4095 3481 947
4095 3498 1156
4095 3518 1395
4095 3557 1747
4095 3628 2051
4095 3713 2408
4094 3763 2962
3877 3772 3557
