Postproduction/IWLTBAP - Humble/LUTs by IWLTBAP (3DL)/BONUS/Arapaho/IWLTBAP Arapaho - LOG.3dl
# Copyright: (C) Copyright 2016 by IWLTBAP for SmallHD
# Cannot be resold, shared or otherwise redistributed
# Website: http://luts.iwltbap.com
# IWLTBAP Arapaho (LOG)
0 256 512 768 1023
0 0 0
0 166 372
0 679 1027
0 998 1442
0 998 1442
497 449 0
0 518 667
0 729 1092
0 1113 1600
0 1127 1615
1983 1496 0
2017 1509 0
0 1662 1989
0 1532 2128
0 1518 2106
3397 3014 540
3419 3050 546
3183 3021 1127
671 2990 3520
0 2745 3595
3846 3608 953
3846 3607 950
3689 3627 1392
2026 3789 3072
1595 3438 3898
591 87 0
396 254 472
0 702 1057
0 1092 1567
0 1085 1558
817 411 0
127 562 678
0 769 1144
0 1169 1675
0 1173 1678
2125 1595 12
2132 1627 56
0 1774 2122
0 1605 2219
0 1602 2212
3479 3143 553
3501 3178 558
3240 3147 1188
697 3073 3613
0 2861 3699
3843 3607 943
3840 3607 950
3663 3632 1429
1923 3716 3330
1590 3437 3899
1962 281 0
2029 291 38
1728 814 922
0 1125 1705
0 1151 1700
2011 362 0
2028 377 28
1775 898 1026
0 1205 1834
0 1221 1835
2822 1494 0
2833 1532 24
1845 1818 1799
0 1751 2559
0 1761 2553
3654 3152 501
3683 3188 512
3464 3217 1235
1398 3135 3594
760 2939 3765
3990 3606 908
3987 3606 915
3829 3639 1432
2356 3824 2949
1864 3442 3881
3231 454 127
3218 441 162
3318 798 738
2806 1301 1776
2624 1331 2100
3376 522 151
3388 536 255
3469 919 849
2942 1368 2114
2853 1380 2266
3876 1406 178
3896 1455 244
3469 1836 1427
2825 1747 2872
2492 1757 2994
4095 3034 0
4095 3066 0
4095 3110 535
3486 3296 3179
3238 3234 3425
4095 3686 806
4095 3686 807
4095 3701 1215
3929 3730 2691
3263 3668 3596
3420 525 190
3422 528 219
3452 880 817
3118 1334 1834
2994 1388 2217
3466 572 189
3461 585 288
3522 958 893
3041 1392 2209
3003 1404 2321
4012 1521 263
4006 1565 348
3605 1897 1469
3047 1819 2953
2867 1830 3085
4095 2907 119
4095 2945 169
4095 2995 804
3788 3336 3214
3611 3213 3460
4095 3476 865
4095 3476 865
4095 3498 1163
4095 3708 2378
3877 3772 3557
