Postproduction/IWLTBAP - Humble/LUTs by IWLTBAP (3DL)/BONUS/Arapaho/IWLTBAP Arapaho - Standard.3dl
# Copyright: (C) Copyright 2016 by IWLTBAP for SmallHD
# Cannot be resold, shared or otherwise redistributed
# Website: http://luts.iwltbap.com
# IWLTBAP Arapaho (Rec.709)
0 64 128 192 256 320 384 448 512 576 640 704 768 832 896 960 1023
0 0 0
0 0 82
0 66 225
0 135 332
0 215 434
0 292 525
0 375 626
0 471 748
0 544 846
0 607 929
0 664 1006
0 715 1074
0 788 1167
0 852 1250
0 911 1328
0 975 1413
0 998 1442
150 222 0
0 205 258
0 279 477
0 331 565
0 380 631
0 467 741
0 530 828
0 587 904
0 635 969
0 682 1029
0 732 1096
0 789 1167
0 865 1267
0 925 1347
0 990 1433
0 1058 1525
0 1119 1603
449 410 0
279 489 188
0 481 626
0 471 704
0 487 746
0 552 842
0 623 946
0 669 1011
0 701 1056
0 735 1099
0 774 1150
0 820 1209
0 886 1296
0 940 1368
0 1000 1450
0 1084 1565
0 1132 1627
657 584 0
551 643 163
235 718 378
0 701 866
0 636 892
0 671 965
0 719 1052
0 758 1117
0 780 1153
0 808 1190
0 833 1220
0 867 1270
0 923 1348
0 971 1416
0 1036 1504
0 1118 1615
0 1178 1694
910 769 0
818 790 146
643 878 279
214 913 579
0 871 1075
0 835 1131
0 865 1211
0 884 1260
0 897 1291
0 920 1324
0 940 1348
0 951 1367
0 990 1423
0 1029 1481
0 1086 1564
0 1170 1678
0 1226 1758
1188 975 0
1154 979 62
996 1010 314
686 1107 437
239 1114 797
0 1103 1329
0 1053 1399
0 1055 1452
0 1065 1489
0 1072 1511
0 1090 1539
0 1088 1546
0 1104 1569
0 1123 1592
0 1164 1652
0 1245 1763
0 1298 1842
1500 1180 0
1490 1176 0
1376 1202 237
1170 1238 475
798 1316 628
201 1375 1133
0 1354 1604
0 1262 1660
0 1253 1702
0 1257 1735
0 1274 1770
0 1265 1776
0 1269 1789
0 1270 1793
0 1289 1815
0 1344 1882
0 1381 1936
1844 1396 0
1848 1391 0
1756 1415 130
1588 1424 432
1321 1473 664
881 1549 892
314 1621 1430
0 1579 1885
0 1478 1924
0 1465 1973
0 1470 2005
0 1462 2030
0 1470 2049
0 1468 2050
0 1472 2054
0 1502 2088
0 1502 2084
2154 1626 15
2171 1622 16
2102 1636 129
1980 1643 356
1780 1644 651
1503 1730 891
1026 1748 1122
452 1860 1772
0 1806 2163
0 1707 2205
0 1685 2248
0 1665 2277
0 1664 2298
0 1659 2296
0 1661 2296
0 1692 2331
0 1670 2305
2407 1846 146
2415 1833 136
2375 1847 220
2284 1858 395
2145 1854 607
1914 1876 930
1693 1931 1132
1124 1940 1415
594 2079 2089
0 2036 2441
0 1930 2493
0 1880 2522
0 1870 2545
0 1852 2540
0 1843 2530
0 1863 2541
0 1851 2526
2640 2057 228
2645 2040 199
2618 2052 303
2549 2059 456
2442 2062 657
2267 2065 913
2083 2067 1162
1830 2115 1383
1260 2155 1741
618 2329 2463
0 2252 2721
0 2129 2754
0 2079 2786
0 2051 2778
0 2032 2766
0 2033 2754
0 2013 2722
2881 2279 290
2873 2256 258
2857 2265 355
2799 2266 503
2713 2265 692
2585 2270 947
2463 2252 1114
2286 2263 1404
2031 2294 1625
1421 2366 2026
697 2593 2805
296 2465 2935
0 2333 3011
0 2270 3025
0 2226 2998
0 2216 2978
0 2183 2936
3089 2515 399
3090 2487 350
3062 2487 443
3027 2489 557
2962 2490 732
2836 2491 998
2744 2467 1145
2625 2467 1359
2470 2483 1606
2142 2508 1836
1481 2641 2357
911 2797 3016
529 2657 3158
19 2534 3240
0 2465 3259
0 2423 3223
0 2374 3167
3248 2777 502
3234 2731 456
3217 2736 530
3180 2739 646
3129 2747 796
3065 2787 1017
2977 2749 1146
2877 2744 1341
2765 2756 1540
2607 2814 1760
2057 2875 1995
1638 2918 2498
999 3016 3252
624 2865 3384
41 2719 3453
0 2661 3488
0 2590 3431
3441 3085 552
3422 3032 510
3402 3032 573
3374 3038 675
3341 3051 817
3271 3093 1043
3192 3059 1165
3109 3054 1313
3039 3081 1486
2931 3132 1683
2721 3235 1905
2096 3210 2049
1602 3223 2771
1068 3217 3474
701 3053 3591
130 2944 3691
0 2845 3689
3643 3389 597
3620 3350 543
3608 3352 602
3580 3353 695
3538 3357 841
3480 3393 1067
3416 3374 1167
3350 3394 1302
3283 3416 1442
3193 3456 1599
3068 3548 1802
2803 3565 1955
2161 3584 2231
1572 3529 3058
1137 3425 3704
840 3270 3833
604 3150 3842
3846 3608 953
3839 3592 871
3818 3597 938
3788 3600 1035
3748 3608 1160
3712 3628 1359
3664 3626 1417
3606 3648 1531
3545 3676 1666
3437 3716 1812
3305 3778 2038
3126 3811 2144
2721 3836 2200
2226 3836 2765
1883 3682 3430
1685 3524 3867
1595 3438 3898
7 0 0
0 35 147
0 118 299
0 175 398
0 252 489
0 324 569
0 412 674
0 500 787
0 568 876
0 629 959
0 683 1032
0 736 1101
0 818 1206
0 879 1286
0 938 1364
0 1004 1452
0 1065 1531
314 198 0
11 265 330
0 337 543
0 375 620
0 415 675
0 488 772
0 564 874
0 614 940
0 664 1007
0 705 1060
0 751 1119
0 821 1210
0 891 1302
0 950 1379
0 1016 1469
0 1085 1560
0 1150 1646
541 427 0
287 529 230
0 512 679
0 497 737
0 513 778
0 577 879
0 643 972
0 687 1034
0 724 1084
0 756 1127
0 792 1173
0 851 1250
0 909 1329
0 966 1407
0 1030 1493
0 1105 1593
0 1173 1682
763 595 0
551 696 190
206 760 417
0 724 907
0 659 924
0 694 997
0 751 1091
0 781 1148
0 805 1183
0 829 1214
0 850 1244
0 897 1309
0 950 1383
0 1000 1454
0 1068 1548
0 1145 1653
0 1214 1746
1019 796 0
829 839 187
637 924 293
171 949 633
0 911 1119
0 871 1179
0 904 1261
0 917 1300
0 932 1333
0 946 1356
0 954 1367
0 979 1400
0 1016 1454
0 1058 1518
0 1116 1603
0 1196 1714
0 1266 1811
1292 1006 0
1166 1022 135
994 1060 342
670 1146 475
166 1163 887
0 1138 1373
0 1094 1451
0 1099 1503
0 1110 1542
0 1112 1558
0 1106 1561
0 1116 1580
0 1127 1595
0 1150 1627
0 1191 1686
0 1267 1793
0 1334 1887
1590 1209 0
1522 1228 28
1368 1239 312
1167 1286 502
784 1358 686
237 1408 1153
0 1390 1663
0 1303 1704
0 1294 1749
0 1295 1781
0 1294 1799
0 1297 1814
0 1300 1825
0 1302 1831
0 1317 1848
0 1351 1890
0 1411 1973
1903 1430 0
1880 1440 0
1770 1456 211
1574 1457 499
1354 1519 686
910 1577 914
240 1675 1565
0 1622 1927
0 1511 1964
0 1488 1997
0 1483 2027
0 1489 2058
0 1488 2068
0 1491 2074
0 1493 2078
0 1502 2088
0 1530 2118
2200 1653 23
2176 1661 73
2093 1668 215
1968 1672 431
1761 1674 715
1535 1751 916
942 1778 1201
378 1905 1877
0 1835 2199
0 1730 2234
0 1696 2269
0 1685 2294
0 1680 2311
0 1676 2310
0 1679 2313
0 1692 2329
0 1691 2326
2437 1859 134
2416 1868 188
2379 1880 273
2281 1887 467
2133 1873 663
1926 1893 953
1678 1963 1172
1088 1981 1498
456 2142 2219
0 2052 2474
0 1942 2512
0 1901 2540
0 1875 2545
0 1864 2546
0 1854 2535
0 1858 2534
0 1860 2531
2654 2065 203
2639 2073 269
2608 2080 366
2538 2084 520
2446 2086 698
2281 2075 919
2080 2096 1199
1776 2138 1420
1215 2192 1817
523 2370 2533
0 2267 2728
0 2147 2769
0 2092 2791
0 2063 2784
0 2041 2765
0 2023 2739
0 2019 2723
2893 2279 258
2881 2289 320
2846 2291 425
2788 2287 558
2707 2283 734
2593 2276 944
2465 2273 1151
2290 2288 1432
1978 2314 1657
1377 2394 2085
705 2595 2799
153 2480 2971
0 2348 3029
0 2279 3024
0 2230 2993
0 2200 2954
0 2184 2926
3095 2512 363
3084 2514 413
3040 2508 502
3003 2506 612
2944 2507 775
2851 2498 970
2744 2491 1172
2606 2491 1403
2461 2518 1634
2061 2528 1847
1498 2636 2325
848 2816 3049
428 2677 3193
0 2546 3252
0 2459 3243
0 2397 3189
0 2370 3149
3242 2757 461
3233 2760 504
3212 2764 579
3167 2765 685
3119 2770 826
3056 2774 991
2970 2773 1173
2864 2773 1374
2755 2798 1560
2592 2849 1767
2036 2862 1975
1547 2947 2568
892 3022 3293
506 2884 3415
0 2717 3463
0 2635 3455
0 2587 3418
3425 3049 499
3409 3050 552
3390 3051 607
3367 3070 711
3337 3078 845
3259 3069 1007
3178 3070 1180
3106 3080 1341
3045 3124 1500
2934 3167 1687
2718 3222 1876
2028 3239 2099
1461 3249 2851
986 3219 3511
555 3067 3621
0 2912 3669
0 2841 3668
3619 3368 542
3620 3371 583
3595 3372 641
3572 3370 742
3521 3375 871
3464 3382 1030
3405 3395 1187
3351 3420 1316
3280 3440 1458
3179 3475 1612
3043 3523 1769
2741 3583 1933
2089 3608 2270
1444 3529 3134
1056 3421 3730
697 3272 3826
312 3135 3850
3833 3604 907
3822 3606 943
3804 3610 997
3781 3615 1092
3735 3621 1206
3697 3629 1332
3648 3648 1464
3595 3675 1588
3530 3703 1718
3430 3740 1851
3303 3780 2013
3054 3834 2149
2583 3849 2212
2135 3834 2859
1892 3669 3506
1629 3526 3871
1522 3427 3905
220 12 0
316 78 153
169 147 314
0 228 474
0 286 557
0 361 633
0 439 715
0 523 820
0 585 901
0 647 983
0 700 1053
0 755 1124
0 838 1231
0 896 1307
0 960 1393
0 1024 1479
0 1087 1560
551 186 0
316 310 298
102 347 496
0 396 667
0 444 729
0 513 818
0 584 908
0 629 965
0 677 1026
0 715 1074
0 762 1133
0 829 1220
0 897 1308
0 953 1384
0 1022 1476
0 1094 1571
0 1159 1657
766 390 0
523 481 206
99 526 639
0 538 801
0 555 843
0 615 935
0 676 1021
0 715 1075
0 744 1113
0 770 1145
0 803 1185
0 862 1264
0 920 1342
0 974 1416
0 1038 1502
0 1113 1604
0 1186 1699
911 602 0
760 669 115
416 750 394
0 742 931
0 690 972
0 719 1041
0 769 1126
0 800 1178
0 825 1214
0 848 1243
0 863 1262
0 909 1326
0 959 1396
0 1008 1464
0 1078 1563
0 1152 1664
0 1221 1753
1148 805 0
995 854 91
756 911 335
305 967 620
0 944 1149
0 891 1215
0 918 1288
0 935 1331
0 947 1358
0 960 1381
0 968 1391
0 991 1421
0 1023 1467
0 1064 1528
0 1121 1611
0 1201 1723
0 1270 1818
1382 1021 0
1268 1045 54
1078 1058 358
800 1160 492
328 1174 847
0 1170 1412
0 1118 1489
0 1113 1531
0 1119 1564
0 1119 1577
0 1116 1583
0 1130 1606
0 1141 1621
0 1160 1643
0 1201 1702
0 1271 1801
0 1338 1894
1662 1224 0
1609 1251 0
1459 1266 265
1240 1284 516
864 1365 684
336 1425 1150
0 1396 1685
0 1321 1736
0 1306 1770
0 1306 1804
0 1304 1821
0 1306 1834
0 1307 1842
0 1309 1845
0 1329 1867
0 1364 1910
0 1416 1981
1962 1438 0
1935 1457 0
1835 1476 162
1646 1477 468
1402 1521 712
1008 1588 918
326 1683 1518
0 1631 1952
0 1532 1992
0 1510 2032
0 1500 2055
0 1508 2091
0 1505 2096
0 1505 2098
0 1505 2097
0 1514 2108
0 1539 2135
2235 1662 25
2218 1679 69
2145 1682 180
2012 1692 423
1806 1683 708
1585 1754 928
1022 1783 1188
408 1919 1909
0 1846 2214
0 1743 2260
0 1708 2292
0 1696 2315
0 1687 2325
0 1683 2326
0 1684 2325
0 1689 2331
0 1694 2333
2462 1866 128
2437 1877 188
2411 1889 262
2299 1896 466
2167 1889 656
1960 1898 957
1713 1966 1179
1148 1982 1484
497 2145 2223
0 2061 2484
0 1950 2527
0 1909 2563
0 1889 2568
0 1871 2562
0 1860 2547
0 1860 2540
0 1864 2543
2683 2073 189
2667 2083 267
2636 2090 365
2561 2093 516
2461 2094 704
2317 2085 906
2107 2101 1206
1837 2148 1430
1267 2195 1808
531 2380 2556
0 2270 2728
0 2156 2788
0 2098 2806
0 2068 2796
0 2047 2774
0 2027 2750
0 2022 2731
2913 2292 262
2904 2298 319
2873 2302 417
2799 2288 557
2716 2290 747
2622 2286 935
2478 2280 1159
2309 2295 1449
2014 2320 1665
1397 2405 2106
730 2603 2813
301 2482 2965
0 2356 3043
0 2287 3041
0 2237 3004
0 2208 2970
0 2188 2936
3108 2518 360
3095 2519 418
3066 2518 495
3014 2513 621
2952 2514 789
2859 2504 984
2754 2497 1179
2636 2500 1397
2477 2523 1640
2098 2539 1857
1507 2646 2343
886 2818 3046
484 2678 3189
0 2553 3262
0 2466 3255
0 2402 3200
0 2378 3166
3252 2763 467
3243 2766 510
3225 2771 579
3189 2773 687
3138 2778 830
3071 2782 1006
2975 2776 1176
2885 2779 1379
2776 2802 1569
2621 2864 1778
2112 2880 1965
1599 2960 2547
927 3024 3290
570 2886 3413
0 2732 3470
0 2650 3472
0 2591 3427
3444 3066 509
3432 3067 553
3403 3068 618
3379 3063 723
3347 3083 858
3279 3086 1020
3187 3075 1191
3123 3094 1344
3051 3127 1513
2945 3167 1694
2734 3211 1892
2092 3247 2064
1489 3241 2855
978 3213 3520
655 3070 3616
24 2915 3670
0 2834 3670
3634 3369 550
3628 3372 591
3613 3375 644
3574 3370 745
3530 3375 875
3474 3383 1034
3409 3394 1199
3356 3420 1331
3285 3441 1474
3188 3475 1623
3048 3523 1786
2762 3582 1942
2106 3622 2279
1478 3532 3127
1097 3424 3729
787 3250 3817
393 3136 3849
3847 3605 917
3835 3608 953
3819 3611 1012
3779 3616 1104
3744 3622 1210
3708 3629 1335
3665 3655 1475
3602 3676 1604
3539 3702 1730
3436 3741 1869
3316 3778 2023
3079 3831 2162
2617 3848 2223
2166 3835 2852
1914 3665 3528
1631 3526 3871
1519 3419 3906
505 69 0
542 108 148
647 181 286
368 245 460
0 318 615
0 393 725
0 483 803
0 555 881
0 611 946
0 662 1008
0 709 1067
0 765 1135
0 845 1237
0 903 1315
0 972 1407
0 1039 1496
0 1100 1574
786 204 0
589 319 268
668 352 420
340 380 608
0 456 790
0 532 888
0 606 967
0 654 1017
0 694 1061
0 731 1104
0 772 1153
0 834 1228
0 898 1309
0 957 1386
0 1028 1482
0 1103 1581
