Postproduction/IWLTBAP - Humble/LUTs by IWLTBAP (3DL)/BONUS/Arapaho/IWLTBAP Arapaho - V-Log.3dl
# Copyright: (C) Copyright 2010-2017 by IWLTBAP SAS for SmallHD
# Cannot be resold, shared or otherwise redistributed
# Website: https://luts.iwltbap.com
# IWLTBAP Arapaho (V-Log)
0 64 128 192 256 320 384 448 512 576 640 704 768 832 896 960 1023
0 0 0
0 0 0
0 0 0
0 0 29
0 11 120
0 59 230
0 138 331
0 217 442
0 321 570
0 479 766
0 628 965
0 806 1197
0 1019 1473
0 1075 1541
0 1091 1557
0 1091 1573
0 1108 1589
0 0 0
0 0 0
0 0 0
0 16 60
0 44 152
0 91 262
0 154 362
0 242 467
0 353 609
0 502 791
0 638 981
0 818 1207
0 1034 1489
0 1090 1557
0 1091 1573
0 1108 1589
0 1108 1604
0 0 0
0 0 0
0 13 16
0 30 75
0 74 184
0 137 309
0 200 419
0 289 527
0 399 664
0 541 838
0 668 1011
0 839 1238
0 1049 1505
0 1091 1573
0 1108 1589
0 1109 1603
0 1124 1605
74 119 0
42 119 16
29 119 32
0 119 151
0 166 287
0 229 415
0 277 501
0 343 593
0 462 743
0 573 881
0 686 1045
0 866 1272
0 1064 1530
0 1108 1586
0 1110 1602
0 1124 1606
0 1140 1621
256 297 0
241 309 16
222 309 46
118 325 167
0 309 385
0 340 531
0 375 610
0 422 675
0 513 798
0 624 957
0 714 1073
0 898 1316
0 1083 1553
0 1108 1592
0 1124 1607
0 1136 1621
0 1140 1637
466 439 10
450 454 32
423 469 62
355 498 138
188 514 288
0 514 659
0 498 722
0 503 758
0 573 862
0 676 1020
0 755 1125
0 898 1320
0 1095 1577
0 1124 1605
0 1126 1621
0 1140 1637
0 1156 1654
640 598 32
619 608 64
594 614 104
563 643 151
447 690 220
196 720 410
0 704 865
0 640 897
0 680 977
0 762 1110
0 829 1210
0 914 1330
0 1091 1579
0 1117 1605
0 1124 1621
0 1140 1637
0 1146 1643
921 797 23
906 806 48
875 806 94
819 823 169
755 858 233
611 905 311
268 935 547
0 903 1079
0 855 1168
0 910 1277
0 955 1366
0 1018 1450
0 1165 1667
0 1206 1729
0 1208 1745
0 1222 1752
0 1231 1761
1316 1067 0
1308 1067 16
1286 1083 78
1239 1083 173
1164 1087 281
1069 1119 372
881 1174 461
480 1212 706
0 1236 1429
0 1148 1540
0 1178 1625
0 1220 1715
0 1296 1826
0 1373 1911
0 1373 1927
0 1373 1935
0 1389 1935
1884 1446 0
1869 1446 13
1838 1446 76
1807 1455 145
1744 1455 239
1672 1455 363
1547 1455 536
1346 1514 690
838 1584 978
0 1655 1910
0 1504 2004
0 1533 2114
0 1584 2193
0 1640 2265
0 1631 2258
0 1624 2258
0 1624 2249
2440 1911 254
2424 1911 286
2408 1911 317
2385 1911 364
2354 1911 421
2307 1911 495
2234 1911 602
2110 1911 786
1911 1939 1039
1409 1995 1354
54 2135 2507
0 1943 2612
0 1951 2655
0 1979 2691
0 1979 2681
0 1979 2681
0 1979 2675
3006 2485 565
2989 2485 597
2978 2485 629
2962 2485 674
2946 2485 721
2914 2490 789
2861 2485 901
2787 2474 1028
2720 2458 1149
2565 2460 1409
2080 2519 1843
576 2688 3143
0 2480 3275
0 2480 3293
0 2467 3291
0 2464 3276
0 2459 3260
3516 3372 959
3500 3372 995
3488 3372 1033
3475 3384 1076
3460 3384 1108
3445 3384 1136
3420 3372 1178
3383 3372 1241
3340 3388 1328
3272 3411 1470
3133 3486 1714
2335 3581 2134
903 3304 3821
820 3260 3870
786 3233 3874
754 3218 3862
734 3199 3862
3597 3519 1207
3584 3519 1223
3581 3519 1239
3565 3519 1255
3552 3519 1271
3532 3519 1298
3509 3519 1342
3478 3536 1406
3436 3552 1488
3361 3575 1610
3206 3660 1863
2500 3717 2187
1303 3435 3846
1258 3359 3873
1211 3343 3886
1180 3327 3886
1146 3311 3902
3631 3551 1254
3629 3551 1270
3615 3551 1286
3602 3551 1302
3597 3551 1318
3572 3551 1343
3551 3565 1377
3525 3574 1440
3478 3589 1527
3408 3620 1654
3251 3691 1911
2592 3762 2192
1441 3468 3850
1369 3404 3886
1369 3388 3886
1335 3373 3887
1290 3358 3902
3677 3597 1301
3662 3597 1317
3648 3597 1333
3645 3597 1349
3630 3597 1366
3614 3597 1382
3597 3598 1424
3565 3614 1487
3525 3630 1573
3445 3662 1691
3285 3737 1947
2664 3794 2216
1579 3513 3838
1495 3437 3886
1479 3421 3887
1479 3420 3902
1447 3404 3902
3709 3629 1348
3694 3629 1365
3693 3629 1381
3677 3629 1397
3677 3629 1413
3661 3629 1429
3635 3645 1471
3604 3654 1518
3573 3669 1613
3486 3700 1732
3332 3769 1989
2748 3838 2239
1710 3561 3838
1618 3481 3902
1605 3468 3902
1589 3452 3902
1589 3436 3902
0 0 0
0 0 0
0 0 0
0 0 45
0 16 124
0 75 246
0 138 341
0 226 451
0 337 578
0 486 775
0 638 965
0 806 1197
0 1023 1473
0 1075 1541
0 1091 1557
0 1091 1573
0 1108 1589
0 0 0
0 14 16
0 14 16
0 31 76
0 47 168
0 106 279
0 169 378
0 248 482
0 368 617
0 510 806
0 644 981
0 823 1213
0 1034 1489
0 1090 1557
0 1091 1573
0 1108 1588
0 1108 1604
0 0 0
0 16 16
0 16 31
0 45 90
0 90 200
0 140 325
0 215 434
0 294 538
0 413 670
0 541 845
0 668 1013
0 839 1238
0 1049 1505
0 1091 1573
0 1108 1589
0 1122 1604
0 1124 1619
90 119 0
58 135 31
44 135 46
0 121 164
0 182 291
0 229 417
0 280 514
0 352 597
0 469 750
0 576 894
0 686 1045
0 866 1272
0 1064 1534
0 1108 1589
0 1110 1602
0 1124 1606
0 1140 1621
260 297 0
244 313 31
226 325 48
118 325 169
0 309 401
0 345 543
0 377 612
0 422 678
0 517 806
0 629 957
0 717 1077
0 898 1316
0 1083 1561
0 1111 1601
0 1124 1607
0 1140 1621
0 1140 1637
466 439 16
450 455 43
423 471 73
355 500 141
188 530 299
0 514 670
0 503 727
0 503 760
0 573 870
0 676 1020
0 755 1131
0 898 1320
0 1095 1577
0 1124 1605
0 1126 1621
0 1140 1637
0 1156 1654
640 608 42
624 613 74
594 628 106
560 656 154
447 700 222
186 730 421
0 704 865
0 647 897
0 686 983
0 765 1110
0 829 1214
0 919 1336
0 1097 1589
0 1124 1605
0 1131 1621
0 1140 1637
0 1156 1654
921 806 32
906 806 54
875 813 110
819 827 182
755 862 245
611 921 313
267 941 554
0 912 1094
0 871 1176
0 917 1279
0 958 1372
0 1023 1450
0 1165 1667
0 1206 1735
0 1221 1745
0 1223 1761
0 1238 1777
1324 1083 7
1316 1083 24
1278 1083 94
1239 1083 188
1164 1099 285
1069 1119 383
881 1182 461
472 1212 721
0 1244 1437
0 1157 1540
0 1178 1635
0 1225 1723
0 1303 1830
0 1373 1922
0 1373 1927
0 1389 1935
0 1389 1951
1884 1446 16
1869 1446 30
1845 1462 92
1807 1462 155
1744 1462 255
1672 1455 379
1547 1470 543
1353 1520 697
830 1585 986
0 1664 1910
0 1510 2004
0 1533 2114
0 1584 2193
0 1640 2265
0 1640 2258
0 1630 2258
0 1624 2258
2440 1911 270
2424 1911 287
2408 1920 327
2385 1921 366
2354 1921 427
2297 1911 506
2234 1911 606
2110 1911 786
1911 1949 1039
1394 1996 1371
54 2135 2507
0 1944 2612
0 1951 2655
0 1979 2691
0 1979 2681
0 1979 2681
0 1979 2675
3006 2485 581
2989 2485 612
2978 2485 643
2962 2485 676
2946 2485 721
2914 2490 790
2861 2490 896
2787 2474 1028
2720 2466 1152
2565 2474 1423
2065 2519 1838
561 2699 3154
0 2469 3275
0 2480 3293
0 2464 3276
0 2464 3276
0 2449 3260
3504 3360 947
3500 3372 990
3484 3372 1023
3473 3384 1067
3460 3384 1104
3440 3384 1147
3414 3378 1178
3383 3376 1241
3336 3392 1328
3272 3411 1474
3131 3486 1708
2315 3585 2139
887 3304 3821
791 3248 3870
747 3231 3874
714 3215 3862
694 3187 3862
3585 3519 1207
3584 3519 1223
3569 3519 1250
3565 3519 1265
3549 3519 1287
3532 3519 1311
3509 3519 1345
3478 3536 1409
3431 3552 1496
3361 3584 1622
3206 3660 1863
2484 3728 2204
1302 3435 3846
1242 3359 3873
1196 3343 3886
1162 3327 3886
1130 3311 3902
3631 3551 1254
3616 3551 1270
3613 3565 1298
3599 3565 1313
3587 3565 1328
3572 3565 1350
3549 3567 1391
3525 3581 1456
3478 3599 1541
3408 3622 1659
3251 3691 1898
2566 3762 2197
1425 3468 3850
1366 3403 3886
1352 3388 3886
1320 3372 3887
1275 3356 3902
3662 3597 1301
3661 3597 1317
3646 3597 1346
3645 3598 1349
3630 3598 1366
3614 3598 1393
3597 3598 1430
3565 3614 1495
3525 3630 1581
3445 3662 1701
3285 3737 1942
2648 3806 2210
1567 3513 3838
1479 3436 3886
1478 3421 3888
1463 3420 3902
1431 3390 3902
3709 3629 1348
3693 3629 1365
3693 3629 1395
3677 3629 1397
3665 3629 1413
3650 3629 1440
3635 3645 1471
3604 3661 1534
3566 3677 1621
3486 3700 1739
3332 3769 1980
2721 3838 2244
1706 3561 3838
1605 3469 3902
1589 3468 3902
1589 3452 3902
1573 3436 3902
0 0 0
0 0 0
0 0 0
0 0 45
0 28 138
0 75 246
0 138 357
0 226 456
0 337 586
0 495 775
0 638 973
0 806 1197
0 1023 1473
0 1075 1541
0 1091 1557
0 1091 1573
0 1108 1589
0 0 0
0 14 16
0 14 16
0 31 75
0 60 171
0 107 280
0 170 389
0 258 488
0 368 624
0 511 807
0 653 990
0 823 1213
0 1035 1489
0 1090 1557
0 1091 1573
0 1108 1589
0 1123 1604
16 0 0
13 16 16
0 32 46
0 75 121
0 108 244
0 167 358
0 216 439
0 294 543
0 415 680
0 541 854
0 670 1021
0 848 1238
0 1049 1509
0 1106 1576
0 1108 1591
0 1124 1605
0 1138 1621
119 120 0
86 135 31
45 152 62
0 136 181
0 198 321
0 246 448
0 294 531
0 366 623
0 478 765
0 589 910
0 699 1052
0 866 1272
0 1067 1537
0 1111 1602
0 1124 1607
0 1138 1622
0 1140 1637
303 309 0
275 325 17
240 339 62
132 341 183
0 325 417
0 356 548
0 389 628
0 434 691
0 531 829
0 629 973
0 718 1083
0 898 1316
0 1083 1561
0 1124 1605
0 1136 1621
0 1140 1635
0 1156 1652
496 450 12
465 466 33
423 485 78
357 514 143
187 541 300
0 530 686
0 503 738
0 515 769
0 589 886
0 692 1036
0 755 1131
0 914 1334
0 1095 1581
0 1124 1608
0 1138 1621
0 1140 1637
0 1156 1654
670 608 32
634 624 64
608 640 106
563 659 151
447 706 220
184 736 417
0 720 881
0 656 910
0 696 993
0 765 1126
0 835 1220
0 928 1350
0 1101 1589
0 1124 1608
0 1140 1623
0 1141 1638
0 1156 1654
928 813 39
921 823 54
889 823 101
835 839 173
768 874 242
622 921 313
267 951 564
0 919 1105
0 871 1184
0 924 1295
0 964 1380
0 1023 1466
0 1177 1683
0 1209 1739
0 1222 1745
0 1223 1761
0 1238 1777
1332 1089 7
1332 1089 24
1302 1099 86
1239 1099 180
1176 1104 285
1083 1135 388
887 1190 461
480 1228 722
0 1252 1453
0 1164 1556
0 1194 1648
0 1225 1723
0 1304 1834
0 1373 1922
0 1379 1935
0 1389 1936
0 1389 1951
1893 1462 23
1877 1462 39
1861 1462 92
1816 1469 155
1760 1469 255
1677 1462 379
1550 1471 543
1363 1521 697
831 1600 987
0 1671 1926
0 1510 2014
0 1535 2114
0 1584 2202
0 1640 2265
0 1640 2265
0 1640 2258
0 1633 2258
2440 1921 270
2425 1927 293
2414 1927 333
2392 1927 380
2354 1927 437
2307 1921 511
2234 1911 606
2119 1914 777
1919 1949 1039
1388 1996 1372
46 2135 2517
0 1954 2612
0 1951 2655
0 1979 2681
0 1979 2681
0 1979 2681
0 1979 2675
3006 2485 581
2989 2485 612
2978 2485 643
2962 2485 677
2946 2485 725
2914 2490 790
2865 2490 885
2803 2474 1017
2720 2469 1160
2565 2474 1423
2057 2519 1838
543 2699 3159
0 2465 3271
0 2480 3293
0 2464 3276
0 2464 3276
0 2448 3260
3504 3368 943
3500 3372 979
3484 3372 1021
3472 3384 1064
3456 3384 1099
3440 3384 1147
3414 3384 1182
3383 3376 1245
3340 3392 1336
3272 3422 1474
3127 3486 1708
2305 3586 2139
871 3304 3821
763 3247 3870
720 3231 3874
685 3215 3872
654 3187 3862
3584 3519 1191
3581 3519 1223
3568 3519 1250
3555 3519 1271
3549 3519 1287
3524 3519 1317
3505 3532 1358
3478 3542 1420
3431 3557 1504
3361 3588 1626
3206 3660 1852
2468 3730 2198
1286 3435 3846
1226 3359 3886
1181 3341 3886
1146 3326 3887
1102 3311 3902
3629 3551 1238
3615 3551 1270
3613 3565 1298
3599 3565 1318
3583 3565 1334
3567 3565 1360
3549 3567 1397
3518 3583 1456
3478 3599 1543
3408 3631 1670
3251 3691 1894
2549 3764 2199
1425 3468 3850
1350 3392 3886
1336 3388 3886
1303 3372 3902
1260 3356 3902
3662 3597 1285
3661 3597 1317
3646 3598 1346
3633 3598 1366
3629 3598 1380
3613 3598 1398
3588 3613 1440
3565 3622 1503
3525 3637 1589
3445 3668 1707
3285 3737 1942
2632 3806 2211
1553 3513 3838
1465 3436 3887
1463 3421 3902
1449 3405 3902
1415 3389 3902
3709 3629 1332
3693 3629 1365
3693 3629 1381
3677 3629 1411
3661 3629 1427
3650 3645 1445
3629 3645 1487
3604 3661 1543
3565 3677 1629
3486 3709 1748
3332 3769 1979
2704 3843 2235
1694 3561 3838
1589 3468 3902
1575 3466 3902
1573 3452 3902
1559 3436 3902
0 0 0
12 0 0
14 0 0
0 12 61
0 44 153
0 91 262
0 154 373
0 233 471
0 337 602
0 495 791
0 638 981
0 806 1197
0 1023 1473
0 1075 1541
0 1091 1557
0 1091 1573
0 1108 1589
47 0 0
16 31 16
29 31 31
0 45 92
0 75 185
0 122 294
0 185 408
0 264 503
0 369 639
0 518 823
0 654 997
0 823 1213
0 1034 1489
0 1091 1557
0 1093 1573
0 1108 1589
