Postproduction/IWLTBAP - Humble/LUTs by IWLTBAP (CUBE)/BONUS/Aspen/IWLTBAP Aspen - LOG.cube
# Copyright: (C) Copyright 2010-2017 by IWLTBAP SAS
# Cannot be resold, shared or otherwise redistributed
# Website: https://luts.iwltbap.com
TITLE "IWLTBAP Aspen (LOG)"
LUT_3D_SIZE 32
0.008636 0.019836 0.029327
0.011052 0.017768 0.023111
0.015940 0.016598 0.018598
0.022464 0.016418 0.016430
0.037747 0.018060 0.014726
0.065079 0.023096 0.012125
0.093788 0.029077 0.006965
0.118023 0.035795 0.006183
0.150873 0.043370 0.007277
0.191806 0.053250 0.009926
0.243358 0.066014 0.011441
0.312757 0.080786 0.013836
0.399300 0.103613 0.018736
0.477812 0.122778 0.024393
0.536046 0.140222 0.030718
0.587517 0.151158 0.033142
0.646542 0.168677 0.042491
0.692430 0.183310 0.050086
0.732323 0.189859 0.052740
0.776829 0.201138 0.062233
0.802520 0.208196 0.066339
0.819229 0.207110 0.067519
0.830550 0.206095 0.067648
0.840863 0.207088 0.068212
0.851716 0.208297 0.069892
0.863777 0.210126 0.072114
0.870994 0.209287 0.072888
0.876435 0.207912 0.073279
0.881245 0.207097 0.073624
0.884186 0.206382 0.073788
0.886049 0.205369 0.073822
0.887512 0.203979 0.073792
0.008465 0.027946 0.039518
0.010461 0.026362 0.033662
0.016452 0.024547 0.027231
0.025686 0.023358 0.021717
0.039059 0.024125 0.019915
0.065234 0.028397 0.017645
0.094642 0.033037 0.012316
0.119737 0.039383 0.010318
0.154359 0.047753 0.010670
0.194949 0.057630 0.012618
0.247863 0.070027 0.013849
0.316008 0.084248 0.015988
0.403499 0.107738 0.020900
0.476208 0.126261 0.025602
0.533618 0.143585 0.032228
0.586198 0.155124 0.034749
0.647507 0.172621 0.044258
0.693518 0.187299 0.051808
0.732623 0.193659 0.054218
0.777057 0.204401 0.062818
0.803515 0.212679 0.067607
0.820566 0.211230 0.068506
0.831823 0.210177 0.068736
0.842184 0.211298 0.069385
0.853084 0.212794 0.071157
0.864732 0.214987 0.073362
0.872210 0.214010 0.074215
0.877879 0.212678 0.074586
0.882934 0.211818 0.074866
0.886125 0.211275 0.075058
0.888116 0.210362 0.075094
0.889951 0.209373 0.075126
0.008976 0.036619 0.048574
0.010845 0.035405 0.043999
0.013525 0.034047 0.038814
0.024403 0.032010 0.031019
0.040663 0.031564 0.026063
0.064125 0.034906 0.024078
0.092355 0.039568 0.019580
0.120775 0.044161 0.015528
0.158349 0.052317 0.014616
0.198711 0.062096 0.015517
0.252614 0.074223 0.016675
0.319683 0.088020 0.018198
0.406282 0.111826 0.022964
0.474622 0.129639 0.027072
0.531196 0.147015 0.033747
0.585724 0.159325 0.036433
0.648101 0.176030 0.045936
0.694724 0.191270 0.053513
0.733088 0.197533 0.055923
0.777371 0.208028 0.063790
0.804462 0.216843 0.068698
0.821924 0.215442 0.069416
0.833490 0.214671 0.069751
0.843729 0.216028 0.070707
0.854632 0.217550 0.072494
0.866163 0.219790 0.074696
0.873723 0.218478 0.075460
0.879458 0.217172 0.075881
0.884397 0.216634 0.076199
0.887583 0.216087 0.076361
0.889633 0.215469 0.076457
0.891649 0.214582 0.076490
0.009149 0.044167 0.056357
0.010904 0.043732 0.053692
0.013303 0.042839 0.049770
0.016266 0.041775 0.045370
0.032698 0.041146 0.037638
0.059564 0.042744 0.032658
0.088003 0.047354 0.027431
0.121446 0.050984 0.022314
0.160403 0.057082 0.019240
0.202056 0.066704 0.018602
0.257104 0.078610 0.019694
0.322852 0.091994 0.020957
0.406401 0.115515 0.024371
0.474232 0.133318 0.029070
0.528865 0.150511 0.035434
0.585865 0.163372 0.038140
0.648456 0.179219 0.047650
0.696035 0.195356 0.055311
0.733659 0.201546 0.057693
0.777840 0.212371 0.065394
0.805632 0.221423 0.070060
0.823636 0.220521 0.070676
0.835469 0.219870 0.071074
0.845398 0.221133 0.072197
0.856134 0.222696 0.073954
0.867536 0.224692 0.076054
0.875162 0.223079 0.076754
0.881080 0.221733 0.077216
0.885922 0.221351 0.077534
0.889074 0.221074 0.077726
0.891124 0.220473 0.077822
0.893134 0.219822 0.077857
0.009717 0.054223 0.070746
0.011102 0.052992 0.066509
0.012736 0.052159 0.062605
0.014930 0.051410 0.058096
0.023913 0.051918 0.053241
0.049772 0.052914 0.045040
0.082206 0.055289 0.037527
0.118950 0.059667 0.030662
0.162226 0.064731 0.025907
0.206270 0.073456 0.023359
0.261159 0.083433 0.023025
0.325484 0.096559 0.024691
0.405312 0.119389 0.025757
0.473817 0.137266 0.031127
0.527206 0.153850 0.037229
0.585216 0.167760 0.040309
0.648390 0.182479 0.049483
0.697273 0.199605 0.057237
0.734303 0.206077 0.059490
0.777739 0.217003 0.066906
0.806228 0.225361 0.071096
0.825604 0.226657 0.072530
0.837689 0.226283 0.072969
0.847272 0.227202 0.074096
0.857686 0.228599 0.075815
0.868773 0.230446 0.077776
0.876426 0.228683 0.078354
0.882487 0.226954 0.078696
0.887437 0.226301 0.078811
0.890621 0.226046 0.079072
0.892697 0.225656 0.079186
0.894527 0.224997 0.079268
0.009379 0.068414 0.091930
0.010877 0.067495 0.086577
0.012510 0.066585 0.081654
0.014162 0.065491 0.075487
0.020544 0.065110 0.069259
0.038213 0.066573 0.062417
0.070859 0.067835 0.053463
0.112123 0.072056 0.044706
0.159721 0.075846 0.036565
0.210365 0.084232 0.031275
0.265618 0.092076 0.029052
0.327291 0.102090 0.028653
0.404640 0.123263 0.028812
0.473160 0.141294 0.033313
0.526624 0.156972 0.039010
0.584931 0.172008 0.042712
0.647924 0.185789 0.051319
0.698329 0.203722 0.059232
0.734603 0.211028 0.061243
0.777247 0.221247 0.067860
0.806515 0.228833 0.071933
0.827418 0.232695 0.074386
0.839878 0.232702 0.074934
0.849535 0.233650 0.076069
0.859371 0.234540 0.077679
0.870073 0.236188 0.079510
0.877655 0.234511 0.080100
0.883780 0.232502 0.080331
0.888882 0.231017 0.079291
0.892080 0.230775 0.079629
0.894089 0.230505 0.079975
0.895890 0.230140 0.080383
0.009641 0.084871 0.118460
0.010933 0.084080 0.112174
0.012099 0.083211 0.105471
0.013361 0.083137 0.098663
0.014873 0.082725 0.090729
0.023889 0.083347 0.082770
0.057600 0.085125 0.072889
0.101812 0.088103 0.063714
0.149842 0.091172 0.053074
0.206003 0.097190 0.043344
0.269369 0.104907 0.039818
0.334292 0.115410 0.036316
0.406213 0.131042 0.034165
0.473119 0.146356 0.036332
0.527326 0.161062 0.041281
0.585678 0.176908 0.045486
0.647184 0.189714 0.053610
0.699190 0.208340 0.061559
0.735037 0.216665 0.063424
0.777003 0.226450 0.069152
0.806726 0.232732 0.072971
0.828786 0.238436 0.076117
0.842273 0.239678 0.077124
0.852167 0.240507 0.078313
0.861436 0.241103 0.079790
0.871634 0.242275 0.081450
0.879099 0.240698 0.081998
0.885041 0.238861 0.082134
0.890275 0.236837 0.080747
0.893530 0.235880 0.080108
0.895450 0.235552 0.080339
0.897286 0.235231 0.080718
0.013665 0.107992 0.142346
0.014851 0.107405 0.138522
0.016357 0.106891 0.134088
0.017932 0.106054 0.128541
0.018951 0.104999 0.119608
0.021005 0.104221 0.109548
0.039433 0.108246 0.100530
0.084679 0.108680 0.088623
0.139706 0.111240 0.074781
0.198229 0.113685 0.060078
0.268478 0.121885 0.052244
0.338201 0.132004 0.047723
0.412910 0.146336 0.043875
0.476006 0.156424 0.042791
0.531004 0.168389 0.045147
0.587309 0.182647 0.048574
0.646173 0.193896 0.056066
0.699360 0.213482 0.064084
0.736119 0.223038 0.066270
0.776801 0.232504 0.070740
0.806812 0.236783 0.074043
0.829893 0.243950 0.077792
0.844645 0.246805 0.079485
0.854779 0.247682 0.080722
0.864113 0.248124 0.082182
0.873459 0.248677 0.083527
0.880743 0.246982 0.084017
0.886510 0.245309 0.084020
0.891459 0.243208 0.082595
0.894654 0.241852 0.081669
0.896735 0.240950 0.081087
0.898644 0.240455 0.081141
0.020631 0.139389 0.166103
0.021730 0.138919 0.163273
0.023223 0.138354 0.159772
0.024939 0.137626 0.155128
0.026662 0.136284 0.149143
0.028354 0.133708 0.139602
0.033779 0.132077 0.127432
0.063610 0.138388 0.117046
0.119601 0.136765 0.107198
0.189199 0.138114 0.087234
0.264196 0.143681 0.070794
0.345961 0.154139 0.061989
0.426861 0.168585 0.056957
0.485109 0.174888 0.054284
0.540719 0.183355 0.053326
0.595385 0.194354 0.054831
0.646363 0.202358 0.060421
0.698969 0.220127 0.066460
0.737881 0.230168 0.069923
0.776573 0.239097 0.072652
0.806880 0.241759 0.075455
0.830951 0.249795 0.079913
0.846703 0.254072 0.082556
0.856983 0.254918 0.083940
0.866321 0.255169 0.085399
0.876029 0.255470 0.086226
0.883159 0.253966 0.086542
0.888505 0.252220 0.086377
0.892934 0.250189 0.084946
0.895986 0.248571 0.083831
0.898041 0.247484 0.083090
0.900079 0.246520 0.082446
0.029171 0.171496 0.197317
0.030132 0.171891 0.195218
0.031169 0.172436 0.193129
0.033192 0.173787 0.188674
0.036194 0.174295 0.180373
0.039562 0.173497 0.169457
0.042365 0.171151 0.157923
0.052115 0.170108 0.145356
0.098415 0.174518 0.140371
0.168270 0.172834 0.127971
0.250953 0.176142 0.105052
0.346832 0.185051 0.086356
0.437908 0.194857 0.074084
0.498817 0.199832 0.069185
0.554501 0.205938 0.065980
0.609755 0.215908 0.066340
0.653634 0.224418 0.069529
0.701658 0.235684 0.071142
0.743663 0.244195 0.076907
0.778129 0.249258 0.076628
0.808823 0.251812 0.079473
0.832961 0.258199 0.083309
0.848911 0.261947 0.086108
0.859317 0.262688 0.087603
0.868589 0.262930 0.089003
0.878249 0.262806 0.089416
0.885544 0.261350 0.089386
0.890629 0.259916 0.089270
0.895055 0.257996 0.087849
0.898138 0.256522 0.086741
0.900284 0.255361 0.085896
0.902289 0.254170 0.085111
0.042081 0.215282 0.238928
0.042990 0.215080 0.236163
0.043976 0.214857 0.233027
0.044996 0.214349 0.228449
0.046257 0.213911 0.221987
0.047469 0.212839 0.214546
0.050200 0.210991 0.201035
0.056700 0.210740 0.183870
0.085899 0.215959 0.172037
0.142643 0.218650 0.173389
0.232851 0.215616 0.154818
0.334242 0.222078 0.122018
0.438152 0.232009 0.103787
0.514173 0.235017 0.090313
0.574906 0.241294 0.084373
0.626293 0.248042 0.082794
0.667211 0.255037 0.083528
0.711159 0.260690 0.081250
0.754903 0.268495 0.087799
0.787480 0.272349 0.087763
0.816386 0.272831 0.088858
0.838733 0.274831 0.090065
0.853661 0.274850 0.091750
0.863032 0.274103 0.092742
0.871748 0.273612 0.093784
0.880797 0.272652 0.093643
0.888211 0.271396 0.093360
0.893616 0.270019 0.093121
0.898025 0.268455 0.091790
0.901097 0.267178 0.090670
0.903275 0.266167 0.089806
0.905425 0.265103 0.088968
0.039272 0.264825 0.282597
0.040353 0.265255 0.279407
0.041380 0.265282 0.276936
0.042521 0.264878 0.273848
0.043971 0.264748 0.268509
0.046246 0.265007 0.257778
0.049069 0.264902 0.244718
0.051900 0.262966 0.231587
0.061321 0.266669 0.213972
0.111013 0.269412 0.208942
0.195569 0.272869 0.211840
0.318112 0.268916 0.182601
0.429652 0.276404 0.146749
0.513591 0.278101 0.123855
0.582769 0.283350 0.108959
0.635432 0.286663 0.104160
0.682207 0.292271 0.100348
0.724410 0.294338 0.099249
0.764236 0.298560 0.099179
0.797453 0.304812 0.102974
0.827479 0.306301 0.103158
0.849468 0.306210 0.102878
0.863339 0.300673 0.102238
0.871096 0.296449 0.101886
0.878005 0.293990 0.101579
0.886056 0.291689 0.100800
0.893189 0.290740 0.100361
0.898607 0.289968 0.100029
0.903573 0.288525 0.099544
0.907021 0.287280 0.098894
0.909408 0.286335 0.098114
0.911694 0.285324 0.097346
0.021661 0.318106 0.338083
0.023155 0.319513 0.334623
0.024702 0.320925 0.331032
0.026393 0.322072 0.326529
0.028223 0.323123 0.320873
0.030065 0.324814 0.313746
0.031755 0.325610 0.304073
0.035257 0.327033 0.289994
0.041049 0.328372 0.270227
0.062169 0.335899 0.252098
0.141334 0.342810 0.260444
0.280534 0.345092 0.257252
0.414885 0.340948 0.215760
0.512057 0.341399 0.176431
0.586574 0.341774 0.146718
0.640809 0.342623 0.130938
0.688740 0.342902 0.122542
0.731878 0.339650 0.117488
0.771235 0.343034 0.116787
0.803871 0.344773 0.117171
0.834643 0.347556 0.118012
0.857012 0.344836 0.118022
0.871988 0.336456 0.115602
0.881497 0.329053 0.113804
0.888304 0.324502 0.112624
0.894623 0.321396 0.111475
0.900295 0.319847 0.110795
0.905062 0.320069 0.110469
0.909870 0.320519 0.110259
0.913599 0.320583 0.109845
0.916566 0.320359 0.109309
0.919300 0.319862 0.108902
0.010051 0.379894 0.390101
0.010636 0.380049 0.387789
0.011315 0.380401 0.385525
0.012461 0.380645 0.382570
0.014120 0.380670 0.378571
0.015802 0.381197 0.372749
0.017972 0.382168 0.360760
0.019503 0.381803 0.343867
0.024444 0.382678 0.328671
0.029888 0.386143 0.308894
0.090652 0.392564 0.296992
0.229808 0.402533 0.313678
0.384797 0.410328 0.299952
0.496618 0.407951 0.252675
0.580331 0.406202 0.207901
0.642070 0.405326 0.173815
0.696461 0.405909 0.154173
0.741717 0.399414 0.142686
0.782136 0.400826 0.140356
0.815076 0.397537 0.136696
0.844112 0.396011 0.135196
0.867736 0.392168 0.133340
0.882339 0.383531 0.130319
0.893258 0.374547 0.128048
0.900962 0.366403 0.127008
0.906971 0.360158 0.125441
0.911974 0.356334 0.123980
0.916129 0.356553 0.123569
0.920205 0.357370 0.123404
0.923609 0.358153 0.123118
0.926618 0.358940 0.122796
0.929703 0.359884 0.122552
0.017742 0.434180 0.427024
0.019737 0.434344 0.425398
0.021312 0.434373 0.424137
0.022815 0.434031 0.422464
0.024200 0.432813 0.419429
0.024761 0.430688 0.415283
0.027073 0.428740 0.407923
0.030146 0.428244 0.395827
0.034569 0.432513 0.378222
0.042727 0.435186 0.359598
0.070607 0.437449 0.338309
0.161751 0.445425 0.350867
0.347210 0.460626 0.363060
0.465900 0.463287 0.336821
0.563194 0.462514 0.285631
0.634964 0.462162 0.239523
0.696701 0.462084 0.204566
0.747824 0.458789 0.181093
0.790289 0.456090 0.168326
0.826277 0.453923 0.161015
0.854020 0.448120 0.156993
0.879659 0.444427 0.154285
0.892547 0.435876 0.150519
0.903565 0.426369 0.146615
0.912531 0.419703 0.144777
0.918269 0.412221 0.142798
0.922655 0.406026 0.141184
0.925853 0.404287 0.140682
0.930023 0.404366 0.140848
0.934339 0.404926 0.140438
0.938685 0.405876 0.139916
0.942722 0.406951 0.139452
0.035167 0.490387 0.459266
0.036326 0.490001 0.456842
0.037764 0.489928 0.454587
0.039065 0.489773 0.452011
0.039781 0.489052 0.448707
0.041927 0.487725 0.444920
0.045322 0.486850 0.439739
0.049501 0.485402 0.430763
0.051515 0.484921 0.416924
0.056357 0.485588 0.398269
0.066378 0.482916 0.379772
0.115081 0.485631 0.372205
0.289964 0.499685 0.400911
0.442496 0.509404 0.393951
0.540890 0.510575 0.363781
0.616021 0.511137 0.313943
0.685732 0.510316 0.265539
0.746571 0.508786 0.230007
0.792834 0.503799 0.205169
0.831117 0.503982 0.193098
0.862466 0.497207 0.181630
0.888735 0.493238 0.176584
0.903777 0.486813 0.172906
0.914381 0.478717 0.169062
0.924081 0.473717 0.167299
0.930407 0.468113 0.165225
0.935979 0.463568 0.163537
0.939112 0.461401 0.162334
0.942793 0.461617 0.161936
0.946905 0.462276 0.161176
0.951490 0.462983 0.160178
0.956088 0.463703 0.159267
0.099973 0.550408 0.490920
0.099574 0.548993 0.488156
0.098652 0.547213 0.484995
0.096944 0.544821 0.481072
0.094581 0.542136 0.476756
0.092655 0.539852 0.472687
0.090907 0.537565 0.467312
0.094793 0.538343 0.459506
0.096780 0.537704 0.447336
0.095020 0.533893 0.430248
0.088927 0.525885 0.410265
0.102904 0.522104 0.394632
0.235491 0.537858 0.416910
0.410268 0.552982 0.435226
0.525309 0.555863 0.413549
0.602770 0.553708 0.380183
0.670673 0.554462 0.333753
0.737435 0.549940 0.286629
0.793240 0.550522 0.245740
0.833586 0.546013 0.221135
0.864910 0.542368 0.208708
0.892327 0.537787 0.199216
0.911891 0.531422 0.193736
0.925373 0.523457 0.188376
0.935657 0.520071 0.186317
0.941040 0.517250 0.184778
0.945790 0.514707 0.183350
0.949106 0.513222 0.182007
0.952267 0.512695 0.180626
0.955856 0.513147 0.179361
0.959739 0.513015 0.177886
0.963568 0.512784 0.176454
0.145560 0.598373 0.502583
0.145941 0.596755 0.501456
0.146291 0.595178 0.500216
0.146544 0.593595 0.498303
0.146371 0.591617 0.495726
0.145798 0.588965 0.492380
0.144665 0.585413 0.487641
0.144225 0.581999 0.479489
0.145149 0.579452 0.467997
0.145835 0.575262 0.455216
0.145124 0.569539 0.439945
0.145362 0.561848 0.422338
0.192483 0.567494 0.421553
0.379760 0.593380 0.459395
0.501646 0.598497 0.449689
0.596465 0.598385 0.421253
0.660159 0.594502 0.389811
0.723332 0.594218 0.344263
0.782752 0.588947 0.296973
0.829778 0.587383 0.256557
0.863650 0.585202 0.234956
0.892592 0.580171 0.220691
0.916335 0.574380 0.213869
0.932332 0.566920 0.208147
0.942743 0.561721 0.204223
0.947245 0.558541 0.201486
0.951014 0.556419 0.199441
0.953922 0.555393 0.197763
0.956522 0.554724 0.195951
0.960011 0.553506 0.193687
0.963847 0.552301 0.191368
0.967629 0.551370 0.189221
0.171941 0.631202 0.499986
0.173422 0.630623 0.499239
0.174730 0.629945 0.498652
0.175800 0.629009 0.497763
0.176568 0.627577 0.496356
0.176663 0.625535 0.494350
0.176260 0.622844 0.491294
0.175911 0.619617 0.486634
0.177302 0.616366 0.479300
0.179984 0.612837 0.470676
0.183938 0.608312 0.459631
0.189150 0.603235 0.445902
0.201437 0.601207 0.435583
0.329512 0.624739 0.465225
0.485690 0.641654 0.476200
0.585019 0.643848 0.451985
0.662368 0.636983 0.419061
0.712372 0.634023 0.388807
0.768842 0.632188 0.342123
0.818712 0.625871 0.299192
0.858520 0.623668 0.265531
0.891138 0.621177 0.243815
0.914770 0.616984 0.235023
0.933117 0.610195 0.228070
0.945277 0.605612 0.224101
0.951002 0.602508 0.220903
0.955274 0.599564 0.218383
0.959348 0.597251 0.215768
0.962274 0.596196 0.213461
0.965259 0.595172 0.210838
0.968389 0.593776 0.207861
0.971436 0.592363 0.205033
0.185237 0.650659 0.495903
0.187353 0.650709 0.496288
0.189392 0.650686 0.495986
0.191525 0.650659 0.495410
0.193514 0.650395 0.494503
0.195240 0.649851 0.493459
0.196338 0.648618 0.491680
0.197168 0.646675 0.489044
0.200353 0.646009 0.485467
0.205480 0.645183 0.481038
0.212418 0.643685 0.474951
0.221865 0.644433 0.468517
0.231499 0.645389 0.459777
0.281820 0.652752 0.462928
0.472245 0.678158 0.490619
0.582046 0.682799 0.467411
0.666506 0.685690 0.440158
0.718981 0.672399 0.406405
0.758512 0.667358 0.376016
0.805383 0.663363 0.328502
0.847745 0.658996 0.293848
0.885040 0.657188 0.267055
0.912361 0.652787 0.254365
0.931855 0.649495 0.247937
0.943831 0.644433 0.242524
0.950766 0.639505 0.238172
0.955354 0.636120 0.234996
0.960034 0.633830 0.231541
0.963470 0.632783 0.228760
0.966858 0.632174 0.226291
0.970374 0.631702 0.223846
0.973039 0.630139 0.220443
0.192885 0.665698 0.494483
0.195682 0.666611 0.495577
0.198274 0.667352 0.496083
0.200966 0.668188 0.496097
0.203909 0.669029 0.495173
0.206614 0.669597 0.494268
0.209558 0.670147 0.492957
0.212632 0.670672 0.491542
0.217379 0.672411 0.491272
0.225438 0.674158 0.489606
0.234494 0.675834 0.486605
0.242351 0.678972 0.484104
0.251450 0.680601 0.478772
0.280202 0.685774 0.473398
0.447248 0.707042 0.494815
0.580111 0.719023 0.473100
0.668579 0.721119 0.446883
0.726016 0.713873 0.419539
0.765569 0.704547 0.389551
0.795877 0.696918 0.358252
0.833614 0.692313 0.312833
0.874525 0.690224 0.283364
0.905082 0.685273 0.270071
0.926500 0.681042 0.265497
0.940355 0.678007 0.260709
0.949102 0.675511 0.256078
0.954174 0.672732 0.252732
0.959216 0.670199 0.249770
0.963365 0.667789 0.246043
0.966950 0.665407 0.241423
0.970602 0.663539 0.237481
0.973496 0.661735 0.233899
0.200480 0.678263 0.492237
0.202955 0.679076 0.492948
0.205333 0.679866 0.493569
0.208154 0.680887 0.494206
0.211242 0.682065 0.494472
0.214473 0.683194 0.494064
0.218086 0.684367 0.492932
0.221501 0.685604 0.491906
0.226853 0.688933 0.493065
0.236792 0.694965 0.494298
0.247493 0.700144 0.492754
0.257746 0.704946 0.490876
0.273386 0.706898 0.487560
0.309519 0.713743 0.484339
0.409828 0.728661 0.490658
0.581653 0.748279 0.473367
0.674589 0.751432 0.442586
0.730575 0.747421 0.418615
0.774173 0.739525 0.391139
0.803603 0.729626 0.360048
0.826352 0.722422 0.329269
0.859492 0.719951 0.299942
0.893663 0.717460 0.288179
0.917554 0.713085 0.279416
0.931379 0.709095 0.273362
0.942273 0.706245 0.268838
0.951064 0.703851 0.265659
0.957236 0.701358 0.263165
0.962468 0.699113 0.260927
0.966567 0.697147 0.258037
0.970156 0.695802 0.255328
0.973560 0.694135 0.252248
0.208356 0.689611 0.489082
0.210827 0.690408 0.489878
0.213229 0.691205 0.490535
0.215755 0.692045 0.491011
0.218517 0.693031 0.491379
0.221310 0.693974 0.491491
0.224311 0.694756 0.491238
0.227447 0.696066 0.490901
0.232923 0.699744 0.491895
0.244020 0.707384 0.494001
0.255956 0.713755 0.493923
0.269915 0.720446 0.493563
0.295850 0.728226 0.494306
0.352393 0.740390 0.495310
0.417698 0.749812 0.489384
0.580074 0.768541 0.470347
0.679447 0.772746 0.434835
0.736917 0.772000 0.410329
0.778713 0.768042 0.384829
0.810033 0.759530 0.352160
0.831555 0.752306 0.331879
0.849752 0.746003 0.318920
0.882328 0.742428 0.300712
0.908706 0.739406 0.291039
0.926131 0.736233 0.284470
0.936683 0.733525 0.280576
0.946218 0.730654 0.277226
0.953365 0.728374 0.275033
0.959703 0.726654 0.273074
0.965550 0.725301 0.271117
0.969637 0.724634 0.269170
0.973312 0.723752 0.266779
0.214090 0.699562 0.484433
0.216755 0.700740 0.486326
0.219351 0.701585 0.487166
0.221925 0.702377 0.487829
0.224652 0.703182 0.488362
0.227420 0.703825 0.488847
0.230310 0.704541 0.489025
0.233529 0.706480 0.489821
0.239029 0.710091 0.491194
0.250789 0.717438 0.494042
0.264762 0.724425 0.494463
0.279744 0.732807 0.496088
0.313345 0.742989 0.498169
0.381447 0.757063 0.498818
0.446469 0.767430 0.492550
0.573900 0.782628 0.465616
0.681426 0.789777 0.425913
0.741278 0.791977 0.401372
0.782165 0.789897 0.374285
0.814587 0.785001 0.346857
0.838858 0.777248 0.332873
0.855101 0.771373 0.321569
0.873782 0.765115 0.305891
0.897107 0.762992 0.298799
0.916971 0.759652 0.294048
0.933653 0.756523 0.289240
0.945053 0.755650 0.286885
0.953351 0.754603 0.284792
0.959272 0.752841 0.282300
0.964624 0.751111 0.280129
0.968266 0.749542 0.277757
0.972245 0.748426 0.275612
0.219331 0.709175 0.476703
0.222542 0.710359 0.479347
0.225371 0.711410 0.481387
0.228306 0.712257 0.482873
0.231249 0.712997 0.483937
0.234190 0.713661 0.484495
0.237401 0.714693 0.485338
0.241123 0.717335 0.486891
0.246940 0.721155 0.489248
0.258811 0.728278 0.492961
0.275565 0.737759 0.495957
0.292573 0.747257 0.499404
0.336494 0.756962 0.499158
0.407465 0.772072 0.498748
0.463698 0.780152 0.491232
0.572915 0.793062 0.460765
0.683104 0.802377 0.419399
0.742897 0.807201 0.389008
0.785617 0.806794 0.363996
0.816978 0.803307 0.348294
0.843438 0.795327 0.333258
0.860294 0.790442 0.318346
0.875337 0.785122 0.307525
0.889275 0.780696 0.301303
0.908411 0.776645 0.297211
0.926078 0.774409 0.293926
0.939331 0.773283 0.291914
0.948753 0.773176 0.290862
0.955416 0.772898 0.289396
0.961852 0.771805 0.288212
0.966990 0.770528 0.287110
0.972036 0.769483 0.286206
0.225582 0.717622 0.469767
0.229244 0.719377 0.473321
0.232619 0.721073 0.476832
0.235966 0.723109 0.480221
0.239336 0.724830 0.483065
0.242362 0.725689 0.484087
0.245775 0.727237 0.485594
0.250182 0.730264 0.487695
0.256709 0.734422 0.489332
0.268361 0.742057 0.493168
0.286249 0.752072 0.497811
0.305092 0.760175 0.500870
0.358746 0.772479 0.500650
0.428320 0.784722 0.497897
0.487677 0.793270 0.486719
0.573597 0.802513 0.455177
0.684395 0.812831 0.412758
0.743347 0.816136 0.380306
0.788260 0.817456 0.360556
0.819168 0.817677 0.350684
0.844232 0.813343 0.334671
0.863300 0.808494 0.320233
0.879492 0.803137 0.311957
0.891535 0.798355 0.307310
0.902585 0.792184 0.301381
0.920036 0.790213 0.298963
0.935784 0.789812 0.297270
0.947791 0.789746 0.296215
0.955154 0.789654 0.295396
0.960860 0.788771 0.294657
0.967060 0.788232 0.294558
0.972756 0.788589 0.294231
0.231496 0.725302 0.463901
0.235470 0.727931 0.468380
0.239291 0.730601 0.472761
0.243239 0.733322 0.477124
0.247038 0.735886 0.481040
0.250571 0.737841 0.483901
0.254367 0.739858 0.485459
0.258930 0.743163 0.487000
0.265285 0.747393 0.488433
0.276539 0.754894 0.492834
0.294194 0.764241 0.497667
0.318000 0.772211 0.498807
0.380410 0.787947 0.501161
0.449548 0.797678 0.496438
0.511243 0.804398 0.478176
0.580469 0.811535 0.445834
0.685669 0.822164 0.408045
0.744240 0.823813 0.374815
0.788966 0.825374 0.361382
0.822205 0.827841 0.348294
0.845295 0.826618 0.333456
0.865210 0.822680 0.323203
0.881309 0.818015 0.315683
0.895165 0.814168 0.312550
0.907461 0.809568 0.308488
0.921160 0.807100 0.305523
0.936576 0.806058 0.303128
0.949132 0.805662 0.302490
0.955840 0.805761 0.302191
0.961317 0.804788 0.301669
0.967388 0.803597 0.300914
0.973022 0.803101 0.299937
0.236882 0.734048 0.457411
0.241255 0.737127 0.462093
0.245217 0.739765 0.466467
0.249168 0.742293 0.470601
0.253249 0.744651 0.474413
0.257058 0.746849 0.477580
0.261413 0.750099 0.480881
0.266021 0.753096 0.482225
0.271785 0.757297 0.484674
0.283385 0.765056 0.489651
0.303136 0.774077 0.491528
0.337729 0.785326 0.495095
0.404449 0.800283 0.498035
0.473762 0.809703 0.492645
0.532964 0.815354 0.468640
0.588688 0.819557 0.435967
0.685926 0.830052 0.404335
0.745656 0.831825 0.372918
