Postproduction/IWLTBAP - Humble/LUTs by IWLTBAP (CUBE)/BONUS/Aspen/IWLTBAP Aspen - LOG.cube
# Copyright: (C) Copyright 2010-2017 by IWLTBAP SAS
# Cannot be resold, shared or otherwise redistributed
# Website: https://luts.iwltbap.com
TITLE "IWLTBAP Aspen (LOG)"
LUT_3D_SIZE 5
DOMAIN_MIN 0.000000 0.000000 0.000000
DOMAIN_MAX 0.903226 0.903226 0.903226
0.008636 0.019836 0.029327
0.118023 0.035795 0.006183
0.536046 0.140222 0.030718
0.819229 0.207110 0.067519
0.881245 0.207097 0.073624
0.013665 0.107992 0.142346
0.084679 0.108680 0.088623
0.531004 0.168389 0.045147
0.829893 0.243950 0.077792
0.891459 0.243208 0.082595
0.017742 0.434180 0.427024
0.030146 0.428244 0.395827
0.563194 0.462514 0.285631
0.879659 0.444427 0.154285
0.930023 0.404366 0.140848
0.200480 0.678263 0.492237
0.221501 0.685604 0.491906
0.409828 0.728661 0.490658
0.859492 0.719951 0.299942
0.962468 0.699113 0.260927
0.242437 0.743463 0.452043
0.272952 0.763441 0.475849
0.549457 0.824515 0.456697
0.869439 0.842907 0.329299
0.952681 0.827368 0.310320
0.006181 0.019426 0.058815
0.097347 0.037196 0.050833
0.577515 0.139346 0.050644
0.826680 0.200105 0.080261
0.873432 0.192029 0.083150
0.006435 0.105458 0.211698
0.084874 0.106514 0.121830
0.574744 0.169634 0.065821
0.836320 0.234892 0.089398
0.887524 0.229626 0.093341
0.018248 0.437243 0.483197
0.026280 0.435046 0.462981
0.539360 0.465376 0.367711
0.880215 0.442822 0.177391
0.930008 0.395681 0.156067
0.193024 0.670197 0.559308
0.213965 0.676896 0.553443
0.387789 0.731549 0.549860
0.869133 0.734749 0.431502
0.969614 0.707810 0.315587
0.231998 0.739949 0.519847
0.260189 0.758193 0.539771
0.550260 0.841375 0.575415
0.891656 0.860449 0.449262
0.970905 0.853954 0.417410
0.030857 0.030772 0.111190
0.096246 0.043062 0.115853
0.561942 0.134462 0.137957
0.821638 0.185157 0.131423
0.861895 0.165803 0.116070
0.000951 0.094461 0.325471
0.062016 0.110766 0.238606
0.545084 0.177017 0.186960
0.829878 0.220957 0.153450
0.874800 0.206813 0.137422
0.014356 0.423565 0.562771
0.026539 0.425380 0.560912
0.503247 0.486233 0.495657
0.867111 0.440801 0.333504
0.919054 0.366273 0.244911
0.186247 0.670210 0.674668
0.208113 0.674241 0.661362
0.305753 0.716394 0.642013
0.853514 0.758277 0.610317
0.972957 0.733869 0.521566
0.223379 0.736455 0.646357
0.250934 0.751151 0.650837
0.514947 0.838901 0.690444
0.881290 0.887481 0.646423
0.977451 0.891910 0.641550
0.069945 0.049484 0.216124
0.147995 0.060071 0.225459
0.533250 0.141154 0.278648
0.779701 0.159867 0.265367
0.837241 0.139033 0.234712
0.044548 0.119018 0.377492
0.082519 0.130412 0.349364
0.507045 0.189448 0.338788
0.786805 0.211784 0.311041
0.840894 0.179379 0.269976
0.018270 0.420188 0.646351
0.027666 0.417514 0.646943
0.460334 0.495691 0.590948
0.830089 0.464138 0.514330
0.886352 0.358704 0.421442
0.170698 0.664706 0.777853
0.189889 0.660327 0.770610
0.267364 0.698074 0.767332
0.832380 0.787113 0.782660
0.956521 0.760707 0.738897
0.214490 0.731329 0.762369
0.243916 0.744979 0.771642
0.396121 0.819560 0.808881
0.859630 0.913580 0.842135
0.974864 0.919741 0.830576
0.097760 0.058643 0.305782
0.215861 0.071202 0.297801
0.543616 0.142399 0.341501
0.751979 0.163918 0.369868
0.798340 0.129292 0.344828
0.073285 0.146770 0.409917
0.147471 0.147731 0.389704
0.525898 0.200921 0.397573
0.762146 0.223240 0.413576
0.808082 0.180812 0.384663
0.020013 0.419122 0.675246
0.023523 0.408671 0.668976
0.465402 0.507197 0.642577
0.805156 0.494566 0.619855
0.871041 0.393387 0.557632
0.164245 0.648092 0.804498
0.176356 0.644989 0.800959
0.254404 0.675559 0.819562
0.804677 0.784928 0.871154
0.933196 0.775225 0.858385
0.207383 0.725009 0.812658
0.231158 0.734000 0.814996
0.334739 0.805313 0.860418
0.804576 0.901904 0.925148
0.963005 0.931247 0.944738
