Postproduction/IWLTBAP - Humble/LUTs by IWLTBAP (CUBE)/BONUS/Aspen/IWLTBAP Aspen - LOG.cube
# Copyright: (C) Copyright 2010-2017 by IWLTBAP SAS
# Cannot be resold, shared or otherwise redistributed
# Website: https://luts.iwltbap.com
TITLE "IWLTBAP Aspen (LOG)"
LUT_3D_SIZE 8
DOMAIN_MIN 0.000000 0.000000 0.000000
DOMAIN_MAX 0.903226 0.903226 0.903226
0.008636 0.019836 0.029327
0.037747 0.018060 0.014726
0.150873 0.043370 0.007277
0.399300 0.103613 0.018736
0.646542 0.168677 0.042491
0.802520 0.208196 0.066339
0.851716 0.208297 0.069892
0.881245 0.207097 0.073624
0.009717 0.054223 0.070746
0.023913 0.051918 0.053241
0.162226 0.064731 0.025907
0.405312 0.119389 0.025757
0.648390 0.182479 0.049483
0.806228 0.225361 0.071096
0.857686 0.228599 0.075815
0.887437 0.226301 0.078811
0.020631 0.139389 0.166103
0.026662 0.136284 0.149143
0.119601 0.136765 0.107198
0.426861 0.168585 0.056957
0.646363 0.202358 0.060421
0.806880 0.241759 0.075455
0.866321 0.255169 0.085399
0.892934 0.250189 0.084946
0.021661 0.318106 0.338083
0.028223 0.323123 0.320873
0.041049 0.328372 0.270227
0.414885 0.340948 0.215760
0.688740 0.342902 0.122542
0.834643 0.347556 0.118012
0.888304 0.324502 0.112624
0.909870 0.320519 0.110259
0.099973 0.550408 0.490920
0.094581 0.542136 0.476756
0.096780 0.537704 0.447336
0.235491 0.537858 0.416910
0.670673 0.554462 0.333753
0.864910 0.542368 0.208708
0.935657 0.520071 0.186317
0.952267 0.512695 0.180626
0.192885 0.665698 0.494483
0.203909 0.669029 0.495173
0.217379 0.672411 0.491272
0.251450 0.680601 0.478772
0.668579 0.721119 0.446883
0.833614 0.692313 0.312833
0.940355 0.678007 0.260709
0.963365 0.667789 0.246043
0.219331 0.709175 0.476703
0.231249 0.712997 0.483937
0.246940 0.721155 0.489248
0.336494 0.756962 0.499158
0.683104 0.802377 0.419399
0.843438 0.795327 0.333258
0.908411 0.776645 0.297211
0.955416 0.772898 0.289396
0.242437 0.743463 0.452043
0.259196 0.754053 0.468438
0.278732 0.767789 0.478691
0.433456 0.812649 0.493629
0.682160 0.835835 0.397369
0.846775 0.843660 0.336699
0.918217 0.834458 0.315717
0.952681 0.827368 0.310320
0.006973 0.019212 0.044010
0.030968 0.019783 0.028568
0.167177 0.043880 0.023686
0.435284 0.107078 0.030060
0.660057 0.168049 0.052202
0.810757 0.200702 0.072460
0.855864 0.205175 0.076243
0.877678 0.198478 0.078773
0.009244 0.055885 0.095833
0.031623 0.050823 0.061332
0.161232 0.064757 0.043033
0.425864 0.121896 0.037676
0.662525 0.184421 0.058508
0.814994 0.220862 0.077880
0.860628 0.224381 0.081830
0.886015 0.219542 0.084433
0.015505 0.134258 0.202912
0.023115 0.134470 0.178023
0.114914 0.136173 0.126405
0.435947 0.166907 0.069692
0.660678 0.205026 0.068912
0.814647 0.240123 0.083504
0.866097 0.247207 0.089084
0.890891 0.240604 0.090653
0.021239 0.318781 0.372634
0.023513 0.316682 0.361322
0.036096 0.324858 0.309668
0.403813 0.345653 0.252444
0.691229 0.344727 0.135660
0.833948 0.345228 0.125400
0.887092 0.321691 0.119831
0.907799 0.312075 0.117164
0.095448 0.541859 0.521072
0.092735 0.535852 0.506810
0.093448 0.533874 0.476920
0.204804 0.533526 0.432784
0.664052 0.556026 0.375898
0.865903 0.545264 0.234434
0.936772 0.517986 0.196021
0.951791 0.507671 0.189684
0.192671 0.664149 0.525631
0.202939 0.666768 0.525031
0.216481 0.671685 0.520255
0.252457 0.683689 0.509157
0.655215 0.724058 0.495816
0.837683 0.699101 0.378908
0.947221 0.680815 0.285935
0.966687 0.672107 0.267818
0.212596 0.703975 0.511145
0.225139 0.709351 0.518602
0.240237 0.718958 0.521563
0.326532 0.756959 0.533506
0.676826 0.809350 0.490716
0.851139 0.808137 0.391494
0.927177 0.789802 0.342277
0.967017 0.781147 0.315922
0.235654 0.739856 0.486854
0.252130 0.751252 0.502693
0.271969 0.766682 0.515942
0.423632 0.813673 0.534966
0.684593 0.847617 0.474545
0.863540 0.856003 0.389764
0.935766 0.847937 0.354751
0.966017 0.842240 0.345388
0.006257 0.019318 0.063403
0.031792 0.022377 0.048683
0.131654 0.045355 0.061035
0.454115 0.106534 0.053657
0.680749 0.167205 0.064351
0.808344 0.194065 0.078667
0.853081 0.199911 0.082489
0.872738 0.190481 0.085147
0.004675 0.052822 0.138368
0.022945 0.047722 0.095853
0.127693 0.066206 0.079850
0.443981 0.120026 0.064531
0.678564 0.183999 0.069797
0.811730 0.212543 0.083137
0.858600 0.218836 0.089204
0.882279 0.210931 0.090182
0.005780 0.132884 0.262214
0.016079 0.132433 0.232463
0.110141 0.134530 0.153631
0.429120 0.170221 0.103532
0.670932 0.207874 0.083817
0.814805 0.235936 0.091625
0.863915 0.239197 0.096529
0.887849 0.232519 0.096649
0.024326 0.324659 0.416435
0.027418 0.321610 0.413675
0.033578 0.320414 0.376955
0.375640 0.353106 0.311919
0.685581 0.346559 0.184102
0.831709 0.339668 0.140793
0.884204 0.315615 0.130141
0.904383 0.303831 0.126077
0.088123 0.536661 0.547595
0.092446 0.534114 0.544373
0.098802 0.529693 0.525314
0.147206 0.521130 0.462569
0.654025 0.557717 0.433051
0.855921 0.543341 0.306737
0.937809 0.520098 0.219636
0.950873 0.500850 0.204508
0.186097 0.659253 0.574183
0.196332 0.660665 0.569036
0.209423 0.664633 0.559657
0.245106 0.679057 0.546251
0.638336 0.724557 0.547521
0.834299 0.707886 0.462619
0.951347 0.687863 0.350685
0.971175 0.676728 0.308255
0.209796 0.703201 0.560576
0.222592 0.706905 0.565829
0.238429 0.715745 0.565704
0.316542 0.754146 0.578138
0.659712 0.819501 0.570087
0.851581 0.820346 0.485651
0.932647 0.803791 0.440606
0.972392 0.792798 0.390165
0.228457 0.738893 0.531927
0.244388 0.748067 0.546918
0.263515 0.761104 0.557573
0.409328 0.814488 0.585791
0.675210 0.857722 0.565641
0.865532 0.863801 0.486549
0.942841 0.864476 0.464092
0.971881 0.860496 0.449295
0.021341 0.024169 0.088046
0.043721 0.028731 0.082105
0.120990 0.048192 0.101493
0.415057 0.106656 0.109850
0.676949 0.166097 0.099330
0.806771 0.186613 0.104205
0.848002 0.187109 0.100082
0.870321 0.179390 0.104037
0.007904 0.052162 0.160329
0.032765 0.054196 0.141993
0.110516 0.069038 0.126127
0.405668 0.120991 0.123517
0.672218 0.180239 0.108288
0.806835 0.206488 0.111807
0.852088 0.205102 0.107577
0.875727 0.198196 0.108395
0.004078 0.124743 0.361793
0.007028 0.122451 0.342485
0.078656 0.135898 0.229727
0.393218 0.174862 0.185182
0.667678 0.205076 0.134551
0.808206 0.230955 0.124549
0.858893 0.227380 0.121107
0.881120 0.218243 0.114518
0.024822 0.320013 0.454452
0.027976 0.318303 0.454968
0.034548 0.314484 0.442450
0.355970 0.360619 0.386055
0.670622 0.358526 0.273877
0.832594 0.338099 0.198925
0.878303 0.298915 0.161573
0.900005 0.283395 0.153286
0.088321 0.532594 0.595519
0.095199 0.532633 0.596663
0.106060 0.536218 0.595501
0.105525 0.512389 0.528654
0.631285 0.567764 0.512249
0.848160 0.551378 0.411614
0.930648 0.512842 0.305424
0.953542 0.500976 0.271228
0.183072 0.657089 0.638325
0.193058 0.660349 0.630127
0.207100 0.663297 0.622171
0.241000 0.672552 0.600884
0.608856 0.731106 0.615797
0.824826 0.720200 0.553026
0.944227 0.701341 0.471449
0.971496 0.685455 0.427580
0.206539 0.700064 0.626436
0.219763 0.703655 0.625429
0.235110 0.712135 0.626064
0.290530 0.744163 0.628273
0.640062 0.826593 0.651855
0.855196 0.834641 0.581408
0.931447 0.820529 0.558401
0.976111 0.814675 0.524560
0.223963 0.735302 0.603385
0.240864 0.744991 0.610996
0.259853 0.759432 0.619224
0.378947 0.809944 0.645450
0.665595 0.870932 0.664058
0.859073 0.879122 0.595662
0.942942 0.882510 0.579969
0.975243 0.879530 0.575911
0.040121 0.036700 0.141237
0.062937 0.040089 0.135380
0.133604 0.054318 0.147932
0.389325 0.110593 0.182470
0.660764 0.155951 0.176003
0.801082 0.175853 0.161455
0.836873 0.167276 0.149625
0.854449 0.152999 0.141767
0.030972 0.060497 0.217083
0.046107 0.064993 0.203611
0.112073 0.076396 0.181641
0.376982 0.126686 0.203198
0.658081 0.178520 0.196323
0.808007 0.199452 0.177968
0.844700 0.189903 0.164049
0.863240 0.172926 0.153463
0.002237 0.122873 0.382858
0.011416 0.118695 0.371221
0.077661 0.142767 0.306873
0.338172 0.177952 0.278380
0.647070 0.213954 0.238570
0.806635 0.224379 0.200757
0.852352 0.219038 0.184247
0.872844 0.198375 0.175320
0.030380 0.320808 0.523706
0.032885 0.319520 0.526232
0.039433 0.315150 0.522339
0.296677 0.367501 0.457591
0.637567 0.384479 0.404329
0.817121 0.344815 0.317055
0.869445 0.294634 0.253329
0.889297 0.270381 0.230354
0.086865 0.526932 0.644877
0.094595 0.527317 0.648033
0.105082 0.526134 0.647613
0.103291 0.506664 0.602679
0.619428 0.585875 0.585479
0.830574 0.566848 0.512501
0.914913 0.514768 0.426333
0.935167 0.489741 0.393127
0.180940 0.658225 0.712416
0.189269 0.659987 0.708551
0.201938 0.660644 0.699360
0.235721 0.668512 0.678740
0.540927 0.724960 0.683579
0.813485 0.736012 0.651535
0.936591 0.714436 0.584471
0.966549 0.702366 0.551044
0.200981 0.694644 0.700885
0.214387 0.699052 0.697017
0.229869 0.708763 0.694324
0.275549 0.736128 0.698730
0.579582 0.816156 0.715519
0.836492 0.848493 0.697090
0.922543 0.837285 0.677387
0.976538 0.831621 0.647762
0.221377 0.735979 0.687376
0.237062 0.741623 0.688753
0.255119 0.754599 0.689893
0.329158 0.800270 0.710066
0.635796 0.866718 0.738259
0.847876 0.896685 0.716952
0.941637 0.901741 0.695154
0.978495 0.900800 0.700702
0.064416 0.046391 0.200108
0.089192 0.048730 0.197809
0.171009 0.063900 0.214649
0.411808 0.116358 0.242253
0.631563 0.161144 0.273482
0.773723 0.164319 0.245716
0.819843 0.152078 0.220118
0.843954 0.140716 0.213947
0.048799 0.073518 0.268546
0.066629 0.076058 0.253479
0.144668 0.085780 0.243554
0.397212 0.133028 0.267087
0.624868 0.182329 0.299165
0.773350 0.188211 0.266714
0.822793 0.178644 0.239458
0.848647 0.159144 0.226147
0.037586 0.137235 0.404466
0.049608 0.138880 0.389400
0.091895 0.159282 0.370620
0.351350 0.190741 0.348582
0.607196 0.220883 0.346563
0.773924 0.228372 0.308534
0.823119 0.202754 0.266008
0.851674 0.187723 0.252227
0.031261 0.321201 0.562559
0.033392 0.317319 0.563009
0.041934 0.309754 0.554853
0.291893 0.379368 0.512211
0.591715 0.406595 0.499056
0.791743 0.362384 0.422700
0.846210 0.286586 0.343944
0.865453 0.258100 0.322959
0.076130 0.511460 0.698335
0.081784 0.512036 0.700622
0.092644 0.513868 0.703855
0.098223 0.492964 0.662295
0.599259 0.591750 0.645735
0.811114 0.577759 0.602411
0.896069 0.520732 0.530128
0.915817 0.490419 0.495567
0.164942 0.655547 0.771644
0.175056 0.650067 0.764508
0.189947 0.650166 0.758528
0.224779 0.662720 0.746056
0.423099 0.707907 0.747912
0.798462 0.751532 0.747176
0.920720 0.729682 0.705365
0.955158 0.718414 0.678096
0.193033 0.693688 0.761287
0.205548 0.695518 0.760355
0.219372 0.700461 0.757807
0.268329 0.732258 0.768729
0.451308 0.791826 0.785450
0.812091 0.861591 0.806573
0.913381 0.853211 0.782736
0.970399 0.851669 0.769234
0.215694 0.731022 0.754545
0.232046 0.737475 0.758761
0.251503 0.747496 0.760741
0.307429 0.790124 0.780892
0.573078 0.857366 0.808329
0.828983 0.907418 0.823426
0.929448 0.914620 0.807571
0.976357 0.916590 0.807792
0.081118 0.054946 0.262228
0.115070 0.058885 0.259479
0.213988 0.073024 0.264222
0.436281 0.119544 0.290168
0.623449 0.163657 0.333537
0.748459 0.171547 0.337329
0.786905 0.150712 0.319909
0.816060 0.137203 0.294641
0.066104 0.080601 0.308858
0.083573 0.080646 0.299195
0.185601 0.094553 0.297953
0.421268 0.137077 0.316971
0.618325 0.186867 0.355761
0.753789 0.206120 0.360699
0.789447 0.177014 0.337472
0.819274 0.156479 0.313218
0.060279 0.157036 0.430230
0.071168 0.160746 0.421452
0.129079 0.170071 0.399816
0.380840 0.203317 0.395904
0.604413 0.231676 0.398437
0.753952 0.239723 0.390430
0.800465 0.211922 0.364923
0.825566 0.181123 0.335208
0.030845 0.315903 0.574232
0.035220 0.314175 0.577508
0.072093 0.325992 0.566676
0.314748 0.391119 0.546147
0.591190 0.420155 0.535802
0.772885 0.394126 0.511536
0.828832 0.307930 0.446094
0.846602 0.260626 0.406475
0.073094 0.508871 0.728668
0.078110 0.508360 0.727606
0.087928 0.507995 0.727903
0.097832 0.484648 0.696791
0.578723 0.594154 0.691222
0.778426 0.593548 0.679924
0.882792 0.539851 0.617187
0.902281 0.501625 0.585141
0.158593 0.648333 0.792149
0.166095 0.643010 0.787206
0.176595 0.638518 0.782873
0.213276 0.645485 0.784303
0.369255 0.692895 0.799389
0.779886 0.755592 0.812369
0.904444 0.739743 0.790300
0.936582 0.726510 0.776292
0.189300 0.690447 0.788229
0.200007 0.690167 0.787503
0.213618 0.693846 0.788023
0.259636 0.720774 0.800670
0.362030 0.775758 0.834279
0.763238 0.854392 0.867089
0.902875 0.865098 0.869276
0.958172 0.859800 0.863832
0.210416 0.728536 0.784416
0.225415 0.736310 0.787060
0.242182 0.744700 0.792819
0.292709 0.778983 0.815696
0.496353 0.841041 0.851237
0.796125 0.902799 0.887040
0.919246 0.922673 0.891962
0.968245 0.923274 0.887637
0.097760 0.058643 0.305782
0.145451 0.062572 0.299878
0.257133 0.078041 0.300877
0.453992 0.123435 0.322177
0.622924 0.166183 0.365738
0.737817 0.172295 0.373876
0.773647 0.151007 0.357118
0.798340 0.129292 0.344828
0.080417 0.083863 0.336253
0.120624 0.088841 0.330725
0.217860 0.101402 0.333285
0.442662 0.142926 0.346290
0.618405 0.191524 0.384419
0.741044 0.202617 0.396349
0.779285 0.183676 0.378816
0.803706 0.155365 0.362863
0.074209 0.169817 0.443082
0.091028 0.172720 0.435684
0.160764 0.181626 0.419227
0.401835 0.212230 0.420509
0.605822 0.237484 0.423723
0.746769 0.243505 0.426287
0.790117 0.218640 0.409089
0.809839 0.189936 0.392903
0.035717 0.324434 0.598601
0.045201 0.324913 0.596971
0.087593 0.340764 0.574325
0.340036 0.401882 0.569194
0.597580 0.426289 0.558488
0.770452 0.403453 0.544870
0.820003 0.322159 0.497099
0.837769 0.274996 0.470044
0.072740 0.507374 0.747523
0.077553 0.505092 0.745144
0.085713 0.500368 0.741480
0.105241 0.482978 0.709061
0.570276 0.594179 0.718386
0.772192 0.599760 0.717057
0.868970 0.556463 0.683753
0.892428 0.517926 0.654970
0.158841 0.635046 0.800818
0.164561 0.633221 0.799916
0.172223 0.630357 0.798422
0.206590 0.633651 0.804094
0.305102 0.663572 0.816302
0.761933 0.742945 0.845936
0.888363 0.745624 0.836891
0.928279 0.735686 0.831482
0.182212 0.684355 0.810637
0.193600 0.683725 0.808726
0.207746 0.685652 0.809085
0.253165 0.708441 0.822261
0.338626 0.757830 0.855941
0.746749 0.845956 0.902010
0.893481 0.865557 0.918154
0.948845 0.865708 0.917715
0.207383 0.725009 0.812658
0.219631 0.728330 0.813373
0.236427 0.736942 0.816086
0.292919 0.773555 0.841181
0.426910 0.832337 0.878910
0.760679 0.894744 0.918130
0.894234 0.919758 0.937131
0.963005 0.931247 0.944738
