Postproduction/IWLTBAP - Humble/LUTs by IWLTBAP (3DL)/UTILITY/Sony S-Log3 to Rec.709/U-SONY-S-LOG3-V1-LTR.3dl
# Copyright: (C) Copyright 2010-2018 by IWLTBAP SAS
# Cannot be resold, shared or otherwise redistributed
# Website: https://luts.iwltbap.com
0 256 512 768 1023
0 0 0
0 0 648
0 0 2499
0 0 3951
0 0 4095
0 745 0
0 656 608
0 0 2495
0 0 3951
0 0 4095
0 2719 0
0 2709 0
0 2539 2422
0 1310 3935
0 0 4095
1172 4095 0
1168 4095 0
975 4091 2014
231 3985 3866
0 3780 4095
4016 4095 0
4016 4095 0
4016 4095 0
3907 4095 3752
3842 4095 4094
716 0 0
671 0 635
0 0 2498
0 0 3951
0 0 4095
623 687 0
587 592 595
0 0 2494
0 0 3951
0 0 4095
0 2705 0
0 2696 0
0 2525 2421
0 1293 3935
0 0 4095
1402 4095 0
1396 4095 0
1217 4090 2011
282 3982 3866
0 3778 4095
4019 4095 0
4018 4095 0
4018 4095 0
3909 4095 3752
3844 4095 4094
2831 0 0
2826 0 547
2745 0 2485
2332 0 3952
0 0 4095
2831 0 0
2820 0 484
2760 0 2482
2367 0 3952
0 0 4095
2486 2598 0
2476 2592 0
2405 2404 2407
2184 954 3936
0 0 4095
2497 4095 0
2496 4095 0
2423 4086 1986
2048 3956 3867
0 3735 4095
4035 4095 0
4035 4095 0
4035 4095 0
3926 4095 3751
3866 4095 4094
4095 0 130
4095 0 130
4095 0 2324
4095 0 3950
4095 0 4095
4095 0 130
4095 0 130
4095 0 2320
4095 0 3950
4095 0 4095
4095 2047 0
4095 2038 0
4095 1783 2190
4095 76 3940
4095 0 4095
3981 4078 0
3981 4078 0
3959 4052 1631
3865 3863 3863
3867 3557 4095
4095 4095 0
4095 4095 0
4095 4095 0
4021 4095 3740
3982 4095 4094
4095 0 176
4095 0 176
4095 0 176
4095 0 3882
4095 0 4095
4095 0 176
4095 0 176
4095 0 176
4095 0 3881
4095 0 4095
4095 0 176
4095 0 176
4095 0 176
4095 0 3880
4095 0 4095
4095 3983 0
4095 3983 0
4095 3981 0
4095 3738 3791
4095 3120 4095
4095 4095 0
4095 4095 0
4095 4095 0
4095 4095 3586
4095 4095 4095
