Postproduction/IWLTBAP - Humble/LUTs by IWLTBAP (3DL)/UTILITY/Sony S-Log3 to Rec.709/U-SONY-S-LOG3-V3-LTR.3dl
# Copyright: (C) Copyright 2010-2018 by IWLTBAP SAS
# Cannot be resold, shared or otherwise redistributed
# Website: https://luts.iwltbap.com
0 64 128 192 256 320 384 448 512 576 640 704 768 832 896 960 1023
13 13 13
13 13 31
14 13 105
16 16 288
22 22 551
32 32 899
58 58 1349
119 118 1852
194 194 2330
269 269 2803
337 336 3273
393 392 3644
430 429 3875
445 444 3968
446 445 3972
555 1173 3978
808 2199 3998
16 39 16
15 33 30
15 27 100
16 21 286
22 22 550
32 32 899
58 58 1350
119 118 1852
194 194 2329
269 269 2803
337 336 3272
393 392 3643
430 429 3874
445 444 3968
446 446 3972
567 1230 3979
815 2221 3999
25 170 25
24 152 34
23 127 99
22 87 283
23 37 548
32 33 898
58 58 1349
119 118 1851
194 194 2328
269 268 2802
337 336 3271
393 392 3642
429 429 3873
445 444 3968
446 451 3972
577 1277 3979
820 2241 3999
43 383 43
42 371 47
40 356 110
39 325 285
36 248 546
35 86 896
58 58 1347
118 118 1850
194 194 2327
269 268 2801
337 336 3269
392 392 3641
429 428 3871
445 444 3967
447 460 3972
589 1335 3980
826 2262 4000
118 674 118
116 667 118
113 658 153
109 640 297
101 598 549
86 484 896
73 212 1344
118 119 1846
194 193 2324
268 268 2798
336 336 3267
392 391 3638
429 428 3869
445 444 3967
449 482 3972
612 1440 3981
836 2297 4001
267 1057 267
266 1054 266
264 1048 269
260 1039 337
255 1017 558
243 962 900
217 822 1344
188 537 1842
202 274 2317
267 267 2791
335 335 3260
391 390 3632
428 427 3864
444 444 3966
461 579 3973
652 1615 3984
853 2354 4003
455 1566 455
454 1564 454
453 1560 453
451 1554 458
447 1540 587
440 1506 909
425 1431 1350
401 1294 1843
366 1062 2313
340 737 2782
351 479 3250
392 414 3622
430 468 3856
452 516 3965
533 1042 3977
713 1852 3989
880 2448 4006
651 2098 651
650 2096 650
649 2093 649
648 2088 648
644 2079 673
639 2057 931
630 2011 1362
615 1933 1848
593 1811 2315
564 1634 2781
533 1394 3246
514 1144 3615
525 1082 3848
571 1233 3969
665 1662 3985
791 2138 3997
923 2596 4011
834 2615 834
833 2613 833
832 2610 832
831 2607 831
829 2599 831
824 2582 979
818 2548 1387
808 2492 1860
793 2411 2321
775 2302 2783
752 2164 3246
735 2034 3614
736 1977 3847
760 2029 3972
811 2207 3998
888 2474 4007
983 2808 4018
1000 3131 1000
1000 3128 999
999 3126 999
998 3122 998
995 3115 996
991 3100 1070
986 3073 1437
979 3028 1886
968 2964 2333
954 2877 2789
938 2771 3247
922 2669 3613
918 2612 3845
928 2622 3973
953 2702 4014
998 2861 4020
1065 3098 4029
1150 3585 1150
1150 3583 1149
1149 3581 1149
1148 3577 1147
1145 3571 1146
1142 3558 1206
1137 3537 1524
1132 3505 1938
1123 3457 2361
1112 3391 2803
1098 3309 3253
1084 3226 3613
1078 3170 3842
1080 3158 3971
1093 3195 4026
1119 3282 4038
1156 3406 4043
1279 3939 1278
1278 3937 1277
1276 3935 1277
1275 3932 1278
1273 3926 1290
1270 3917 1396
1267 3901 1679
1262 3876 2028
1255 3840 2415
1246 3789 2834
1233 3725 3267
1221 3659 3615
1213 3610 3841
1210 3586 3968
1214 3590 4027
1225 3620 4048
1243 3675 4056
1331 4070 1355
1330 4069 1370
1330 4069 1392
1331 4069 1424
1331 4068 1508
1332 4066 1669
1333 4065 1892
1336 4061 2172
1338 4053 2508
1335 4027 2894
1326 3981 3297
1315 3928 3625
1307 3885 3842
1302 3859 3967
1301 3851 4026
1304 3857 4048
1311 3873 4061
1335 4072 1744
1335 4072 1783
1336 4072 1824
1336 4072 1861
1337 4072 1920
1338 4072 2018
1341 4073 2167
1344 4073 2375
1350 4074 2647
1357 4076 2986
1365 4074 3349
1368 4061 3645
1363 4033 3848
1358 4010 3967
1356 3999 4025
1356 3997 4047
1357 3999 4060
1343 4073 2278
1343 4073 2297
1343 4073 2315
1344 4073 2336
1344 4073 2372
1345 4073 2429
1347 4074 2521
1350 4075 2662
1354 4076 2868
1361 4076 3138
1369 4078 3430
1377 4079 3679
1382 4079 3859
1384 4074 3970
1383 4066 4026
1382 4062 4047
1382 4060 4060
1452 4076 2787
1450 4076 2797
1449 4076 2808
1448 4076 2820
1446 4076 2841
1442 4076 2877
1434 4076 2935
1421 4076 3028
1407 4077 3165
1398 4078 3345
1401 4078 3547
1406 4080 3734
1411 4080 3880
1415 4081 3976
1419 4081 4027
1431 4080 4048
1469 4080 4061
2365 4084 3296
2364 4084 3301
2363 4084 3306
2363 4084 3312
2362 4084 3322
2360 4084 3340
2357 4084 3371
2352 4084 3417
2344 4084 3483
2333 4085 3578
2318 4085 3692
2304 4086 3813
2292 4086 3919
2290 4087 3994
2301 4087 4037
2329 4088 4055
2367 4088 4068
40 14 14
38 14 31
36 14 102
33 17 285
29 22 548
33 32 896
58 57 1347
119 118 1851
194 194 2329
269 269 2803
337 336 3273
393 392 3644
430 429 3876
445 444 3968
446 445 3972
553 1164 3978
808 2196 3998
32 35 16
30 30 30
27 24 97
25 19 282
24 22 547
32 32 897
58 57 1348
119 118 1851
194 194 2329
269 269 2803
337 336 3272
393 392 3643
430 429 3874
445 444 3968
446 446 3972
566 1225 3978
814 2218 3999
30 154 24
28 134 33
25 110 96
23 72 279
23 33 545
32 32 896
58 57 1347
118 118 1850
194 194 2328
269 268 2802
337 336 3271
393 392 3642
429 429 3873
445 444 3968
446 450 3972
576 1272 3979
820 2239 3999
42 368 41
40 356 45
39 340 105
37 308 280
34 230 543
35 77 894
57 57 1346
118 118 1849
194 193 2326
269 268 2800
337 336 3270
392 392 3641
429 428 3871
445 444 3967
447 459 3972
588 1329 3980
826 2260 4000
115 663 115
112 656 114
109 647 149
105 629 292
97 586 545
83 469 893
72 201 1342
118 119 1845
193 193 2323
268 268 2797
336 336 3267
392 391 3638
429 428 3869
445 444 3967
449 481 3972
611 1434 3981
836 2295 4001
264 1049 264
262 1046 262
260 1040 265
257 1030 333
251 1008 555
239 953 897
214 810 1342
184 524 1840
201 270 2316
267 267 2791
335 335 3260
391 390 3632
428 427 3864
444 444 3966
461 575 3973
650 1611 3984
852 2352 4003
453 1560 453
452 1558 452
451 1554 451
449 1548 455
445 1534 584
437 1500 906
423 1425 1348
398 1286 1842
364 1052 2312
338 728 2782
350 474 3250
391 412 3622
430 466 3856
451 513 3965
531 1034 3977
711 1848 3989
879 2446 4006
650 2094 650
649 2092 649
648 2090 648
646 2085 646
643 2076 671
638 2054 928
628 2008 1360
613 1929 1847
592 1807 2315
563 1628 2781
531 1387 3245
512 1137 3615
524 1076 3848
570 1226 3969
664 1658 3985
791 2136 3996
923 2594 4011
834 2613 833
833 2611 833
832 2609 832
831 2605 830
828 2597 831
824 2580 977
817 2546 1385
807 2490 1859
793 2409 2320
774 2299 2783
752 2162 3246
734 2031 3614
735 1974 3847
759 2026 3972
810 2205 3998
887 2473 4007
983 2806 4018
1000 3130 1000
999 3127 999
998 3125 998
997 3121 997
995 3114 995
991 3099 1069
986 3072 1435
979 3027 1885
968 2963 2333
954 2876 2789
937 2769 3247
922 2668 3613
917 2611 3844
927 2620 3973
953 2701 4014
998 2860 4020
1064 3096 4029
1150 3585 1150
1149 3582 1149
1148 3580 1148
1147 3577 1147
1145 3570 1146
1141 3558 1205
1137 3537 1523
1131 3504 1937
1123 3456 2360
1111 3390 2803
1098 3308 3253
1084 3225 3613
1077 3169 3842
1079 3157 3971
1093 3194 4026
1119 3281 4037
1156 3405 4043
1278 3939 1278
1277 3937 1277
1276 3934 1277
1275 3931 1277
1273 3926 1290
1270 3916 1395
1267 3901 1678
1262 3876 2027
1255 3840 2415
1245 3789 2834
1233 3724 3267
1221 3658 3615
1213 3609 3841
1210 3585 3968
1214 3589 4027
1224 3620 4048
1243 3675 4056
1331 4070 1355
1330 4069 1370
1330 4069 1391
1331 4069 1424
1331 4068 1507
1332 4066 1668
1333 4064 1891
1336 4061 2172
1338 4053 2507
1335 4026 2894
1326 3980 3297
1315 3928 3625
1307 3885 3842
1302 3859 3967
1301 3850 4026
1304 3856 4048
1311 3872 4061
1335 4072 1743
1335 4072 1782
1336 4072 1823
1336 4072 1861
1337 4072 1919
1338 4072 2017
1341 4073 2166
1344 4073 2374
1350 4074 2647
1357 4076 2986
1365 4074 3349
1368 4061 3645
1363 4033 3848
1358 4010 3967
1356 3999 4025
1356 3997 4047
1357 3998 4060
1343 4073 2278
1343 4073 2296
1343 4073 2315
1344 4073 2336
1344 4073 2372
1345 4073 2429
1347 4074 2520
1350 4075 2662
1354 4076 2868
1361 4076 3138
1369 4078 3430
1377 4079 3679
1382 4079 3859
1384 4074 3970
1383 4065 4026
1382 4062 4047
1382 4060 4060
1466 4076 2787
1465 4076 2797
1464 4076 2808
1462 4076 2820
1460 4076 2841
1456 4076 2877
1447 4076 2935
1432 4076 3028
1415 4077 3165
1402 4078 3345
1404 4079 3547
1409 4080 3734
1413 4080 3880
1418 4081 3976
1424 4081 4028
1441 4080 4048
1487 4080 4062
2381 4084 3297
2381 4084 3302
2381 4084 3307
2380 4084 3312
2379 4084 3323
2377 4084 3341
2374 4084 3371
2369 4084 3417
2361 4084 3483
2350 4085 3578
2336 4085 3692
2322 4086 3813
2310 4087 3919
2308 4087 3994
2319 4088 4037
2342 4088 4056
2379 4088 4068
176 18 18
169 18 32
161 18 103
147 20 283
117 24 546
70 33 894
60 57 1345
118 118 1850
194 194 2328
269 269 2803
337 336 3273
393 392 3644
430 429 3876
445 444 3968
446 445 3972
551 1156 3978
807 2193 3998
146 33 19
138 28 31
129 24 97
115 20 280
88 23 545
52 33 894
58 57 1346
118 118 1850
194 194 2328
269 268 2802
337 336 3272
393 392 3643
430 429 3874
445 444 3968
446 446 3972
565 1219 3978
813 2216 3999
114 137 25
105 119 33
96 96 94
81 61 276
57 31 542
40 32 894
58 57 1346
118 118 1849
194 194 2328
269 268 2801
337 336 3271
393 392 3642
429 429 3873
445 444 3968
446 450 3972
575 1267 3979
819 2236 3999
81 352 40
74 340 44
66 323 102
55 291 276
41 210 540
36 68 891
57 57 1344
118 118 1848
194 193 2326
269 268 2800
337 336 3270
392 392 3641
429 428 3872
445 444 3967
447 458 3972
587 1324 3980
825 2257 4000
114 652 111
111 645 110
108 635 144
102 617 288
94 574 542
80 454 891
70 190 1340
118 119 1845
193 193 2323
268 268 2797
336 336 3267
392 391 3638
429 428 3869
445 444 3967
449 480 3972
609 1429 3981
835 2293 4001
260 1041 260
259 1037 259
257 1032 261
254 1022 329
248 1000 551
236 944 895
210 798 1340
181 510 1839
200 266 2316
267 267 2790
335 335 3260
391 390 3632
428 427 3864
445 444 3966
461 571 3973
649 1606 3984
852 2350 4003
451 1554 451
450 1552 450
449 1548 449
446 1542 453
443 1528 581
435 1494 904
421 1418 1346
396 1279 1840
361 1041 2312
336 718 2781
350 468 3250
391 410 3623
430 465 3856
451 509 3965
530 1027 3977
710 1845 3989
879 2444 4006
649 2091 649
648 2089 648
647 2086 647
645 2082 645
642 2072 669
637 2051 925
627 2004 1358
612 1925 1846
590 1802 2314
561 1623 2781
529 1380 3245
511 1131 3615
523 1070 3849
568 1218 3969
663 1654 3985
790 2133 3996
922 2592 4011
833 2611 833
832 2609 832
831 2607 831
830 2603 830
827 2595 830
823 2578 975
817 2544 1383
806 2488 1858
792 2407 2320
773 2297 2783
751 2159 3245
734 2028 3614
734 1971 3847
758 2023 3972
810 2202 3998
887 2471 4006
983 2805 4018
1000 3128 1000
999 3126 999
998 3124 998
997 3120 997
995 3113 995
991 3098 1068
986 3070 1434
978 3026 1884
967 2961 2332
953 2874 2789
937 2768 3247
922 2666 3613
917 2609 3845
927 2619 3973
952 2700 4014
997 2859 4020
1064 3095 4029
1150 3584 1150
1149 3582 1149
1148 3579 1148
1147 3576 1147
1145 3569 1145
1141 3557 1203
1137 3536 1521
1131 3504 1936
1122 3455 2360
1111 3389 2803
1097 3307 3253
1084 3224 3612
1077 3168 3842
1079 3156 3971
1093 3193 4026
1118 3280 4037
1156 3404 4043
1278 3939 1278
1277 3937 1277
1276 3934 1276
1275 3931 1277
1273 3925 1289
1270 3916 1394
1267 3900 1677
1262 3876 2026
1255 3839 2414
1245 3788 2834
1233 3724 3266
1221 3658 3615
1213 3609 3841
1210 3585 3968
1214 3589 4027
1224 3619 4048
1243 3674 4056
1331 4070 1355
1330 4069 1369
1330 4069 1391
1330 4068 1423
1331 4068 1506
1332 4066 1667
1333 4064 1890
1336 4061 2171
1338 4053 2507
1335 4026 2894
1326 3980 3297
1315 3927 3625
1306 3884 3842
1302 3859 3967
1301 3850 4026
1304 3856 4048
1310 3872 4061
1335 4072 1742
1335 4072 1781
1336 4072 1822
1336 4072 1860
1337 4072 1919
1338 4072 2017
1341 4073 2166
1344 4073 2374
1350 4074 2647
1357 4076 2986
1365 4074 3349
1368 4061 3645
1363 4033 3848
1358 4010 3967
1356 3998 4025
1356 3996 4047
1357 3998 4060
1343 4073 2277
1343 4073 2296
1343 4073 2315
1344 4073 2335
1344 4073 2371
1345 4073 2428
1347 4074 2520
1350 4075 2662
1354 4076 2867
1361 4076 3138
1369 4078 3430
1377 4079 3679
1382 4079 3859
1384 4074 3971
1383 4065 4026
1382 4062 4047
1382 4060 4060
1488 4076 2787
1486 4076 2797
1485 4076 2808
1483 4076 2820
1480 4076 2841
1476 4076 2877
1465 4076 2935
1449 4076 3028
1429 4077 3165
1409 4078 3345
1408 4079 3547
1413 4080 3734
1418 4080 3880
1423 4081 3976
1433 4081 4028
1453 4080 4048
1507 4080 4062
2398 4084 3297
2397 4084 3302
2397 4084 3307
2396 4084 3313
2395 4084 3323
2394 4084 3341
2391 4084 3371
2386 4084 3417
2378 4085 3483
2367 4085 3579
2354 4086 3692
2339 4086 3813
2329 4087 3920
2326 4087 3994
2335 4088 4037
2354 4088 4056
2392 4089 4069
381 25 26
376 25 37
371 25 109
362 26 283
340 29 545
288 37 892
181 60 1343
130 118 1849
194 194 2328
269 269 2803
337 336 3273
393 392 3644
430 429 3876
445 444 3968
446 445 3972
549 1145 3978
806 2190 3998
362 34 26
357 31 36
351 28 103
341 26 280
319 29 544
264 36 893
159 59 1344
126 118 1849
194 194 2328
269 268 2802
337 336 3272
393 392 3643
430 429 3875
445 444 3968
446 445 3972
564 1213 3978
