Postproduction/IWLTBAP - Humble/LUTs by IWLTBAP (3DL)/UTILITY/Sony S-Log3 to Rec.709/U-SONY-S-LOG3-V5-LTR.3dl
# Copyright: (C) Copyright 2010-2018 by IWLTBAP SAS
# Cannot be resold, shared or otherwise redistributed
# Website: https://luts.iwltbap.com
0 256 512 768 1023
16 16 16
16 16 1479
16 16 3769
16 16 4079
16 16 4079
16 1205 16
16 1071 1126
16 33 3752
16 16 4079
16 16 4079
92 3411 16
35 3406 17
16 3333 3364
16 1604 4079
16 16 4079
2743 4079 16
2720 4079 16
2484 4079 1615
16 4079 4079
16 3349 4079
4079 4079 16
4079 4079 16
4079 4079 16
4076 4079 3880
16 4079 4079
1370 16 16
1164 16 1391
16 16 3768
16 16 4079
16 16 4079
1197 1147 16
1020 1023 1018
16 58 3747
16 16 4079
16 16 4079
1275 3382 16
1160 3374 16
83 3311 3337
16 1612 4079
16 16 4079
2894 4079 16
2877 4079 16
2690 4079 1598
16 4079 4079
16 3349 4079
4079 4079 16
4079 4079 16
4079 4079 16
4077 4079 3879
16 4079 4079
3682 16 16
3663 16 1046
3560 16 3670
499 16 4079
16 16 4079
3558 1186 16
3546 1073 590
3523 111 3621
521 16 4079
16 16 4079
3355 3326 16
3342 3316 16
3217 3219 3215
487 1644 4079
16 16 4079
3534 4079 16
3528 4079 16
3453 4079 1497
2223 4079 4079
16 3355 4079
4079 4079 16
4079 4079 16
4079 4079 16
4079 4079 3877
16 4079 4079
4079 1674 16
4079 1619 16
4079 972 3369
4079 16 4079
862 16 4079
4079 2193 16
4079 2158 16
4079 1752 3282
4079 16 4079
863 16 4079
4079 3396 16
4079 3390 16
4079 3300 2966
4079 2191 4079
869 16 4079
4079 4079 16
4079 4079 16
4079 4079 836
4079 4079 4079
804 3374 4079
4079 4079 16
4079 4079 16
4079 4079 16
4079 4079 3857
4070 4079 4079
4079 3756 16
4079 3754 16
4079 3729 16
4079 3406 4079
4079 16 4079
4079 3782 16
4079 3780 16
4079 3760 16
4079 3464 4079
4079 16 4079
4079 3942 16
4079 3940 16
4079 3927 16
4079 3755 4079
4079 16 4079
4079 4079 16
4079 4079 16
4079 4079 16
4079 4079 4079
4079 3969 4079
4079 4079 16
4079 4079 16
4079 4079 16
4079 4079 3481
4079 4079 4079
