Postproduction/IWLTBAP - Humble/LUTs by IWLTBAP (3DL)/UTILITY/Sony S-Log3 to Rec.709/U-SONY-S-LOG3-V6-LTR.3dl
# Copyright: (C) Copyright 2010-2018 by IWLTBAP SAS
# Cannot be resold, shared or otherwise redistributed
# Website: https://luts.iwltbap.com
0 256 512 768 1023
83 78 35
253 0 1478
0 0 2501
1813 2234 3688
3582 3576 4090
0 938 0
0 905 1115
0 1206 2765
540 2471 3617
3521 3649 4094
0 1724 0
0 1696 0
0 2202 2824
0 2344 3252
3033 3801 4073
0 1848 0
0 1848 0
0 2148 901
0 2654 3359
0 2668 3388
0 1848 0
0 1848 0
0 1848 0
0 2506 2566
0 2732 3422
1559 0 0
1881 0 1793
2063 0 2831
2827 2235 3813
3696 3568 4095
1079 1228 0
938 997 1035
1305 1271 3103
2475 2631 3855
3651 3642 4095
0 1723 0
0 1683 0
0 2201 2833
0 2448 3322
3331 3830 4094
0 1848 0
0 1848 0
0 2167 954
0 2654 3359
0 2668 3388
0 1848 0
0 1848 0
0 1848 0
0 2508 2578
0 2732 3422
2569 0 14
2745 0 1972
3113 0 3003
3655 2034 3859
3958 3542 4095
3249 764 0
3137 358 1191
3283 622 3164
3667 2470 3942
3948 3617 4095
3510 3121 0
3476 2959 0
3291 3297 3097
3444 3464 4036
3856 3841 4095
0 1848 0
0 1848 0
0 2234 1284
0 2653 3360
740 3419 3767
0 1848 0
0 1848 0
0 1848 0
0 2517 2630
0 2732 3422
2861 0 2109
2975 0 2545
3532 320 3449
3845 1787 3830
4095 3481 4095
2810 0 1626
2880 0 2113
3263 0 2974
3939 2260 3925
4095 3565 4095
4095 2865 0
4095 2985 614
4077 3025 3244
4091 3303 4055
4095 3816 4095
4095 3475 0
4095 3476 0
4095 3876 1005
4085 4095 4041
4095 4095 4095
0 1848 0
0 1848 0
0 1848 0
0 2550 2818
0 2732 3422
3531 303 3447
3575 635 3514
3590 746 3535
3590 746 3535
4095 3116 4077
3523 247 3435
3569 584 3503
3590 746 3535
3590 746 3535
4095 3244 4093
3679 1156 3202
3699 1217 3310
3796 1595 3610
4036 2696 3998
4095 3634 4095
4095 3892 1190
4095 3958 1936
4095 4072 3176
4095 4087 4071
4095 4095 4095
4095 3514 0
4095 3514 0
4095 3514 0
4095 4095 3379
4095 4095 4095
