Postproduction/IWLTBAP - Humble/LUTs by IWLTBAP (3DL)/UTILITY/Sony S-Log3 to Rec.709/U-SONY-S-LOG3-V6-LTR.3dl
# Copyright: (C) Copyright 2010-2018 by IWLTBAP SAS
# Cannot be resold, shared or otherwise redistributed
# Website: https://luts.iwltbap.com
0 128 256 384 512 640 768 896 1023
83 78 35
28 80 349
253 0 1478
47 0 1926
0 0 2501
448 1420 3259
1813 2234 3688
2902 2946 3954
3582 3576 4090
73 152 35
17 168 146
6 201 1293
8 206 2101
0 766 2598
1 1544 3194
1463 2351 3675
2814 3015 3955
3562 3603 4092
0 938 0
0 850 0
0 905 1115
0 1012 2277
0 1206 2765
0 1598 3023
540 2471 3617
2624 3120 3953
3521 3649 4094
0 1466 0
0 1471 0
0 1472 358
0 1736 2170
0 1795 2883
0 1969 3113
0 2248 3294
1973 3246 3909
3409 3721 4093
0 1724 0
0 1726 0
0 1696 0
0 2009 1563
0 2202 2824
0 2275 3177
0 2344 3252
43 2818 3522
3033 3801 4073
0 1846 0
0 1847 0
0 1847 0
0 1897 158
0 2383 2571
0 2466 3187
0 2516 3303
0 2525 3314
475 3348 3745
0 1848 0
0 1848 0
0 1848 0
0 1848 0
0 2148 901
0 2580 3119
0 2654 3359
0 2665 3387
0 2668 3388
0 1848 0
0 1848 0
0 1848 0
0 1848 0
0 1848 0
0 2344 1814
0 2660 3325
0 2732 3422
0 2732 3422
0 1848 0
0 1848 0
0 1848 0
0 1848 0
0 1848 0
0 1848 0
0 2506 2566
0 2710 3397
0 2732 3422
404 19 31
484 6 403
760 0 1675
938 0 2236
1107 0 2710
1582 1434 3408
2320 2250 3755
3061 2943 3968
3626 3573 4093
185 171 23
158 165 140
180 101 1246
413 5 2125
482 626 2796
1091 1648 3394
2099 2391 3760
2991 3016 3973
3607 3600 4094
0 928 0
0 818 0
0 893 1145
0 974 2251
0 1126 2742
57 1850 3312
1545 2575 3739
2844 3129 3976
3571 3647 4095
0 1464 0
0 1469 0
0 1478 406
0 1734 2183
0 1793 2885
0 1956 3110
41 2625 3560
2389 3291 3954
3473 3721 4095
0 1723 0
0 1725 0
0 1691 0
0 2013 1587
0 2202 2827
0 2274 3177
0 2344 3251
207 3118 3698
3153 3813 4083
0 1846 0
0 1847 0
0 1847 0
0 1900 175
0 2384 2577
0 2466 3188
0 2516 3303
0 2525 3314
935 3529 3844
0 1848 0
0 1848 0
0 1848 0
0 1848 0
0 2155 919
0 2580 3120
0 2654 3359
0 2665 3386
0 2668 3388
0 1848 0
0 1848 0
0 1848 0
0 1848 0
0 1848 0
0 2346 1825
0 2660 3325
0 2732 3422
0 2732 3422
0 1848 0
0 1848 0
0 1848 0
0 1848 0
0 1848 0
0 1848 0
0 2506 2570
0 2710 3397
0 2732 3422
1559 0 0
1679 0 447
1881 0 1793
1971 0 2403
2063 0 2831
2457 1299 3505
2827 2235 3813
3275 2930 3985
3696 3568 4095
1368 17 0
1301 1 99
1405 0 1298
1574 0 2258
1858 360 2971
2267 1630 3542
2722 2394 3836
3228 3008 3992
3682 3595 4095
1079 1228 0
1063 1018 0
938 997 1035
1035 1074 2399
1305 1271 3103
1789 1974 3556
2475 2631 3855
3131 3132 4001
3651 3642 4095
0 1488 0
0 1494 0
0 1480 406
0 1721 2131
0 1874 2950
140 2326 3431
1439 2906 3801
2845 3327 4003
3574 3722 4095
0 1723 0
0 1724 0
0 1683 0
0 2020 1629
0 2201 2833
0 2274 3177
0 2448 3322
1358 3409 3886
3331 3830 4094
0 1846 0
0 1846 0
0 1847 0
0 1908 215
0 2385 2588
0 2466 3189
0 2515 3302
0 2524 3314
1732 3729 3959
0 1848 0
0 1848 0
0 1848 0
0 1848 0
0 2167 954
0 2580 3123
0 2654 3359
0 2665 3386
0 2668 3388
0 1848 0
0 1848 0
0 1848 0
0 1848 0
0 1848 0
0 2351 1844
0 2660 3326
0 2732 3422
0 2732 3422
0 1848 0
0 1848 0
0 1848 0
0 1848 0
0 1848 0
0 1848 0
0 2508 2578
0 2710 3397
0 2732 3422
2225 0 0
2353 0 636
2474 0 1825
2603 0 2483
2707 0 2868
3089 976 3520
3318 2159 3852
3540 2890 4001
3813 3558 4095
2196 0 0
2147 0 119
2253 0 1303
2410 0 2222
2697 40 2964
3071 1460 3598
3287 2329 3884
3520 2973 4011
3802 3584 4095
2788 1288 0
2630 901 0
2618 839 1005
2651 862 2425
2752 1063 3209
2972 1857 3666
3212 2594 3925
3476 3107 4026
3782 3633 4095
2469 2478 0
2474 2431 0
2367 2169 54
2293 2280 2180
2359 2284 3294
2593 2543 3739
2950 2994 3956
3350 3335 4046
3729 3717 4095
350 2035 0
361 2051 0
392 2005 0
105 2365 1512
99 2646 2950
383 2893 3531
1494 3303 3859
2853 3599 4036
3578 3842 4095
0 1846 0
0 1846 0
0 1847 0
0 1931 298
0 2387 2611
0 2466 3191
0 2515 3302
51 2924 3530
2860 3905 4068
0 1848 0
0 1848 0
0 1848 0
0 1848 0
0 2189 1032
0 2581 3128
0 2654 3360
0 2664 3386
0 2668 3388
0 1848 0
0 1848 0
0 1848 0
0 1848 0
0 1848 0
0 2362 1885
0 2661 3327
0 2732 3422
0 2732 3422
0 1848 0
0 1848 0
0 1848 0
0 1848 0
0 1848 0
0 1848 0
0 2511 2595
0 2710 3397
0 2732 3422
2569 0 14
2665 0 1096
2745 0 1972
2937 0 2641
3113 0 3003
3399 516 3472
3655 2034 3859
3798 2822 4012
3958 3542 4095
2500 0 0
2591 0 639
2646 0 1547
2711 0 2183
3014 0 2874
3464 1158 3575
3664 2206 3895
3797 2906 4024
3955 3569 4095
3249 764 0
3120 438 0
3137 358 1191
3177 351 2398
3283 622 3164
3499 1614 3658
3667 2470 3942
3790 3044 4041
3948 3617 4095
3765 2586 0
3656 2243 0
3571 2063 87
3501 2083 2170
3478 2073 3296
3531 2361 3776
3637 2905 3996
3757 3289 4070
3927 3707 4095
3510 3121 0
3515 3124 0
3476 2959 0
3387 3215 1124
3291 3297 3097
3324 3295 3833
3444 3464 4036
3628 3629 4094
3856 3841 4095
1247 2528 0
1265 2536 0
1304 2551 0
1184 2653 41
751 3159 2573
1051 3382 3546
1820 3635 3893
2894 3850 4064
3590 3990 4095
0 1848 0
0 1848 0
0 1848 0
0 1848 0
0 2234 1284
0 2582 3138
0 2653 3360
0 2664 3386
740 3419 3767
0 1848 0
0 1848 0
0 1848 0
0 1848 0
0 1848 0
0 2383 1968
0 2662 3330
0 2732 3422
0 2732 3422
0 1848 0
0 1848 0
0 1848 0
0 1848 0
0 1848 0
0 1848 0
0 2517 2630
0 2710 3398
0 2732 3422
2764 0 1162
2802 0 1709
2872 0 2229
3081 0 2772
3423 0 3305
3504 299 3447
3818 1973 3862
3957 2780 4017
4072 3523 4095
2757 0 1036
2793 0 1627
2850 0 2131
2940 0 2509
3098 0 2848
3578 741 3532
3845 2141 3897
3967 2862 4030
4073 3553 4095
3114 34 54
3131 4 766
3160 0 1628
3244 3 2467
3405 188 3129
3680 1457 3642
3880 2387 3939
3981 2998 4049
4075 3601 4095
3927 1978 0
3833 1813 0
3791 1807 835
3746 1799 2342
3744 1820 3281
3815 2170 3757
3931 2803 3999
4002 3241 4082
4076 3693 4095
4095 3201 0
4095 3094 0
4095 2985 0
4055 3154 1450
3972 3174 3107
3941 3170 3836
3965 3385 4056
4007 3593 4095
4068 3834 4095
4035 3377 0
4036 3378 0
4037 3378 0
4024 3475 0
3909 3825 2459
3848 3888 3729
3854 3891 4067
3909 3930 4095
4009 4006 4095
2165 2851 0
2175 2854 0
2194 2860 0
2232 2872 0
2107 3280 884
1987 3701 3395
2347 3855 3916
2994 4020 4073
3620 4093 4095
0 1848 0
0 1848 0
0 1848 0
0 1848 0
0 1848 0
0 2419 2152
0 2664 3335
0 2732 3422
0 2732 3422
0 1848 0
0 1848 0
0 1848 0
0 1848 0
0 1848 0
0 1848 0
0 2529 2698
0 2711 3399
0 2732 3422
2861 0 2109
2896 0 2298
2975 0 2545
3223 0 2987
3532 320 3449
3583 696 3526
3845 1787 3830
4020 2694 4008
4095 3481 4095
2855 0 2071
2891 0 2272
2967 0 2525
3212 0 2971
3480 95 3371
3552 289 3459
3887 1983 3876
4034 2779 4023
4095 3512 4095
2810 0 1626
2831 0 1839
2880 0 2113
2998 0 2477
3263 0 2974
3698 1119 3604
3939 2260 3925
4055 2922 4046
4095 3565 4095
3723 1329 687
3711 1333 1303
3702 1336 1955
3707 1352 2694
3745 1456 3321
3867 1971 3738
4013 2695 3988
4088 3176 4082
4095 3663 4095
4095 2865 0
4095 2911 16
4095 2985 614
4094 3029 2156
4077 3025 3244
4069 3048 3837
4091 3303 4055
4095 3550 4095
4095 3816 4095
4095 3432 0
4095 3414 0
4095 3367 0
4095 3630 441
4095 3816 2661
4095 3848 3727
4095 3860 4073
4095 3918 4095
4095 4001 4095
4095 3475 0
4095 3475 0
4095 3476 0
4095 3473 0
4095 3876 1005
4092 4095 3413
4085 4095 4041
4089 4095 4095
4095 4095 4095
3008 3115 0
3013 3116 0
3020 3118 0
3037 3123 0
3072 3132 0
2961 3767 2176
2978 3996 3876
3296 4044 4068
3693 4092 4094
0 1848 0
0 1848 0
0 1848 0
0 1848 0
0 1848 0
0 1848 0
0 2550 2818
0 2713 3401
0 2732 3422
3089 0 2775
3151 0 2878
3267 0 3055
3431 3 3299
3582 686 3523
3590 746 3535
3645 963 3599
3980 2399 3956
4095 3359 4095
3081 0 2759
3141 0 2862
3258 0 3041
3427 2 3292
3581 678 3522
3590 746 3535
3730 1302 3696
4000 2504 3976
4095 3396 4095
3065 0 2729
3122 0 2831
3240 0 3014
3418 0 3278
3576 642 3515
3566 524 3496
3855 1810 3835
4033 2676 4006
4095 3458 4095
3208 145 2320
3231 155 2440
3272 178 2619
3351 243 2891
3514 487 3260
3779 1511 3680
3975 2385 3943
4085 2979 4056
4095 3572 4095
4056 2602 1811
4051 2603 2073
4044 2600 2436
4035 2593 2941
4027 2591 3469
4047 2730 3845
4092 3109 4038
4095 3423 4095
4095 3756 4095
4095 3480 62
4095 3539 215
4095 3615 898
4095 3698 2070
4095 3756 3105
4095 3757 3797
4095 3791 4077
4095 3868 4095
4095 3971 4095
4095 3510 0
4095 3507 0
4095 3498 0
4095 3698 33
4095 4005 2176
4095 4095 3519
4095 4095 4044
4095 4095 4095
4095 4095 4095
4095 3501 0
4095 3501 0
4095 3501 0
4095 3501 0
4095 3504 0
4095 4082 2585
4095 4095 3926
4095 4095 4095
4095 4095 4095
3826 3373 0
3827 3374 0
3830 3374 0
3836 3376 0
3849 3379 0
3874 3384 0
3732 4066 3039
3760 4095 4088
3894 4095 4095
3531 303 3447
3547 425 3472
3575 635 3514
3590 746 3535
3590 746 3535
3590 746 3535
3590 746 3535
3809 1624 3786
4095 3116 4077
3528 284 3443
3544 405 3468
3573 617 3510
3590 746 3535
3590 746 3535
3590 746 3535
3590 746 3535
3856 1818 3837
4095 3163 4083
3523 247 3435
3540 369 3461
3569 584 3503
3590 746 3535
3590 746 3535
3590 746 3535
3590 746 3535
3915 2084 3897
4095 3244 4093
3512 166 3419
3529 292 3444
3559 511 3489
3590 746 3535
3590 746 3535
3590 746 3535
3767 1449 3738
4004 2523 3979
4095 3395 4095
3679 1156 3202
3687 1177 3244
3699 1217 3310
3728 1321 3428
3796 1595 3610
3918 2135 3824
4036 2696 3998
4094 3140 4078
4095 3634 4095
4095 3521 2818
4095 3525 2916
4095 3529 3070
4095 3532 3324
4095 3522 3645
4095 3533 3936
4095 3633 4085
4095 3753 4095
4095 3911 4095
4095 3892 1190
4095 3919 1495
4095 3958 1936
4095 4017 2508
4095 4072 3176
4095 4087 3758
4095 4087 4071
4095 4090 4095
4095 4095 4095
4095 3515 0
4095 3515 0
4095 3515 0
4095 3548 0
4095 3974 1431
4095 4095 3278
4095 4095 3980
4095 4095 4095
4095 4095 4095
4095 3514 0
4095 3514 0
4095 3514 0
4095 3514 0
4095 3514 0
4095 3536 0
4095 4095 3379
4095 4095 4095
4095 4095 4095
