Postproduction/IWLTBAP - Humble/LUTs by IWLTBAP (3DL)/UTILITY/Sony S-Log3 to Rec.709/U-SONY-S-LOG3-V3-LTR.3dl
# Copyright: (C) Copyright 2010-2018 by IWLTBAP SAS
# Cannot be resold, shared or otherwise redistributed
# Website: https://luts.iwltbap.com
0 256 512 768 1023
13 13 13
22 22 551
194 194 2330
430 429 3875
808 2199 3998
118 674 118
101 598 549
194 193 2324
429 428 3869
836 2297 4001
834 2615 834
829 2599 831
793 2411 2321
736 1977 3847
983 2808 4018
1331 4070 1355
1331 4068 1508
1338 4053 2508
1307 3885 3842
1311 3873 4061
2365 4084 3296
2362 4084 3322
2344 4084 3483
2292 4086 3919
2367 4088 4068
668 40 40
645 43 546
271 196 2327
430 429 3876
804 2184 3998
569 616 122
529 534 538
209 193 2322
429 428 3869
833 2286 4001
830 2604 830
825 2588 827
789 2399 2318
731 1961 3847
981 2800 4018
1330 4070 1353
1331 4067 1503
1338 4052 2506
1306 3883 3842
1310 3871 4061
2446 4084 3297
2444 4084 3323
2427 4085 3484
2376 4087 3920
2432 4089 4069
2636 475 483
2634 476 657
2579 523 2338
2428 619 3894
2068 2089 4001
2634 475 480
2624 474 650
2574 522 2339
2390 613 3888
2047 2208 4004
2404 2526 887
2390 2515 883
2313 2315 2321
2062 1822 3857
1896 2751 4020
1829 4070 1356
1812 4068 1473
1742 4048 2498
1549 3870 3846
1598 3859 4064
2890 4089 3300
2888 4089 3326
2873 4090 3488
2829 4092 3927
2866 4092 4075
3996 783 837
3996 783 837
3998 807 2105
4006 886 3919
4002 973 4008
3996 783 837
3996 783 837
3998 807 2110
4006 886 3919
4000 1118 4009
4002 1247 857
4002 1251 858
4002 1098 2075
4004 895 3902
3998 2331 4033
3980 4083 1487
3978 4081 1485
3946 4045 2356
3863 3838 3875
3836 3836 4089
3892 4095 3259
3890 4095 3288
3881 4095 3472
3853 4095 3944
3844 4095 4092
3996 784 855
3996 784 855
3996 784 855
4005 877 3767
4007 892 4007
3996 784 855
3996 784 855
3996 784 855
4005 877 3767
4007 892 4007
3996 784 855
3996 784 855
3996 784 855
4005 877 3770
4007 892 4007
4050 2884 1196
4050 2884 1197
4050 2889 1198
4044 2551 3758
4057 2963 4057
4095 4095 1507
4095 4095 1507
4095 4095 2492
4095 4095 3882
4095 4094 4095
