Postproduction/IWLTBAP - Humble/LUTs by IWLTBAP (3DL)/UTILITY/Sony S-Log3 to Rec.709/U-SONY-S-LOG3-V2-LTR.3dl
# Copyright: (C) Copyright 2010-2018 by IWLTBAP SAS
# Cannot be resold, shared or otherwise redistributed
# Website: https://luts.iwltbap.com
0 128 256 384 512 640 768 896 1023
0 0 0
14 0 83
0 0 454
0 0 1062
0 0 2004
0 0 3235
0 0 3879
0 0 4067
0 96 4067
0 74 0
0 109 153
0 183 681
0 103 1401
0 21 2352
0 8 3441
0 5 3983
0 23 4068
0 435 4067
0 661 0
0 667 178
0 775 881
0 837 1678
0 853 2651
0 704 3588
0 495 4038
1 580 4071
13 851 4089
0 1479 0
0 1482 7
0 1553 922
0 1624 1827
0 1708 2840
0 1625 3634
0 1432 4074
11 1249 4095
0 1320 4092
0 2438 0
0 2479 0
0 2560 503
0 2604 1963
0 2645 3001
0 2450 3666
0 2181 4057
0 1910 4095
0 1712 4071
0 3359 0
0 3430 0
0 3467 42
0 3511 1672
0 3537 2918
0 3285 3668
0 2912 4073
0 2538 4091
0 2260 4071
0 3948 2
0 4004 2
0 4019 2
0 4032 1146
0 4050 2532
3 4011 3533
1 3646 4017
0 3197 4069
0 2820 4069
0 4095 16
0 4095 16
0 4091 40
0 4068 1268
2 4072 2235
2 4095 3138
0 4089 3957
1 3793 4095
0 3381 4067
0 4095 16
0 4093 42
0 4067 1003
138 4067 2029
293 4071 2589
0 4095 2829
0 4095 3524
13 4064 4082
96 3843 4067
70 0 0
89 0 88
105 0 571
14 0 1179
0 0 2106
11 0 3182
0 0 3890
0 0 4067
0 140 4067
123 106 0
136 137 138
15 102 736
0 26 1426
0 2 2391
0 0 3405
1 0 3970
0 14 4067
0 435 4067
257 647 0
21 698 35
0 769 838
0 736 1598
0 679 2620
0 504 3540
1 435 4012
1 555 4093
0 840 4091
86 1451 0
1 1504 0
0 1538 789
0 1597 1795
0 1664 2819
0 1558 3619
1 1352 4053
0 1205 4092
0 1328 4091
9 2445 0
0 2443 0
0 2540 165
0 2583 1861
0 2616 2927
0 2425 3649
1 2145 4075
0 1901 4092
0 1715 4072
0 3368 0
0 3400 0
0 3457 10
0 3498 1526
0 3514 2905
0 3272 3685
0 2911 4073
1 2539 4092
0 2288 4090
0 3949 2
0 3991 2
0 4017 2
0 4033 1035
0 4047 2492
0 4020 3539
0 3636 4027
0 3189 4074
0 2815 4073
0 4095 16
0 4095 16
0 4091 43
0 4087 1197
2 4073 2235
13 4095 3095
1 4090 3904
13 3808 4093
0 3385 4068
0 4095 16
0 4093 41
0 4067 1004
204 4067 1998
1214 4068 2721
0 4071 2812
1 4095 3504
46 4066 4080
724 3844 4066
489 22 0
595 1 62
673 0 628
659 0 1260
592 0 2194
102 0 3165
0 0 3894
0 0 4067
0 141 4067
613 274 0
694 231 86
750 39 747
650 1 1481
356 0 2462
36 0 3409
1 0 3994
0 4 4067
0 450 4067
798 733 0
823 766 5
746 779 774
130 530 1619
16 395 2640
0 319 3531
1 326 4033
0 511 4092
0 881 4092
1033 1508 0
903 1515 0
376 1597 442
7 1579 1710
0 1523 2771
0 1365 3618
0 1205 4056
0 1168 4094
0 1382 4089
1020 2457 0
786 2481 0
57 2582 39
0 2601 1644
0 2603 2901
0 2387 3660
0 2092 4079
0 1860 4093
0 1792 4089
681 3385 0
178 3414 0
1 3453 0
0 3499 1159
0 3540 2780
0 3308 3645
0 2895 4055
0 2554 4091
0 2293 4073
99 3962 1
32 3975 1
0 4003 2
0 4021 915
1 4037 2392
1 4013 3526
0 3651 4016
1 3220 4092
0 2874 4069
14 4095 14
0 4095 16
0 4095 27
6 4088 1169
40 4089 2326
12 4093 3092
0 4090 3896
23 3826 4073
146 3461 4067
62 4092 14
43 4092 24
79 4089 917
853 4067 1987
1879 4067 2852
104 4089 2891
61 4090 3531
214 4065 4056
1730 3889 4065
1215 231 0
1329 147 3
1507 0 675
1392 0 1366
1514 0 2289
1444 0 3242
993 0 3938
196 0 4090
102 208 4067
1317 517 0
1418 468 3
1575 38 647
1527 0 1467
1581 0 2485
1422 0 3408
886 0 3991
144 3 4071
95 485 4067
1464 958 0
1585 966 0
1663 875 636
1589 461 1586
1458 125 2661
1029 74 3540
245 94 4042
84 465 4069
88 918 4089
1711 1590 0
1741 1620 0
1777 1664 170
1530 1573 1569
750 1301 2768
183 1140 3610
44 1110 4065
7 1193 4090
91 1466 4088
1997 2554 0
1977 2563 0
1784 2620 3
1060 2669 1205
184 2620 2799
14 2310 3640
0 2026 4074
4 1892 4076
277 2079 4071
2005 3393 0
1884 3419 0
1532 3464 0
305 3521 871
95 3535 2585
7 3328 3639
29 2926 4042
30 2598 4091
81 2412 4071
1713 3940 2
1559 3964 0
1084 3989 0
206 4007 688
142 4010 2318
106 4012 3428
154 3717 3999
183 3297 4087
269 3014 4068
1241 4076 2
1140 4092 1
758 4090 9
235 4090 1056
1020 4072 2454
288 4089 3125
460 4071 3864
1322 3847 4071
1685 3551 4067
1188 4067 0
1144 4067 0
1137 4070 675
1449 4067 1805
2254 4067 2816
1815 4067 3134
1572 4068 3547
2015 4066 4032
2618 3937 4067
2178 596 0
2286 611 0
2538 21 308
2321 0 1367
2450 0 2333
2454 0 3284
2159 0 3945
1754 0 4094
1399 329 4067
2233 852 0
2321 811 0
2519 219 336
2502 0 1447
2585 0 2527
2492 0 3427
2148 0 4003
1686 3 4093
1397 562 4067
2352 1273 0
2464 1251 0
2611 1086 276
2623 581 1431
2697 59 2592
2453 27 3528
2052 59 4042
1573 414 4070
1388 1031 4067
2589 1863 0
2618 1859 0
2786 1857 50
2743 1697 1430
2715 1281 2687
2274 1087 3610
1756 1094 4047
1354 1235 4070
1393 1595 4069
2821 2645 0
2837 2658 0
2892 2713 0
2868 2704 913
2616 2645 2642
1964 2318 3606
1494 2098 4039
1347 2068 4069
1757 2284 4067
2909 3436 0
2881 3452 0
2817 3475 0
2592 3513 459
2274 3528 2349
1917 3417 3556
1612 3054 4010
1597 2813 4068
1893 2786 4069
2720 3948 1
2638 3950 1
2472 3965 0
2233 3980 372
2039 3990 2251
2021 3966 3367
2077 3774 3969
2080 3451 4067
2217 3267 4067
2324 4095 4
2291 4093 1
2137 4089 1
1957 4088 804
2117 4071 2288
2454 4072 3253
2510 4068 3824
2673 3931 4067
2842 3719 4067
2046 4067 0
2040 4067 0
1985 4071 196
2081 4071 1599
2584 4069 2705
3073 4067 3432
2845 4067 3665
3025 4066 4029
3332 3985 4067
3322 1035 0
3371 1078 0
3565 445 23
3460 0 1157
3517 0 2388
3443 0 3332
3121 0 3950
2676 0 4074
2304 568 4067
3319 1244 0
3352 1246 0
3552 839 36
3612 0 1134
3643 0 2425
3554 0 3403
3154 0 4003
2644 8 4091
2298 779 4068
3344 1637 0
3460 1609 0
3616 1394 26
3652 672 1103
3732 67 2447
3594 3 3518
3113 55 4041
2606 475 4071
2333 1235 4067
3505 2161 0
3555 2141 0
3691 2058 3
3719 1852 1109
3750 1596 2429
3635 1022 3529
3039 1136 4035
2569 1378 4091
2377 1813 4069
3649 2799 0
3698 2794 0
3735 2771 0
3809 2709 705
3686 2706 2490
3545 2459 3536
2995 2269 4020
2620 2255 4070
2615 2523 4071
3690 3456 0
3682 3465 0
3706 3477 0
3726 3506 159
3652 3492 2095
3457 3470 3469
3163 3280 3967
2962 3132 4086
3066 3230 4068
3506 3932 1
3455 3933 0
3397 3938 2
3340 3960 128
3223 3954 1959
3307 3931 3324
3286 3852 3923
3169 3650 4068
3257 3585 4069
3082 4074 2
3095 4093 11
3009 4091 1
2897 4086 309
2930 4071 2091
3245 4091 3298
3402 4088 3852
3450 3986 4069
3534 3876 4067
2747 4067 0
2724 4073 0
2677 4074 30
2694 4070 1262
2931 4069 2514
3373 4070 3425
3589 4070 3818
3644 4066 4030
3773 4033 4067
4067 1361 0
4068 1434 1
4081 1057 1
4080 41 619
4088 0 2124
4087 0 3225
4025 0 3962
3513 7 4095
3058 900 4067
4043 1539 0
4067 1580 1
4083 1274 1
4086 140 632
4095 0 2096
4092 0 3234
4049 0 3992
3521 40 4090
3064 1106 4067
4065 1902 11
4053 1881 0
4068 1690 0
4068 1148 623
4072 312 2051
4089 91 3216
4047 71 3998
3504 700 4088
3103 1561 4068
4072 2351 0
4059 2294 1
4070 2180 0
4072 1947 664
4072 1808 2148
4072 1607 3236
4027 1307 4003
3474 1597 4075
3144 2141 4069
4064 2859 0
4067 2829 1
4090 2764 10
4074 2670 422
4073 2672 2194
4065 2821 3297
4022 2490 3963
3504 2520 4071
3331 2826 4067
4070 3412 1
4067 3403 10
4071 3364 1
4088 3342 84
4071 3303 1880
4039 3475 3356
3937 3404 3929
3612 3323 4059
3541 3412 4067
4054 3900 0
4050 3900 0
4053 3898 0
4065 3909 65
4041 3906 1651
3989 3895 3165
3885 3887 3887
3809 3844 4084
3800 3833 4069
3763 4092 1
3761 4074 1
3728 4091 1
3666 4093 109
3640 4072 1768
3701 4087 3118
3865 4066 3865
3884 4046 4067
3916 4000 4068
3349 4070 0
3348 4095 0
3291 4095 2
3249 4090 635
3362 4073 2169
3577 4073 3263
3886 4093 3908
3966 4091 4050
3986 4053 4067
4092 1584 0
4092 1659 14
4072 1455 12
4091 607 116
4092 0 1628
4075 0 2792
4074 0 3741
4090 45 4092
3764 1416 4067
4091 1714 14
4092 1772 1
4091 1553 1
4073 886 122
4092 40 1661
4075 33 2832
4075 16 3760
4086 126 4092
3755 1610 4089
4092 2014 1
4074 2018 1
4091 1845 1
4091 1444 122
4069 1021 1690
4068 1007 2832
4073 687 3722
4083 1115 4090
3781 2049 4071
4094 2401 2
4072 2369 1
4093 2234 1
4077 2021 102
4070 1877 1690
4070 2190 2957
4071 2001 3697
4063 2014 4071
3795 2565 4073
4091 2806 0
4092 2786 2
4088 2696 0
4093 2580 115
4074 2531 1733
4089 2980 3144
4070 2949 3724
4062 2823 4087
3839 3113 4071
4093 3267 1
4090 3259 1
4088 3199 9
4075 3135 40
4072 3115 1624
4093 3382 3156
4089 3603 3808
4066 3486 4066
3895 3612 4067
4073 3719 1
4073 3718 1
4090 3699 0
4088 3664 1
4072 3635 1166
4089 3719 2981
4094 3896 3856
4065 3887 4051
3987 3918 4070
4094 4088 15
4094 4087 15
4093 4087 14
4093 4086 20
4088 4063 1297
4071 4060 2912
4087 4049 3799
4053 4051 4054
4049 4050 4067
3906 4095 1
3905 4095 1
3875 4093 2
3843 4088 85
3832 4087 1646
3892 4071 3049
4012 4073 3858
4067 4071 4068
4068 4069 4069
4067 1649 0
4067 1696 0
4092 1636 0
4091 1131 38
4067 409 1259
4067 809 2523
4067 826 3319
4067 970 4036
4067 2065 4067
4092 1763 0
4070 1797 0
4091 1722 0
4070 1298 17
4067 762 1204
4067 1160 2509
4067 1130 3293
4068 1271 4008
4067 2168 4067
4067 2005 0
4091 2034 0
4092 1921 0
4091 1575 4
4068 1270 1201
4067 1845 2660
4067 1869 3378
4069 1852 4006
4067 2516 4067
4071 2365 0
4075 2351 1
4091 2243 1
4095 2017 4
4072 1775 1054
4068 2531 2848
4067 2617 3474
4067 2543 3969
4065 2929 4067
4095 2712 0
4094 2705 0
4090 2615 0
4091 2474 3
4073 2325 1022
4074 2830 2799
4069 3248 3610
4068 3189 3979
4063 3386 4067
4091 3084 0
4092 3078 0
4072 3038 0
4077 2937 0
4074 2877 995
4068 3105 2678
4069 3670 3741
4068 3666 3986
4053 3730 4071
4067 3493 0
4090 3479 0
4068 3448 0
4070 3395 0
4085 3352 646
4069 3486 2597
4069 3811 3734
4067 3951 4031
4054 3954 4072
4067 3877 0
4068 3878 1
4071 3861 0
4094 3842 2
4071 3815 623
4068 3831 2455
4071 3968 3671
4067 4050 4061
4069 4066 4070
4067 4067 0
4067 4067 0
4092 4067 2
4095 4067 4
4071 4053 747
4067 4065 2631
4067 4065 3756
4069 4068 4064
4095 4095 4095
