Postproduction/IWLTBAP - Humble/LUTs by IWLTBAP (3DL)/UTILITY/Sony S-Log3 to Rec.709/U-SONY-S-LOG3-V2-LTR.3dl
# Copyright: (C) Copyright 2010-2018 by IWLTBAP SAS
# Cannot be resold, shared or otherwise redistributed
# Website: https://luts.iwltbap.com
0 64 128 192 256 320 384 448 512 576 640 704 768 832 896 960 1023
0 0 0
0 0 2
14 0 83
1 0 218
0 0 454
0 0 740
0 0 1062
0 0 1510
0 0 2004
0 0 2598
0 0 3235
0 0 3565
0 0 3879
0 0 4055
0 0 4067
0 3 4067
0 96 4067
0 2 0
15 18 19
1 20 91
0 20 310
0 19 596
0 5 912
0 2 1236
0 0 1680
0 0 2220
0 0 2819
0 0 3383
0 0 3673
0 0 3940
0 0 4059
0 0 4067
0 12 4068
0 272 4067
0 74 0
1 104 34
0 109 153
0 164 378
0 183 681
0 176 1019
0 103 1401
0 54 1839
0 21 2352
0 12 2918
0 8 3441
0 4 3724
0 5 3983
0 9 4062
0 23 4068
0 132 4091
0 435 4067
0 301 0
0 328 8
0 346 197
0 406 469
0 453 794
0 481 1167
0 467 1536
0 445 1987
0 373 2525
0 261 3051
0 196 3515
0 116 3795
0 100 4026
0 156 4065
0 279 4067
1 431 4071
1 641 4069
0 661 0
0 651 1
0 667 178
0 713 540
0 775 881
0 819 1302
0 837 1678
0 852 2129
0 853 2651
0 800 3139
0 704 3588
0 553 3853
0 495 4038
0 515 4069
1 580 4071
13 677 4088
13 851 4089
0 1061 0
0 1044 0
0 1073 39
0 1085 502
0 1145 954
0 1199 1392
0 1213 1777
0 1253 2259
0 1277 2769
0 1239 3213
0 1181 3615
0 1090 3883
0 986 4073
0 908 4092
2 901 4090
2 927 4062
2 1078 4073
0 1479 0
0 1453 0
0 1482 7
0 1525 335
0 1553 922
0 1625 1409
0 1624 1827
0 1672 2332
0 1708 2840
0 1690 3265
0 1625 3634
0 1523 3879
0 1432 4074
1 1336 4095
11 1249 4095
0 1229 4090
0 1320 4092
0 1933 0
0 1920 0
0 1930 0
0 1996 84
0 2030 801
0 2073 1418
0 2089 1909
0 2155 2450
0 2150 2913
0 2122 3320
0 2044 3655
0 1932 3900
0 1811 4057
0 1707 4094
2 1584 4095
0 1496 4095
0 1508 4091
0 2438 0
0 2452 0
0 2479 0
0 2528 19
0 2560 503
0 2581 1331
0 2604 1963
0 2660 2520
0 2645 3001
0 2558 3375
0 2450 3666
0 2324 3922
0 2181 4057
0 2050 4093
0 1910 4095
0 1781 4091
0 1712 4071
0 2938 0
0 2970 0
0 2991 0
0 3032 0
0 3061 136
0 3072 1078
0 3118 1859
0 3131 2453
0 3122 2982
0 3009 3385
0 2866 3677
0 2728 3916
0 2558 4061
0 2398 4093
0 2247 4093
0 2082 4071
0 1986 4067
0 3359 0
0 3402 0
0 3430 0
0 3450 0
0 3467 42
0 3471 687
0 3511 1672
0 3531 2353
0 3537 2918
0 3470 3375
0 3285 3668
0 3103 3913
0 2912 4073
0 2723 4090
0 2538 4091
0 2374 4071
0 2260 4071
0 3706 0
0 3742 0
0 3759 0
0 3775 0
0 3796 0
0 3781 205
0 3807 1386
0 3834 2155
0 3839 2780
0 3834 3307
1 3714 3663
1 3492 3889
0 3259 4040
0 3061 4072
0 2867 4072
0 2676 4092
0 2535 4089
0 3948 2
0 4001 2
0 4004 2
0 4017 2
0 4019 2
0 4010 135
0 4032 1146
0 4047 1938
0 4050 2532
1 4047 3061
3 4011 3533
11 3895 3893
1 3646 4017
1 3408 4088
0 3197 4069
0 2980 4091
0 2820 4069
0 4085 15
0 4090 15
0 4090 15
0 4091 15
0 4090 17
0 4088 155
0 4089 1100
0 4090 1795
0 4092 2361
3 4090 2862
11 4073 3321
1 4077 3770
2 3969 4011
12 3731 4088
0 3493 4070
0 3281 4071
0 3095 4067
0 4095 16
0 4095 16
0 4095 16
0 4095 16
0 4091 40
0 4071 299
0 4068 1268
0 4068 1851
2 4072 2235
11 4092 2691
2 4095 3138
1 4094 3569
0 4089 3957
1 4019 4089
1 3793 4095
0 3556 4091
0 3381 4067
0 4095 16
0 4095 16
0 4095 18
0 4092 36
0 4070 167
0 4067 891
9 4067 1660
27 4067 2199
5 4071 2363
0 4092 2608
0 4095 2967
0 4095 3360
1 4095 3732
13 4091 4067
1 4040 4093
7 3826 4068
3 3652 4067
0 4095 16
0 4095 16
0 4093 42
0 4069 473
0 4067 1003
0 4067 1486
138 4067 2029
850 4067 2479
293 4071 2589
25 4092 2577
0 4095 2829
0 4095 3174
0 4095 3524
0 4093 3841
13 4064 4082
217 3999 4067
96 3843 4067
2 0 0
2 0 2
4 0 71
3 0 222
2 0 484
0 0 775
0 0 1107
0 0 1542
0 0 2011
0 0 2585
0 0 3150
0 0 3529
0 0 3864
0 0 4054
0 0 4067
0 4 4067
0 128 4067
18 17 15
19 19 19
4 19 105
1 18 315
0 16 623
0 2 919
0 0 1253
0 0 1705
0 0 2210
0 0 2784
0 0 3306
0 0 3638
0 0 3924
0 0 4058
0 0 4067
0 11 4067
0 258 4067
35 75 1
4 106 19
1 122 152
0 138 392
0 136 721
0 95 1056
0 51 1406
0 28 1842
0 11 2364
0 6 2937
0 3 3440
0 1 3731
0 1 3983
0 5 4063
0 20 4068
0 143 4069
0 435 4069
36 299 0
2 343 2
0 374 177
0 406 455
0 434 791
0 443 1141
0 405 1498
0 356 1967
0 258 2496
0 191 3005
0 137 3483
0 70 3768
0 58 4004
0 116 4083
0 252 4072
0 406 4090
0 640 4091
11 633 0
0 665 0
0 693 87
0 727 503
0 762 870
0 788 1260
0 792 1623
0 801 2093
0 787 2621
0 729 3116
0 652 3558
0 496 3825
0 469 4031
0 494 4072
1 573 4089
0 675 4071
0 839 4070
3 1029 0
0 1057 0
0 1054 17
0 1083 441
0 1139 912
0 1182 1343
0 1184 1745
0 1230 2228
0 1245 2722
0 1213 3185
0 1153 3599
0 1034 3868
1 941 4053
1 865 4090
11 876 4093
0 938 4070
0 1076 4070
0 1454 0
0 1452 0
0 1478 2
0 1511 237
0 1528 888
0 1590 1388
0 1605 1831
0 1655 2323
0 1681 2832
0 1660 3258
0 1585 3631
2 1480 3886
11 1398 4071
1 1295 4092
2 1233 4095
0 1229 4092
0 1322 4092
0 1937 0
0 1905 0
0 1924 0
0 1977 54
0 2012 723
0 2056 1380
0 2090 1873
0 2130 2373
0 2138 2889
0 2103 3305
0 2025 3641
1 1914 3888
11 1794 4055
1 1691 4077
0 1580 4094
0 1485 4092
0 1520 4091
0 2412 0
0 2425 0
0 2452 0
0 2470 8
0 2540 361
0 2565 1271
0 2595 1902
0 2633 2459
0 2617 2959
1 2523 3350
1 2433 3650
0 2316 3900
1 2174 4057
1 2044 4087
0 1906 4090
2 1781 4075
0 1716 4071
0 2900 0
0 2954 0
0 2971 0
0 3000 0
0 3045 104
0 3057 1017
0 3085 1821
0 3095 2463
0 3103 2992
1 2993 3380
9 2849 3673
1 2705 3903
0 2536 4070
0 2375 4074
1 2229 4073
11 2097 4091
0 1998 4071
0 3354 0
0 3399 0
0 3405 0
0 3435 0
0 3464 28
0 3474 576
0 3516 1596
0 3524 2301
0 3523 2880
0 3465 3350
1 3282 3665
1 3102 3909
0 2921 4049
0 2724 4090
0 2559 4073
2 2398 4094
0 2263 4091
0 3707 0
0 3740 0
0 3745 0
0 3770 0
0 3788 0
0 3802 184
0 3819 1319
0 3825 2115
0 3835 2729
0 3823 3264
0 3704 3652
0 3491 3889
0 3269 4052
0 3071 4089
0 2877 4092
0 2679 4095
0 2536 4095
0 3960 2
0 3989 2
0 4002 2
0 4006 2
0 4018 2
0 4021 128
0 4031 1112
0 4034 1918
0 4038 2528
0 4046 3088
1 4018 3568
0 3883 3882
0 3635 4024
0 3387 4073
0 3178 4093
0 2982 4095
0 2833 4094
0 4086 15
0 4089 15
0 4090 15
0 4090 15
0 4090 16
0 4087 141
0 4069 1034
0 4070 1770
0 4088 2334
3 4090 2837
11 4074 3307
1 4079 3745
0 3980 3985
1 3743 4090
0 3516 4093
0 3295 4094
0 3108 4092
0 4095 16
0 4095 16
0 4095 16
0 4095 16
0 4092 32
0 4071 234
0 4068 1232
0 4068 1843
2 4072 2222
13 4092 2670
12 4095 3097
2 4094 3538
0 4089 3930
1 4020 4086
0 3795 4095
0 3572 4093
0 3369 4068
0 4095 16
0 4095 16
0 4095 18
0 4094 33
0 4091 142
0 4070 962
9 4067 1641
34 4070 2164
24 4090 2368
0 4094 2584
0 4095 2939
0 4095 3344
2 4095 3728
13 4091 4066
2 4040 4095
9 3841 4093
8 3652 4067
0 4095 16
0 4095 16
0 4093 43
0 4069 474
0 4067 1023
1 4067 1556
140 4067 2012
968 4067 2465
898 4070 2663
121 4091 2624
0 4094 2833
0 4095 3171
0 4095 3511
0 4093 3840
18 4065 4082
280 4014 4067
251 3843 4067
70 0 0
85 0 16
89 0 88
119 0 281
105 0 571
50 0 840
14 0 1179
3 0 1600
0 0 2106
2 0 2667
11 0 3182
1 0 3557
0 0 3890
0 0 4056
0 0 4067
0 4 4067
0 140 4067
88 20 1
105 21 5
120 19 118
96 17 319
86 3 628
21 0 938
4 0 1296
0 0 1741
0 0 2250
0 0 2787
0 0 3269
0 0 3612
0 0 3923
0 0 4058
0 0 4067
0 11 4067
0 272 4067
123 106 0
136 122 16
136 137 138
89 122 392
15 102 736
2 59 1083
0 26 1426
0 7 1870
0 2 2391
0 0 2937
0 0 3405
0 0 3714
1 0 3970
0 2 4061
0 14 4067
0 105 4067
0 435 4067
199 329 0
206 359 2
81 378 121
15 405 460
2 402 803
0 359 1168
0 290 1536
0 218 2004
0 156 2507
0 107 3034
0 56 3496
1 36 3788
10 38 4013
1 76 4068
1 202 4090
12 401 4092
0 641 4091
257 647 0
194 666 0
21 698 35
2 742 420
0 769 838
0 754 1233
0 736 1598
0 716 2082
0 679 2620
0 606 3124
0 504 3540
0 444 3812
1 435 4012
0 474 4069
1 555 4093
13 674 4091
0 840 4091
259 1031 0
85 1035 0
7 1078 4
0 1109 282
0 1153 862
0 1169 1309
0 1151 1703
0 1174 2199
0 1181 2715
0 1146 3183
0 1084 3585
0 980 3854
0 886 4047
0 833 4087
1 860 4093
1 939 4073
0 1101 4073
86 1451 0
25 1449 0
1 1504 0
0 1507 75
0 1538 789
0 1586 1341
0 1597 1795
0 1626 2316
0 1664 2819
0 1627 3246
0 1558 3619
0 1451 3874
1 1352 4053
0 1261 4075
0 1205 4092
0 1231 4091
0 1328 4091
28 1921 0
6 1906 0
0 1937 0
0 1979 17
0 2022 598
0 2036 1313
0 2059 1860
0 2114 2401
0 2123 2888
0 2070 3303
0 1994 3642
0 1864 3907
1 1750 4059
1 1657 4088
0 1555 4077
0 1495 4094
0 1522 4092
9 2445 0
0 2435 0
0 2443 0
0 2487 0
0 2540 165
0 2562 1165
0 2583 1861
0 2639 2428
0 2616 2927
0 2527 3336
0 2425 3649
0 2289 3912
1 2145 4075
10 2018 4091
0 1901 4092
0 1783 4093
0 1715 4072
0 2929 0
0 2941 0
0 2958 0
0 2998 0
0 3017 53
0 3052 891
0 3082 1763
0 3103 2399
0 3104 2960
0 2991 3376
1 2838 3664
0 2699 3903
0 2530 4076
1 2370 4076
1 2225 4093
3 2095 4093
1 2001 4071
0 3368 0
0 3364 0
0 3400 0
0 3422 0
0 3457 10
0 3468 411
0 3498 1526
0 3514 2275
0 3514 2905
0 3455 3386
0 3272 3685
0 3089 3902
0 2911 4073
0 2723 4093
1 2539 4092
11 2390 4094
0 2288 4090
0 3707 0
0 3724 0
0 3741 0
0 3758 0
0 3776 0
0 3791 155
0 3817 1232
0 3833 2056
0 3843 2691
0 3823 3242
0 3721 3651
0 3490 3891
0 3270 4053
0 3083 4093
0 2878 4091
1 2691 4094
0 2549 4091
0 3949 2
0 3987 2
0 3991 2
0 4003 2
0 4017 2
0 4021 117
0 4033 1035
0 4038 1858
0 4047 2492
0 4040 3051
0 4020 3539
0 3884 3883
0 3636 4027
1 3408 4089
0 3189 4074
0 2992 4093
0 2815 4073
0 4086 15
0 4089 15
0 4089 15
0 4090 15
0 4090 18
0 4089 146
0 4089 1071
1 4088 1760
1 4091 2321
2 4092 2846
2 4090 3338
0 4079 3785
1 3969 4005
11 3733 4087
1 3496 4074
0 3275 4092
0 3122 4090
0 4095 16
0 4095 16
0 4095 16
0 4095 16
0 4091 43
0 4073 261
0 4087 1197
0 4073 1853
2 4073 2235
13 4092 2671
13 4095 3095
2 4095 3515
1 4090 3904
2 4031 4065
13 3808 4093
0 3584 4071
0 3385 4068
0 4095 16
0 4095 16
0 4095 18
0 4093 33
0 4073 147
1 4068 940
11 4070 1561
40 4085 2156
33 4075 2394
0 4091 2588
1 4094 2933
3 4094 3315
13 4095 3686
13 4092 4027
3 4042 4092
24 3843 4091
24 3666 4066
0 4095 16
0 4095 16
0 4093 41
0 4071 483
0 4067 1004
17 4067 1484
204 4067 1998
1102 4067 2464
1214 4068 2721
170 4069 2676
0 4071 2812
0 4091 3134
1 4095 3504
0 4093 3826
46 4066 4080
722 4015 4066
724 3844 4066
232 1 0
251 2 3
284 0 89
330 0 311
389 0 615
363 0 887
281 0 1207
163 0 1643
53 0 2143
16 0 2686
1 0 3174
0 0 3557
0 0 3892
0 0 4056
0 0 4067
0 3 4067
0 104 4067
266 40 0
297 52 3
342 21 93
360 4 345
395 0 683
353 0 997
268 0 1355
73 0 1798
27 0 2292
8 0 2856
0 0 3303
0 0 3658
0 0 3938
0 0 4059
0 0 4067
0 9 4067
