Postproduction/IWLTBAP - Humble/LUTs by IWLTBAP (3DL)/UTILITY/Sony S-Log3 to Rec.709/U-SONY-S-LOG3-V5-LTR.3dl
# Copyright: (C) Copyright 2010-2018 by IWLTBAP SAS
# Cannot be resold, shared or otherwise redistributed
# Website: https://luts.iwltbap.com
0 128 256 384 512 640 768 896 1023
16 16 16
16 16 156
16 16 1479
16 16 2849
16 16 3769
16 16 4077
16 16 4079
16 16 4079
16 16 4079
16 83 16
16 62 86
16 30 1421
16 16 2840
16 16 3767
16 16 4077
16 16 4079
16 16 4079
16 16 4079
16 1205 16
16 1162 21
16 1071 1126
16 788 2682
16 33 3752
16 16 4077
16 16 4079
16 16 4079
16 16 4079
16 2475 16
16 2464 16
16 2427 584
16 2338 2385
16 2059 3573
16 646 4075
16 16 4079
16 16 4079
16 16 4079
92 3411 16
69 3411 16
35 3406 17
16 3386 1855
16 3333 3364
16 3139 4045
16 1604 4079
16 16 4079
16 16 4079
1296 3987 16
1264 3987 16
1209 3987 16
988 3979 404
273 3969 2955
16 3958 3972
16 3860 4079
16 2513 4079
16 16 4079
2743 4079 16
2734 4079 16
2720 4079 16
2676 4079 16
2484 4079 1615
1707 4079 3789
16 4079 4079
16 4079 4079
16 3349 4079
3737 4079 16
3736 4079 16
3734 4079 16
3727 4079 16
3704 4079 16
3580 4079 2948
3120 4079 4079
16 4079 4079
16 4079 4079
4079 4079 16
4079 4079 16
4079 4079 16
4079 4079 16
4079 4079 16
4079 4079 16
4076 4079 3880
3956 4079 4079
16 4079 4079
126 16 16
80 16 140
19 16 1471
16 16 2847
16 16 3769
16 16 4077
16 16 4079
16 16 4079
16 16 4079
92 70 16
63 54 66
27 33 1404
16 16 2838
16 16 3767
16 16 4077
16 16 4079
16 16 4079
16 16 4079
99 1187 16
32 1150 18
18 1071 1103
16 805 2678
16 43 3750
16 16 4077
16 16 4079
16 16 4079
16 16 4079
115 2442 16
81 2434 16
43 2403 541
16 2339 2379
16 2064 3572
16 656 4075
16 16 4079
16 16 4079
16 16 4079
577 3397 16
507 3396 16
394 3390 16
102 3366 1812
16 3334 3363
16 3140 4045
16 1607 4079
16 16 4079
16 16 4079
1543 3983 16
1516 3983 16
1471 3983 16
1292 3975 391
617 3963 2940
16 3958 3972
16 3860 4079
16 2514 4079
16 16 4079
2804 4079 16
2797 4079 16
2786 4079 16
2748 4079 16
2568 4079 1609
1874 4079 3786
16 4079 4079
16 4079 4079
16 3349 4079
3748 4079 16
3747 4079 16
3745 4079 16
3738 4079 16
3718 4079 16
3596 4079 2946
3156 4079 4079
16 4079 4079
16 4079 4079
4079 4079 16
4079 4079 16
4079 4079 16
4079 4079 16
4079 4079 16
4079 4079 16
4076 4079 3880
3962 4079 4079
16 4079 4079
1370 16 16
1298 16 80
1164 16 1391
685 16 2812
16 16 3768
16 16 4077
16 16 4079
16 16 4079
16 16 4079
1337 54 16
1284 45 46
1177 30 1317
753 16 2801
16 16 3766
16 16 4077
16 16 4079
16 16 4079
16 16 4079
1197 1147 16
1139 1108 16
1020 1023 1018
627 767 2631
16 58 3747
16 16 4077
16 16 4079
16 16 4079
16 16 4079
1109 2408 16
1056 2399 16
941 2365 473
565 2289 2319
16 2066 3567
16 670 4075
16 16 4079
16 16 4079
16 16 4079
1275 3382 16
1236 3381 16
1160 3374 16
878 3345 1765
83 3311 3337
16 3142 4045
16 1612 4079
16 16 4079
16 16 4079
1866 3979 16
1845 3979 16
1810 3979 16
1664 3970 373
1170 3956 2921
16 3956 3967
16 3860 4079
16 2516 4079
16 16 4079
2894 4079 16
2888 4079 16
2877 4079 16
2844 4079 16
2690 4079 1598
2105 4079 3781
16 4079 4079
16 4079 4079
16 3349 4079
3765 4079 16
3764 4079 16
3762 4079 16
3756 4079 16
3736 4079 16
3622 4079 2943
3212 4079 4079
16 4079 4079
16 4079 4079
4079 4079 16
4079 4079 16
4079 4079 16
4079 4079 16
4079 4079 16
4079 4079 16
4077 4079 3879
3972 4079 4079
16 4079 4079
2733 16 16
2712 16 43
2669 16 1265
2549 16 2732
2086 16 3722
60 16 4077
16 16 4079
16 16 4079
16 16 4079
2679 112 16
2669 53 25
2641 23 1168
2563 16 2721
2110 16 3719
86 16 4077
16 16 4079
16 16 4079
16 16 4079
2555 1122 16
2542 1083 16
2504 994 873
2412 732 2538
2097 63 3693
124 16 4077
16 16 4079
16 16 4079
16 16 4079
2410 2367 16
2393 2356 16
2349 2320 357
2233 2234 2230
1822 1976 3507
108 698 4075
16 16 4079
16 16 4079
16 16 4079
2343 3356 16
2327 3354 16
2294 3346 16
2169 3313 1680
1791 3260 3280
137 3128 4040
16 1629 4079
16 16 4079
16 16 4079
2512 3970 16
2501 3969 16
2483 3969 16
2400 3960 333
2138 3943 2883
889 3927 3938
16 3861 4079
16 2522 4079
16 16 4079
3123 4079 16
3119 4079 16
3111 4079 16
3087 4079 16
2969 4079 1569
2589 4079 3769
178 4079 4079
16 4079 4079
16 3351 4079
3814 4079 16
3813 4079 16
3811 4079 16
3806 4079 16
3788 4079 16
3693 4079 2934
3356 4079 4079
16 4079 4079
16 4079 4079
4079 4079 16
4079 4079 16
4079 4079 16
4079 4079 16
4079 4079 16
4079 4079 16
4078 4079 3879
4002 4079 4079
16 4079 4079
3682 16 16
3678 16 18
3663 16 1046
3634 16 2631
3560 16 3670
3254 16 4075
499 16 4079
16 16 4079
16 16 4079
3624 264 16
3625 219 16
3618 136 869
3618 19 2583
3564 16 3668
3259 16 4075
508 16 4079
16 16 4079
16 16 4079
3558 1186 16
3557 1152 16
3546 1073 590
3530 839 2398
3523 111 3621
3268 16 4075
521 16 4079
16 16 4079
16 16 4079
3460 2346 16
3457 2335 16
3444 2300 173
3414 2211 2093
3352 1952 3439
3173 634 4067
561 16 4079
16 16 4079
16 16 4079
3355 3326 16
3351 3323 16
3342 3316 16
3301 3281 1535
3217 3219 3215
2917 3035 4020
487 1644 4079
16 16 4079
16 16 4079
3312 3955 16
3308 3955 16
3303 3954 16
3270 3945 251
3177 3925 2818
2904 3894 3903
608 3836 4079
16 2538 4079
16 16 4079
3534 4079 16
3532 4079 16
3528 4079 16
3517 4079 16
3453 4079 1497
3281 4079 3747
2223 4079 4079
16 4079 4079
16 3355 4079
3937 4079 16
3936 4079 16
3934 4079 16
3930 4079 16
3918 4079 16
3846 4079 2910
3640 4079 4079
287 4079 4079
16 4079 4079
4079 4079 16
4079 4079 16
4079 4079 16
4079 4079 16
4079 4079 16
4079 4079 16
4079 4079 3877
4051 4079 4079
16 4079 4079
4072 266 16
4072 225 16
4072 146 349
4072 35 2386
4071 16 3608
4065 16 4073
3960 16 4079
830 16 4079
16 16 4079
4068 880 16
4068 839 16
4068 746 213
4068 441 2254
4071 23 3587
4065 16 4073
3961 16 4079
832 16 4079
16 16 4079
4058 1476 16
4058 1451 16
4057 1395 99
4054 1223 2108
4060 601 3493
4066 16 4073
3962 16 4079
836 16 4079
16 16 4079
4039 2417 16
4039 2407 16
4038 2382 16
4034 2295 1820
4027 2071 3340
4033 989 4051
3966 16 4079
846 16 4079
16 16 4079
4009 3313 16
4009 3310 16
4008 3306 16
3997 3269 1238
3980 3204 3119
3948 3020 3990
3870 1623 4079
876 16 4079
16 16 4079
3954 3940 16
3953 3939 16
3952 3938 16
3944 3930 95
3918 3907 2707
3868 3871 3866
3691 3768 4079
772 2547 4079
16 16 4079
3991 4079 16
3990 4079 16
3989 4079 16
3986 4079 16
3967 4079 1321
3916 4079 3710
3758 4079 4079
1309 4079 4079
16 3367 4079
4074 4079 16
4074 4079 16
4074 4079 16
4074 4079 16
4073 4079 16
4071 4079 2855
4013 4079 4079
3425 4079 4079
16 4079 4079
4079 4079 16
4079 4079 16
4079 4079 16
4079 4079 16
4079 4079 16
4079 4079 16
4079 4079 3872
4078 4079 4079
341 4079 4079
4079 1674 16
4079 1653 16
4079 1619 16
4079 1463 1549
4079 972 3369
4079 17 4070
4079 16 4079
4079 16 4079
862 16 4079
4079 1902 16
4079 1884 16
4079 1855 16
4079 1720 1473
4079 1337 3331
4079 80 4067
4079 16 4079
4079 16 4079
863 16 4079
4079 2193 16
4079 2180 16
4079 2158 16
4079 2047 1368
4079 1752 3282
4079 413 4051
4079 16 4079
4079 16 4079
863 16 4079
4079 2725 16
4079 2718 16
4079 2707 16
4079 2643 1095
4079 2494 3174
4079 1902 4021
4079 16 4079
4079 16 4079
865 16 4079
4079 3396 16
4079 3394 16
4079 3390 16
4079 3363 514
4079 3300 2966
4079 3143 3953
4079 2191 4079
4079 16 4079
869 16 4079
4079 3953 16
4079 3952 16
4079 3951 16
4079 3946 16
4079 3921 2517
4079 3883 3830
4079 3778 4079
4078 2674 4079
883 16 4079
4079 4079 16
4079 4079 16
4079 4079 16
4079 4079 16
4079 4079 836
4079 4079 3673
4079 4079 4079
4075 4079 4079
804 3374 4079
4079 4079 16
4079 4079 16
4079 4079 16
4079 4079 16
4079 4079 16
4079 4079 2749
4079 4079 4079
4079 4079 4079
2415 4079 4079
4079 4079 16
4079 4079 16
4079 4079 16
4079 4079 16
4079 4079 16
4079 4079 16
4079 4079 3857
4079 4079 4079
4070 4079 4079
4079 2936 16
4079 2931 16
4079 2923 16
4079 2894 16
4079 2762 2781
4079 2371 3978
4079 121 4079
4079 16 4079
4079 16 4079
4079 2993 16
4079 2988 16
4079 2982 16
4079 2955 16
4079 2829 2761
4079 2481 3972
4079 150 4079
4079 16 4079
4079 16 4079
4079 3070 16
4079 3066 16
4079 3060 16
4079 3038 16
4079 2929 2731
4079 2628 3965
4079 194 4079
4079 16 4079
4079 16 4079
4079 3269 16
4079 3266 16
4079 3261 16
4079 3245 16
4079 3158 2648
4079 2953 3938
4079 1466 4079
4079 16 4079
4079 16 4079
4079 3617 16
4079 3615 16
4079 3613 16
4079 3607 16
4079 3555 2422
4079 3456 3876
4079 3069 4079
4079 16 4079
4079 16 4079
4079 4006 16
4079 4006 16
4079 4005 16
4079 4003 16
4079 3987 1742
4079 3955 3757
4079 3868 4079
4079 3262 4079
4079 16 4079
4079 4079 16
4079 4079 16
4079 4079 16
4079 4079 16
4079 4079 147
4079 4079 3583
4079 4079 4079
4079 4079 4079
4079 3648 4079
4079 4079 16
4079 4079 16
4079 4079 16
4079 4079 16
4079 4079 16
4079 4079 2198
4079 4079 4079
4079 4079 4079
4079 4079 4079
4079 4079 16
4079 4079 16
4079 4079 16
4079 4079 16
4079 4079 16
4079 4079 16
4079 4079 3804
4079 4079 4079
4079 4079 4079
4079 3756 16
4079 3755 16
4079 3754 16
4079 3749 16
4079 3729 16
4079 3639 3643
4079 3406 4079
4079 16 4079
4079 16 4079
4079 3766 16
4079 3765 16
4079 3764 16
4079 3760 16
4079 3741 16
4079 3653 3639
4079 3430 4079
4079 16 4079
4079 16 4079
4079 3782 16
4079 3781 16
4079 3780 16
4079 3776 16
4079 3760 16
4079 3675 3632
4079 3464 4079
4079 16 4079
4079 16 4079
4079 3827 16
4079 3827 16
4079 3825 16
4079 3822 16
4079 3807 16
4079 3735 3614
4079 3556 4079
4079 601 4079
4079 16 4079
4079 3942 16
4079 3941 16
4079 3940 16
4079 3938 16
4079 3927 16
4079 3870 3562
4079 3755 4079
4079 2672 4079
4079 16 4079
4079 4074 16
4079 4074 16
4079 4074 16
4079 4074 16
4079 4074 16
4079 4072 3435
4079 4040 4079
4079 3833 4079
4079 16 4079
4079 4079 16
4079 4079 16
4079 4079 16
4079 4079 16
4079 4079 16
4079 4079 3140
4079 4079 4079
4079 4079 4079
4079 3969 4079
4079 4079 16
4079 4079 16
4079 4079 16
4079 4079 16
4079 4079 16
4079 4079 752
4079 4079 4074
4079 4079 4079
4079 4079 4079
4079 4079 16
4079 4079 16
4079 4079 16
4079 4079 16
4079 4079 16
4079 4079 16
4079 4079 3481
4079 4079 4079
4079 4079 4079
