Postproduction/IWLTBAP - Humble/LUTs by IWLTBAP (3DL)/UTILITY/Sony S-Log3 to Rec.709/U-SONY-S-LOG3-V7-LTR.3dl
# Copyright: (C) Copyright 2010-2018 by IWLTBAP SAS
# Cannot be resold, shared or otherwise redistributed
# Website: https://luts.iwltbap.com
0 64 128 192 256 320 384 448 512 576 640 704 768 832 896 960 1023
0 0 0
0 0 0
0 0 189
0 0 576
0 0 995
0 0 1440
0 0 1870
0 0 2262
0 0 2636
0 0 2997
0 0 3343
0 0 3628
0 0 3851
0 0 4009
0 0 4092
0 0 4095
0 0 4095
0 0 0
0 0 0
0 0 189
0 0 576
0 0 995
0 0 1440
0 0 1870
0 0 2262
0 0 2636
0 0 2997
0 0 3343
0 0 3628
0 0 3851
0 0 4009
0 0 4092
0 0 4095
0 0 4095
0 209 0
0 208 0
0 188 168
0 24 568
0 0 992
0 0 1438
0 0 1868
0 0 2261
0 0 2635
0 0 2997
0 0 3342
0 0 3627
0 0 3850
0 0 4009
0 0 4092
0 0 4095
0 0 4095
0 622 0
0 621 0
0 615 17
0 569 514
0 411 967
0 76 1422
0 0 1857
0 0 2253
0 0 2628
0 0 2991
0 0 3337
0 0 3623
0 0 3846
0 0 4005
0 0 4092
0 0 4095
0 0 4095
0 1070 0
0 1070 0
0 1067 0
0 1045 333
0 987 899
0 863 1383
0 606 1830
0 203 2231
0 18 2610
0 0 2976
0 0 3325
0 0 3611
0 0 3835
0 0 3995
0 0 4091
0 0 4095
0 0 4095
0 1546 0
0 1546 0
0 1544 0
0 1531 27
0 1496 741
0 1430 1305
0 1327 1777
0 1182 2192
0 948 2578
0 601 2949
0 218 3302
0 47 3590
0 0 3816
0 0 3977
0 0 4082
0 0 4095
0 0 4095
0 2006 0
0 2006 0
0 2004 0
0 1995 0
0 1971 416
0 1926 1180
0 1859 1699
0 1772 2133
0 1660 2531
0 1514 2910
0 1320 3268
0 1067 3561
0 783 3789
0 632 3951
0 473 4059
0 243 4095
0 221 4095
0 2425 0
0 2425 0
0 2424 0
0 2417 0
0 2398 35
0 2364 990
0 2314 1595
0 2250 2058
0 2170 2472
0 2072 2861
0 1954 3226
0 1834 3523
0 1721 3755
0 1627 3919
0 1555 4029
0 1506 4090
0 1478 4095
0 2824 0
0 2824 0
0 2823 0
0 2817 0
0 2803 0
0 2775 669
0 2734 1457
0 2684 1963
0 2622 2399
0 2547 2802
0 2459 3176
0 2373 3478
0 2295 3713
0 2233 3880
0 2188 3992
0 2158 4061
0 2141 4091
0 3211 0
0 3211 0
0 3210 0
0 3205 0
0 3193 0
0 3169 243
0 3136 1266
0 3094 1843
0 3043 2310
0 2982 2729
0 2911 3115
0 2843 3425
0 2783 3664
0 2736 3834
0 2702 3947
0 2679 4018
0 2667 4056
0 3581 0
0 3581 0
0 3580 0
0 3576 0
0 3565 0
0 3545 24
0 3516 964
0 3480 1696
0 3437 2203
0 3385 2646
0 3326 3046
0 3270 3364
0 3220 3609
0 3182 3782
0 3154 3897
0 3136 3968
0 3126 4008
0 3885 0
0 3885 0
0 3885 0
0 3881 0
0 3871 0
0 3853 0
0 3827 615
0 3795 1539
0 3757 2097
0 3711 2564
0 3659 2979
0 3610 3306
0 3567 3556
0 3533 3732
0 3509 3849
0 3493 3922
0 3484 3962
0 4080 0
0 4080 0
0 4080 0
0 4080 0
0 4078 0
0 4073 0
0 4056 258
0 4033 1382
0 4004 2000
0 3963 2491
0 3916 2919
0 3871 3254
0 3831 3509
0 3801 3689
0 3779 3807
0 3765 3881
0 3758 3922
0 4095 0
0 4095 0
0 4095 0
0 4095 0
0 4095 0
0 4095 0
0 4095 147
0 4095 1238
0 4095 1921
0 4092 2433
0 4082 2873
0 4051 3214
0 4018 3474
0 3990 3655
0 3969 3776
0 3957 3850
0 3949 3891
0 4095 0
0 4095 0
0 4095 0
0 4095 0
0 4095 0
0 4095 0
0 4095 95
0 4095 1113
0 4095 1862
0 4095 2391
0 4095 2839
0 4095 3185
0 4095 3448
0 4092 3631
0 4090 3752
0 4080 3828
0 4074 3869
0 4095 0
0 4095 0
0 4095 0
0 4095 0
0 4095 0
0 4095 0
0 4095 39
0 4095 1004
0 4095 1823
0 4095 2363
0 4095 2818
0 4095 3167
0 4095 3431
0 4095 3615
0 4095 3738
0 4095 3814
0 4095 3855
0 4095 0
0 4095 0
0 4095 0
0 4095 0
0 4095 0
0 4095 0
0 4095 0
0 4095 877
0 4095 1800
0 4095 2347
0 4095 2805
0 4095 3157
0 4095 3421
0 4095 3606
0 4095 3730
0 4095 3805
0 4095 3847
0 0 0
0 0 0
0 0 190
0 0 576
0 0 996
0 0 1440
0 0 1870
0 0 2262
0 0 2636
0 0 2997
0 0 3343
0 0 3628
0 0 3851
0 0 4009
0 0 4092
0 0 4095
0 0 4095
0 0 0
0 0 0
0 0 189
0 0 576
0 0 996
0 0 1440
0 0 1870
0 0 2263
0 0 2636
0 0 2998
0 0 3343
0 0 3628
0 0 3851
0 0 4010
0 0 4092
0 0 4095
0 0 4095
0 209 0
0 208 0
0 188 168
0 23 569
0 0 992
0 0 1438
0 0 1869
0 0 2262
0 0 2636
0 0 2998
0 0 3343
0 0 3628
0 0 3851
0 0 4010
0 0 4092
0 0 4095
0 0 4095
0 622 0
0 621 0
0 615 17
0 567 515
0 406 967
0 72 1423
0 0 1858
0 0 2254
0 0 2629
0 0 2992
0 0 3339
0 0 3624
0 0 3848
0 0 4006
0 0 4092
0 0 4095
0 0 4095
0 1070 0
0 1069 0
0 1066 0
0 1044 335
0 985 900
0 856 1384
0 593 1831
0 194 2233
0 13 2612
0 0 2978
0 0 3326
0 0 3613
0 0 3837
0 0 3997
0 0 4091
0 0 4095
0 0 4095
0 1546 0
0 1544 0
0 1542 0
0 1529 28
0 1495 744
0 1427 1307
0 1319 1778
0 1169 2193
0 926 2580
0 569 2951
0 191 3303
0 32 3592
0 0 3818
0 0 3979
0 0 4083
0 0 4095
0 0 4095
0 2006 0
0 2003 0
0 2002 0
0 1993 0
0 1969 419
0 1925 1185
0 1854 1701
0 1763 2134
0 1647 2533
0 1496 2912
0 1294 3270
0 1029 3562
0 750 3791
0 583 3953
0 372 4061
0 220 4095
0 210 4095
0 2425 0
0 2422 0
0 2421 0
0 2414 0
0 2397 37
0 2363 995
0 2313 1600
0 2245 2061
0 2161 2474
0 2059 2863
0 1937 3228
0 1813 3525
0 1696 3757
0 1598 3921
0 1523 4031
0 1472 4091
0 1442 4095
0 2824 0
0 2821 0
0 2820 0
0 2815 0
0 2800 0
0 2773 674
0 2733 1462
0 2683 1969
0 2616 2403
0 2536 2803
0 2445 3178
0 2356 3481
0 2276 3715
0 2212 3882
0 2165 3994
0 2135 4063
0 2117 4091
0 3211 0
0 3207 0
0 3207 0
0 3202 0
0 3190 0
0 3167 247
0 3134 1272
0 3092 1850
0 3041 2317
0 2975 2733
0 2900 3117
0 2829 3427
0 2767 3667
0 2718 3836
0 2683 3949
0 2660 4020
0 2647 4058
0 3581 0
0 3577 0
0 3577 0
0 3573 0
0 3562 0
0 3542 27
0 3514 972
0 3478 1702
0 3435 2211
0 3384 2654
0 3319 3050
0 3258 3366
0 3206 3611
0 3166 3784
0 3137 3899
0 3119 3971
0 3108 4010
0 3885 0
0 3881 0
0 3880 0
0 3877 0
0 3868 0
0 3850 0
0 3825 623
0 3793 1546
0 3755 2105
0 3709 2572
0 3657 2987
0 3601 3310
0 3554 3558
0 3519 3734
0 3494 3851
0 3478 3924
0 3469 3964
0 4080 0
0 4079 0
0 4079 0
0 4079 0
0 4077 0
0 4072 0
0 4054 263
0 4031 1390
0 4002 2007
0 3962 2499
0 3914 2928
0 3868 3264
0 3822 3513
0 3789 3691
0 3766 3810
0 3752 3884
0 3743 3924
0 4095 0
0 4095 0
0 4095 0
0 4095 0
0 4095 0
0 4095 0
0 4095 150
0 4095 1248
0 4095 1928
0 4092 2441
0 4081 2882
0 4049 3224
0 4015 3483
0 3980 3659
0 3957 3778
0 3943 3852
0 3936 3893
0 4095 0
0 4095 0
0 4095 0
0 4095 0
0 4095 0
0 4095 0
0 4095 100
0 4095 1125
0 4095 1870
0 4095 2399
0 4095 2848
0 4095 3196
0 4095 3458
0 4092 3640
0 4081 3755
0 4068 3830
0 4062 3872
0 4095 0
0 4095 0
0 4095 0
0 4095 0
0 4095 0
0 4095 0
0 4095 49
0 4095 1021
0 4095 1831
0 4095 2371
0 4095 2827
0 4095 3177
0 4095 3442
0 4095 3626
0 4095 3745
0 4095 3818
0 4095 3858
0 4095 0
0 4095 0
0 4095 0
0 4095 0
0 4095 0
0 4095 0
0 4095 0
0 4095 901
0 4095 1809
0 4095 2356
0 4095 2815
0 4095 3167
0 4095 3433
0 4095 3617
0 4095 3739
0 4095 3811
0 4095 3851
288 0 32
288 0 36
287 0 205
283 0 580
273 0 998
262 0 1441
246 0 1871
223 0 2263
192 0 2637
143 0 2998
26 0 3343
0 0 3628
0 0 3851
0 0 4009
0 0 4092
0 0 4095
0 0 4095
286 0 31
282 0 33
280 0 204
286 0 580
278 0 998
270 0 1442
257 0 1871
238 0 2264
212 0 2638
175 0 2999
112 0 3345
12 0 3629
0 0 3852
0 0 4011
0 0 4092
0 0 4095
0 0 4095
190 199 3
192 196 3
189 181 179
189 22 573
184 0 995
171 0 1441
146 0 1871
103 0 2264
32 0 2638
20 0 3000
10 0 3346
0 0 3631
0 0 3854
0 0 4013
0 0 4093
0 0 4095
0 0 4095
0 619 0
0 618 0
0 612 21
0 565 519
0 403 970
0 71 1425
0 0 1860
0 0 2256
0 0 2631
0 0 2994
0 0 3341
0 0 3627
0 0 3850
0 0 4009
0 0 4092
0 0 4095
0 0 4095
0 1069 0
0 1067 0
0 1064 0
0 1043 341
0 984 902
0 855 1385
0 592 1833
0 193 2235
0 12 2614
0 0 2980
0 0 3329
0 0 3615
0 0 3840
0 0 3999
0 0 4091
0 0 4095
0 0 4095
0 1545 0
0 1543 0
0 1541 0
0 1529 33
0 1494 746
0 1426 1308
0 1319 1780
0 1168 2194
0 925 2581
0 566 2952
0 189 3305
0 31 3594
0 0 3820
0 0 3981
0 0 4085
0 0 4095
0 0 4095
0 2005 0
0 2002 0
0 2001 0
0 1992 0
0 1969 421
0 1924 1185
0 1854 1702
0 1763 2135
0 1648 2534
0 1496 2913
0 1294 3272
0 1027 3564
0 749 3793
0 580 3955
0 366 4063
0 219 4095
0 210 4095
0 2424 0
0 2421 0
0 2421 0
0 2414 0
0 2396 39
0 2362 997
0 2312 1600
0 2245 2061
0 2161 2474
0 2060 2864
0 1938 3230
0 1814 3527
0 1696 3758
0 1598 3923
0 1522 4033
0 1472 4091
0 1442 4095
0 2824 0
0 2820 0
0 2820 0
0 2814 0
0 2800 0
0 2773 676
0 2732 1462
0 2682 1969
0 2616 2403
0 2536 2804
0 2446 3179
0 2357 3482
0 2276 3717
0 2212 3883
0 2165 3995
0 2135 4064
0 2118 4092
0 3211 0
0 3207 0
0 3206 0
0 3202 0
0 3190 0
0 3167 248
0 3134 1272
0 3092 1850
0 3041 2317
0 2975 2733
0 2900 3118
0 2830 3428
0 2767 3668
0 2719 3837
0 2684 3951
0 2660 4020
0 2648 4059
0 3581 0
0 3576 0
0 3576 0
0 3572 0
0 3562 0
0 3542 28
0 3514 973
0 3478 1703
0 3435 2211
0 3384 2654
0 3319 3050
0 3258 3367
0 3206 3612
0 3167 3785
0 3138 3900
0 3120 3971
0 3108 4011
0 3885 0
0 3880 0
0 3880 0
0 3877 0
0 3867 0
0 3850 0
0 3825 624
0 3793 1546
0 3755 2105
0 3709 2572
0 3657 2987
0 3602 3311
0 3555 3559
0 3520 3735
0 3495 3852
0 3478 3925
0 3469 3965
0 4080 0
0 4079 0
0 4079 0
0 4079 0
0 4077 0
0 4072 0
0 4054 264
0 4031 1390
0 4002 2007
0 3961 2499
0 3914 2928
0 3868 3264
0 3822 3513
0 3789 3691
0 3766 3810
0 3752 3884
0 3744 3925
0 4095 0
0 4095 0
0 4095 0
0 4095 0
0 4095 0
0 4095 0
0 4095 151
0 4095 1249
0 4095 1928
0 4092 2441
0 4081 2882
0 4049 3224
0 4015 3483
0 3980 3659
0 3957 3778
0 3944 3852
0 3936 3894
0 4095 0
0 4095 0
0 4095 0
0 4095 0
0 4095 0
0 4095 0
0 4095 101
0 4095 1126
0 4095 1870
0 4095 2399
0 4095 2848
0 4095 3196
0 4095 3458
0 4092 3640
0 4081 3755
0 4069 3830
0 4062 3872
0 4095 0
0 4095 0
0 4095 0
0 4095 0
0 4095 0
0 4095 0
0 4095 50
0 4095 1022
0 4095 1831
0 4095 2371
0 4095 2826
0 4095 3177
0 4095 3442
0 4095 3626
0 4095 3745
0 4095 3818
0 4095 3858
0 4095 0
0 4095 0
0 4095 0
0 4095 0
0 4095 0
0 4095 0
0 4095 0
0 4095 907
0 4095 1809
0 4095 2355
0 4095 2814
0 4095 3166
0 4095 3433
0 4095 3617
0 4095 3738
0 4095 3811
0 4095 3851
816 0 179
816 0 180
816 0 280
815 0 607
813 0 1011
810 0 1450
804 0 1877
797 0 2267
789 0 2640
779 0 3001
766 0 3346
755 0 3630
746 0 3853
738 0 4012
733 0 4092
729 0 4095
727 0 4095
816 0 178
809 0 176
788 0 268
798 0 605
820 0 1012
819 0 1451
816 0 1878
812 0 2269
806 0 2642
799 0 3003
790 0 3348
781 0 3632
773 0 3855
766 0 4013
762 0 4093
760 0 4095
