Postproduction/IWLTBAP - Humble/LUTs by IWLTBAP (3DL)/UTILITY/Sony S-Log3 to Rec.709/U-SONY-S-LOG3-V8-LTR.3dl
# Copyright: (C) Copyright 2010-2018 by IWLTBAP SAS
# Cannot be resold, shared or otherwise redistributed
# Website: https://luts.iwltbap.com
0 128 256 384 512 640 768 896 1023
27 27 26
28 27 136
42 42 551
100 99 1318
227 227 2290
365 364 3228
461 532 3839
844 2280 4000
1855 3448 4048
51 187 48
48 162 137
47 84 553
100 99 1320
227 226 2289
364 363 3225
469 601 3837
855 2314 4001
1843 3454 4048
151 655 147
149 648 189
143 608 561
126 311 1319
226 221 2285
363 360 3220
492 770 3834
873 2366 4003
1824 3464 4049
466 1507 461
466 1505 460
463 1494 616
453 1417 1339
429 1185 2282
448 922 3210
612 1408 3832
916 2509 4007
1762 3495 4050
837 2550 832
836 2546 831
833 2537 840
826 2496 1411
811 2391 2302
800 2245 3214
851 2313 3831
1010 2845 4018
1550 3573 4053
1150 3525 1144
1148 3520 1142
1145 3510 1169
1139 3481 1629
1129 3410 2375
1112 3289 3233
1113 3226 3829
1171 3405 4025
1277 3733 4059
1344 4062 1654
1345 4061 1727
1345 4059 1840
1347 4054 2099
1355 4036 2594
1342 3961 3307
1326 3877 3834
1329 3871 4023
1351 3944 4059
1357 4074 2648
1356 4074 2670
1356 4075 2704
1357 4075 2806
1364 4076 3063
1376 4078 3494
1392 4078 3863
1415 4064 4024
1447 4064 4059
0 4084 3569
0 4084 3574
0 4084 3581
0 4084 3602
0 4084 3659
0 4085 3781
0 4086 3938
0 4086 4036
0 4088 4067
271 40 41
260 39 142
227 50 551
124 100 1316
227 227 2290
365 364 3228
461 526 3839
845 2275 4000
1920 3447 4048
155 165 48
140 139 139
105 72 553
100 99 1319
227 227 2289
364 363 3225
468 591 3837
854 2309 4001
1908 3454 4049
145 646 144
143 638 188
137 597 562
122 297 1320
226 221 2285
363 359 3220
490 757 3834
868 2362 4003
1889 3464 4049
463 1510 462
462 1508 461
459 1496 620
449 1420 1341
424 1186 2282
445 914 3210
610 1398 3832
912 2505 4007
1830 3494 4050
836 2551 832
835 2547 831
831 2538 841
825 2497 1413
810 2392 2303
799 2246 3214
850 2313 3831
1010 2842 4018
1633 3572 4053
1149 3525 1144
1147 3520 1142
1144 3510 1170
1139 3481 1631
1128 3410 2376
1112 3290 3233
1112 3226 3829
1171 3405 4025
1283 3733 4059
1344 4062 1656
1345 4061 1729
1345 4059 1841
1347 4054 2100
1355 4036 2595
1341 3961 3307
1326 3877 3834
1329 3871 4023
1351 3944 4059
1357 4074 2648
1356 4074 2670
1356 4075 2705
1357 4075 2807
1364 4076 3063
1376 4078 3494
1392 4078 3863
1415 4064 4024
1447 4064 4059
0 4084 3570
0 4084 3574
0 4084 3581
0 4084 3602
0 4084 3660
0 4085 3781
0 4086 3938
0 4086 4036
0 4088 4067
786 94 95
784 94 185
774 100 562
711 137 1318
483 238 2290
380 364 3229
456 516 3839
891 2268 4000
2017 3447 4049
729 151 91
721 132 174
712 97 563
631 129 1321
384 233 2289
365 363 3226
461 575 3837
889 2302 4001
2007 3453 4049
589 614 157
574 608 202
555 562 565
418 261 1319
258 223 2286
362 359 3221
484 734 3835
888 2355 4002
1990 3463 4050
456 1494 456
456 1492 455
453 1480 617
441 1401 1340
417 1158 2282
439 885 3210
606 1381 3833
912 2500 4007
1934 3494 4051
834 2553 833
833 2549 832
830 2539 844
823 2498 1418
808 2393 2304
797 2246 3214
848 2308 3831
1008 2837 4018
1753 3572 4054
1148 3526 1144
1146 3520 1142
1144 3510 1172
1138 3481 1635
1127 3411 2377
1111 3290 3234
1112 3227 3829
1170 3404 4025
1312 3731 4059
1344 4062 1659
1345 4061 1732
1345 4059 1844
1346 4054 2102
1354 4036 2596
1341 3961 3307
1325 3877 3834
1328 3871 4023
1350 3944 4059
1357 4074 2649
1356 4074 2671
1356 4075 2706
1357 4075 2808
1365 4076 3064
1376 4078 3494
1392 4078 3863
1415 4064 4024
1445 4064 4059
0 4084 3570
0 4084 3574
0 4084 3581
0 4084 3602
0 4084 3660
0 4085 3781
0 4086 3938
0 4086 4036
0 4088 4067
1710 290 292
1710 290 350
1709 294 626
1690 315 1337
1631 373 2301
1507 449 3236
1269 531 3844
1452 2251 4001
2266 3444 4051
1688 285 286
1676 282 342
1683 288 628
1662 310 1340
1593 367 2300
1448 442 3233
1194 564 3841
1419 2286 4002
2258 3451 4051
1634 530 301
1585 541 331
1620 484 616
1600 321 1338
1517 353 2296
1335 427 3228
1082 688 3838
1366 2340 4004
2244 3461 4051
1388 1438 492
1371 1440 491
1363 1427 648
1326 1342 1348
1184 1071 2286
923 804 3213
844 1324 3834
1224 2485 4008
2200 3492 4053
850 2536 828
848 2532 826
842 2522 839
829 2480 1416
807 2374 2304
789 2222 3215
840 2284 3832
1040 2823 4017
2061 3570 4056
1146 3526 1144
1144 3521 1142
1141 3511 1180
1136 3482 1646
1125 3412 2381
1108 3291 3235
1109 3227 3829
1167 3398 4026
1548 3729 4060
1344 4062 1669
1344 4061 1742
1345 4059 1852
1346 4054 2108
1352 4036 2599
1339 3961 3309
1324 3877 3834
1326 3871 4023
1348 3943 4059
1357 4074 2652
1356 4074 2674
1356 4075 2709
1357 4075 2810
1365 4076 3065
1377 4078 3495
1392 4078 3863
1414 4064 4024
1441 4064 4059
0 4084 3570
0 4084 3575
0 4084 3582
0 4084 3603
0 4084 3660
0 4085 3781
0 4086 3938
0 4086 4036
0 4088 4067
2786 537 547
2786 537 582
2785 539 754
2775 550 1377
2746 582 2324
2687 630 3257
2564 653 3860
2512 2210 4008
2768 3438 4055
2781 536 545
2772 534 581
2779 538 761
2769 548 1383
2737 580 2325
2669 626 3255
2541 658 3858
2499 2248 4009
2762 3445 4056
2766 532 539
2729 528 566
2755 530 748
2751 544 1388
2713 575 2324
2634 620 3250
2505 703 3854
2479 2305 4010
2753 3455 4056
2684 1267 623
2622 1312 623
2638 1289 744
2654 1169 1374
2609 891 2311
2514 716 3233
2406 1180 3847
2420 2457 4014
2725 3486 4057
2393 2484 893
2382 2483 892
2376 2474 904
2356 2431 1446
2308 2318 2323
2209 2161 3229
2129 2229 3842
2229 2798 4024
2642 3565 4060
1509 3508 1150
1504 3502 1147
1496 3493 1188
1471 3463 1654
1423 3391 2386
1349 3267 3239
1329 3200 3833
1560 3378 4030
2371 3725 4065
1342 4062 1699
1342 4061 1772
1343 4059 1877
1344 4054 2126
1347 4036 2609
1334 3961 3312
1318 3878 3835
1321 3870 4023
1402 3935 4061
1357 4074 2662
1357 4074 2683
1357 4075 2717
1358 4075 2818
1365 4076 3071
1377 4078 3497
1392 4078 3863
1410 4064 4024
1428 4064 4059
0 4084 3572
0 4084 3577
0 4084 3584
0 4084 3605
0 4084 3662
0 4085 3782
0 4086 3939
0 4086 4036
0 4088 4067
3785 756 786
3785 756 792
3784 757 873
3778 763 1395
3761 783 2344
3732 817 3285
3661 838 3890
3532 2061 4017
3505 3415 4063
3784 756 785
3779 755 791
3782 756 875
3777 762 1403
3759 783 2346
3729 816 3285
3650 833 3887
3526 2107 4018
3503 3422 4063
3783 756 785
3767 752 790
3774 754 869
3775 762 1412
3757 783 2350
3722 815 3284
3630 827 3883
3516 2174 4020
3498 3433 4064
3766 839 774
3728 880 778
3735 867 857
3747 817 1386
3728 775 2347
3675 798 3271
3576 923 3872
3489 2348 4024
3485 3465 4065
3646 2308 978
3598 2348 981
3585 2352 982
3592 2299 1414
3591 2145 2330
3534 1954 3255
3457 2077 3864
3410 2726 4035
3447 3547 4068
3355 3470 1240
3347 3467 1237
3338 3459 1259
3325 3428 1683
3294 3353 2412
3243 3223 3267
3187 3158 3857
3196 3351 4047
3337 3716 4075
2586 4062 1735
2584 4061 1803
2580 4059 1905
2568 4053 2152
2539 4025 2631
2483 3945 3330
2458 3860 3849
2587 3855 4037
2972 3931 4077
1359 4075 2689
1359 4075 2710
1360 4075 2744
1361 4075 2842
1368 4076 3089
1379 4078 3505
1391 4078 3865
1399 4064 4024
1478 4063 4060
0 4084 3578
0 4084 3582
0 4084 3589
0 4084 3610
0 4084 3666
0 4085 3784
0 4086 3939
0 4086 4036
0 4088 4067
3995 804 860
3995 804 855
3995 804 862
3996 808 1191
3998 832 2272
4002 870 3271
4006 904 3911
4011 1331 4013
4006 3326 4067
3995 804 860
3995 804 855
3995 804 860
3996 808 1195
3998 832 2275
4002 870 3272
4007 904 3911
4012 1401 4014
4005 3334 4068
3995 804 860
3995 804 854
3995 804 858
3996 808 1190
3998 832 2279
4002 870 3273
4007 904 3911
4013 1518 4015
4004 3347 4068
3995 802 860
3995 801 854
3995 800 860
3996 807 1172
3998 834 2290
4002 870 3278
4007 899 3905
4017 1854 4021
3999 3386 4070
4005 1425 895
4006 1515 906
4007 1575 913
4006 1493 1195
4004 1247 2254
4006 1138 3260
4013 1352 3879
4024 2471 4037
3983 3487 4074
4054 3331 1272
4051 3345 1273
4048 3358 1272
4046 3328 1501
4041 3235 2316
4032 3064 3254
4010 2997 3874
3981 3251 4060
3941 3685 4083
3960 4062 1674
3957 4061 1740
3955 4058 1849
3948 4049 2120
3930 4013 2626
3895 3927 3346
3860 3838 3875
3846 3837 4058
3860 3924 4092
3601 4094 2731
3600 4094 2753
3599 4094 2786
3595 4094 2886
3584 4095 3129
3563 4095 3541
3545 4085 3897
3562 4058 4052
3646 4059 4087
90 4084 3595
90 4084 3599
90 4084 3606
92 4084 3625
95 4084 3679
104 4085 3792
120 4086 3942
258 4087 4037
645 4088 4068
3995 805 875
3995 804 871
3995 804 849
3995 804 870
3997 821 1854
4002 866 3179
4006 903 3899
4006 890 4006
4052 2915 4052
3995 805 875
3995 804 871
3995 804 849
3995 804 870
3997 821 1856
4002 866 3180
4006 903 3899
4006 886 4006
4053 2932 4053
3995 805 874
3995 804 870
3995 804 849
3995 804 870
3997 821 1860
4002 866 3182
4006 903 3899
4006 884 4006
4054 2959 4054
3995 804 874
3995 804 869
3995 804 849
3995 804 869
3997 822 1865
4002 866 3186
4006 903 3900
4006 890 4006
4057 3037 4057
3995 784 870
3995 783 862
3995 783 843
3995 784 879
3997 806 1893
4002 859 3200
4006 898 3903
4009 1119 4009
4065 3226 4064
4029 2354 1073
4029 2360 1066
4029 2362 1060
4028 2345 1092
4026 2248 2004
4024 2051 3179
4027 2056 3869
4047 2737 4046
4080 3555 4079
4094 4032 1488
4094 4031 1497
4094 4028 1532
4094 4016 1722
4093 3969 2396
4091 3868 3250
4089 3761 3866
4089 3772 4064
4089 3888 4094
4095 4095 2587
4095 4095 2613
4095 4095 2653
4095 4095 2768
4094 4095 3050
4089 4095 3518
4071 4082 3905
4059 4053 4063
4057 4055 4095
4014 4095 3625
4014 4095 3629
4014 4095 3636
4013 4095 3656
4010 4095 3711
4004 4095 3825
3995 4095 3975
3991 4095 4067
3997 4095 4094
3996 805 881
3996 805 880
3996 804 872
3995 803 803
3994 808 1076
4000 859 3033
4005 902 3883
4005 910 4007
3999 1063 4008
3996 805 881
3996 805 880
3996 804 872
3995 803 803
3994 809 1077
4000 859 3034
4005 902 3883
4005 910 4007
3998 1079 4008
3996 805 881
3996 805 880
3996 804 872
3995 803 803
3994 809 1080
4000 860 3036
4006 902 3884
4005 910 4007
3997 1105 4008
3996 805 881
3996 805 879
3996 804 871
3995 803 802
3994 809 1090
4000 860 3041
4006 902 3884
4004 910 4007
3993 1191 4009
3995 805 880
3995 805 878
3995 804 868
3994 803 804
3993 809 1127
3999 860 3057
4004 903 3886
4009 911 4007
3982 1503 4014
4002 773 869
4002 773 869
4002 773 864
4000 772 850
3999 781 1304
4004 833 3103
4006 861 3892
3997 872 4006
4028 2763 4050
4063 3639 1352
4063 3639 1344
4063 3638 1333
4063 3633 1333
4062 3585 1818
4058 3434 3163
4057 3338 3858
4068 3476 4063
4088 3772 4090
4095 4095 2108
4095 4095 2151
4095 4095 2219
4095 4095 2396
4095 4095 2785
4095 4095 3416
4095 4070 3888
4095 4040 4062
4095 4046 4095
4095 4095 3510
4095 4095 3516
4095 4095 3526
4095 4095 3555
4095 4095 3631
4095 4095 3783
4095 4095 3966
4095 4095 4069
4095 4094 4095
