Postproduction/IWLTBAP - Humble/LUTs by IWLTBAP (3DL)/UTILITY/Sony S-Log3 to Rec.709/U-SONY-S-LOG3-V5-LTR.3dl
# Copyright: (C) Copyright 2010-2018 by IWLTBAP SAS
# Cannot be resold, shared or otherwise redistributed
# Website: https://luts.iwltbap.com
0 64 128 192 256 320 384 448 512 576 640 704 768 832 896 960 1023
16 16 16
16 16 16
16 16 156
16 16 775
16 16 1479
16 16 2209
16 16 2849
16 16 3374
16 16 3769
16 16 4026
16 16 4077
16 16 4079
16 16 4079
16 16 4079
16 16 4079
16 16 4079
16 16 4079
16 16 16
16 16 16
16 16 143
16 16 744
16 16 1461
16 16 2199
16 16 2845
16 16 3372
16 16 3768
16 16 4026
16 16 4077
16 16 4079
16 16 4079
16 16 4079
16 16 4079
16 16 4079
16 16 4079
16 83 16
16 74 16
16 62 86
16 48 666
16 30 1421
16 17 2186
16 16 2840
16 16 3370
16 16 3767
16 16 4026
16 16 4077
16 16 4079
16 16 4079
16 16 4079
16 16 4079
16 16 4079
16 16 4079
16 580 16
16 543 16
16 501 45
16 445 513
16 352 1296
16 217 2087
16 52 2798
16 18 3365
16 16 3766
16 16 4026
16 16 4077
16 16 4079
16 16 4079
16 16 4079
16 16 4079
16 16 4079
16 16 4079
16 1205 16
16 1186 16
16 1162 21
16 1127 331
16 1071 1126
16 973 1941
16 788 2682
16 442 3289
16 33 3752
16 16 4025
16 16 4077
16 16 4079
16 16 4079
16 16 4079
16 16 4079
16 16 4079
16 16 4079
16 1851 16
16 1839 16
16 1826 16
16 1802 144
16 1763 900
16 1703 1762
16 1602 2548
16 1417 3179
16 1018 3665
16 268 4003
16 16 4077
16 16 4079
16 16 4079
16 16 4079
16 16 4079
16 16 4079
16 16 4079
16 2475 16
16 2469 16
16 2464 16
16 2450 29
16 2427 584
16 2391 1533
16 2338 2385
16 2242 3059
16 2059 3573
16 1653 3946
16 646 4075
16 16 4079
16 16 4079
16 16 4079
16 16 4079
16 16 4079
16 16 4079
16 2992 16
16 2991 16
16 2991 16
16 2987 16
16 2974 222
16 2956 1217
16 2926 2175
16 2879 2921
16 2799 3477
16 2647 3879
16 2275 4066
16 1119 4079
16 16 4079
16 16 4079
16 16 4079
16 16 4079
16 16 4079
92 3411 16
81 3411 16
69 3411 16
56 3411 16
35 3406 17
17 3395 698
16 3386 1855
16 3369 2740
16 3333 3364
16 3269 3804
16 3139 4045
16 2832 4079
16 1604 4079
16 16 4079
16 16 4079
16 16 4079
16 16 4079
590 3745 16
559 3745 16
528 3745 16
490 3745 16
419 3745 16
319 3738 100
178 3729 1299
34 3724 2445
16 3718 3215
16 3691 3717
16 3640 4021
16 3545 4079
16 3303 4079
16 2064 4079
16 16 4079
16 16 4079
16 16 4079
1296 3987 16
1280 3987 16
1264 3987 16
1244 3987 16
1209 3987 16
1142 3986 16
988 3979 404
709 3972 1930
273 3969 2955
23 3972 3592
16 3958 3972
16 3927 4078
16 3860 4079
16 3680 4079
16 2513 4079
16 16 4079
16 16 4079
2014 4077 16
2005 4077 16
1996 4077 16
1986 4077 16
1967 4077 16
1934 4077 16
1866 4077 16
1711 4077 903
1444 4076 2546
847 4076 3393
150 4077 3886
16 4075 4076
16 4066 4079
16 4047 4079
16 3947 4079
16 2941 4079
16 16 4079
2743 4079 16
2739 4079 16
2734 4079 16
2729 4079 16
2720 4079 16
2705 4079 16
2676 4079 16
2618 4079 16
2484 4079 1615
2255 4079 3144
1707 4079 3789
353 4079 4066
16 4079 4079
16 4079 4079
16 4079 4079
16 4074 4079
16 3349 4079
3307 4079 16
3305 4079 16
3303 4079 16
3301 4079 16
3297 4079 16
3291 4079 16
3279 4079 16
3259 4079 16
3215 4079 59
3109 4079 2310
2923 4079 3603
2490 4079 4029
915 4079 4079
16 4079 4079
16 4079 4079
16 4079 4079
16 4079 4079
3737 4079 16
3737 4079 16
3736 4079 16
3736 4079 16
3734 4079 16
3732 4079 16
3727 4079 16
3720 4079 16
3704 4079 16
3667 4079 255
3580 4079 2948
3446 4079 3934
3120 4079 4079
1607 4079 4079
16 4079 4079
16 4079 4079
16 4079 4079
4023 4079 16
4022 4079 16
4022 4079 16
4022 4079 16
4021 4079 16
4020 4079 16
4019 4079 16
4016 4079 16
4010 4079 16
4001 4079 16
3980 4079 461
3925 4079 3479
3833 4079 4075
3610 4079 4079
2325 4079 4079
16 4079 4079
16 4079 4079
4079 4079 16
4079 4079 16
4079 4079 16
4079 4079 16
4079 4079 16
4079 4079 16
4079 4079 16
4079 4079 16
4079 4079 16
4079 4079 16
4079 4079 16
4079 4079 614
4076 4079 3880
4067 4079 4079
3956 4079 4079
2988 4079 4079
16 4079 4079
16 16 16
16 16 16
16 16 154
16 16 769
16 16 1476
16 16 2207
16 16 2848
16 16 3374
16 16 3769
16 16 4026
16 16 4077
16 16 4079
16 16 4079
16 16 4079
16 16 4079
16 16 4079
16 16 4079
16 16 16
16 16 16
16 16 140
16 16 738
16 16 1458
16 16 2197
16 16 2844
16 16 3372
16 16 3768
16 16 4026
16 16 4077
16 16 4079
16 16 4079
16 16 4079
16 16 4079
16 16 4079
16 16 4079
16 86 16
16 77 16
16 64 82
16 50 656
16 32 1415
16 17 2183
16 16 2839
16 16 3370
16 16 3767
16 16 4026
16 16 4077
16 16 4079
16 16 4079
16 16 4079
16 16 4079
16 16 4079
16 16 4079
16 590 16
16 554 16
16 512 44
16 456 504
16 362 1290
16 227 2084
16 57 2796
16 19 3364
16 16 3766
16 16 4026
16 16 4077
16 16 4079
16 16 4079
16 16 4079
16 16 4079
16 16 4079
16 16 4079
16 1210 16
16 1191 16
16 1167 20
16 1133 324
16 1077 1121
16 980 1938
16 797 2680
16 451 3288
16 38 3751
16 16 4025
16 16 4077
16 16 4079
16 16 4079
16 16 4079
16 16 4079
16 16 4079
16 16 4079
16 1846 16
16 1837 16
16 1826 16
16 1804 142
16 1767 895
16 1707 1759
16 1606 2547
16 1422 3177
16 1024 3665
16 272 4003
16 16 4077
16 16 4079
16 16 4079
16 16 4079
16 16 4079
16 16 4079
16 16 4079
20 2459 16
17 2455 16
16 2452 16
16 2441 27
16 2423 572
16 2393 1529
16 2340 2384
16 2244 3059
16 2061 3572
16 1656 3946
16 651 4075
16 16 4079
16 16 4079
16 16 4079
16 16 4079
16 16 4079
16 16 4079
48 2978 16
31 2977 16
27 2975 16
21 2972 16
16 2960 204
16 2945 1194
16 2924 2169
16 2880 2920
16 2800 3476
16 2649 3879
16 2277 4066
16 1122 4079
16 16 4079
16 16 4079
16 16 4079
16 16 4079
16 16 4079
297 3404 16
263 3403 16
232 3403 16
199 3402 16
149 3397 16
79 3386 673
25 3375 1832
16 3365 2732
16 3334 3364
16 3270 3803
16 3140 4045
16 2833 4079
16 1605 4079
16 16 4079
16 16 4079
16 16 4079
16 16 4079
829 3742 16
803 3742 16
776 3741 16
743 3741 16
685 3741 16
556 3734 93
344 3724 1283
118 3718 2430
19 3713 3206
16 3691 3717
16 3640 4021
16 3545 4079
16 3304 4079
16 2065 4079
16 16 4079
16 16 4079
16 16 4079
1425 3985 16
1411 3985 16
1396 3985 16
1379 3985 16
1347 3985 16
1287 3984 16
1149 3978 396
897 3970 1921
420 3966 2947
58 3968 3585
16 3958 3972
16 3927 4078
16 3860 4079
16 3680 4079
16 2514 4079
16 16 4079
16 16 4079
2085 4077 16
2077 4077 16
2068 4077 16
2058 4077 16
2041 4077 16
2009 4077 16
1946 4077 16
1800 4076 897
1548 4076 2541
1002 4076 3389
190 4077 3882
16 4075 4076
16 4066 4079
16 4047 4079
16 3947 4079
16 2942 4079
16 16 4079
2775 4079 16
2771 4079 16
2768 4079 16
2763 4079 16
2756 4079 16
2740 4079 16
2713 4079 16
2656 4079 16
2526 4079 1612
2309 4079 3142
1793 4079 3787
436 4079 4066
16 4079 4079
16 4079 4079
16 4079 4079
16 4074 4079
16 3349 4079
3321 4079 16
3319 4079 16
3318 4079 16
3316 4079 16
3312 4079 16
3306 4079 16
3294 4079 16
3274 4079 16
3231 4079 58
3128 4079 2308
2947 4079 3602
2534 4079 4028
1024 4079 4079
16 4079 4079
16 4079 4079
16 4079 4079
16 4079 4079
3743 4079 16
3742 4079 16
3742 4079 16
3741 4079 16
3740 4079 16
3737 4079 16
3733 4079 16
3725 4079 16
3711 4079 16
3675 4079 254
3588 4079 2947
3457 4079 3934
3138 4079 4079
1670 4079 4079
16 4079 4079
16 4079 4079
16 4079 4079
4025 4079 16
4025 4079 16
4024 4079 16
4024 4079 16
4023 4079 16
4022 4079 16
4021 4079 16
4018 4079 16
4013 4079 16
4003 4079 16
3982 4079 461
3929 4079 3478
3838 4079 4075
3617 4079 4079
2356 4079 4079
16 4079 4079
16 4079 4079
4079 4079 16
4079 4079 16
4079 4079 16
4079 4079 16
4079 4079 16
4079 4079 16
4079 4079 16
4079 4079 16
4079 4079 16
4079 4079 16
4079 4079 16
4079 4079 614
4076 4079 3880
4067 4079 4079
3959 4079 4079
3004 4079 4079
16 4079 4079
126 16 16
104 16 16
80 16 140
53 16 755
19 16 1471
16 16 2205
16 16 2847
16 16 3374
16 16 3769
16 16 4026
16 16 4077
16 16 4079
16 16 4079
16 16 4079
16 16 4079
16 16 4079
16 16 4079
141 16 16
119 16 16
93 16 124
67 16 721
26 16 1452
16 16 2195
16 16 2843
16 16 3371
16 16 3768
16 16 4026
16 16 4077
16 16 4079
16 16 4079
16 16 4079
16 16 4079
16 16 4079
16 16 4079
92 70 16
79 64 16
63 54 66
49 46 634
27 33 1404
16 18 2180
16 16 2838
16 16 3369
16 16 3767
16 16 4026
16 16 4077
16 16 4079
16 16 4079
16 16 4079
16 16 4079
16 16 4079
16 16 4079
88 570 16
54 538 16
46 500 39
38 449 480
25 364 1277
16 237 2079
16 62 2794
16 19 3363
16 16 3766
16 16 4026
16 16 4077
16 16 4079
16 16 4079
16 16 4079
16 16 4079
16 16 4079
16 16 4079
99 1187 16
63 1170 16
32 1150 18
22 1120 299
18 1071 1103
16 985 1932
16 805 2678
16 459 3286
16 43 3750
16 16 4025
16 16 4077
16 16 4079
16 16 4079
16 16 4079
16 16 4079
16 16 4079
16 16 4079
120 1824 16
97 1814 16
73 1804 16
43 1783 123
18 1751 868
16 1703 1747
16 1610 2545
16 1427 3176
16 1030 3664
16 275 4002
16 16 4077
16 16 4079
16 16 4079
16 16 4079
16 16 4079
16 16 4079
16 16 4079
115 2442 16
93 2438 16
81 2434 16
64 2423 25
43 2403 541
19 2377 1505
16 2339 2379
16 2247 3058
16 2064 3572
16 1660 3945
16 656 4075
16 16 4079
16 16 4079
16 16 4079
16 16 4079
16 16 4079
16 16 4079
291 2968 16
257 2966 16
221 2964 16
177 2961 16
108 2947 187
37 2930 1166
16 2912 2148
16 2880 2917
16 2801 3476
16 2650 3879
16 2279 4065
16 1125 4079
16 16 4079
16 16 4079
16 16 4079
16 16 4079
16 16 4079
577 3397 16
542 3397 16
507 3396 16
470 3396 16
394 3390 16
257 3378 653
102 3366 1812
22 3356 2717
16 3334 3363
16 3271 3803
16 3140 4045
16 2834 4079
16 1607 4079
16 16 4079
16 16 4079
16 16 4079
16 16 4079
1032 3738 16
1010 3738 16
988 3738 16
962 3738 16
912 3737 16
797 3730 87
589 3720 1269
274 3712 2417
27 3708 3197
16 3691 3717
16 3640 4021
16 3545 4079
16 3304 4079
16 2066 4079
16 16 4079
16 16 4079
16 16 4079
1543 3983 16
1529 3983 16
1516 3983 16
1500 3983 16
1471 3983 16
1417 3982 16
1292 3975 391
1066 3968 1912
617 3963 2940
95 3965 3579
16 3958 3972
16 3927 4078
16 3860 4079
16 3680 4079
16 2514 4079
16 16 4079
16 16 4079
2153 4077 16
2145 4077 16
2137 4077 16
2128 4077 16
2111 4077 16
2081 4077 16
2020 4077 16
1883 4076 890
1646 4076 2536
1148 4076 3385
245 4077 3879
16 4075 4076
16 4066 4079
16 4047 4079
16 3947 4079
16 2942 4079
16 16 4079
2804 4079 16
2801 4079 16
2797 4079 16
2793 4079 16
2786 4079 16
2773 4079 16
2748 4079 16
2694 4079 16
2568 4079 1609
2359 4079 3140
1874 4079 3786
542 4079 4066
16 4079 4079
16 4079 4079
16 4079 4079
16 4074 4079
16 3349 4079
3335 4079 16
3334 4079 16
3332 4079 16
3330 4079 16
3326 4079 16
3320 4079 16
3309 4079 16
3289 4079 16
3247 4079 57
3146 4079 2306
2972 4079 3601
2573 4079 4028
1116 4079 4079
16 4079 4079
16 4079 4079
16 4079 4079
16 4079 4079
3748 4079 16
3748 4079 16
3747 4079 16
3746 4079 16
3745 4079 16
3743 4079 16
3738 4079 16
3731 4079 16
3718 4079 16
3682 4079 253
3596 4079 2946
3466 4079 3934
3156 4079 4079
1729 4079 4079
16 4079 4079
16 4079 4079
16 4079 4079
4027 4079 16
4027 4079 16
4026 4079 16
4026 4079 16
4026 4079 16
4025 4079 16
4023 4079 16
4020 4079 16
4015 4079 16
4005 4079 16
3985 4079 460
3932 4079 3478
3842 4079 4075
3624 4079 4079
2384 4079 4079
16 4079 4079
16 4079 4079
4079 4079 16
4079 4079 16
4079 4079 16
4079 4079 16
4079 4079 16
4079 4079 16
4079 4079 16
4079 4079 16
4079 4079 16
4079 4079 16
4079 4079 16
4079 4079 614
4076 4079 3880
4067 4079 4079
3962 4079 4079
3019 4079 4079
16 4079 4079
679 16 16
620 16 16
550 16 110
467 16 714
335 16 1437
124 16 2185
28 16 2844
16 16 3373
16 16 3769
16 16 4026
16 16 4077
16 16 4079
16 16 4079
16 16 4079
16 16 4079
16 16 4079
16 16 4079
717 16 16
660 16 16
593 16 98
509 16 679
375 16 1417
145 16 2173
31 16 2839
16 16 3371
16 16 3768
16 16 4026
16 16 4077
16 16 4079
16 16 4079
16 16 4079
16 16 4079
16 16 4079
