Postproduction/IWLTBAP - Humble/LUTs by IWLTBAP (3DL)/UTILITY/Sony S-Log3 to Rec.709/U-SONY-S-LOG3-V8-LTR.3dl
# Copyright: (C) Copyright 2010-2018 by IWLTBAP SAS
# Cannot be resold, shared or otherwise redistributed
# Website: https://luts.iwltbap.com
0 256 512 768 1023
27 27 26
42 42 551
227 227 2290
461 532 3839
1855 3448 4048
151 655 147
143 608 561
226 221 2285
492 770 3834
1824 3464 4049
837 2550 832
833 2537 840
811 2391 2302
851 2313 3831
1550 3573 4053
1344 4062 1654
1345 4059 1840
1355 4036 2594
1326 3877 3834
1351 3944 4059
0 4084 3569
0 4084 3581
0 4084 3659
0 4086 3938
0 4088 4067
786 94 95
774 100 562
483 238 2290
456 516 3839
2017 3447 4049
589 614 157
555 562 565
258 223 2286
484 734 3835
1990 3463 4050
834 2553 833
830 2539 844
808 2393 2304
848 2308 3831
1753 3572 4054
1344 4062 1659
1345 4059 1844
1354 4036 2596
1325 3877 3834
1350 3944 4059
0 4084 3570
0 4084 3581
0 4084 3660
0 4086 3938
0 4088 4067
2786 537 547
2785 539 754
2746 582 2324
2564 653 3860
2768 3438 4055
2766 532 539
2755 530 748
2713 575 2324
2505 703 3854
2753 3455 4056
2393 2484 893
2376 2474 904
2308 2318 2323
2129 2229 3842
2642 3565 4060
1342 4062 1699
1343 4059 1877
1347 4036 2609
1318 3878 3835
1402 3935 4061
0 4084 3572
0 4084 3584
0 4084 3662
0 4086 3939
0 4088 4067
3995 804 860
3995 804 862
3998 832 2272
4006 904 3911
4006 3326 4067
3995 804 860
3995 804 858
3998 832 2279
4007 904 3911
4004 3347 4068
4005 1425 895
4007 1575 913
4004 1247 2254
4013 1352 3879
3983 3487 4074
3960 4062 1674
3955 4058 1849
3930 4013 2626
3860 3838 3875
3860 3924 4092
90 4084 3595
90 4084 3606
95 4084 3679
120 4086 3942
645 4088 4068
3996 805 881
3996 804 872
3994 808 1076
4005 902 3883
3999 1063 4008
3996 805 881
3996 804 872
3994 809 1080
4006 902 3884
3997 1105 4008
3995 805 880
3995 804 868
3993 809 1127
4004 903 3886
3982 1503 4014
4063 3639 1352
4063 3638 1333
4062 3585 1818
4057 3338 3858
4088 3772 4090
4095 4095 3510
4095 4095 3526
4095 4095 3631
4095 4095 3966
4095 4094 4095
