Postproduction/IWLTBAP - Humble/LUTs by IWLTBAP (3DL)/UTILITY/Sony S-Log3 to Rec.709/U-SONY-S-LOG3-V6-LTR.3dl
# Copyright: (C) Copyright 2010-2018 by IWLTBAP SAS
# Cannot be resold, shared or otherwise redistributed
# Website: https://luts.iwltbap.com
0 64 128 192 256 320 384 448 512 576 640 704 768 832 896 960 1023
83 78 35
83 80 58
28 80 349
94 6 1028
253 0 1478
296 0 1725
47 0 1926
0 0 2150
0 0 2501
56 491 2909
448 1420 3259
1156 1868 3509
1813 2234 3688
2422 2596 3842
2902 2946 3954
3285 3273 4033
3582 3576 4090
83 80 35
83 80 37
67 82 173
28 23 771
172 0 1268
272 0 1585
182 0 1895
0 0 2191
0 303 2513
0 1015 2909
75 1497 3232
860 1928 3493
1655 2295 3684
2339 2644 3841
2862 2980 3955
3264 3295 4034
3572 3589 4091
73 152 35
72 154 35
17 168 146
0 209 669
6 201 1293
17 101 1757
8 206 2101
0 458 2376
0 766 2598
0 1113 2852
1 1544 3194
485 1978 3470
1463 2351 3675
2240 2691 3839
2814 3015 3955
3240 3320 4036
3562 3603 4092
0 474 1
0 491 0
0 391 19
0 447 512
0 522 1270
0 573 1829
0 639 2224
0 752 2478
0 979 2689
0 1219 2838
0 1572 3112
134 2028 3430
1139 2415 3658
2080 2749 3832
2742 3061 3955
3205 3350 4037
3546 3623 4093
0 938 0
0 951 0
0 850 0
0 812 264
0 905 1115
0 962 1803
0 1012 2277
0 1072 2566
0 1206 2765
0 1431 2917
0 1598 3023
4 2039 3343
540 2471 3617
1792 2816 3814
2624 3120 3953
3151 3392 4038
3521 3649 4094
0 1272 0
0 1278 0
0 1257 0
0 1146 0
0 1258 812
0 1365 1691
0 1414 2270
0 1445 2626
0 1503 2842
0 1644 2982
0 1790 3065
0 1949 3175
46 2471 3525
1148 2874 3774
2409 3188 3941
3055 3446 4036
3477 3680 4093
0 1466 0
0 1468 0
0 1471 0
0 1401 0
0 1472 358
0 1644 1416
0 1736 2170
0 1773 2620
0 1795 2883
0 1866 3037
0 1969 3113
0 2055 3162
0 2248 3294
207 2857 3675
1973 3246 3909
2892 3507 4029
3409 3721 4093
0 1607 0
0 1608 0
0 1610 0
0 1604 0
0 1556 10
0 1762 953
0 1945 1948
0 2020 2542
0 2047 2881
0 2081 3069
0 2143 3154
0 2201 3200
0 2239 3221
0 2536 3408
776 3221 3814
2573 3558 4006
3281 3765 4088
0 1724 0
0 1725 0
0 1726 0
0 1727 0
0 1696 0
0 1759 337
0 2009 1563
0 2148 2374
0 2202 2824
0 2231 3062
0 2275 3177
0 2316 3226
0 2344 3252
0 2368 3262
43 2818 3522
1706 3527 3929
3033 3801 4073
0 1803 0
0 1803 0
0 1804 0
0 1804 0
0 1805 0
0 1783 0
0 1999 945
0 2218 2115
0 2307 2722
0 2342 3033
0 2373 3183
0 2407 3243
0 2430 3275
0 2438 3280
0 2466 3293
69 3085 3633
2432 3777 4019
0 1846 0
0 1846 0
0 1847 0
0 1847 0
0 1847 0
0 1847 0
0 1897 158
0 2224 1640
0 2383 2571
0 2439 2994
0 2466 3187
0 2496 3267
0 2516 3303
0 2520 3313
0 2525 3314
0 2552 3327
475 3348 3745
0 1848 0
0 1848 0
0 1848 0
0 1848 0
0 1848 0
0 1848 0
0 1848 0
0 2020 498
0 2389 2197
0 2500 2902
0 2541 3179
0 2573 3294
0 2597 3336
0 2603 3354
0 2601 3352
0 2604 3355
0 2620 3363
0 1848 0
0 1848 0
0 1848 0
0 1848 0
0 1848 0
0 1848 0
0 1848 0
0 1848 0
0 2148 901
0 2501 2603
0 2580 3119
0 2620 3298
0 2654 3359
0 2668 3386
0 2665 3387
0 2663 3385
0 2668 3388
0 1848 0
0 1848 0
0 1848 0
0 1848 0
0 1848 0
0 1848 0
0 1848 0
0 1848 0
0 1848 0
0 2252 1334
0 2559 2874
0 2634 3251
0 2683 3368
0 2710 3404
0 2713 3413
0 2709 3410
0 2709 3410
0 1848 0
0 1848 0
0 1848 0
0 1848 0
0 1848 0
0 1848 0
0 1848 0
0 1848 0
0 1848 0
0 1848 0
0 2344 1814
0 2592 3062
0 2660 3325
0 2710 3397
0 2732 3422
0 2732 3422
0 2732 3422
0 1848 0
0 1848 0
0 1848 0
0 1848 0
0 1848 0
0 1848 0
0 1848 0
0 1848 0
0 1848 0
0 1848 0
0 1867 0
0 2429 2193
0 2620 3196
0 2687 3371
0 2725 3415
0 2732 3422
0 2732 3422
0 1848 0
0 1848 0
0 1848 0
0 1848 0
0 1848 0
0 1848 0
0 1848 0
0 1848 0
0 1848 0
0 1848 0
0 1848 0
0 1884 67
0 2506 2566
0 2647 3289
0 2710 3397
0 2732 3422
0 2732 3422
115 80 35
125 80 65
108 70 364
194 1 1053
368 0 1554
477 0 1857
543 0 2101
595 0 2328
594 0 2626
809 366 3007
1138 1439 3345
1577 1891 3566
2087 2246 3724
2572 2598 3859
2983 2945 3961
3331 3272 4037
3603 3575 4092
85 80 35
86 80 38
71 81 179
37 22 761
190 0 1259
317 0 1585
359 0 1883
171 0 2241
111 131 2640
347 976 3038
778 1543 3331
1380 1960 3557
1959 2313 3724
2503 2648 3861
2946 2980 3963
3311 3294 4038
3593 3588 4092
75 150 35
75 150 35
20 166 156
0 202 677
8 186 1273
20 61 1709
26 97 2033
13 317 2330
0 685 2666
9 1175 3021
330 1611 3307
1123 2026 3543
1805 2376 3721
2425 2699 3861
2905 3016 3964
3288 3319 4039
3584 3601 4093
0 467 1
0 478 1
0 388 37
0 444 540
0 517 1285
0 566 1834
0 627 2218
0 709 2446
0 886 2650
0 1263 2957
27 1683 3263
674 2099 3516
1554 2453 3711
2296 2763 3858
2841 3064 3965
3255 3350 4041
3569 3621 4094
0 934 0
0 947 0
0 836 0
0 809 293
0 903 1134
0 958 1811
0 1008 2280
0 1068 2566
0 1188 2756
0 1367 2896
0 1721 3163
134 2160 3460
1081 2531 3683
2068 2839 3847
2737 3125 3964
3204 3392 4042
3547 3648 4095
0 1271 0
0 1277 0
0 1249 0
0 1146 4
0 1258 837
0 1363 1703
0 1411 2275
0 1442 2628
0 1501 2842
0 1640 2980
0 1763 3062
0 2113 3314
263 2576 3613
1598 2915 3817
2555 3200 3957
3121 3450 4042
3506 3680 4095
0 1465 0
0 1468 0
0 1470 0
0 1397 0
0 1475 381
0 1645 1431
0 1735 2176
0 1771 2623
0 1794 2884
0 1866 3037
0 1969 3113
0 2052 3169
0 2440 3430
499 2939 3739
2194 3270 3933
2970 3513 4037
3441 3721 4095
0 1607 0
0 1608 0
0 1609 0
0 1602 0
0 1557 18
0 1765 972
0 1945 1957
0 2019 2545
0 2046 2882
0 2081 3069
0 2143 3154
0 2201 3200
0 2255 3235
22 2718 3523
1207 3277 3856
2689 3572 4018
3325 3769 4091
0 1723 0
0 1724 0
0 1726 0
0 1727 0
0 1694 0
0 1763 350
0 2011 1575
0 2148 2378
0 2202 2826
0 2231 3063
0 2274 3177
0 2316 3226
0 2344 3251
0 2384 3273
76 2972 3612
1974 3563 3954
3094 3807 4078
0 1803 0
0 1803 0
0 1804 0
0 1804 0
0 1805 0
0 1783 0
0 2002 961
0 2218 2121
0 2307 2724
0 2342 3034
0 2373 3183
0 2407 3243
0 2430 3274
0 2438 3280
0 2480 3300
234 3205 3699
2551 3796 4031
0 1846 0
0 1846 0
0 1847 0
0 1847 0
0 1847 0
0 1847 0
0 1899 165
0 2226 1651
0 2383 2574
0 2439 2995
0 2466 3187
0 2496 3267
0 2516 3303
0 2520 3313
0 2525 3314
0 2557 3330
704 3436 3792
0 1848 0
0 1848 0
0 1848 0
0 1848 0
0 1848 0
0 1848 0
0 1848 0
0 2023 505
0 2390 2202
0 2501 2903
0 2541 3179
0 2573 3294
0 2597 3336
0 2603 3354
0 2601 3352
0 2604 3354
0 2620 3363
0 1848 0
0 1848 0
0 1848 0
0 1848 0
0 1848 0
0 1848 0
0 1848 0
0 1848 0
0 2152 910
0 2501 2606
0 2580 3120
0 2620 3298
0 2654 3359
0 2668 3386
0 2665 3386
0 2663 3385
0 2668 3388
0 1848 0
0 1848 0
0 1848 0
0 1848 0
0 1848 0
0 1848 0
0 1848 0
0 1848 0
0 1848 0
0 2254 1348
0 2559 2875
0 2634 3251
0 2683 3368
0 2710 3405
0 2713 3413
0 2709 3410
0 2709 3410
0 1848 0
0 1848 0
0 1848 0
0 1848 0
0 1848 0
0 1848 0
0 1848 0
0 1848 0
0 1848 0
0 1848 0
0 2345 1819
0 2592 3062
0 2660 3325
0 2710 3398
0 2732 3422
0 2732 3422
0 2732 3422
0 1848 0
0 1848 0
0 1848 0
0 1848 0
0 1848 0
0 1848 0
0 1848 0
0 1848 0
0 1848 0
0 1848 0
0 1867 0
0 2430 2197
0 2620 3197
0 2687 3371
0 2725 3415
0 2732 3422
0 2732 3422
0 1848 0
0 1848 0
0 1848 0
0 1848 0
0 1848 0
0 1848 0
0 1848 0
0 1848 0
0 1848 0
0 1848 0
0 1848 0
0 1885 71
0 2506 2568
0 2647 3289
0 2710 3397
0 2732 3422
0 2732 3422
404 19 31
434 14 62
484 6 403
606 0 1142
760 0 1675
858 0 1999
938 0 2236
1010 0 2447
1107 0 2710
1301 295 3081
1582 1434 3408
1922 1899 3612
2320 2250 3755
2707 2598 3875
3061 2943 3968
3372 3269 4039
3626 3573 4093
222 70 33
232 68 35
256 62 215
302 5 838
449 0 1370
566 0 1723
653 0 2000
738 0 2347
863 78 2733
1062 901 3127
1369 1560 3405
1766 1978 3609
2220 2322 3759
2650 2650 3878
3028 2979 3970
3356 3292 4041
3617 3586 4094
185 171 23
191 171 23
158 165 140
107 174 628
180 101 1246
313 4 1736
413 5 2125
474 177 2462
482 626 2796
652 1196 3131
1091 1648 3394
1579 2052 3602
2099 2391 3760
2585 2703 3881
2991 3016 3973
3337 3318 4043
3607 3600 4094
8 434 0
12 436 0
10 353 47
1 396 496
0 460 1206
8 502 1759
24 562 2184
29 679 2504
24 919 2801
78 1322 3105
570 1748 3367
1268 2144 3587
1902 2477 3756
2480 2771 3881
2936 3065 3975
3307 3349 4044
3592 3620 4095
0 928 0
0 941 0
0 818 0
0 803 317
0 893 1145
0 942 1805
0 974 2251
0 1008 2524
0 1126 2742
0 1446 3031
57 1850 3312
662 2240 3549
1545 2575 3739
2300 2855 3876
2844 3129 3976
3259 3392 4046
3571 3647 4095
0 1269 0
0 1275 0
0 1240 0
0 1145 13
0 1259 863
0 1361 1715
0 1408 2280
0 1438 2629
0 1484 2834
0 1593 2967
0 1855 3165
52 2285 3458
777 2657 3689
1947 2947 3855
2689 3209 3972
3183 3451 4047
3536 3680 4095
0 1464 0
0 1467 0
0 1469 0
0 1392 0
0 1478 406
0 1646 1447
0 1734 2183
0 1770 2625
0 1793 2885
0 1865 3037
0 1956 3110
0 2127 3237
41 2625 3560
1035 3005 3796
2389 3291 3954
3047 3518 4043
3473 3721 4095
0 1606 0
0 1607 0
0 1609 0
0 1600 0
0 1559 28
0 1768 993
0 1946 1966
0 2019 2549
0 2045 2884
0 2080 3069
0 2142 3154
0 2198 3199
0 2321 3285
76 2888 3631
1633 3325 3894
2794 3583 4029
3368 3771 4094
0 1723 0
0 1724 0
0 1725 0
0 1727 0
0 1691 0
0 1766 366
0 2013 1587
0 2148 2383
0 2202 2827
0 2230 3063
0 2274 3177
0 2316 3226
0 2344 3251
0 2426 3301
207 3118 3698
2192 3593 3976
3153 3813 4083
0 1803 0
0 1803 0
0 1804 0
0 1804 0
0 1805 0
0 1782 0
0 2006 979
0 2219 2127
0 2307 2726
0 2342 3035
0 2373 3184
0 2407 3243
0 2430 3274
0 2438 3280
0 2485 3306
501 3325 3767
2667 3814 4043
0 1846 0
0 1846 0
0 1847 0
0 1847 0
0 1847 0
0 1847 0
0 1900 175
0 2228 1662
0 2384 2577
0 2439 2996
0 2466 3188
0 2496 3267
0 2516 3303
0 2520 3313
0 2525 3314
0 2559 3332
935 3529 3844
0 1848 0
0 1848 0
0 1848 0
0 1848 0
0 1848 0
0 1848 0
0 1848 0
0 2026 515
0 2391 2208
0 2501 2905
0 2541 3180
0 2573 3294
0 2597 3336
0 2603 3354
0 2601 3352
0 2604 3354
0 2620 3363
0 1848 0
0 1848 0
0 1848 0
0 1848 0
0 1848 0
0 1848 0
0 1848 0
0 1848 0
0 2155 919
0 2502 2609
0 2580 3120
0 2620 3298
0 2654 3359
0 2668 3386
0 2665 3386
0 2663 3385
0 2668 3388
0 1848 0
0 1848 0
0 1848 0
0 1848 0
0 1848 0
0 1848 0
0 1848 0
0 1848 0
0 1848 0
0 2257 1364
0 2559 2877
0 2634 3252
0 2683 3369
0 2710 3405
0 2713 3413
0 2709 3410
0 2709 3410
0 1848 0
0 1848 0
0 1848 0
0 1848 0
0 1848 0
0 1848 0
0 1848 0
0 1848 0
0 1848 0
0 1848 0
0 2346 1825
0 2592 3063
0 2660 3325
0 2710 3398
0 2732 3422
0 2732 3422
0 2732 3422
0 1848 0
0 1848 0
0 1848 0
0 1848 0
0 1848 0
0 1848 0
0 1848 0
0 1848 0
0 1848 0
0 1848 0
0 1868 0
0 2431 2200
0 2620 3197
0 2687 3371
0 2725 3415
0 2732 3422
0 2732 3422
0 1848 0
0 1848 0
0 1848 0
0 1848 0
0 1848 0
0 1848 0
0 1848 0
0 1848 0
0 1848 0
0 1848 0
0 1848 0
0 1885 74
0 2506 2570
0 2647 3289
0 2710 3397
0 2732 3422
0 2732 3422
1004 0 2
1033 0 16
1114 0 424
1239 0 1195
1360 0 1755
1426 0 2098
1480 0 2339
1524 0 2546
1593 0 2779
1784 227 3142
2035 1395 3465
2288 1895 3658
2568 2248 3785
2863 2593 3891
3158 2939 3976
3424 3265 4043
3657 3571 4095
794 0 5
801 0 6
836 0 236
907 0 905
993 0 1460
1054 0 1827
1104 0 2088
1227 0 2428
1403 33 2813
1637 788 3202
1887 1553 3474
2177 1980 3662
2497 2324 3794
2818 2647 3896
3131 2976 3979
3410 3289 4045
