Postproduction/IWLTBAP - Humble/LUTs by IWLTBAP (3DL)/UTILITY/Sony S-Log3 to Rec.709/U-SONY-S-LOG3-V1-LTR.3dl
# Copyright: (C) Copyright 2010-2018 by IWLTBAP SAS
# Cannot be resold, shared or otherwise redistributed
# Website: https://luts.iwltbap.com
0 64 128 192 256 320 384 448 512 576 640 704 768 832 896 960 1023
0 0 0
0 0 0
0 0 114
0 0 346
0 0 648
0 0 1032
0 0 1511
0 0 2024
0 0 2499
0 0 2959
0 0 3387
0 0 3730
0 0 3951
0 0 4074
0 0 4095
0 0 4095
0 0 4095
0 0 0
0 0 0
0 0 105
0 0 338
0 0 643
0 0 1029
0 0 1509
0 0 2023
0 0 2499
0 0 2958
0 0 3387
0 0 3730
0 0 3951
0 0 4074
0 0 4095
0 0 4095
0 0 4095
0 163 0
0 141 0
0 115 93
0 64 328
0 2 638
0 0 1026
0 0 1507
0 0 2022
0 0 2498
0 0 2958
0 0 3387
0 0 3730
0 0 3951
0 0 4074
0 0 4095
0 0 4095
0 0 4095
0 421 0
0 405 0
0 386 73
0 349 313
0 256 628
0 43 1020
0 0 1504
0 0 2020
0 0 2498
0 0 2958
0 0 3386
0 0 3730
0 0 3951
0 0 4074
0 0 4095
0 0 4095
0 0 4095
0 745 0
0 736 0
0 724 31
0 703 276
0 656 608
0 536 1007
0 219 1496
0 0 2016
0 0 2495
0 0 2957
0 0 3386
0 0 3730
0 0 3951
0 0 4074
0 0 4095
0 0 4095
0 0 4095
0 1157 0
0 1151 0
0 1145 0
0 1132 189
0 1105 562
0 1045 981
0 898 1480
0 524 2007
0 71 2490
0 0 2953
0 0 3385
0 0 3729
0 0 3951
0 0 4074
0 0 4095
0 0 4095
0 0 4095
0 1670 0
0 1667 0
0 1663 0
0 1656 33
0 1639 451
0 1605 925
0 1529 1447
0 1377 1987
0 1076 2478
0 489 2945
0 0 3380
0 0 3727
0 0 3951
0 0 4074
0 0 4095
0 0 4095
0 0 4095
0 2215 0
0 2214 0
0 2211 0
0 2207 0
0 2198 213
0 2178 812
0 2135 1387
0 2054 1953
0 1922 2455
0 1695 2930
0 1208 3368
0 438 3719
0 0 3947
0 0 4074
0 0 4095
0 0 4095
0 0 4095
0 2719 0
0 2718 0
0 2717 0
0 2715 0
0 2709 0
0 2697 590
0 2669 1287
0 2617 1899
0 2539 2422
0 2420 2907
0 2236 3352
0 1941 3706
0 1310 3935
0 374 4067
0 0 4095
0 0 4095
0 0 4095
0 3202 0
0 3201 0
0 3201 0
0 3200 0
0 3197 0
0 3189 218
0 3169 1109
0 3133 1813
0 3080 2372
0 3003 2875
0 2895 3329
0 2752 3688
0 2554 3919
0 2144 4053
0 1052 4095
0 0 4095
0 0 4095
0 3646 0
0 3646 0
0 3646 0
0 3646 0
0 3645 0
0 3640 0
0 3626 737
0 3599 1673
0 3559 2299
0 3504 2829
0 3432 3298
0 3346 3666
0 3249 3900
0 3111 4034
0 2823 4093
0 1781 4095
0 0 4095
0 3988 0
0 3988 0
0 3988 0
0 3988 0
0 3988 0
0 3986 0
0 3979 236
0 3961 1421
0 3930 2191
0 3886 2768
0 3832 3261
0 3774 3642
0 3720 3882
0 3663 4016
0 3578 4081
0 3372 4095
0 2320 4095
1172 4095 0
1171 4095 0
1170 4095 0
1169 4095 0
1168 4095 0
1165 4095 0
1151 4095 0
1094 4095 859
975 4091 2014
755 4084 2684
343 4061 3216
288 4022 3618
231 3985 3866
98 3957 4003
0 3931 4067
0 3893 4093
0 3780 4095
2534 4095 0
2534 4095 0
2534 4095 0
2534 4095 0
2533 4095 0
2532 4095 0
2530 4095 0
2519 4095 183
2475 4095 1598
2411 4095 2540
2326 4095 3149
2221 4095 3589
2093 4092 3852
1896 4087 3995
1501 4078 4061
518 4072 4086
161 4065 4095
3310 4095 0
3309 4095 0
3309 4095 0
3309 4095 0
3309 4095 0
3309 4095 0
3308 4095 0
3307 4095 0
3294 4095 473
3254 4095 2207
3206 4095 3027
3153 4095 3543
3103 4095 3837
3047 4095 3989
2967 4095 4058
2808 4095 4083
2383 4095 4094
3765 4095 0
3765 4095 0
3765 4095 0
3765 4095 0
3765 4095 0
3764 4095 0
3764 4095 0
3764 4095 0
3763 4095 0
3746 4095 1139
3703 4095 2742
3660 4095 3450
3627 4095 3810
3600 4095 3981
3574 4095 4056
3533 4095 4083
3451 4095 4094
4016 4095 0
4016 4095 0
4016 4095 0
4016 4095 0
4016 4095 0
4016 4095 0
4016 4095 0
4016 4095 0
4016 4095 0
4016 4095 0
3991 4095 1644
3941 4095 3213
3907 4095 3752
3888 4095 3967
3875 4095 4052
3862 4095 4082
3842 4095 4094
18 0 0
9 0 0
0 0 111
0 0 342
0 0 645
0 0 1031
0 0 1510
0 0 2023
0 0 2499
0 0 2959
0 0 3387
0 0 3730
0 0 3951
0 0 4074
0 0 4095
0 0 4095
0 0 4095
0 0 0
0 0 0
0 0 102
0 0 334
0 0 641
0 0 1028
0 0 1508
0 0 2022
0 0 2499
0 0 2958
0 0 3387
0 0 3730
0 0 3951
0 0 4074
0 0 4095
0 0 4095
0 0 4095
0 152 0
0 131 0
0 105 90
0 55 325
0 0 635
0 0 1024
0 0 1506
0 0 2021
0 0 2498
0 0 2958
0 0 3387
0 0 3730
0 0 3951
0 0 4074
0 0 4095
0 0 4095
0 0 4095
0 412 0
0 397 0
0 377 70
0 340 309
0 246 626
0 41 1018
0 0 1502
0 0 2019
0 0 2497
0 0 2958
0 0 3386
0 0 3730
0 0 3951
0 0 4074
0 0 4095
0 0 4095
0 0 4095
0 739 0
0 729 0
0 718 28
0 697 272
0 650 606
0 529 1005
0 210 1495
0 0 2015
0 0 2495
0 0 2957
0 0 3386
0 0 3730
0 0 3951
0 0 4074
0 0 4095
0 0 4095
0 0 4095
0 1152 0
0 1147 0
0 1140 0
0 1127 186
0 1101 559
0 1040 980
0 892 1479
0 517 2006
0 67 2490
0 0 2953
0 0 3385
0 0 3729
0 0 3951
0 0 4074
0 0 4095
0 0 4095
0 0 4095
0 1666 0
0 1663 0
0 1659 0
0 1651 32
0 1635 448
0 1601 923
0 1525 1446
0 1373 1987
0 1070 2477
0 483 2945
0 0 3379
0 0 3727
0 0 3951
0 0 4074
0 0 4095
0 0 4095
0 0 4095
0 2213 0
0 2211 0
0 2209 0
0 2204 0
0 2195 210
0 2175 810
0 2132 1385
0 2051 1952
0 1919 2455
0 1691 2930
0 1202 3368
0 436 3719
0 0 3947
0 0 4074
0 0 4095
0 0 4095
0 0 4095
0 2717 0
0 2716 0
0 2715 0
0 2713 0
0 2707 0
0 2694 587
0 2667 1285
0 2615 1898
0 2537 2422
0 2417 2907
0 2233 3352
0 1938 3706
0 1308 3935
0 373 4067
0 0 4095
0 0 4095
0 0 4095
0 3200 0
0 3199 0
0 3199 0
0 3198 0
0 3195 0
0 3187 215
0 3167 1107
0 3131 1812
0 3077 2372
0 3001 2874
0 2892 3329
0 2750 3688
0 2552 3919
0 2143 4053
0 1051 4095
0 0 4095
0 0 4095
0 3645 0
0 3645 0
0 3645 0
0 3644 0
0 3643 0
0 3638 0
0 3625 735
0 3597 1672
0 3557 2299
0 3503 2829
0 3430 3298
0 3344 3666
0 3247 3900
0 3109 4034
0 2822 4093
0 1780 4095
0 0 4095
0 3988 0
0 3987 0
0 3987 0
0 3987 0
0 3987 0
0 3986 0
0 3979 234
0 3960 1419
0 3929 2190
0 3885 2768
0 3831 3261
0 3773 3642
0 3718 3882
0 3661 4016
0 3577 4081
0 3371 4095
0 2320 4095
1212 4095 0
1211 4095 0
1210 4095 0
1209 4095 0
1208 4095 0
1205 4095 0
1193 4095 0
1139 4095 857
1030 4091 2013
839 4084 2683
439 4061 3216
296 4021 3618
242 3985 3866
117 3956 4003
0 3930 4068
0 3892 4093
0 3779 4095
2549 4095 0
2549 4095 0
2548 4095 0
2548 4095 0
2547 4095 0
2546 4095 0
2545 4095 0
2533 4095 182
2490 4095 1597
2426 4095 2540
2343 4095 3149
2239 4095 3589
2115 4092 3852
1924 4087 3995
1526 4077 4061
654 4071 4086
171 4065 4095
3314 4095 0
3314 4095 0
3314 4095 0
3314 4095 0
3314 4095 0
3313 4095 0
3313 4095 0
3312 4095 0
3298 4095 473
3259 4095 2206
3210 4095 3027
3158 4095 3543
3108 4095 3837
3053 4095 3989
2973 4095 4058
2816 4095 4083
2400 4095 4094
3766 4095 0
3766 4095 0
3766 4095 0
3766 4095 0
3766 4095 0
3766 4095 0
3766 4095 0
3765 4095 0
3765 4095 0
3748 4095 1138
3704 4095 2741
3661 4095 3450
3628 4095 3810
3602 4095 3981
3576 4095 4056
3535 4095 4083
3453 4095 4094
4017 4095 0
4017 4095 0
4017 4095 0
4017 4095 0
4017 4095 0
4017 4095 0
4017 4095 0
4017 4095 0
4016 4095 0
4016 4095 0
3992 4095 1643
3942 4095 3213
3907 4095 3752
3888 4095 3967
3875 4095 4052
3862 4095 4082
3842 4095 4094
149 0 0
139 0 0
127 0 108
101 0 339
46 0 643
0 0 1029
0 0 1509
0 0 2022
0 0 2499
0 0 2958
0 0 3387
0 0 3730
0 0 3951
0 0 4074
0 0 4095
0 0 4095
0 0 4095
135 0 0
127 0 0
115 0 98
90 0 330
40 0 638
0 0 1026
0 0 1507
0 0 2021
0 0 2498
0 0 2958
0 0 3387
0 0 3730
0 0 3951
0 0 4074
0 0 4095
0 0 4095
0 0 4095
103 135 0
96 114 0
87 87 87
68 39 321
19 0 633
0 0 1022
0 0 1505
0 0 2020
0 0 2498
0 0 2958
0 0 3386
0 0 3730
0 0 3951
0 0 4074
0 0 4095
0 0 4095
0 0 4095
10 399 0
9 383 0
8 364 67
4 326 306
0 230 623
0 36 1017
0 0 1501
0 0 2019
0 0 2497
0 0 2957
0 0 3386
0 0 3730
0 0 3951
0 0 4074
0 0 4095
0 0 4095
0 0 4095
0 730 0
0 720 0
0 709 26
0 688 269
0 640 603
0 517 1004
0 196 1493
0 0 2015
0 0 2495
0 0 2956
0 0 3386
0 0 3730
0 0 3951
0 0 4074
0 0 4095
0 0 4095
0 0 4095
0 1146 0
0 1140 0
0 1133 0
0 1121 182
0 1093 557
0 1033 978
0 884 1478
0 507 2006
0 60 2489
0 0 2953
0 0 3385
0 0 3729
0 0 3951
0 0 4074
0 0 4095
0 0 4095
0 0 4095
0 1662 0
0 1658 0
0 1654 0
0 1647 31
0 1631 445
0 1596 921
0 1520 1445
0 1367 1986
0 1062 2477
0 474 2945
0 0 3379
0 0 3727
0 0 3951
0 0 4074
0 0 4095
0 0 4095
0 0 4095
0 2209 0
0 2207 0
0 2205 0
0 2201 0
0 2192 206
0 2172 808
0 2128 1384
0 2047 1952
0 1915 2455
0 1687 2929
0 1194 3368
0 434 3719
0 0 3947
0 0 4074
0 0 4095
0 0 4095
0 0 4095
0 2714 0
0 2713 0
0 2712 0
0 2710 0
0 2704 0
0 2692 584
0 2664 1284
0 2612 1897
0 2534 2422
0 2414 2907
0 2230 3352
0 1934 3706
0 1306 3935
0 372 4067
0 0 4095
0 0 4095
0 0 4095
0 3198 0
0 3197 0
0 3197 0
0 3196 0
0 3193 0
0 3185 213
0 3165 1106
0 3129 1811
0 3075 2372
0 2999 2874
0 2890 3329
0 2747 3688
0 2550 3919
0 2142 4053
0 1050 4095
0 0 4095
0 0 4095
0 3643 0
0 3643 0
0 3643 0
0 3643 0
0 3642 0
0 3636 0
0 3623 733
0 3596 1671
0 3556 2298
0 3501 2829
0 3428 3298
0 3342 3666
0 3245 3900
0 3107 4034
0 2821 4093
0 1780 4095
0 0 4095
0 3987 0
0 3987 0
0 3987 0
0 3987 0
0 3986 0
0 3985 0
0 3978 233
0 3960 1418
0 3928 2190
0 3884 2768
0 3830 3261
0 3772 3642
0 3717 3882
0 3660 4016
0 3575 4081
0 3371 4095
0 2319 4095
1250 4095 0
1249 4095 0
1248 4095 0
1247 4095 0
1245 4095 0
1243 4095 0
1231 4095 0
1181 4095 855
1079 4091 2013
909 4084 2683
540 4060 3216
304 4021 3618
252 3984 3866
133 3955 4003
0 3929 4068
0 3891 4093
0 3779 4095
2562 4095 0
2562 4095 0
2561 4095 0
2561 4095 0
2561 4095 0
2560 4095 0
2558 4095 0
2547 4095 181
2504 4095 1596
2441 4095 2539
2359 4095 3149
2257 4095 3589
2135 4092 3852
1950 4086 3995
1549 4077 4061
750 4071 4086
180 4064 4095
3318 4095 0
3318 4095 0
3318 4095 0
3318 4095 0
3318 4095 0
3318 4095 0
3317 4095 0
3316 4095 0
3303 4095 472
3263 4095 2205
3215 4095 3027
3163 4095 3543
3113 4095 3837
3059 4095 3989
2980 4095 4058
2824 4095 4083
2416 4095 4094
3767 4095 0
3767 4095 0
3767 4095 0
3767 4095 0
3767 4095 0
3767 4095 0
3767 4095 0
3767 4095 0
3766 4095 0
3749 4095 1137
3706 4095 2741
3663 4095 3450
3630 4095 3810
3604 4095 3981
3577 4095 4056
3537 4095 4083
3455 4095 4094
4017 4095 0
4017 4095 0
4017 4095 0
4017 4095 0
4017 4095 0
4017 4095 0
4017 4095 0
4017 4095 0
4017 4095 0
4017 4095 0
3992 4095 1643
3942 4095 3213
3908 4095 3752
3889 4095 3967
3876 4095 4052
3863 4095 4082
3843 4095 4094
388 0 0
379 0 0
369 0 104
350 0 334
305 0 640
192 0 1027
23 0 1507
0 0 2022
0 0 2498
0 0 2958
0 0 3387
0 0 3730
0 0 3951
0 0 4074
0 0 4095
0 0 4095
0 0 4095
394 0 0
387 0 0
378 0 94
361 0 326
321 0 635
219 0 1024
35 0 1505
0 0 2021
0 0 2498
0 0 2958
0 0 3386
0 0 3730
0 0 3951
0 0 4074
0 0 4095
0 0 4095
