Postproduction/IWLTBAP - Humble/LUTs by IWLTBAP (3DL)/UTILITY/Sony S-Log3 to Rec.709/U-SONY-S-LOG3-V7-LTR.3dl
# Copyright: (C) Copyright 2010-2018 by IWLTBAP SAS
# Cannot be resold, shared or otherwise redistributed
# Website: https://luts.iwltbap.com
0 128 256 384 512 640 768 896 1023
0 0 0
0 0 189
0 0 995
0 0 1870
0 0 2636
0 0 3343
0 0 3851
0 0 4092
0 0 4095
0 209 0
0 188 168
0 0 992
0 0 1868
0 0 2635
0 0 3342
0 0 3850
0 0 4092
0 0 4095
0 1070 0
0 1067 0
0 987 899
0 606 1830
0 18 2610
0 0 3325
0 0 3835
0 0 4091
0 0 4095
0 2006 0
0 2004 0
0 1971 416
0 1859 1699
0 1660 2531
0 1320 3268
0 783 3789
0 473 4059
0 221 4095
0 2824 0
0 2823 0
0 2803 0
0 2734 1457
0 2622 2399
0 2459 3176
0 2295 3713
0 2188 3992
0 2141 4091
0 3581 0
0 3580 0
0 3565 0
0 3516 964
0 3437 2203
0 3326 3046
0 3220 3609
0 3154 3897
0 3126 4008
0 4080 0
0 4080 0
0 4078 0
0 4056 258
0 4004 2000
0 3916 2919
0 3831 3509
0 3779 3807
0 3758 3922
0 4095 0
0 4095 0
0 4095 0
0 4095 95
0 4095 1862
0 4095 2839
0 4095 3448
0 4090 3752
0 4074 3869
0 4095 0
0 4095 0
0 4095 0
0 4095 0
0 4095 1800
0 4095 2805
0 4095 3421
0 4095 3730
0 4095 3847
288 0 32
287 0 205
273 0 998
246 0 1871
192 0 2637
26 0 3343
0 0 3851
0 0 4092
0 0 4095
190 199 3
189 181 179
184 0 995
146 0 1871
32 0 2638
10 0 3346
0 0 3854
0 0 4093
0 0 4095
0 1069 0
0 1064 0
0 984 902
0 592 1833
0 12 2614
0 0 3329
0 0 3840
0 0 4091
0 0 4095
0 2005 0
0 2001 0
0 1969 421
0 1854 1702
0 1648 2534
0 1294 3272
0 749 3793
0 366 4063
0 210 4095
0 2824 0
0 2820 0
0 2800 0
0 2732 1462
0 2616 2403
0 2446 3179
0 2276 3717
0 2165 3995
0 2118 4092
0 3581 0
0 3576 0
0 3562 0
0 3514 973
0 3435 2211
0 3319 3050
0 3206 3612
0 3138 3900
0 3108 4011
0 4080 0
0 4079 0
0 4077 0
0 4054 264
0 4002 2007
0 3914 2928
0 3822 3513
0 3766 3810
0 3744 3925
0 4095 0
0 4095 0
0 4095 0
0 4095 101
0 4095 1870
0 4095 2848
0 4095 3458
0 4081 3755
0 4062 3872
0 4095 0
0 4095 0
0 4095 0
0 4095 0
0 4095 1809
0 4095 2814
0 4095 3433
0 4095 3738
0 4095 3851
1390 0 343
1390 0 405
1388 0 1045
1384 0 1892
1376 0 2650
1366 0 3354
1356 0 3859
1351 0 4093
1348 0 4095
1375 1 329
1364 88 376
1351 0 1038
1381 0 1894
1377 0 2653
1371 0 3357
1363 0 3863
1359 0 4094
1360 0 4095
905 1039 0
916 1026 35
900 953 954
900 547 1854
890 0 2627
866 0 3338
837 0 3848
831 0 4092
832 0 4095
0 1992 0
0 1987 0
0 1955 532
0 1842 1725
0 1633 2548
0 1272 3281
0 726 3801
0 273 4070
0 202 4095
0 2816 0
0 2811 0
0 2792 0
0 2724 1489
0 2608 2417
0 2438 3189
0 2268 3725
0 2156 4003
0 2108 4094
0 3575 0
0 3569 0
0 3555 0
0 3508 1020
0 3429 2225
0 3314 3060
0 3202 3621
0 3134 3908
0 3104 4018
0 4079 0
0 4078 0
0 4076 0
0 4050 329
0 3997 2024
0 3909 2937
0 3819 3522
0 3763 3818
0 3741 3932
0 4095 0
0 4095 0
0 4095 0
0 4095 125
0 4095 1888
0 4095 2858
0 4095 3465
0 4079 3764
0 4060 3879
0 4095 0
0 4095 0
0 4095 0
0 4095 56
0 4095 1828
0 4095 2824
0 4095 3440
0 4095 3745
0 4095 3858
2585 0 687
2585 0 717
2584 0 1180
2582 0 1958
2579 0 2692
2575 0 3384
2571 0 3885
2569 0 4095
2568 0 4095
2578 0 681
2570 0 692
2492 0 1155
2533 0 1956
2592 0 2696
2591 0 3389
2590 0 3890
2589 0 4095
2589 0 4095
2420 929 516
2431 883 575
2385 946 1067
2389 392 1916
2428 0 2671
2427 0 3371
2426 0 3874
2425 0 4095
2425 0 4095
1779 1949 0
1795 1934 0
1788 1903 811
1772 1799 1797
1775 1582 2592
1774 1201 3313
1771 649 3826
1770 207 4088
1771 178 4095
45 2789 0
62 2784 0
56 2763 40
46 2696 1578
41 2581 2464
40 2408 3222
39 2235 3752
38 2121 4027
39 2073 4095
0 3555 0
0 3549 0
0 3535 0
0 3488 1181
0 3409 2276
0 3294 3094
0 3182 3648
0 3113 3933
0 3084 4042
0 4077 0
0 4074 0
0 4068 0
0 4037 579
0 3981 2082
0 3892 2972
0 3803 3550
0 3748 3844
0 3725 3956
0 4095 0
0 4095 0
0 4095 0
0 4095 183
0 4095 1952
0 4095 2893
0 4093 3493
0 4066 3790
0 4048 3904
0 4095 0
0 4095 0
0 4095 0
0 4095 144
0 4095 1895
0 4095 2861
0 4095 3466
0 4095 3770
0 4095 3883
3632 0 988
3632 0 1008
3632 0 1359
3630 0 2056
3627 0 2757
3625 0 3432
3622 0 3924
3621 0 4095
3620 0 4095
3627 0 984
3625 0 986
3513 0 1305
3495 0 2015
3569 0 2762
3643 0 3438
3648 0 3931
3648 0 4095
3646 0 4095
3530 686 891
3508 832 897
3482 890 1238
3430 199 1995
3482 0 2733
3543 0 3420
3544 0 3916
3544 0 4095
3543 0 4095
3193 1878 387
3222 1798 533
3213 1787 1096
3146 1802 1872
3159 1508 2656
3199 1028 3363
3199 439 3868
3199 164 4094
3199 125 4095
2529 2746 0
2550 2727 0
2543 2710 472
2535 2643 1710
2520 2538 2535
2525 2360 3273
2525 2184 3793
2524 2068 4064
2525 2020 4095
737 3525 0
812 3517 0
792 3503 0
765 3455 1373
736 3376 2357
719 3262 3147
718 3149 3691
717 3079 3972
720 3049 4079
0 4062 0
0 4056 0
0 4047 0
0 4015 844
0 3955 2174
0 3865 3027
0 3777 3595
0 3721 3884
0 3699 3996
0 4095 0
0 4095 0
0 4095 0
0 4095 487
0 4095 2052
0 4095 2951
0 4088 3537
0 4045 3831
0 4024 3944
0 4095 0
0 4095 0
0 4095 0
0 4095 244
0 4095 1999
0 4095 2919
0 4095 3511
0 4095 3810
0 4095 3923
4095 0 1267
4095 0 1281
4095 0 1559
4095 0 2178
4095 0 2842
4095 0 3496
4095 0 3978
4095 0 4095
4095 0 4095
4095 0 1264
4095 0 1263
4095 0 1424
4095 0 2134
4095 0 2814
4095 0 3505
4095 0 3983
4095 0 4095
4095 0 4095
4095 245 1198
4095 576 1190
4095 771 1441
4095 19 2106
4095 0 2779
4095 0 3483
4095 0 3969
4095 0 4095
4095 0 4095
4087 1777 947
4093 1630 1016
4085 1784 1326
4073 1815 1973
4065 1458 2724
4081 843 3424
4089 196 3923
4089 66 4095
4088 0 4095
3873 2687 118
3898 2619 270
3901 2592 1013
3892 2547 1874
3830 2542 2597
3845 2304 3336
3877 2103 3849
3877 1980 4092
3876 1930 4095
3218 3482 0
3244 3459 0
3237 3448 73
3230 3402 1579
3223 3324 2463
3208 3220 3217
3213 3104 3748
3213 3033 4024
3214 3004 4095
2365 4034 0
2432 4027 0
2416 4018 0
2397 3983 1222
2379 3918 2291
2359 3828 3101
2351 3741 3654
2351 3685 3938
2352 3661 4047
1379 4095 0
1505 4095 0
1482 4095 0
1454 4095 839
1424 4095 2179
1370 4095 3028
1358 4060 3596
1358 4012 3885
1358 3992 3996
1041 4095 0
1154 4095 0
1131 4095 0
1101 4095 711
1072 4095 2130
1038 4095 2997
1019 4095 3571
1013 4095 3863
1017 4095 3975
4095 0 1466
4095 0 1478
4095 0 1717
4095 0 2284
4095 0 2916
4095 0 3553
4095 0 4022
4095 0 4095
4095 0 4095
4095 0 1464
4095 0 1462
4095 0 1541
4095 0 2245
4095 0 2847
4095 0 3539
4095 0 4030
4095 0 4095
4095 0 4095
4095 45 1410
4095 279 1396
4095 671 1603
4095 0 2154
4095 0 2846
4095 0 3519
4095 0 4016
4095 0 4095
4095 0 4095
4095 1676 1218
4095 1577 1256
4095 1769 1499
4095 1816 2074
4095 1357 2791
4095 841 3455
4095 134 3969
4095 0 4095
4095 0 4095
4095 2631 784
4095 2502 896
4095 2479 1292
4095 2557 1987
4095 2563 2650
4095 2295 3377
4095 2044 3895
4095 1893 4095
4095 1840 4095
4091 3443 0
4093 3389 0
4093 3376 624
4093 3324 1751
4093 3247 2562
4087 3223 3260
4089 3066 3797
4091 2986 4069
4091 2957 4095
3713 4008 0
3741 3982 0
3734 3975 0
3727 3939 1445
3720 3877 2392
3713 3789 3169
3703 3709 3706
3706 3651 3986
3707 3628 4091
3344 4095 0
3397 4095 0
3385 4095 0
3372 4095 1210
3360 4095 2285
3347 4091 3098
3336 4030 3650
3333 3982 3934
3333 3960 4043
3173 4095 0
3232 4095 0
3220 4095 0
3205 4095 1087
3191 4095 2240
3177 4095 3068
3166 4095 3626
3162 4095 3912
3162 4088 4023
4095 0 1571
4095 0 1581
4095 0 1804
4095 0 2344
4095 0 2960
4095 0 3586
4095 0 4046
4095 0 4095
4095 0 4095
4095 0 1569
4095 0 1566
4095 0 1616
4095 0 2308
4095 0 2886
4095 0 3564
4095 0 4063
4095 0 4095
4095 0 4095
4095 0 1520
4095 99 1503
4095 615 1692
4095 0 2171
4095 0 2894
4095 0 3533
4095 0 4034
4095 0 4095
4095 0 4095
4095 1611 1348
4095 1578 1368
4095 1742 1595
4095 1811 2133
4095 1295 2810
4095 745 3473
4095 165 3987
4095 0 4095
4095 0 4095
4095 2596 995
4095 2430 1097
4095 2435 1418
4095 2566 2049
4095 2574 2689
4095 2266 3414
4095 2079 3914
4095 1853 4095
4095 1789 4095
4095 3419 24
4095 3345 92
4095 3330 922
4095 3268 1847
4095 3235 2611
4095 3233 3281
4095 3075 3814
4095 2963 4087
4095 2930 4095
4095 3991 0
4095 3950 0
4095 3942 33
4095 3905 1562
4095 3840 2454
4095 3746 3213
4095 3714 3732
4095 3631 4013
4095 3607 4095
3972 4095 0
3997 4095 0
3991 4095 0
3985 4095 1355
3978 4095 2348
3972 4078 3139
3966 4008 3683
3961 3963 3962
3962 3942 4072
3839 4095 0
3883 4095 0
3873 4095 0
3862 4095 1253
3852 4095 2303
3842 4095 3110
3835 4095 3659
3830 4089 3941
3829 4070 4050
4095 0 1611
4095 0 1622
4095 0 1838
4095 0 2369
4095 0 2978
4095 0 3600
4095 0 4055
4095 0 4095
4095 0 4095
4095 0 1609
4095 0 1596
4095 0 1648
4095 0 2332
4095 0 2903
4095 0 3568
4095 0 4050
4095 0 4095
4095 0 4095
4095 0 1562
4095 89 1543
4095 635 1727
4095 0 2178
4095 0 2914
4095 0 3534
4095 0 4030
4095 0 4095
4095 0 4095
4095 1583 1397
4095 1581 1411
4095 1729 1632
4095 1821 2163
4095 1276 2813
4095 724 3484
4095 169 3992
4095 0 4095
4095 0 4095
4095 2581 1067
4095 2404 1165
4095 2424 1463
4095 2566 2075
4095 2585 2710
4095 2257 3427
4095 2078 3916
4095 1890 4095
4095 1786 4095
4095 3409 92
4095 3326 277
4095 3308 1013
4095 3246 1885
4095 3238 2630
4095 3241 3293
4095 3070 3825
4095 2987 4089
4095 2929 4095
4095 3983 0
4095 3936 0
4095 3927 117
4095 3889 1608
4095 3822 2480
4095 3733 3230
4095 3722 3741
4095 3638 4018
4095 3603 4095
4095 4095 0
4095 4095 0
4095 4095 0
4095 4095 1409
4095 4095 2374
4095 4068 3158
4095 3993 3698
4095 3970 3972
4095 3939 4082
4072 4095 0
4095 4095 0
4094 4095 0
4088 4095 1315
4081 4095 2330
4074 4095 3127
4069 4095 3673
4059 4085 3953
4060 4063 4062
