Postproduction/IWLTBAP - Humble/LUTs by IWLTBAP (3DL)/UTILITY/Sony S-Log3 to Rec.709/U-SONY-S-LOG3-V4-LTR.3dl
# Copyright: (C) Copyright 2010-2018 by IWLTBAP SAS
# Cannot be resold, shared or otherwise redistributed
# Website: https://luts.iwltbap.com
0 64 128 192 256 320 384 448 512 576 640 704 768 832 896 960 1023
128 128 128
128 128 132
128 128 440
128 128 813
128 128 1281
128 128 1864
128 128 2506
128 148 3096
128 399 3595
176 655 4002
772 878 4095
1436 1144 4095
1958 1472 4095
2213 1313 4095
1969 150 4095
1434 128 4095
128 128 4095
128 131 128
128 129 135
128 128 481
128 128 822
128 128 1260
128 128 1819
128 129 2492
128 258 3112
128 554 3592
165 759 4001
746 946 4095
1426 1185 4095
1953 1495 4095
2211 1332 4095
1966 152 4095
1430 128 4095
128 128 4095
128 376 128
128 333 199
128 294 549
128 255 856
128 203 1262
128 171 1792
128 254 2452
128 464 3105
128 692 3589
154 856 4000
719 1012 4095
1415 1225 4095
1948 1517 4095
2207 1352 4095
1962 153 4095
1426 128 4095
128 128 4095
128 687 128
128 657 335
128 629 642
128 600 914
128 559 1285
128 526 1777
128 572 2400
128 693 3060
128 834 3586
144 960 3999
686 1084 4095
1403 1270 4095
1942 1543 4095
2204 1374 4095
1959 155 4095
1422 128 4095
128 128 4095
128 1039 251
128 1022 558
128 1006 798
128 989 1017
128 964 1326
128 935 1745
128 935 2295
128 1002 2949
128 1064 3563
131 1127 3997
626 1204 4095
1382 1347 4095
1932 1588 4095
2198 1412 4095
1953 158 4095
1414 128 4095
128 128 4095
128 1434 539
128 1425 762
128 1417 942
128 1407 1114
128 1390 1365
128 1366 1711
128 1345 2180
128 1361 2788
128 1406 3455
128 1388 3990
545 1397 4095
1343 1476 4095
1914 1665 4095
2188 1478 4095
1942 163 4095
1400 128 4095
128 128 4095
128 1847 875
128 1842 1018
128 1838 1148
128 1833 1278
128 1824 1472
128 1809 1745
128 1786 2119
128 1768 2626
128 1785 3264
128 1781 3912
405 1695 4095
1271 1684 4095
1882 1793 4095
2169 1588 4095
1922 173 4095
1375 128 4095
128 128 4095
128 2274 1285
128 2269 1351
128 2266 1422
128 2263 1511
128 2260 1655
140 2252 1864
185 2238 2152
293 2215 2542
384 2196 3070
458 2201 3717
556 2150 4095
1136 2012 4095
1824 2005 4095
2136 1766 4095
1888 196 4095
1330 128 4095
128 128 4095
307 2710 1711
295 2707 1748
284 2704 1783
270 2701 1824
258 2697 1906
350 2695 2057
540 2689 2277
745 2675 2573
929 2650 2970
1068 2626 3507
1173 2614 4052
1260 2521 4095
1717 2350 4095
2077 2048 4095
1826 369 4095
1248 128 4095
128 128 4095
879 3154 2145
870 3152 2165
860 3151 2185
849 3149 2208
829 3145 2249
813 3140 2325
913 3137 2475
1108 3133 2701
1316 3118 3001
1503 3089 3401
1644 3055 3920
1740 3026 4095
1800 2900 4095
1971 2491 4095
1713 1109 4095
1091 128 4095
128 128 4095
1423 3605 2582
1419 3604 2593
1414 3603 2605
1409 3602 2618
1400 3600 2641
1384 3596 2681
1358 3590 2754
1436 3587 2902
1629 3582 3133
1837 3565 3434
2021 3529 3833
2153 3485 4095
2233 3440 4095
2062 3175 4095
1500 2029 4095
782 136 4095
128 128 4095
1936 4021 3023
1933 4021 3029
1931 4020 3035
1929 4020 3043
1924 4019 3056
1916 4017 3078
1902 4015 3119
1876 4010 3190
1940 4008 3336
2127 4003 3568
2331 3987 3869
2507 3955 4095
2625 3915 4095
2575 3808 4095
1728 3234 4095
218 1131 4095
128 128 4095
2427 4095 3462
2426 4095 3466
2425 4095 3470
2424 4095 3474
2422 4095 3481
2418 4095 3494
2411 4095 3517
2399 4095 3558
2377 4095 3629
2431 4095 3774
2612 4095 4001
2810 4095 4095
2974 4095 4095
3016 4095 4095
2605 4030 4095
1098 3292 4095
128 399 4095
2280 4095 3579
2280 4095 3582
2280 4095 3585
2279 4095 3589
2278 4095 3595
2277 4095 3606
2275 4095 3625
2272 4095 3658
2265 4095 3717
2253 4095 3819
2359 4095 4006
2686 4095 4095
3012 4095 4095
3258 4095 4095
3130 4095 4095
2584 4093 4095
394 3367 4095
907 4095 3308
907 4095 3312
906 4095 3315
906 4095 3318
905 4095 3325
903 4095 3335
900 4095 3355
894 4095 3389
884 4095 3448
866 4095 3552
833 4095 3733
1250 4095 4026
2129 4095 4095
2733 4095 4095
2797 4095 4095
2667 4095 4095
2336 4095 4095
128 4095 2821
128 4095 2824
128 4095 2827
128 4095 2831
128 4095 2837
128 4095 2849
128 4095 2869
128 4095 2905
128 4095 2967
128 4095 3075
128 4095 3261
128 4095 3581
135 4095 4068
1258 4095 4095
1920 4095 4095
1759 4095 4095
1436 4095 4095
128 4095 1864
128 4095 1868
128 4095 1872
128 4095 1877
128 4095 1885
128 4095 1899
128 4095 1925
128 4095 1968
128 4095 2043
128 4095 2170
128 4095 2383
128 4095 2735
128 4095 3315
128 4095 4095
128 4095 4095
128 4095 4095
128 4095 4095
133 128 128
131 128 128
130 128 306
128 128 700
128 128 1184
128 128 1768
128 128 2406
128 128 3017
128 324 3570
204 640 4001
840 868 4095
1464 1138 4095
1971 1469 4095
2222 1310 4095
1978 150 4095
1445 128 4095
128 128 4095
129 131 128
128 128 128
128 128 332
128 128 698
128 128 1155
128 128 1718
128 128 2393
128 171 3036
128 514 3579
194 745 4000
816 937 4095
1454 1179 4095
1966 1492 4095
2219 1330 4095
1974 151 4095
1441 128 4095
128 128 4095
128 372 128
128 325 131
128 282 395
128 238 728
128 174 1152
128 141 1688
128 159 2354
128 366 3047
128 667 3583
184 843 4000
791 1003 4095
1443 1219 4095
1961 1514 4095
2216 1349 4095
1972 153 4095
1438 128 4095
128 128 4095
128 689 128
128 656 167
128 624 490
128 590 783
128 538 1171
128 480 1672
128 495 2314
128 638 3032
128 817 3585
171 948 3998
761 1075 4095
1432 1264 4095
1956 1540 4095
2213 1371 4095
1968 155 4095
1433 128 4095
128 128 4095
128 1045 146
128 1025 401
128 1006 668
128 985 908
128 952 1239
128 913 1682
128 907 2264
128 982 2949
128 1049 3564
148 1117 3996
705 1196 4095
1411 1342 4095
1946 1585 4095
2207 1410 4095
1962 158 4095
1425 128 4095
128 128 4095
128 1426 495
128 1416 729
128 1407 915
128 1396 1093
128 1379 1349
128 1354 1703
128 1332 2179
128 1350 2790
128 1395 3458
130 1378 3990
603 1390 4095
1372 1471 4095
1928 1661 4095
2196 1476 4095
1951 163 4095
1411 128 4095
128 128 4095
128 1840 861
128 1835 1005
128 1832 1137
128 1826 1269
128 1817 1465
128 1801 1740
130 1778 2116
133 1761 2626
133 1778 3266
135 1774 3913
464 1689 4095
1302 1679 4095
1895 1790 4095
2178 1586 4095
1931 173 4095
1386 128 4095
128 128 4095
136 2270 1277
133 2265 1343
130 2262 1415
130 2259 1504
142 2256 1649
183 2248 1860
282 2233 2149
391 2211 2540
465 2192 3070
521 2197 3718
612 2145 4095
1170 2008 4095
1838 2003 4095
2145 1764 4095
1897 195 4095
1342 128 4095
128 128 4095
408 2708 1707
390 2705 1743
370 2702 1779
354 2699 1820
359 2695 1902
470 2692 2054
639 2687 2274
821 2672 2571
987 2648 2969
1110 2624 3507
1202 2611 4052
1282 2518 4095
1732 2348 4095
2086 2046 4095
1835 365 4095
1261 128 4095
128 128 4095
938 3153 2142
930 3151 2162
921 3150 2182
910 3148 2206
892 3144 2247
876 3139 2323
968 3136 2473
1151 3131 2700
1350 3117 3000
1529 3087 3400
1663 3054 3920
1752 3025 4095
1810 2898 4095
1981 2489 4095
1723 1107 4095
1105 128 4095
128 128 4095
1450 3605 2581
1446 3603 2592
1442 3602 2603
1437 3601 2616
1428 3599 2639
1412 3596 2680
1386 3589 2752
1461 3586 2901
1650 3581 3132
1853 3564 3433
2033 3529 3833
2162 3484 4095
2240 3439 4095
2068 3174 4095
1512 2028 4095
798 136 4095
128 128 4095
1949 4021 3022
1947 4020 3028
1944 4020 3035
1942 4019 3042
1937 4019 3055
1929 4017 3078
1915 4015 3118
1890 4010 3189
1952 4007 3335
2137 4003 3568
2339 3986 3869
2514 3955 4095
2630 3914 4095
2579 3807 4095
1735 3233 4095
222 1128 4095
128 128 4095
2434 4095 3462
2433 4095 3465
2432 4095 3469
2431 4095 3473
2428 4095 3481
2425 4095 3494
2418 4095 3517
2406 4095 3557
2385 4095 3629
2438 4095 3774
2618 4095 4000
2815 4095 4095
2978 4095 4095
3019 4095 4095
2608 4030 4095
1103 3291 4095
128 399 4095
2286 4095 3579
2286 4095 3582
2285 4095 3585
2285 4095 3589
2284 4095 3595
2283 4095 3606
2281 4095 3625
2278 4095 3658
2271 4095 3717
2259 4095 3819
2364 4095 4006
2690 4095 4095
3015 4095 4095
3261 4095 4095
3132 4095 4095
2587 4093 4095
395 3366 4095
917 4095 3308
916 4095 3312
916 4095 3315
915 4095 3318
914 4095 3324
912 4095 3335
909 4095 3355
903 4095 3389
893 4095 3448
875 4095 3552
843 4095 3733
1257 4095 4026
2133 4095 4095
2735 4095 4095
2800 4095 4095
2669 4095 4095
2339 4095 4095
128 4095 2821
128 4095 2824
128 4095 2827
128 4095 2831
128 4095 2837
128 4095 2849
128 4095 2869
128 4095 2905
128 4095 2967
128 4095 3075
128 4095 3261
128 4095 3581
135 4095 4068
1261 4095 4095
1922 4095 4095
1762 4095 4095
1440 4095 4095
128 4095 1864
128 4095 1868
128 4095 1872
128 4095 1877
128 4095 1885
128 4095 1899
128 4095 1924
128 4095 1968
128 4095 2043
128 4095 2170
128 4095 2383
128 4095 2735
128 4095 3315
128 4095 4095
128 4095 4095
128 4095 4095
128 4095 4095
463 128 128
431 128 128
391 128 212
337 128 616
227 128 1112
133 128 1694
128 128 2321
128 128 2943
128 252 3523
252 613 3996
905 858 4095
1491 1132 4095
1985 1466 4095
2230 1307 4095
1987 149 4095
1456 128 4095
128 128 4095
383 130 128
357 128 128
325 128 222
281 128 601
186 128 1073
129 128 1640
128 128 2311
128 143 2960
128 420 3536
224 727 3998
882 928 4095
1481 1174 4095
1980 1489 4095
2227 1327 4095
1984 151 4095
1453 128 4095
128 128 4095
312 365 128
294 315 128
271 269 269
236 221 623
165 158 1064
129 133 1606
128 135 2271
128 251 2971
128 600 3549
212 830 3999
858 994 4095
1471 1214 4095
1975 1511 4095
2224 1347 4095
1981 153 4095
1449 128 4095
128 128 4095
247 687 128
236 652 132
218 618 357
190 580 675
147 520 1079
129 444 1587
128 422 2229
128 543 2961
128 774 3561
200 936 3998
830 1067 4095
1459 1259 4095
1969 1537 4095
2221 1369 4095
1977 155 4095
1444 128 4095
128 128 4095
166 1049 129
164 1027 256
158 1006 541
148 983 798
135 946 1143
128 895 1594
128 867 2184
128 935 2903
128 1030 3560
177 1106 3996
779 1188 4095
1439 1337 4095
1959 1582 4095
2215 1408 4095
1971 158 4095
1437 128 4095
128 128 4095
130 1430 373
131 1418 631
131 1407 832
131 1395 1022
131 1374 1292
128 1344 1661
128 1318 2157
128 1337 2788
128 1383 3461
141 1369 3991
680 1383 4095
1401 1466 4095
1941 1659 4095
2205 1474 4095
1960 163 4095
1423 128 4095
128 128 4095
129 1834 847
128 1828 992
130 1824 1126
132 1819 1259
138 1810 1457
147 1794 1735
155 1771 2113
155 1754 2626
151 1771 3268
148 1767 3915
521 1683 4095
1333 1675 4095
1909 1788 4095
2186 1584 4095
1941 173 4095
1398 128 4095
128 128 4095
182 2266 1269
166 2261 1335
156 2258 1407
170 2255 1497
219 2252 1644
313 2244 1855
425 2229 2146
522 2206 2539
571 2188 3070
599 2193 3720
671 2141 4095
1203 2004 4095
1852 2000 4095
2154 1762 4095
1906 195 4095
1354 128 4095
128 128 4095
532 2706 1703
515 2703 1739
498 2700 1775
478 2696 1816
485 2692 1898
581 2690 2050
730 2684 2272
893 2670 2569
1042 2645 2968
1152 2621 3507
1231 2609 4053
1304 2515 4095
1747 2346 4095
2095 2045 4095
1845 362 4095
1273 128 4095
128 128 4095
995 3152 2140
987 3150 2160
978 3148 2180
969 3146 2203
951 3143 2244
935 3137 2320
1020 3134 2471
1194 3130 2698
1383 3115 2999
1554 3086 3400
1681 3053 3920
1765 3023 4095
1820 2896 4095
1990 2488 4095
1733 1104 4095
1119 128 4095
128 128 4095
1477 3604 2579
1473 3603 2591
1469 3601 2602
1464 3600 2615
1455 3598 2638
1439 3595 2679
1414 3589 2751
1486 3585 2900
1670 3581 3131
1869 3563 3433
2045 3528 3833
2172 3483 4095
2246 3438 4095
2074 3173 4095
1522 2026 4095
814 136 4095
128 128 4095
1962 4020 3021
1960 4020 3027
1958 4020 3034
1955 4019 3041
1951 4018 3054
1943 4017 3077
1929 4014 3117
1904 4009 3188
1965 4007 3335
2148 4002 3567
2348 3986 3869
2520 3955 4095
2635 3914 4095
2583 3807 4095
1742 3231 4095
227 1126 4095
128 128 4095
2441 4095 3461
2440 4095 3465
2439 4095 3469
2437 4095 3473
2435 4095 3480
2432 4095 3493
2425 4095 3516
2413 4095 3557
2392 4095 3628
2444 4095 3773
2623 4095 4000
2819 4095 4095
2981 4095 4095
3021 4095 4095
2611 4030 4095
1108 3290 4095
128 398 4095
2292 4095 3579
2292 4095 3582
2291 4095 3585
2291 4095 3589
2290 4095 3595
2289 4095 3606
2287 4095 3625
2283 4095 3658
2277 4095 3717
2265 4095 3819
2369 4095 4006
2695 4095 4095
3018 4095 4095
3263 4095 4095
3134 4095 4095
2590 4093 4095
395 3366 4095
926 4095 3308
926 4095 3312
925 4095 3314
925 4095 3318
924 4095 3324
922 4095 3335
919 4095 3355
913 4095 3389
903 4095 3448
885 4095 3552
853 4095 3733
1263 4095 4026
2137 4095 4095
2738 4095 4095
2802 4095 4095
2672 4095 4095
2341 4095 4095
128 4095 2820
128 4095 2824
128 4095 2827
128 4095 2831
128 4095 2837
128 4095 2849
128 4095 2869
128 4095 2904
128 4095 2967
128 4095 3075
128 4095 3261
128 4095 3581
135 4095 4068
1265 4095 4095
1926 4095 4095
1765 4095 4095
1444 4095 4095
128 4095 1864
128 4095 1868
128 4095 1872
128 4095 1877
128 4095 1885
128 4095 1899
128 4095 1924
128 4095 1968
128 4095 2043
128 4095 2170
128 4095 2383
128 4095 2735
128 4095 3315
128 4095 4095
128 4095 4095
128 4095 4095
128 4095 4095
799 128 128
778 128 128
751 128 153
715 128 547
637 128 1054
476 128 1632
267 128 2243
145 128 2868
146 173 3467
377 554 3978
975 847 4095
1522 1126 4095
2000 1462 4095
2240 1304 4095
1997 149 4095
1470 128 4095
128 128 4095
731 130 128
715 128 128
694 128 148
662 128 516
592 128 1004
431 128 1573
190 128 2234
133 129 2881
135 303 3479
333 683 3983
954 917 4095
1512 1167 4095
1995 1485 4095
2237 1325 4095
1994 151 4095
1466 128 4095
