Postproduction/IWLTBAP - Humble/LUTs by IWLTBAP (3DL)/UTILITY/Sony S-Log3 to Rec.709/U-SONY-S-LOG3-V3-LTR.3dl
# Copyright: (C) Copyright 2010-2018 by IWLTBAP SAS
# Cannot be resold, shared or otherwise redistributed
# Website: https://luts.iwltbap.com
0 128 256 384 512 640 768 896 1023
13 13 13
14 13 105
22 22 551
58 58 1349
194 194 2330
337 336 3273
430 429 3875
446 445 3972
808 2199 3998
25 170 25
23 127 99
23 37 548
58 58 1349
194 194 2328
337 336 3271
429 429 3873
446 451 3972
820 2241 3999
118 674 118
113 658 153
101 598 549
73 212 1344
194 193 2324
336 336 3267
429 428 3869
449 482 3972
836 2297 4001
455 1566 455
453 1560 453
447 1540 587
425 1431 1350
366 1062 2313
351 479 3250
430 468 3856
533 1042 3977
880 2448 4006
834 2615 834
832 2610 832
829 2599 831
818 2548 1387
793 2411 2321
752 2164 3246
736 1977 3847
811 2207 3998
983 2808 4018
1150 3585 1150
1149 3581 1149
1145 3571 1146
1137 3537 1524
1123 3457 2361
1098 3309 3253
1078 3170 3842
1093 3195 4026
1156 3406 4043
1331 4070 1355
1330 4069 1392
1331 4068 1508
1333 4065 1892
1338 4053 2508
1326 3981 3297
1307 3885 3842
1301 3851 4026
1311 3873 4061
1343 4073 2278
1343 4073 2315
1344 4073 2372
1347 4074 2521
1354 4076 2868
1369 4078 3430
1382 4079 3859
1383 4066 4026
1382 4060 4060
2365 4084 3296
2363 4084 3306
2362 4084 3322
2357 4084 3371
2344 4084 3483
2318 4085 3692
2292 4086 3919
2301 4087 4037
2367 4088 4068
176 18 18
161 18 103
117 24 546
60 57 1345
194 194 2328
337 336 3273
430 429 3876
446 445 3972
807 2193 3998
114 137 25
96 96 94
57 31 542
58 57 1346
194 194 2328
337 336 3271
429 429 3873
446 450 3972
819 2236 3999
114 652 111
108 635 144
94 574 542
70 190 1340
193 193 2323
336 336 3267
429 428 3869
449 480 3972
835 2293 4001
451 1554 451
449 1548 449
443 1528 581
421 1418 1346
361 1041 2312
350 468 3250
430 465 3856
530 1027 3977
879 2444 4006
833 2611 833
831 2607 831
827 2595 830
817 2544 1383
792 2407 2320
751 2159 3245
734 1971 3847
810 2202 3998
983 2805 4018
1150 3584 1150
1148 3579 1148
1145 3569 1145
1137 3536 1521
1122 3455 2360
1097 3307 3253
1077 3168 3842
1093 3193 4026
1156 3404 4043
1331 4070 1355
1330 4069 1391
1331 4068 1506
1333 4064 1890
1338 4053 2507
1326 3980 3297
1306 3884 3842
1301 3850 4026
1310 3872 4061
1343 4073 2277
1343 4073 2315
1344 4073 2371
1347 4074 2520
1354 4076 2867
1369 4078 3430
1382 4079 3859
1383 4065 4026
1382 4060 4060
2398 4084 3297
2397 4084 3307
2395 4084 3323
2391 4084 3371
2378 4085 3483
2354 4086 3692
2329 4087 3920
2335 4088 4037
2392 4089 4069
668 40 40
662 40 129
645 43 546
545 81 1341
271 196 2327
337 336 3273
430 429 3876
446 445 3972
804 2184 3998
646 110 42
635 79 117
618 43 543
510 78 1342
251 195 2326
337 336 3271
430 429 3874
446 448 3972
817 2228 3999
569 616 122
553 600 153
529 534 538
375 160 1336
209 193 2322
336 336 3267
429 428 3869
449 477 3972
833 2286 4001
452 1533 443
448 1527 441
439 1507 572
413 1395 1340
351 1005 2310
347 452 3250
429 459 3856
526 1004 3976
877 2437 4005
830 2604 830
829 2600 829
825 2588 827
814 2537 1377
789 2399 2318
748 2150 3245
731 1961 3847
808 2194 3998
981 2800 4018
1149 3582 1149
1147 3577 1147
1144 3567 1145
1136 3534 1517
1121 3453 2358
1096 3304 3252
1076 3165 3842
1092 3190 4026
1155 3402 4043
1330 4070 1353
1330 4069 1389
1331 4067 1503
1333 4064 1888
1338 4052 2506
1325 3979 3297
1306 3883 3842
1301 3848 4026
1310 3871 4061
1344 4073 2276
1345 4073 2313
1346 4073 2370
1348 4074 2519
1355 4076 2867
1369 4078 3430
1382 4079 3859
1382 4064 4026
1382 4059 4061
2446 4084 3297
2445 4084 3307
2444 4084 3323
2439 4085 3371
2427 4085 3484
2402 4086 3693
2376 4087 3920
2376 4088 4037
2432 4089 4069
1549 216 217
1548 216 269
1542 219 576
1510 245 1342
1413 310 2330
1219 393 3276
956 455 3879
644 453 3972
809 2156 3997
1547 217 216
1537 214 264
1539 218 578
1506 244 1344
1405 309 2330
1198 391 3275
909 452 3877
609 452 3972
821 2201 3998
1526 513 247
1476 511 262
1507 437 561
1477 246 1340
1369 303 2327
1137 385 3271
811 446 3872
564 471 3972
836 2262 4000
1389 1472 477
1384 1467 475
1364 1448 588
1322 1329 1336
1157 904 2311
846 431 3252
597 448 3858
555 930 3976
874 2417 4005
1004 2581 828
999 2577 826
988 2566 823
948 2514 1363
859 2374 2314
759 2118 3244
724 1923 3848
800 2167 3997
977 2784 4017
1146 3573 1146
1145 3569 1145
1142 3559 1142
1133 3526 1504
1119 3444 2354
1093 3294 3252
1073 3154 3843
1089 3179 4027
1152 3393 4043
1330 4069 1350
1330 4068 1383
1330 4067 1492
1333 4063 1879
1337 4051 2503
1324 3975 3296
1304 3879 3843
1299 3844 4027
1309 3867 4062
1386 4073 2271
1385 4073 2309
1385 4074 2366
1382 4074 2516
1376 4076 2865
1371 4078 3430
1384 4078 3860
1384 4063 4026
1393 4057 4061
2567 4086 3298
2566 4086 3308
2565 4086 3324
2560 4086 3372
2548 4086 3485
2525 4087 3695
2500 4089 3922
2500 4089 4039
2553 4090 4071
2636 475 483
2636 475 495
2634 476 657
2621 487 1339
2579 523 2338
2508 576 3289
2428 619 3894
2286 608 3981
2068 2089 4001
2637 475 483
2637 475 497
2635 476 663
2622 488 1344
2580 523 2340
2506 575 3289
2416 617 3892
2266 605 3981
2060 2136 4002
2634 475 480
2633 475 494
2624 474 650
2617 487 1347
2574 522 2339
2494 573 3287
2390 613 3888
2234 603 3981
2047 2208 4004
2583 1271 584
2582 1269 584
2531 1286 646
2552 1128 1321
2503 730 2322
2410 561 3270
2289 596 3873
2145 821 3982
2001 2373 4009
2404 2526 887
2402 2523 886
2390 2515 883
2369 2464 1358
2313 2315 2321
2196 2041 3254
2062 1822 3857
1961 2101 4001
1896 2751 4020
2090 3558 1173
2086 3553 1172
2077 3545 1168
2046 3511 1486
1970 3426 2352
1825 3271 3255
1676 3127 3848
1625 3153 4030
1673 3375 4044
1829 4070 1356
1823 4069 1383
1812 4068 1473
1791 4064 1861
1742 4048 2498
1645 3968 3296
1549 3870 3846
1525 3835 4029
1598 3859 4064
2113 4078 2267
2110 4078 2305
2106 4078 2363
2092 4078 2515
2056 4079 2867
1976 4081 3434
1910 4080 3865
1911 4060 4031
2013 4055 4066
2890 4089 3300
2889 4089 3310
2888 4089 3326
2884 4090 3375
2873 4090 3488
2852 4091 3699
2829 4092 3927
2827 4092 4044
2866 4092 4075
3673 708 736
3673 708 736
3672 708 753
3666 713 1246
3642 736 2319
3599 771 3301
3559 802 3914
3507 799 3997
3332 1883 4010
3673 708 736
3673 708 736
3672 708 755
3667 713 1250
3642 736 2321
3599 771 3301
3559 802 3914
3496 797 3997
3326 1936 4011
3673 708 736
3673 708 736
3668 707 754
3667 713 1258
3642 736 2323
3600 771 3302
3557 802 3913
3477 794 3997
3318 2019 4013
3665 773 728
3665 774 728
3632 796 738
3651 739 1229
3630 734 2323
3582 767 3297
3517 794 3904
3422 797 3996
3294 2242 4018
3558 2322 953
3558 2323 953
3536 2334 953
3504 2314 1222
3506 2108 2289
3448 1751 3267
3374 1487 3876
3312 1887 4010
3234 2666 4031
3372 3516 1242
3371 3514 1241
3368 3508 1239
3347 3478 1412
3310 3388 2335
3251 3223 3267
3180 3072 3867
3140 3100 4043
3110 3343 4055
3187 4080 1420
3184 4078 1425
3179 4076 1463
3166 4071 1813
3135 4050 2487
3071 3964 3306
3006 3863 3862
2984 3829 4045
3003 3854 4077
3180 4089 2242
3179 4089 2281
3176 4089 2340
3168 4089 2502
3148 4090 2864
3109 4092 3444
3068 4087 3880
3054 4060 4045
3082 4055 4078
3432 4094 3298
3431 4094 3308
3430 4094 3324
3427 4094 3373
3419 4095 3491
3403 4095 3706
3384 4095 3936
3378 4095 4052
3392 4095 4083
3996 783 837
3996 783 837
3996 783 837
3996 784 881
3998 807 2105
4002 850 3256
4006 886 3919
4006 892 4007
4002 973 4008
3996 783 837
3996 783 837
3996 783 837
3996 784 883
3998 807 2107
4002 850 3257
4006 886 3919
4006 892 4007
4001 1018 4008
3996 783 837
3996 783 837
3996 783 837
3996 784 886
3998 807 2110
4002 850 3257
4006 886 3919
4006 892 4007
4000 1118 4009
3996 783 837
3996 783 837
3996 783 837
3996 784 880
3998 807 2120
4002 850 3260
4006 886 3920
4006 892 4007
3999 1515 4015
4002 1247 857
4002 1248 857
4002 1251 858
4003 1364 896
4002 1098 2075
4003 933 3248
4004 895 3902
4004 1076 4009
3998 2331 4033
4049 3336 1261
4049 3336 1261
4049 3337 1261
4039 3354 1265
4029 3263 2104
4017 3034 3220
3990 2853 3880
3968 2909 4050
3935 3222 4062
3980 4083 1487
3979 4082 1486
3978 4081 1485
3970 4072 1552
3946 4045 2356
3904 3949 3278
3863 3838 3875
3844 3805 4060
3836 3836 4089
3898 4095 2049
3897 4095 2100
3895 4095 2176
3890 4095 2373
3876 4095 2788
3848 4095 3427
3819 4090 3891
3803 4059 4058
3803 4054 4092
3892 4095 3259
3891 4095 3270
3890 4095 3288
3888 4095 3340
3881 4095 3472
3868 4095 3703
3853 4095 3944
3844 4095 4062
3844 4095 4092
3996 784 852
3996 784 852
3996 784 852
3996 784 852
3996 786 1023
4001 839 3010
4006 884 3892
4007 892 4007
4007 892 4007
3996 784 852
3996 784 852
3996 784 852
3996 784 852
3996 786 1024
4001 839 3010
4006 884 3892
4007 892 4007
4007 892 4007
3996 784 852
3996 784 852
3996 784 852
3996 784 852
3996 786 1026
4001 839 3012
4006 884 3893
4007 892 4007
4007 892 4007
3996 784 852
3996 784 852
3996 784 852
3996 784 852
3996 786 1033
4001 840 3015
4006 884 3893
4007 892 4007
4007 892 4007
3996 784 852
3996 784 852
3996 784 852
3996 784 852
3996 786 1015
4001 840 3026
4006 884 3894
4007 892 4007
4007 892 4007
4020 2051 1000
4020 2052 1000
4020 2053 1000
4020 2057 1001
4024 2182 1134
4017 1769 2976
4015 1460 3868
4021 1735 4021
4041 2541 4041
4095 4039 1483
4095 4039 1483
4095 4039 1483
4095 4039 1484
4094 4027 1638
4092 3905 3023
4088 3746 3849
4085 3707 4066
4086 3759 4090
4095 4095 1512
4095 4095 1521
4095 4095 1535
4095 4095 1612
4095 4095 2359
4094 4095 3284
4073 4088 3879
4060 4053 4063
4056 4049 4095
4094 4095 3052
4094 4095 3068
4093 4095 3093
4092 4095 3165
4088 4095 3344
4076 4095 3650
4062 4095 3936
4053 4095 4066
4050 4095 4095
3996 784 855
3996 784 855
3996 784 855
3996 784 855
3996 784 855
3996 791 1217
4005 877 3767
4007 892 4007
4007 892 4007
3996 784 855
3996 784 855
3996 784 855
3996 784 855
3996 784 855
3996 791 1217
4005 877 3767
4007 892 4007
4007 892 4007
3996 784 855
3996 784 855
3996 784 855
3996 784 855
3996 784 855
3996 791 1218
4005 877 3767
4007 892 4007
4007 892 4007
3996 784 855
3996 784 855
3996 784 855
3996 784 855
3996 784 855
3996 791 1220
4005 877 3768
4007 892 4007
4007 892 4007
3996 784 855
3996 784 855
3996 784 855
3996 784 855
3996 784 855
3996 791 1226
4005 877 3770
4007 892 4007
4007 892 4007
3996 784 855
3996 784 855
3996 784 855
3996 784 855
3996 784 855
3996 792 1254
4005 877 3776
4007 892 4007
4007 892 4007
4050 2884 1196
4050 2884 1196
4050 2884 1197
4050 2886 1197
4050 2889 1198
4049 2841 1559
4044 2551 3758
4046 2562 4043
4057 2963 4057
4095 4095 1507
4095 4095 1507
4095 4095 1507
4095 4095 1507
4095 4095 1507
4095 4095 2277
4095 4081 3783
4095 4031 4058
4095 4027 4095
4095 4095 1507
4095 4095 1507
4095 4095 1507
4095 4095 1815
4095 4095 2492
4095 4095 3321
4095 4095 3882
4095 4095 4063
4095 4094 4095
