Postproduction/IWLTBAP - Humble/LUTs by IWLTBAP (3DL)/UTILITY/Sony S-Log3 to Rec.709/U-SONY-S-LOG3-V7-LTR.3dl
# Copyright: (C) Copyright 2010-2018 by IWLTBAP SAS
# Cannot be resold, shared or otherwise redistributed
# Website: https://luts.iwltbap.com
0 256 512 768 1023
0 0 0
0 0 995
0 0 2636
0 0 3851
0 0 4095
0 1070 0
0 987 899
0 18 2610
0 0 3835
0 0 4095
0 2824 0
0 2803 0
0 2622 2399
0 2295 3713
0 2141 4091
0 4080 0
0 4078 0
0 4004 2000
0 3831 3509
0 3758 3922
0 4095 0
0 4095 0
0 4095 1800
0 4095 3421
0 4095 3847
1390 0 343
1388 0 1045
1376 0 2650
1356 0 3859
1348 0 4095
905 1039 0
900 953 954
890 0 2627
837 0 3848
832 0 4095
0 2816 0
0 2792 0
0 2608 2417
0 2268 3725
0 2108 4094
0 4079 0
0 4076 0
0 3997 2024
0 3819 3522
0 3741 3932
0 4095 0
0 4095 0
0 4095 1828
0 4095 3440
0 4095 3858
3632 0 988
3632 0 1359
3627 0 2757
3622 0 3924
3620 0 4095
3530 686 891
3482 890 1238
3482 0 2733
3544 0 3916
3543 0 4095
2529 2746 0
2543 2710 472
2520 2538 2535
2525 2184 3793
2525 2020 4095
0 4062 0
0 4047 0
0 3955 2174
0 3777 3595
0 3699 3996
0 4095 0
0 4095 0
0 4095 1999
0 4095 3511
0 4095 3923
4095 0 1466
4095 0 1717
4095 0 2916
4095 0 4022
4095 0 4095
4095 45 1410
4095 671 1603
4095 0 2846
4095 0 4016
4095 0 4095
4095 2631 784
4095 2479 1292
4095 2563 2650
4095 2044 3895
4095 1840 4095
3713 4008 0
3734 3975 0
3720 3877 2392
3703 3709 3706
3707 3628 4091
3173 4095 0
3220 4095 0
3191 4095 2240
3166 4095 3626
3162 4088 4023
4095 0 1611
4095 0 1838
4095 0 2978
4095 0 4055
4095 0 4095
4095 0 1562
4095 635 1727
4095 0 2914
4095 0 4030
4095 0 4095
4095 2581 1067
4095 2424 1463
4095 2585 2710
4095 2078 3916
4095 1786 4095
4095 3983 0
4095 3927 117
4095 3822 2480
4095 3722 3741
4095 3603 4095
4072 4095 0
4094 4095 0
4081 4095 2330
4069 4095 3673
4060 4063 4062
