Postproduction/IWLTBAP - Humble/LUTs by IWLTBAP (3DL)/UTILITY/Sony S-Log3 to Rec.709/U-SONY-S-LOG3-V8-LTR.3dl
# Copyright: (C) Copyright 2010-2018 by IWLTBAP SAS
# Cannot be resold, shared or otherwise redistributed
# Website: https://luts.iwltbap.com
0 64 128 192 256 320 384 448 512 576 640 704 768 832 896 960 1023
27 27 26
27 26 59
28 27 136
32 31 302
42 42 551
63 62 883
100 99 1318
156 156 1815
227 227 2290
299 298 2760
365 364 3228
418 417 3604
461 532 3839
623 1386 3965
844 2280 4000
1112 2916 4022
1855 3448 4048
31 72 32
31 64 59
31 56 135
34 44 303
43 43 552
63 63 885
100 100 1319
156 156 1815
227 227 2289
299 298 2759
364 364 3226
418 417 3603
465 564 3838
634 1440 3965
850 2297 4001
1108 2925 4023
1849 3451 4048
51 187 48
49 176 66
48 162 137
46 132 304
47 84 553
63 65 886
100 99 1320
156 156 1815
227 226 2289
299 298 2758
364 363 3225
418 417 3601
469 601 3837
645 1490 3965
855 2314 4001
1104 2933 4023
1843 3454 4048
81 381 78
80 376 89
78 367 149
77 347 309
74 293 554
73 160 886
100 102 1319
156 155 1814
227 226 2288
298 298 2756
364 363 3223
418 416 3600
475 653 3836
657 1546 3965
862 2333 4002
1100 2943 4023
1836 3458 4048
151 655 147
150 653 150
149 648 189
147 637 326
143 608 561
135 527 890
126 311 1319
157 178 1812
226 221 2285
297 293 2753
363 360 3220
417 422 3597
492 770 3834
678 1635 3966
873 2366 4003
1093 2960 4024
1824 3464 4049
287 1018 282
287 1018 282
286 1016 290
285 1011 368
283 997 578
277 960 900
264 861 1325
248 662 1812
259 452 2281
305 370 2747
366 400 3214
425 499 3592
530 1002 3833
712 1772 3966
890 2421 4004
1083 2990 4025
1802 3476 4049
466 1507 461
467 1507 461
466 1505 460
465 1502 474
463 1494 616
460 1471 920
453 1417 1339
441 1323 1818
429 1185 2282
427 1022 2744
448 922 3210
503 995 3590
612 1408 3832
763 1970 3966
916 2509 4007
1076 3039 4027
1762 3495 4050
657 2036 651
657 2035 651
656 2034 651
655 2031 649
653 2025 698
650 2009 958
645 1973 1364
637 1915 1832
627 1832 2289
620 1734 2747
623 1649 3211
654 1667 3589
726 1871 3832
833 2226 3966
955 2645 4012
1083 3118 4030
1689 3525 4051
837 2550 832
836 2548 832
836 2546 831
835 2543 830
833 2537 840
831 2523 1027
826 2496 1411
819 2452 1858
811 2391 2302
804 2317 2754
800 2245 3214
811 2221 3589
851 2313 3831
919 2530 3966
1010 2845 4018
1117 3236 4035
1550 3573 4053
1001 3065 997
1001 3063 996
1000 3060 995
1000 3057 994
997 3050 1001
994 3037 1141
991 3013 1495
985 2976 1904
978 2923 2327
970 2856 2768
962 2783 3220
963 2735 3590
980 2760 3830
1020 2887 3964
1085 3114 4024
1165 3389 4042
1350 3641 4055
1150 3525 1144
1149 3523 1143
1148 3520 1142
1147 3516 1143
1145 3510 1169
1143 3499 1324
1139 3481 1629
1135 3452 1987
1129 3410 2375
1121 3355 2795
1112 3289 3233
1107 3235 3594
1113 3226 3829
1134 3282 3963
1171 3405 4025
1221 3568 4047
1277 3733 4059
1279 3891 1291
1278 3889 1306
1278 3886 1327
1278 3883 1363
1276 3878 1442
1275 3869 1604
1271 3855 1832
1267 3833 2119
1262 3800 2459
1254 3755 2846
1245 3699 3259
1236 3645 3602
1234 3615 3830
1240 3621 3961
1257 3668 4024
1281 3748 4048
1311 3842 4060
1344 4062 1654
1345 4062 1691
1345 4061 1727
1345 4060 1770
1345 4059 1840
1346 4057 1943
1347 4054 2099
1349 4049 2315
1355 4036 2594
1351 4006 2937
1342 3961 3307
1333 3913 3619
1326 3877 3834
1324 3862 3961
1329 3871 4023
1339 3900 4047
1351 3944 4059
1353 4073 2152
1353 4073 2172
1353 4073 2192
1353 4073 2215
1354 4073 2254
1356 4074 2319
1357 4074 2420
1360 4075 2572
1364 4075 2787
1371 4075 3073
1381 4071 3384
1389 4054 3652
1388 4026 3844
1385 4006 3963
1383 4000 4022
1382 4007 4046
1385 4020 4059
1357 4074 2648
1356 4074 2659
1356 4074 2670
1356 4074 2682
1356 4075 2704
1357 4075 2742
1357 4075 2806
1361 4075 2909
1364 4076 3063
1369 4077 3265
1376 4078 3494
1382 4079 3701
1392 4078 3863
1404 4072 3969
1415 4064 4024
1418 4062 4046
1447 4064 4059
2562 4076 3151
2578 4076 3157
2595 4076 3163
2615 4076 3170
2653 4076 3181
2701 4076 3202
2673 4077 3237
2563 4077 3294
2394 4077 3379
2291 4078 3494
2275 4079 3630
2248 4079 3772
2211 4080 3892
1532 4081 3978
781 4081 4027
152 4080 4047
26 4080 4060
0 4084 3569
0 4084 3572
0 4084 3574
0 4084 3576
0 4084 3581
0 4084 3589
0 4084 3602
0 4084 3624
0 4084 3659
0 4084 3712
0 4085 3781
0 4085 3860
0 4086 3938
0 4086 3998
0 4086 4036
0 4087 4055
0 4088 4067
97 29 30
92 29 60
87 29 137
80 33 302
69 43 550
68 63 883
99 99 1317
156 156 1814
227 227 2290
299 298 2760
365 364 3228
418 417 3605
461 529 3839
622 1378 3965
843 2277 4000
1145 2915 4022
1888 3447 4048
64 66 33
60 59 59
56 51 136
51 41 302
49 43 552
63 63 885
100 99 1319
156 156 1815
227 227 2289
299 298 2759
364 364 3227
418 417 3603
464 560 3838
633 1432 3965
848 2295 4001
1140 2924 4023
1882 3451 4048
53 178 47
51 167 66
48 152 138
45 123 304
46 78 553
63 64 886
100 99 1319
156 156 1815
227 226 2289
299 298 2758
364 363 3225
418 417 3602
468 596 3837
644 1483 3965
853 2312 4001
1135 2932 4023
1876 3454 4048
78 376 78
77 370 89
76 361 149
74 340 310
71 286 555
72 155 886
100 102 1319
156 155 1814
227 226 2288
298 298 2756
364 363 3223
418 415 3600
475 648 3836
656 1539 3966
859 2331 4002
1130 2942 4023
1869 3458 4049
148 655 147
147 653 150
146 648 191
144 637 328
140 608 563
132 525 891
124 309 1320
157 178 1813
226 221 2285
297 293 2753
363 360 3220
417 420 3597
491 764 3834
677 1630 3966
869 2364 4003
1121 2959 4024
1857 3464 4049
284 1020 283
284 1020 283
283 1018 291
282 1013 371
280 999 581
274 962 902
261 863 1327
245 665 1813
257 454 2281
304 370 2747
365 398 3214
424 495 3593
529 995 3833
711 1768 3966
886 2419 4004
1107 2989 4025
1836 3476 4049
465 1508 461
465 1508 461
464 1507 461
463 1504 475
461 1495 618
458 1473 922
451 1419 1340
439 1325 1819
427 1187 2282
424 1024 2745
447 921 3210
502 990 3590
611 1403 3832
762 1967 3967
915 2507 4007
1092 3038 4027
1797 3495 4050
656 2037 652
656 2036 652
655 2035 651
654 2032 649
652 2025 700
649 2009 960
644 1974 1365
635 1916 1833
626 1834 2289
619 1735 2748
622 1650 3211
653 1667 3589
725 1869 3832
833 2223 3967
954 2643 4012
1089 3117 4030
1726 3525 4051
836 2551 832
836 2549 832
836 2547 831
834 2544 830
832 2538 841
830 2524 1029
825 2496 1412
818 2452 1858
811 2391 2302
803 2318 2755
799 2245 3214
811 2221 3590
850 2314 3831
919 2529 3966
1010 2844 4018
1116 3235 4035
1592 3572 4053
1001 3065 997
1000 3063 996
1000 3061 995
999 3057 994
997 3050 1001
994 3037 1143
991 3013 1496
985 2976 1905
978 2923 2328
969 2856 2768
962 2783 3220
962 2735 3591
980 2761 3830
1020 2887 3964
1084 3113 4024
1164 3388 4042
1381 3641 4055
1149 3525 1144
1149 3523 1143
1147 3520 1142
1146 3516 1143
1145 3510 1169
1142 3499 1325
1139 3481 1630
1135 3452 1988
1129 3410 2375
1121 3355 2795
1112 3290 3233
1107 3235 3594
1113 3226 3829
1134 3283 3963
1171 3405 4025
1221 3567 4047
1279 3733 4059
1279 3891 1291
1278 3888 1306
1278 3886 1328
1277 3883 1364
1276 3878 1443
1274 3869 1605
1271 3855 1833
1267 3833 2120
1261 3800 2459
1254 3755 2846
1245 3699 3259
1236 3645 3602
1233 3615 3830
1240 3622 3961
1256 3668 4024
1281 3748 4048
1311 3842 4060
1344 4062 1655
1345 4062 1692
1345 4061 1728
1345 4060 1771
1345 4059 1840
1346 4057 1944
1347 4054 2100
1349 4049 2315
1355 4036 2595
1351 4006 2937
1342 3961 3307
1333 3913 3619
1326 3877 3834
1324 3862 3961
1329 3871 4023
1338 3900 4047
1351 3944 4059
1353 4073 2152
1353 4073 2173
1353 4073 2193
1353 4073 2215
1354 4073 2255
1356 4074 2319
1357 4074 2420
1360 4075 2572
1364 4075 2787
1371 4075 3073
1381 4071 3384
1389 4054 3652
1387 4026 3844
1385 4006 3963
1383 4000 4022
1382 4007 4046
1385 4020 4059
1357 4074 2648
1356 4074 2659
1356 4074 2670
1356 4074 2683
1356 4075 2705
1357 4075 2743
1357 4075 2806
1361 4075 2909
1364 4076 3063
1369 4077 3265
1376 4078 3494
1382 4079 3701
1392 4078 3863
1404 4072 3969
1415 4064 4024
1418 4062 4046
1447 4064 4059
2558 4076 3151
2575 4076 3157
2592 4076 3163
2611 4076 3170
2650 4076 3182
2698 4076 3202
2669 4077 3237
2559 4077 3294
2391 4077 3379
2288 4078 3494
2272 4079 3630
2246 4079 3772
2208 4080 3892
1531 4081 3978
782 4081 4027
153 4080 4047
27 4080 4060
0 4084 3569
0 4084 3572
0 4084 3574
0 4084 3577
0 4084 3581
0 4084 3589
0 4084 3602
0 4084 3624
0 4084 3660
0 4084 3712
0 4085 3781
0 4085 3860
0 4086 3938
0 4086 3998
0 4086 4036
0 4087 4055
0 4088 4067
271 40 41
266 39 67
260 39 142
250 42 304
227 50 551
177 66 882
124 100 1316
155 156 1814
227 227 2290
299 298 2760
365 364 3228
418 417 3605
461 526 3839
619 1370 3965
845 2275 4000
1181 2914 4023
1920 3447 4048
214 64 40
209 58 64
202 51 139
191 44 304
166 47 552
123 64 884
106 100 1318
156 156 1815
227 227 2289
299 298 2759
364 364 3227
418 417 3603
464 556 3838
631 1425 3965
850 2292 4000
1175 2923 4023
1914 3450 4049
155 165 48
148 154 67
140 139 139
128 113 304
105 72 553
83 64 885
100 99 1319
156 156 1815
227 227 2289
299 298 2758
364 363 3225
418 417 3602
468 591 3837
642 1476 3965
854 2309 4001
1169 2931 4023
1908 3454 4049
107 362 76
102 356 87
97 347 148
89 325 309
78 269 554
71 144 886
100 101 1319
156 155 1814
227 226 2288
298 298 2756
364 363 3223
418 415 3600
474 642 3836
655 1533 3965
859 2329 4002
1163 2941 4024
1902 3457 4049
145 646 144
144 643 147
143 638 188
141 626 326
137 597 562
129 512 890
122 297 1320
157 177 1812
226 221 2285
297 293 2753
363 359 3220
417 419 3597
490 757 3834
676 1625 3966
868 2362 4003
1151 2958 4024
1889 3464 4049
281 1016 281
281 1016 281
280 1014 290
279 1008 370
277 995 581
271 956 902
257 855 1326
242 655 1812
256 448 2281
304 367 2747
365 395 3214
424 491 3593
528 988 3833
710 1764 3966
884 2417 4004
1134 2988 4025
1868 3475 4049
463 1510 462
463 1510 462
462 1508 461
461 1505 476
459 1496 620
456 1473 924
449 1420 1341
437 1325 1820
424 1186 2282
422 1020 2745
445 914 3210
501 984 3590
610 1398 3832
762 1964 3967
912 2505 4007
1113 3037 4027
1830 3494 4050
655 2038 652
655 2037 652
654 2035 651
653 2033 650
651 2026 701
648 2010 962
642 1975 1367
634 1917 1834
625 1835 2290
618 1736 2748
621 1650 3211
652 1665 3590
724 1866 3832
832 2221 3967
953 2641 4012
1099 3116 4030
1762 3525 4051
836 2551 832
835 2549 832
835 2547 831
834 2544 830
831 2538 841
829 2524 1031
825 2497 1413
818 2453 1859
810 2392 2303
802 2318 2755
799 2246 3214
810 2222 3590
850 2313 3831
919 2527 3966
1010 2842 4018
1117 3234 4035
1633 3572 4053
1000 3066 997
1000 3063 996
1000 3061 995
999 3058 994
996 3051 1001
994 3037 1144
990 3014 1497
985 2976 1906
977 2924 2328
969 2857 2769
961 2784 3220
962 2735 3591
979 2761 3830
1020 2887 3964
1084 3112 4024
1164 3387 4042
1415 3641 4056
1149 3525 1144
1148 3523 1143
1147 3520 1142
1146 3517 1143
1144 3510 1170
1142 3499 1326
1139 3481 1631
1135 3452 1988
1128 3410 2376
1121 3355 2796
1112 3290 3233
1106 3235 3594
1112 3226 3829
1133 3283 3963
1171 3405 4025
1220 3567 4047
1283 3733 4059
1278 3891 1292
1278 3888 1307
1278 3886 1329
1277 3883 1364
1276 3878 1444
1274 3869 1606
1271 3855 1833
1267 3833 2120
1261 3800 2460
1254 3755 2847
1245 3699 3259
1236 3645 3602
1233 3615 3830
1240 3622 3961
1256 3668 4024
1281 3748 4048
1311 3841 4060
1344 4062 1656
1345 4062 1693
1345 4061 1729
1345 4060 1772
1345 4059 1841
1346 4057 1944
1347 4054 2100
1349 4049 2316
1355 4036 2595
1351 4006 2937
1341 3961 3307
1332 3913 3619
1326 3877 3834
1324 3862 3961
1329 3871 4023
1338 3900 4047
1351 3944 4059
1353 4073 2153
1353 4073 2173
1353 4073 2193
1353 4073 2216
1354 4073 2255
1356 4074 2320
1357 4074 2420
1360 4075 2572
1364 4075 2787
1371 4075 3073
1381 4071 3384
1389 4054 3652
1387 4026 3844
1384 4006 3963
1383 4000 4022
1382 4007 4046
1385 4020 4059
1357 4074 2648
1356 4074 2659
1356 4074 2670
1356 4074 2683
1356 4075 2705
1357 4075 2743
1357 4075 2807
1361 4075 2909
1364 4076 3063
1369 4077 3265
1376 4078 3494
1382 4079 3701
1392 4078 3863
1404 4072 3969
1415 4064 4024
1418 4062 4046
1447 4064 4059
2555 4076 3151
2572 4076 3157
2588 4076 3163
2608 4076 3170
2646 4076 3182
2694 4076 3202
2665 4077 3237
2555 4077 3294
2388 4077 3379
2286 4078 3494
2270 4079 3630
2243 4079 3772
2206 4080 3892
1530 4081 3978
784 4081 4027
153 4080 4047
27 4080 4060
0 4084 3570
0 4084 3572
0 4084 3574
0 4084 3577
0 4084 3581
0 4084 3589
0 4084 3602
0 4084 3624
0 4084 3660
0 4084 3712
0 4085 3781
0 4085 3860
0 4086 3938
0 4086 3998
0 4086 4036
0 4087 4055
0 4088 4067
491 57 59
488 57 81
485 58 155
480 60 310
466 65 554
432 79 883
348 108 1317
237 158 1814
231 227 2290
297 298 2760
364 364 3228
418 417 3605
459 523 3839
613 1361 3965
854 2272 4000
1227 2913 4023
1956 3447 4049
449 71 56
446 66 77
443 62 150
436 58 310
420 62 555
381 76 885
291 106 1318
202 157 1814
227 227 2289
297 298 2759
364 364 3227
418 417 3604
463 551 3838
625 1416 3965
857 2290 4000
1220 2922 4023
