Postproduction/IWLTBAP - Humble/LUTs by IWLTBAP (3DL)/UTILITY/Sony S-Log3 to Rec.709/U-SONY-S-LOG3-V4-LTR.3dl
# Copyright: (C) Copyright 2010-2018 by IWLTBAP SAS
# Cannot be resold, shared or otherwise redistributed
# Website: https://luts.iwltbap.com
0 256 512 768 1023
128 128 128
128 128 1281
128 399 3595
1958 1472 4095
128 128 4095
128 1039 251
128 964 1326
128 1064 3563
1932 1588 4095
128 128 4095
307 2710 1711
258 2697 1906
929 2650 2970
1717 2350 4095
128 128 4095
2427 4095 3462
2422 4095 3481
2377 4095 3629
2974 4095 4095
128 399 4095
128 4095 1864
128 4095 1885
128 4095 2043
128 4095 3315
128 4095 4095
1186 128 128
1086 128 996
596 135 3375
2027 1456 4095
128 128 4095
945 1047 128
924 923 928
191 859 3426
2002 1572 4095
128 128 4095
857 2699 1688
818 2685 1885
1207 2637 2966
1794 2338 4095
128 128 4095
2463 4095 3460
2458 4095 3479
2414 4095 3627
2992 4095 4095
128 397 4095
128 4095 1864
128 4095 1884
128 4095 2042
128 4095 3315
128 4095 4095
2834 128 128
2836 128 667
2836 167 2867
2658 1300 4095
799 128 4095
2814 712 128
2816 601 469
2803 654 2854
2628 1419 4095
769 128 4095
2499 2715 1048
2492 2698 1333
2577 2573 2589
2387 2222 4095
500 128 4095
2740 4095 3443
2736 4095 3462
2696 4095 3611
3135 4095 4095
128 380 4095
128 4095 1858
128 4095 1878
128 4095 2037
128 4095 3310
128 4095 4095
4095 1258 1232
4095 1232 1233
4095 1273 2015
4095 2270 4095
4069 128 4095
4095 1393 1229
4095 1369 1231
4095 1401 1982
4095 2305 4095
4063 128 4095
4095 2261 1216
4095 2243 1217
4095 2187 1732
4095 2574 4095
4012 128 4095
4095 4095 2887
4095 4095 2911
4095 4095 3101
4095 4095 4095
3258 217 4095
128 4095 1802
128 4095 1823
128 4095 1984
128 4095 3268
798 4095 4095
4095 128 1298
4095 128 1299
4095 128 1308
4095 128 4095
4095 128 4095
4095 128 1298
4095 128 1299
4095 128 1307
4095 128 4095
4095 128 4095
4095 128 1296
4095 128 1297
4095 128 1306
4095 128 4090
4095 128 4095
4095 1166 1296
4095 1147 1297
4095 976 1305
4095 1519 3893
4095 128 4095
4095 4095 128
4095 4095 128
4095 4095 128
4095 4095 2354
4095 4095 4095
