Postproduction/IWLTBAP - Humble/LUTs by IWLTBAP (3DL)/UTILITY/Sony S-Log3 to Rec.709/U-SONY-S-LOG3-V2-LTR.3dl
# Copyright: (C) Copyright 2010-2018 by IWLTBAP SAS
# Cannot be resold, shared or otherwise redistributed
# Website: https://luts.iwltbap.com
0 256 512 768 1023
0 0 0
0 0 454
0 0 2004
0 0 3879
0 96 4067
0 661 0
0 775 881
0 853 2651
0 495 4038
13 851 4089
0 2438 0
0 2560 503
0 2645 3001
0 2181 4057
0 1712 4071
0 3948 2
0 4019 2
0 4050 2532
1 3646 4017
0 2820 4069
0 4095 16
0 4067 1003
293 4071 2589
0 4095 3524
96 3843 4067
489 22 0
673 0 628
592 0 2194
0 0 3894
0 141 4067
798 733 0
746 779 774
16 395 2640
1 326 4033
0 881 4092
1020 2457 0
57 2582 39
0 2603 2901
0 2092 4079
0 1792 4089
99 3962 1
0 4003 2
1 4037 2392
0 3651 4016
0 2874 4069
62 4092 14
79 4089 917
1879 4067 2852
61 4090 3531
1730 3889 4065
2178 596 0
2538 21 308
2450 0 2333
2159 0 3945
1399 329 4067
2352 1273 0
2611 1086 276
2697 59 2592
2052 59 4042
1388 1031 4067
2821 2645 0
2892 2713 0
2616 2645 2642
1494 2098 4039
1757 2284 4067
2720 3948 1
2472 3965 0
2039 3990 2251
2077 3774 3969
2217 3267 4067
2046 4067 0
1985 4071 196
2584 4069 2705
2845 4067 3665
3332 3985 4067
4067 1361 0
4081 1057 1
4088 0 2124
4025 0 3962
3058 900 4067
4065 1902 11
4068 1690 0
4072 312 2051
4047 71 3998
3103 1561 4068
4064 2859 0
4090 2764 10
4073 2672 2194
4022 2490 3963
3331 2826 4067
4054 3900 0
4053 3898 0
4041 3906 1651
3885 3887 3887
3800 3833 4069
3349 4070 0
3291 4095 2
3362 4073 2169
3886 4093 3908
3986 4053 4067
4067 1649 0
4092 1636 0
4067 409 1259
4067 826 3319
4067 2065 4067
4067 2005 0
4092 1921 0
4068 1270 1201
4067 1869 3378
4067 2516 4067
4095 2712 0
4090 2615 0
4073 2325 1022
4069 3248 3610
4063 3386 4067
4067 3493 0
4068 3448 0
4085 3352 646
4069 3811 3734
4054 3954 4072
4067 4067 0
4092 4067 2
4071 4053 747
4067 4065 3756
4095 4095 4095
