Postproduction/IWLTBAP - Humble/LUTs by IWLTBAP (3DL)/UTILITY/Sony S-Log3 to Rec.709/U-SONY-S-LOG3-V1-LTR.3dl
# Copyright: (C) Copyright 2010-2018 by IWLTBAP SAS
# Cannot be resold, shared or otherwise redistributed
# Website: https://luts.iwltbap.com
0 128 256 384 512 640 768 896 1023
0 0 0
0 0 114
0 0 648
0 0 1511
0 0 2499
0 0 3387
0 0 3951
0 0 4095
0 0 4095
0 163 0
0 115 93
0 2 638
0 0 1507
0 0 2498
0 0 3387
0 0 3951
0 0 4095
0 0 4095
0 745 0
0 724 31
0 656 608
0 219 1496
0 0 2495
0 0 3386
0 0 3951
0 0 4095
0 0 4095
0 1670 0
0 1663 0
0 1639 451
0 1529 1447
0 1076 2478
0 0 3380
0 0 3951
0 0 4095
0 0 4095
0 2719 0
0 2717 0
0 2709 0
0 2669 1287
0 2539 2422
0 2236 3352
0 1310 3935
0 0 4095
0 0 4095
0 3646 0
0 3646 0
0 3645 0
0 3626 737
0 3559 2299
0 3432 3298
0 3249 3900
0 2823 4093
0 0 4095
1172 4095 0
1170 4095 0
1168 4095 0
1151 4095 0
975 4091 2014
343 4061 3216
231 3985 3866
0 3931 4067
0 3780 4095
3310 4095 0
3309 4095 0
3309 4095 0
3308 4095 0
3294 4095 473
3206 4095 3027
3103 4095 3837
2967 4095 4058
2383 4095 4094
4016 4095 0
4016 4095 0
4016 4095 0
4016 4095 0
4016 4095 0
3991 4095 1644
3907 4095 3752
3875 4095 4052
3842 4095 4094
149 0 0
127 0 108
46 0 643
0 0 1509
0 0 2499
0 0 3387
0 0 3951
0 0 4095
0 0 4095
103 135 0
87 87 87
19 0 633
0 0 1505
0 0 2498
0 0 3386
0 0 3951
0 0 4095
0 0 4095
0 730 0
0 709 26
0 640 603
0 196 1493
0 0 2495
0 0 3386
0 0 3951
0 0 4095
0 0 4095
0 1662 0
0 1654 0
0 1631 445
0 1520 1445
0 1062 2477
0 0 3379
0 0 3951
0 0 4095
0 0 4095
0 2714 0
0 2712 0
0 2704 0
0 2664 1284
0 2534 2422
0 2230 3352
0 1306 3935
0 0 4095
0 0 4095
0 3643 0
0 3643 0
0 3642 0
0 3623 733
0 3556 2298
0 3428 3298
0 3245 3900
0 2821 4093
0 0 4095
1250 4095 0
1248 4095 0
1245 4095 0
1231 4095 0
1079 4091 2013
540 4060 3216
252 3984 3866
0 3929 4068
0 3779 4095
3318 4095 0
3318 4095 0
3318 4095 0
3317 4095 0
3303 4095 472
3215 4095 3027
3113 4095 3837
2980 4095 4058
2416 4095 4094
4017 4095 0
4017 4095 0
4017 4095 0
4017 4095 0
4017 4095 0
3992 4095 1643
3908 4095 3752
3876 4095 4052
3843 4095 4094
716 0 0
704 0 97
671 0 635
479 0 1505
0 0 2498
0 0 3386
0 0 3951
0 0 4095
0 0 4095
728 34 0
717 7 76
692 0 626
523 0 1501
0 0 2497
0 0 3386
0 0 3951
0 0 4095
0 0 4095
623 687 0
610 668 18
587 592 595
405 124 1490
0 0 2494
0 0 3386
0 0 3951
0 0 4095
0 0 4095
0 1645 0
0 1637 0
0 1614 436
0 1502 1441
0 1031 2476
0 0 3379
0 0 3951
0 0 4095
0 0 4095
0 2705 0
0 2703 0
0 2696 0
0 2655 1279
0 2525 2421
0 2219 3351
0 1293 3935
0 0 4095
0 0 4095
0 3639 0
0 3638 0
0 3637 0
0 3619 726
0 3551 2297
0 3423 3298
0 3238 3900
0 2818 4093
0 0 4095
1402 4095 0
1400 4095 0
1396 4095 0
1367 4095 0
1217 4090 2011
854 4059 3216
282 3982 3866
0 3926 4068
0 3778 4095
3332 4095 0
3332 4095 0
3332 4095 0
3331 4095 0
3318 4095 471
3230 4095 3026
3130 4095 3837
3000 4095 4058
2464 4095 4094
4019 4095 0
4018 4095 0
4018 4095 0
4018 4095 0
4018 4095 0
3993 4095 1641
3909 4095 3752
3877 4095 4052
3844 4095 4094
1652 0 0
1647 0 79
1635 0 614
1580 0 1493
1399 0 2495
799 0 3386
0 0 3951
0 0 4095
0 0 4095
1667 0 0
1656 0 61
1653 0 604
1602 0 1489
1431 0 2494
851 0 3385
0 0 3951
0 0 4095
0 0 4095
1653 449 0
1603 456 5
1633 327 563
1597 8 1479
1448 0 2491
949 0 3385
0 0 3951
0 0 4095
0 0 4095
1476 1577 0
1472 1569 0
1454 1548 405
1417 1424 1429
1256 879 2473
828 0 3379
123 0 3951
0 0 4095
0 0 4095
714 2676 0
711 2674 0
696 2667 0
610 2626 1266
347 2492 2418
40 2178 3351
0 1225 3935
0 0 4095
0 0 4095
143 3625 0
142 3625 0
139 3624 0
88 3606 704
0 3537 2294
0 3408 3297
0 3220 3900
0 2799 4093
0 0 4095
1850 4095 0
1849 4095 0
1847 4095 0
1835 4095 0
1708 4089 2005
1370 4054 3215
808 3975 3867
167 3918 4068
0 3770 4095
3374 4095 0
3373 4095 0
3373 4095 0
3372 4095 0
3360 4095 465
3275 4095 3025
3179 4095 3837
3059 4095 4058
2591 4095 4094
4022 4095 0
4022 4095 0
4022 4095 0
4022 4095 0
4022 4095 0
3998 4095 1636
3914 4095 3752
3882 4095 4052
3850 4095 4094
2831 0 0
2830 0 55
2826 0 547
2807 0 1457
2745 0 2485
2612 0 3384
2332 0 3952
1099 0 4095
0 0 4095
2837 0 0
2836 0 46
2833 0 538
2814 0 1453
2754 0 2484
2622 0 3384
2346 0 3952
1129 0 4095
0 0 4095
2831 0 0
2829 0 4
2820 0 484
2811 0 1443
2760 0 2482
2638 0 3383
2367 0 3952
1174 0 4095
0 0 4095
2749 1337 0
2749 1327 0
2698 1343 269
2726 1147 1374
2689 451 2464
2610 0 3377
2428 0 3952
1293 0 4095
0 0 4095
2486 2598 0
2486 2596 0
2476 2592 0
2458 2550 1218
2405 2404 2407
2295 2059 3349
2184 954 3936
1694 0 4095
0 0 4095
2133 3591 0
2133 3591 0
2131 3589 0
2110 3572 627
2020 3502 2281
1832 3369 3295
1483 3173 3901
754 2723 4093
0 0 4095
2497 4095 0
2497 4095 0
2496 4095 0
2491 4094 0
2423 4086 1986
2279 4040 3211
2048 3956 3867
1421 3895 4069
0 3735 4095
3482 4095 0
3482 4095 0
3482 4095 0
3481 4095 0
3470 4095 448
3391 4095 3020
3305 4095 3837
3208 4095 4058
2875 4095 4094
4035 4095 0
4035 4095 0
4035 4095 0
4035 4095 0
4035 4095 0
4010 4095 1621
3926 4095 3751
3896 4095 4052
3866 4095 4094
3888 0 41
3888 0 41
3887 0 307
3879 0 1331
3856 0 2451
3801 0 3376
3714 0 3953
3536 0 4095
2579 0 4095
3890 0 41
3890 0 41
3889 0 300
3882 0 1327
3858 0 2450
3804 0 3376
3716 0 3953
3540 0 4095
2593 0 4095
3889 0 24
3889 0 25
3884 0 262
3882 0 1320
3860 0 2448
3808 0 3375
3721 0 3953
3545 0 4095
2614 0 4095
3849 498 0
3849 486 0
3814 545 37
3838 309 1219
3825 0 2433
3794 0 3371
3735 0 3953
3562 0 4095
2675 0 4095
3672 2420 0
3672 2418 0
3650 2426 0
3619 2406 962
3633 2210 2354
3601 1751 3343
3597 498 3938
3612 0 4095
2827 0 4095
3391 3516 0
3391 3516 0
3391 3515 0
3377 3503 388
3342 3430 2236
3288 3285 3287
3228 3072 3902
3211 2552 4094
3128 0 4095
3328 4088 0
3327 4088 0
3327 4088 0
3326 4088 0
3289 4076 1921
3214 4006 3201
3123 3915 3866
2995 3848 4070
2538 3657 4095
3704 4095 0
3703 4095 0
3703 4095 0
3703 4095 0
3695 4095 403
3627 4095 3004
3557 4095 3835
3497 4093 4058
3338 4089 4095
4065 4095 0
4065 4095 0
4065 4095 0
4065 4095 0
4065 4095 0
4042 4095 1571
3959 4095 3748
3930 4095 4053
3907 4095 4094
4095 0 130
4095 0 130
4095 0 130
4095 0 823
4095 0 2324
4095 0 3346
4095 0 3950
4095 0 4095
4095 0 4095
4095 0 130
4095 0 130
4095 0 130
4095 0 817
4095 0 2323
4095 0 3345
4095 0 3950
4095 0 4095
4095 0 4095
4095 0 130
4095 0 130
4095 0 130
4095 0 809
4095 0 2320
4095 0 3345
4095 0 3950
4095 0 4095
4095 0 4095
4095 0 47
4095 0 48
4095 0 49
4095 0 697
4095 0 2311
4095 0 3343
4095 0 3950
4095 0 4095
4095 0 4095
4095 2047 0
4095 2044 0
4095 2038 0
4095 2066 238
4095 1783 2190
4095 969 3316
4095 76 3940
4095 0 4095
4095 0 4095
4093 3401 0
4094 3401 0
4094 3400 0
4092 3414 0
4090 3347 1986
4085 3163 3238
4080 2910 3901
4092 2238 4094
4095 0 4095
3981 4078 0
3981 4078 0
3981 4078 0
3981 4077 0
3959 4052 1631
3909 3964 3161
3865 3863 3863
3848 3787 4071
3867 3557 4095
3991 4095 0
3991 4095 0
3991 4095 0
3990 4095 0
3987 4095 227
3929 4095 2951
3874 4095 3831
3845 4075 4059
3804 4062 4095
4095 4095 0
4095 4095 0
4095 4095 0
4095 4095 0
4095 4095 0
4092 4095 1380
4021 4095 3740
3996 4095 4052
3982 4095 4094
4095 0 167
4095 0 167
4095 0 167
4095 0 167
4095 0 1645
4095 0 3230
4095 0 3937
4095 0 4095
4095 0 4095
4095 0 167
4095 0 167
4095 0 167
4095 0 167
4095 0 1642
4095 0 3229
4095 0 3937
4095 0 4095
4095 0 4095
4095 0 167
4095 0 167
4095 0 167
4095 0 167
4095 0 1638
4095 0 3229
4095 0 3937
4095 0 4095
4095 0 4095
4095 0 167
4095 0 167
4095 0 167
4095 0 167
4095 0 1623
4095 0 3227
4095 0 3937
4095 0 4095
4095 0 4095
4095 526 7
4095 525 7
4095 522 7
4095 513 7
4095 442 1423
4095 0 3212
4095 0 3934
4095 0 4095
4095 0 4095
4095 3211 0
4095 3210 0
4095 3209 0
4095 3205 0
4095 3205 869
4095 2965 3094
4095 2613 3892
4095 1571 4095
4095 0 4095
4095 4049 0
4095 4049 0
4095 4049 0
4095 4049 0
4095 4048 363
4095 3949 2951
4095 3821 3841
4095 3732 4072
4095 3453 4095
4095 4095 0
4095 4095 0
4095 4095 0
4095 4095 0
4095 4095 0
4095 4095 2743
4076 4091 3812
4059 4058 4058
4056 4043 4095
4095 4095 0
4095 4095 0
4095 4095 0
4095 4095 0
4095 4095 0
4095 4095 573
4087 4095 3710
4063 4095 4051
4058 4095 4094
4095 0 176
4095 0 176
4095 0 176
4095 0 176
4095 0 176
4095 0 2601
4095 0 3882
4095 0 4095
4095 0 4095
4095 0 176
4095 0 176
4095 0 176
4095 0 176
4095 0 176
4095 0 2600
4095 0 3882
4095 0 4095
4095 0 4095
4095 0 176
4095 0 176
4095 0 176
4095 0 176
4095 0 176
4095 0 2599
4095 0 3881
4095 0 4095
4095 0 4095
4095 0 176
4095 0 176
4095 0 176
4095 0 176
4095 0 176
4095 0 2593
4095 0 3881
4095 0 4095
4095 0 4095
4095 0 176
4095 0 176
4095 0 176
4095 0 176
4095 0 176
4095 0 2577
4095 0 3880
4095 0 4095
4095 0 4095
4095 2046 0
4095 2034 0
4095 2017 0
4095 2007 0
4095 1986 0
4095 1753 2471
4095 739 3858
4095 213 4095
4095 0 4095
4095 3983 0
4095 3983 0
4095 3983 0
4095 3982 0
4095 3981 0
4095 3914 2035
4095 3738 3791
4095 3616 4073
4095 3120 4095
4095 4095 0
4095 4095 0
4095 4095 0
4095 4095 0
4095 4095 0
4095 4095 1302
4095 4090 3741
4095 4049 4055
4095 4031 4095
4095 4095 0
4095 4095 0
4095 4095 0
4095 4095 0
4095 4095 0
4095 4095 0
4095 4095 3586
4095 4095 4047
4095 4095 4095
