Postproduction/IWLTBAP - Humble/LUTs by IWLTBAP (3DL)/UTILITY/Sony S-Log3 to Rec.709/U-SONY-S-LOG3-V4-LTR.3dl
# Copyright: (C) Copyright 2010-2018 by IWLTBAP SAS
# Cannot be resold, shared or otherwise redistributed
# Website: https://luts.iwltbap.com
0 128 256 384 512 640 768 896 1023
128 128 128
128 128 440
128 128 1281
128 128 2506
128 399 3595
772 878 4095
1958 1472 4095
1969 150 4095
128 128 4095
128 376 128
128 294 549
128 203 1262
128 254 2452
128 692 3589
719 1012 4095
1948 1517 4095
1962 153 4095
128 128 4095
128 1039 251
128 1006 798
128 964 1326
128 935 2295
128 1064 3563
626 1204 4095
1932 1588 4095
1953 158 4095
128 128 4095
128 1847 875
128 1838 1148
128 1824 1472
128 1786 2119
128 1785 3264
405 1695 4095
1882 1793 4095
1922 173 4095
128 128 4095
307 2710 1711
284 2704 1783
258 2697 1906
540 2689 2277
929 2650 2970
1173 2614 4052
1717 2350 4095
1826 369 4095
128 128 4095
1423 3605 2582
1414 3603 2605
1400 3600 2641
1358 3590 2754
1629 3582 3133
2021 3529 3833
2233 3440 4095
1500 2029 4095
128 128 4095
2427 4095 3462
2425 4095 3470
2422 4095 3481
2411 4095 3517
2377 4095 3629
2612 4095 4001
2974 4095 4095
2605 4030 4095
128 399 4095
907 4095 3308
906 4095 3315
905 4095 3325
900 4095 3355
884 4095 3448
833 4095 3733
2129 4095 4095
2797 4095 4095
2336 4095 4095
128 4095 1864
128 4095 1872
128 4095 1885
128 4095 1925
128 4095 2043
128 4095 2383
128 4095 3315
128 4095 4095
128 4095 4095
463 128 128
391 128 212
227 128 1112
128 128 2321
128 252 3523
905 858 4095
1985 1466 4095
1987 149 4095
128 128 4095
312 365 128
271 269 269
165 158 1064
128 135 2271
128 600 3549
858 994 4095
1975 1511 4095
1981 153 4095
128 128 4095
166 1049 129
158 1006 541
135 946 1143
128 867 2184
128 1030 3560
779 1188 4095
1959 1582 4095
1971 158 4095
128 128 4095
129 1834 847
130 1824 1126
138 1810 1457
155 1771 2113
151 1771 3268
521 1683 4095
1909 1788 4095
1941 173 4095
128 128 4095
532 2706 1703
498 2700 1775
485 2692 1898
730 2684 2272
1042 2645 2968
1231 2609 4053
1747 2346 4095
1845 362 4095
128 128 4095
1477 3604 2579
1469 3601 2602
1455 3598 2638
1414 3589 2751
1670 3581 3131
2045 3528 3833
2246 3438 4095
1522 2026 4095
128 128 4095
2441 4095 3461
2439 4095 3469
2435 4095 3480
2425 4095 3516
2392 4095 3628
2623 4095 4000
2981 4095 4095
2611 4030 4095
128 398 4095
926 4095 3308
925 4095 3314
924 4095 3324
919 4095 3355
903 4095 3448
853 4095 3733
2137 4095 4095
2802 4095 4095
2341 4095 4095
128 4095 1864
128 4095 1872
128 4095 1885
128 4095 1924
128 4095 2043
128 4095 2383
128 4095 3315
128 4095 4095
128 4095 4095
1186 128 128
1155 128 136
1086 128 996
878 128 2143
596 135 3375
1101 812 4095
2027 1456 4095
2015 149 4095
128 128 4095
1077 327 128
1064 225 131
1013 136 893
753 128 2095
429 313 3396
1056 960 4095
2017 1501 4095
2010 152 4095
128 128 4095
945 1047 128
948 998 236
924 923 928
712 772 1988
191 859 3426
984 1163 4095
2002 1572 4095
2000 157 4095
128 128 4095
746 1842 642
759 1828 965
778 1806 1333
747 1751 2035
419 1745 3263
746 1663 4095
1953 1779 4095
1970 172 4095
128 128 4095
857 2699 1688
833 2693 1762
818 2685 1885
983 2676 2263
1207 2637 2966
1319 2601 4054
1794 2338 4095
1875 353 4095
128 128 4095
1561 3601 2575
1553 3599 2597
1540 3596 2634
1501 3586 2747
1735 3578 3128
2085 3525 3832
2266 3435 4095
1557 2021 4095
128 128 4095
2463 4095 3460
2461 4095 3467
2458 4095 3479
2447 4095 3515
2414 4095 3627
2641 4095 3999
2992 4095 4095
2622 4029 4095
128 397 4095
956 4095 3308
955 4095 3314
953 4095 3324
949 4095 3354
933 4095 3448
885 4095 3732
2150 4095 4095
2810 4095 4095
2350 4095 4095
128 4095 1864
128 4095 1872
128 4095 1884
128 4095 1924
128 4095 2042
128 4095 2383
128 4095 3315
128 4095 4095
128 4095 4095
2026 128 128
2010 128 133
1986 128 915
1934 128 1950
1828 128 3101
1726 488 4095
2155 1423 4095
2104 147 4095
152 128 4095
1982 183 128
1978 137 128
1957 128 791
1894 128 1928
1779 136 3105
1687 681 4095
2146 1470 4095
2098 150 4095
145 128 4095
1877 984 128
1890 930 128
1891 848 686
1834 640 1790
1695 540 3113
1623 940 4095
2131 1542 4095
2089 155 4095
140 128 4095
1685 1857 187
1699 1838 477
1721 1808 966
1722 1720 1732
1515 1591 2969
1409 1545 4095
2085 1751 4095
2060 169 4095
128 128 4095
1582 2694 1576
1569 2688 1656
1555 2678 1787
1606 2662 2190
1654 2612 2932
1571 2577 4057
1935 2315 4095
1968 341 4095
128 128 4095
1802 3594 2560
1796 3592 2583
1785 3588 2620
1752 3578 2734
1928 3570 3119
2207 3517 3829
2327 3427 4095
1663 2003 4095
128 128 4095
2532 4095 3456
2530 4095 3463
2527 4095 3475
2517 4095 3511
2485 4095 3623
2696 4095 3997
3027 4095 4095
2654 4026 4095
128 393 4095
1044 4095 3307
1043 4095 3313
1042 4095 3323
1037 4095 3353
1023 4095 3447
978 4095 3731
2190 4095 4095
2834 4095 4095
2377 4095 4095
128 4095 1862
128 4095 1870
128 4095 1883
128 4095 1922
128 4095 2041
128 4095 2382
128 4095 3314
128 4095 4095
128 4095 4095
2834 128 128
2837 128 128
2836 128 667
2832 128 1788
2836 167 2867
2802 757 3956
2658 1300 4095
2363 140 4095
799 128 4095
2822 128 128
2826 128 128
2825 128 594
2820 128 1768
2824 294 2862
2788 861 3957
2647 1347 4095
2358 144 4095
787 128 4095
2814 712 128
2817 657 128
2816 601 469
2802 524 1730
2803 654 2854
2764 1014 3958
2628 1419 4095
2349 150 4095
769 128 4095
2667 1764 128
2675 1743 128
2717 1716 474
2753 1636 1552
2721 1465 2741
2685 1423 3962
2570 1633 4095
2322 164 4095
708 128 4095
2499 2715 1048
2496 2709 1163
2492 2698 1333
2544 2669 1819
2577 2573 2589
2392 2426 3872
2387 2222 4095
2236 301 4095
500 128 4095
2460 3583 2476
2456 3581 2500
2448 3577 2540
2425 3565 2661
2484 3552 3063
2575 3491 3803
2516 3400 4095
1960 1948 4095
128 128 4095
2740 4095 3443
2739 4095 3450
2736 4095 3462
2727 4095 3499
2696 4095 3611
2864 4095 3988
3135 4095 4095
2752 4017 4095
128 380 4095
1285 4095 3304
1285 4095 3310
1283 4095 3320
1279 4095 3350
1267 4095 3443
1230 4095 3728
2311 4095 4095
2908 4095 4095
2458 4095 4095
128 4095 1858
128 4095 1865
128 4095 1878
128 4095 1918
128 4095 2037
128 4095 2377
128 4095 3310
128 4095 4095
128 4095 4095
3640 197 458
3640 188 459
3642 176 462
3667 178 1315
3709 683 2645
3761 1291 3744
3724 1801 4095
3316 159 4095
1922 128 4095
3636 372 453
3636 327 454
3638 294 457
3662 332 1280
3705 812 2638
3757 1344 3742
3719 1822 4095
3309 171 4095
1916 128 4095
3631 726 446
3630 690 447
3632 650 449
3654 665 1225
3698 995 2627
3750 1426 3740
3712 1856 4095
3299 191 4095
1906 128 4095
3621 1473 418
3620 1450 420
3619 1416 422
3636 1380 1069
3677 1461 2594
3729 1663 3733
3688 1962 4095
3267 246 4095
1874 128 4095
3415 2584 395
3416 2576 465
3418 2564 597
3502 2541 1191
3635 2488 2422
3639 2335 3646
3609 2283 4095
3164 423 4095
1776 128 4095
3344 3597 1989
3342 3594 2020
3340 3591 2070
3333 3580 2220
3397 3552 2691
3454 3449 3465
3242 3265 4095
2832 1787 4095
1441 128 4095
3362 4095 3372
3361 4095 3379
3359 4095 3391
3352 4095 3428
3331 4095 3544
3388 4095 3939
3475 4095 4095
3052 3988 4095
266 335 4095
1963 4095 3293
1962 4095 3299
1961 4095 3309
1957 4095 3340
1946 4095 3433
1911 4095 3718
2675 4095 4095
3133 4095 4095
2698 4095 4095
128 4095 1844
128 4095 1852
128 4095 1865
128 4095 1905
128 4095 2024
128 4095 2366
128 4095 3300
134 4095 4095
128 4095 4095
4095 1258 1232
4095 1248 1232
4095 1232 1233
4095 1193 1235
4095 1273 2015
4095 1786 3501
4095 2270 4095
4095 1646 4095
4069 128 4095
4095 1311 1231
4095 1301 1231
4095 1285 1232
4095 1246 1234
4095 1323 2003
4095 1813 3499
4095 2284 4095
4095 1659 4095
4067 128 4095
4095 1393 1229
4095 1384 1230
4095 1369 1231
4095 1330 1233
4095 1401 1982
4095 1856 3496
4095 2305 4095
4095 1681 4095
4063 128 4095
4095 1628 1225
4095 1620 1225
4095 1607 1226
4095 1568 1228
4095 1618 1922
4095 1985 3485
4095 2371 4095
4095 1746 4095
4051 128 4095
4095 2261 1216
4095 2254 1216
4095 2243 1217
4095 2207 1217
4095 2187 1732
4095 2367 3450
4095 2574 4095
4095 1937 4095
4012 128 4095
4037 3407 872
4038 3404 925
4038 3400 1047
4041 3388 1298
4092 3378 1938
4095 3366 3290
4095 3211 4095
4095 2470 4095
3879 128 4095
4095 4095 2887
4095 4095 2897
4095 4095 2911
4095 4095 2958
4095 4095 3101
4095 4095 3569
4095 4095 4095
4012 3880 4095
3258 217 4095
3545 4095 3225
3545 4095 3231
3544 4095 3241
3542 4095 3272
3534 4095 3366
3511 4095 3654
3690 4095 4095
3802 4095 4095
3396 4095 4095
128 4095 1802
128 4095 1810
128 4095 1823
128 4095 1863
128 4095 1984
128 4095 2329
128 4095 3268
1332 4095 4095
798 4095 4095
4095 128 1319
4095 128 1319
4095 128 1320
4095 128 1322
4095 128 1329
4095 138 3187
4095 1409 4095
4095 1181 4095
4095 128 4095
4095 128 1318
4095 128 1319
4095 128 1320
4095 128 1322
4095 128 1329
4095 139 3183
4095 1428 4095
4095 1199 4095
4095 128 4095
4095 128 1318
4095 128 1319
4095 128 1319
4095 128 1321
4095 128 1328
4095 143 3178
4095 1458 4095
4095 1227 4095
4095 128 4095
4095 128 1318
4095 128 1318
4095 128 1319
4095 128 1321
4095 128 1328
4095 169 3160
4095 1549 4095
4095 1311 4095
4095 128 4095
4095 171 1317
4095 170 1317
4095 169 1318
4095 165 1320
4095 155 1327
4095 549 3103
4095 1813 4095
4095 1548 4095
4095 128 4095
4095 2079 1322
4095 2073 1323
4095 2064 1323
4095 2034 1325
4095 1939 1329
4095 2074 2889
4095 2513 4095
4095 2149 4095
4095 128 4095
4095 4083 1503
4095 4082 1519
4095 4082 1546
4095 4082 1628
4095 4080 1935
4095 4075 3006
4095 4002 4090
4095 3593 4095
4095 907 4095
4095 4095 2716
4095 4095 2723
4095 4095 2734
4095 4095 2770
4095 4095 2880
4095 4095 3211
4095 4095 4059
4095 4095 4095
4095 4095 4095
3334 4095 1564
3333 4095 1574
3332 4095 1589
3329 4095 1637
3322 4095 1774
3299 4095 2151
3227 4095 3127
3661 4095 4095
3415 4095 4095
4095 128 1298
4095 128 1298
4095 128 1299
4095 128 1301
4095 128 1308
4095 128 1565
4095 128 4095
4095 128 4095
4095 128 4095
4095 128 1298
4095 128 1298
4095 128 1299
4095 128 1301
4095 128 1307
4095 128 1563
4095 128 4095
4095 128 4095
4095 128 4095
4095 128 1298
4095 128 1298
4095 128 1299
4095 128 1301
4095 128 1307
4095 128 1558
4095 128 4095
4095 128 4095
4095 128 4095
4095 128 1297
4095 128 1298
4095 128 1298
4095 128 1300
4095 128 1307
4095 128 1543
4095 128 4095
4095 128 4095
4095 128 4095
4095 128 1296
4095 128 1297
4095 128 1297
4095 128 1299
4095 128 1306
4095 128 1483
4095 128 4090
4095 128 4095
4095 128 4095
4095 128 1293
4095 128 1294
4095 128 1294
4095 128 1296
4095 128 1303
4095 128 1323
4095 128 4047
4095 128 4095
4095 128 4095
4095 1166 1296
4095 1159 1297
4095 1147 1297
4095 1109 1299
4095 976 1305
4095 675 1322
4095 1519 3893
4095 1813 4095
4095 128 4095
4095 4095 2310
4095 4095 2318
4095 4095 2330
4095 4095 2369
4095 4095 2486
4095 4095 2832
4095 4095 3831
4095 4095 4095
4095 3775 4095
4095 4095 128
4095 4095 128
4095 4095 128
4095 4095 128
4095 4095 128
4095 4095 906
4095 4095 2354
4095 4095 4095
4095 4095 4095
