Postproduction/IWLTBAP - Humble/LUTs by IWLTBAP (CUBE)/UTILITY/BMDFilm URSA to Rec.709/U-BMDFILM-URSA-V1-LTR.cube
# Copyright: (C) Copyright 2010-2018 by IWLTBAP SAS
# Cannot be resold, shared or otherwise redistributed
# Website: https://luts.iwltbap.com
TITLE "BMDFilm URSA Version 1 (Utility LOG to Rec.709)"
LUT_3D_SIZE 8
DOMAIN_MIN 0.000000 0.000000 0.000000
DOMAIN_MAX 0.903226 0.903226 0.903226
0.000000 0.000000 0.000000
0.129242 0.000000 0.000000
0.335266 0.000000 0.000000
0.499298 0.000000 0.000000
0.640167 0.000000 0.000000
0.762360 0.000000 0.107330
0.863739 0.000000 0.231232
0.949402 0.000000 0.356781
0.000000 0.135101 0.000000
0.075439 0.096466 0.000000
0.312958 0.032043 0.000000
0.488251 0.000000 0.000000
0.634460 0.000000 0.000000
0.759399 0.000000 0.005402
0.862244 0.000000 0.168701
0.948700 0.000000 0.320740
0.000000 0.341492 0.000000
0.000000 0.325195 0.000000
0.277893 0.300262 0.000000
0.471741 0.252106 0.000000
0.626160 0.142426 0.000000
0.755157 0.000000 0.000000
0.860168 0.000000 0.043732
0.947723 0.000000 0.259125
0.000000 0.505524 0.000000
0.000000 0.497406 0.000000
0.205139 0.485443 0.000000
0.441467 0.464172 0.000000
0.611572 0.423492 0.000000
0.747833 0.335236 0.000000
0.856567 0.053558 0.000000
0.946075 0.000000 0.101959
0.000000 0.646027 0.000000
0.000000 0.641846 0.000000
0.016327 0.635834 0.000000
0.380096 0.625336 0.000000
0.584717 0.606628 0.000000
0.734955 0.570953 0.000000
0.850464 0.494202 0.000000
0.943268 0.246704 0.000000
0.000000 0.767700 0.000000
0.000000 0.765533 0.000000
0.000000 0.762451 0.000000
0.221863 0.757141 0.000000
0.530457 0.747955 0.000000
0.711334 0.731567 0.000000
0.839905 0.700317 0.000000
0.938354 0.632965 0.000000
0.000000 0.868408 0.000000
0.000000 0.867340 0.000000
0.000000 0.865753 0.000000
0.000000 0.863159 0.000000
0.394348 0.858673 0.000000
0.663452 0.851013 0.000000
0.820679 0.837585 0.000000
0.929626 0.812164 0.000000
0.000000 0.953003 0.000000
0.000000 0.952545 0.000000
0.000000 0.951813 0.000000
0.000000 0.950623 0.000000
0.000000 0.948578 0.000000
0.542999 0.945099 0.000000
0.780518 0.939026 0.000000
0.913177 0.927917 0.000000
0.000000 0.000000 0.136475
0.115479 0.000000 0.149231
0.329285 0.000000 0.166321
0.496246 0.000000 0.192413
0.638611 0.000000 0.230591
0.761536 0.000000 0.283478
0.863342 0.000000 0.352570
0.949188 0.000000 0.436676
0.000000 0.102905 0.040741
0.058228 0.058228 0.058228
0.306396 0.000000 0.082458
0.485077 0.000000 0.118164
0.632843 0.000000 0.168182
0.758575 0.000000 0.234253
0.861847 0.000000 0.315979
0.948517 0.000000 0.411346
0.000000 0.327789 0.000000
0.000000 0.310486 0.000000
0.270294 0.284058 0.000000
0.468323 0.232300 0.000000
0.624481 0.111084 0.042236
0.754272 0.000000 0.142181
0.859741 0.000000 0.253174
0.947540 0.000000 0.370300
0.000000 0.498688 0.000000
0.000000 0.490295 0.000000
0.194977 0.477997 0.000000
0.437561 0.455963 0.000000
0.609741 0.413757 0.000000
0.746918 0.321106 0.000000
0.856140 0.022583 0.091156
0.945892 0.000000 0.281555
0.000000 0.642517 0.000000
0.000000 0.638245 0.000000
0.000000 0.632111 0.000000
0.375092 0.621429 0.000000
0.582642 0.602325 0.000000
0.733978 0.565857 0.000000
0.850006 0.487000 0.000000
0.943054 0.225494 0.003326
0.000000 0.765869 0.000000
0.000000 0.763672 0.000000
0.000000 0.760559 0.000000
0.212311 0.755219 0.000000
0.527863 0.745911 0.000000
0.710266 0.729309 0.000000
0.839447 0.697662 0.000000
0.938171 0.629181 0.000000
0.000000 0.867493 0.000000
0.000000 0.866394 0.000000
0.000000 0.864838 0.000000
0.000000 0.862213 0.000000
0.389587 0.857697 0.000000
0.662079 0.849976 0.000000
0.820160 0.836517 0.000000
0.929413 0.810883 0.000000
0.000000 0.952606 0.000000
0.000000 0.952087 0.000000
0.000000 0.951385 0.000000
0.000000 0.950195 0.000000
0.000000 0.948151 0.000000
0.540527 0.944672 0.000000
0.779785 0.938538 0.000000
0.912903 0.927368 0.000000
0.000000 0.000000 0.342957
0.094543 0.000000 0.348663
0.320587 0.000000 0.356506
0.491974 0.000000 0.369049
0.636353 0.000000 0.388580
0.760376 0.000000 0.418030
0.862762 0.000000 0.460236
0.948944 0.000000 0.517120
0.000000 0.049072 0.304810
0.034027 0.003845 0.311462
0.296844 0.000000 0.320526
0.480530 0.000000 0.334961
0.630554 0.000000 0.357330
0.757385 0.000000 0.390533
0.861298 0.000000 0.437378
0.948242 0.000000 0.499390
0.000000 0.307129 0.239105
0.000000 0.288330 0.247711
0.259277 0.259277 0.259277
0.463440 0.201508 0.277557
0.622101 0.062042 0.305298
0.753082 0.000000 0.345703
0.859131 0.000000 0.401031
0.947266 0.000000 0.471893
0.000000 0.488678 0.066589
0.000000 0.479950 0.082184
0.179932 0.467041 0.103149
0.432037 0.443939 0.135925
0.607208 0.399353 0.183075
0.745667 0.299805 0.245880
0.855560 0.000000 0.324554
0.945618 0.000000 0.417236
0.000000 0.637451 0.000000
0.000000 0.633057 0.000000
0.000000 0.626770 0.000000
0.367889 0.615814 0.000000
0.579742 0.596130 0.000000
0.732635 0.558472 0.000000
0.849396 0.476440 0.097412
0.942780 0.192322 0.284302
0.000000 0.763275 0.000000
0.000000 0.761047 0.000000
0.000000 0.757874 0.000000
0.198181 0.752411 0.000000
0.524078 0.742950 0.000000
0.708710 0.726105 0.000000
0.838776 0.693817 0.000000
0.937836 0.623718 0.000000
0.000000 0.866180 0.000000
0.000000 0.865082 0.000000
0.000000 0.863495 0.000000
0.000000 0.860809 0.000000
0.382751 0.856293 0.000000
0.660095 0.848541 0.000000
0.819397 0.834961 0.000000
0.929077 0.808990 0.000000
0.000000 0.952026 0.000000
0.000000 0.951508 0.000000
0.000000 0.950806 0.000000
0.000000 0.949554 0.000000
0.000000 0.947510 0.000000
0.536957 0.944000 0.000000
0.778778 0.937805 0.000000
0.912537 0.926575 0.000000
0.000000 0.000000 0.506958
0.055267 0.000000 0.509857
0.305298 0.000000 0.513855
0.484589 0.000000 0.520355
0.632599 0.000000 0.530884
0.758453 0.000000 0.547394
0.861786 0.000000 0.572357
0.948486 0.000000 0.608459
0.000000 0.000000 0.488373
0.000000 0.000000 0.491516
0.280060 0.000000 0.495880
0.472809 0.000000 0.502899
0.626678 0.000000 0.514221
0.755402 0.000000 0.531952
0.860291 0.000000 0.558624
0.947784 0.000000 0.596924
0.000000 0.268250 0.459442
0.000000 0.246185 0.463013
0.239685 0.211426 0.467896
0.455139 0.139160 0.475861
0.618042 0.000000 0.488525
0.751068 0.000000 0.508270
0.858154 0.000000 0.537720
0.946808 0.000000 0.579529
0.000000 0.471069 0.401825
0.000000 0.461639 0.406311
0.152405 0.447693 0.412506
0.422516 0.422516 0.422516
0.602844 0.373322 0.438324
0.743561 0.259796 0.462524
0.854553 0.000000 0.497986
0.945129 0.000000 0.547089
0.000000 0.628693 0.257050
0.000000 0.624115 0.265106
0.000000 0.617554 0.275970
0.355408 0.606049 0.293121
0.574768 0.585419 0.319611
0.730377 0.545624 0.358002
0.848328 0.457825 0.410950
0.942291 0.137878 0.479370
0.000000 0.758850 0.000000
0.000000 0.756561 0.000000
0.000000 0.753265 0.000000
0.172852 0.747681 0.000000
0.517700 0.737976 0.000000
0.706116 0.720612 0.000000
0.837677 0.687286 0.109558
0.937347 0.614319 0.288147
0.000000 0.863983 0.000000
0.000000 0.862823 0.000000
0.000000 0.861267 0.000000
0.000000 0.858551 0.000000
0.370941 0.853973 0.000000
0.656769 0.846130 0.000000
0.818115 0.832336 0.000000
0.928528 0.805847 0.000000
0.000000 0.950989 0.000000
0.000000 0.950470 0.000000
0.000000 0.949768 0.000000
0.000000 0.948517 0.000000
0.000000 0.946472 0.000000
0.530884 0.942902 0.000000
0.777039 0.936646 0.000000
0.911865 0.925262 0.000000
0.000000 0.000000 0.647369
0.000000 0.000000 0.648895
0.277649 0.000000 0.651031
0.471741 0.000000 0.654449
0.626190 0.000000 0.660065
0.755157 0.000000 0.669098
0.860168 0.000000 0.683289
0.947723 0.000000 0.704803
0.000000 0.000000 0.637939
0.000000 0.000000 0.639526
0.249329 0.000000 0.641693
0.459259 0.000000 0.645325
0.620087 0.000000 0.651184
0.752075 0.000000 0.660645
0.858643 0.000000 0.675446
0.947021 0.000000 0.697784
0.000000 0.185822 0.623779
0.000000 0.154510 0.625488
0.203094 0.102814 0.627838
0.440521 0.002930 0.631683
0.611176 0.000000 0.637970
0.747620 0.000000 0.648071
0.856506 0.000000 0.663788
0.946014 0.000000 0.687469
0.000000 0.438293 0.597809
0.000000 0.427429 0.599731
0.099060 0.411224 0.602386
0.405640 0.381653 0.606781
0.595398 0.322144 0.613861
0.739960 0.172852 0.625183
0.852814 0.000000 0.642731
0.944336 0.000000 0.668915
0.000000 0.613281 0.545990
0.000000 0.608368 0.548462
0.000000 0.601196 0.551819
0.332855 0.588745 0.557343
0.566254 0.566254 0.566254
0.726562 0.522491 0.580383
0.846588 0.423126 0.601990
0.941467 0.044617 0.633606
0.000000 0.751190 0.417633
0.000000 0.748810 0.421844
0.000000 0.745361 0.427704
0.124847 0.739502 0.437134
0.506622 0.729340 0.451996
0.701721 0.711151 0.475098
0.835815 0.675903 0.508911
0.936493 0.597687 0.556000
0.000000 0.860229 0.000000
0.000000 0.859070 0.000000
0.000000 0.857422 0.000000
0.000000 0.854675 0.000000
0.349945 0.850006 0.000000
0.651062 0.842041 0.010498
0.816040 0.827881 0.130737
0.927582 0.800415 0.292297
0.000000 0.949280 0.000000
0.000000 0.948761 0.000000
0.000000 0.948029 0.000000
0.000000 0.946808 0.000000
0.000000 0.944672 0.000000
0.520386 0.941040 0.000000
0.774109 0.934662 0.000000
0.910797 0.923035 0.000000
0.000000 0.000000 0.768921
0.000000 0.000000 0.769684
0.223419 0.000000 0.770813
0.448578 0.000000 0.772583
0.614960 0.000000 0.775574
0.749542 0.000000 0.780365
0.857422 0.000000 0.788055
0.946472 0.000000 0.799896
0.000000 0.000000 0.764069
0.000000 0.000000 0.764862
0.187653 0.000000 0.765991
0.434784 0.000000 0.767853
0.608521 0.000000 0.770874
0.746368 0.000000 0.775818
0.855865 0.000000 0.783752
0.945740 0.000000 0.796051
0.000000 0.000000 0.756927
0.000000 0.000000 0.757782
0.126892 0.000000 0.758972
0.413910 0.000000 0.760895
0.599091 0.000000 0.764099
0.741760 0.000000 0.769226
0.853699 0.000000 0.777496
0.944763 0.000000 0.790344
0.000000 0.371033 0.744385
0.000000 0.356537 0.745270
0.000000 0.334595 0.746552
0.374664 0.293335 0.748627
0.582336 0.202942 0.752045
0.733887 0.000000 0.757629
0.849976 0.000000 0.766479
0.943024 0.000000 0.780273
0.000000 0.584564 0.721344
0.000000 0.578888 0.722382
0.000000 0.570648 0.723785
0.290161 0.556244 0.726166
0.551239 0.529907 0.730042
0.719971 0.477356 0.736267
0.843658 0.349945 0.746277
0.940125 0.000000 0.761810
0.000000 0.737671 0.675262
0.000000 0.735107 0.676575
0.000000 0.731415 0.678406
0.040436 0.725098 0.681396
0.486755 0.714081 0.686310
0.694183 0.694183 0.694183
0.832703 0.655365 0.706665
0.935059 0.566772 0.725800
0.000000 0.853821 0.560181
0.000000 0.852631 0.562469
0.000000 0.850952 0.565674
0.000000 0.848114 0.570892
0.309540 0.843292 0.579285
0.641235 0.835022 0.592560
0.812408 0.820160 0.613159
0.925995 0.790710 0.643280
0.000000 0.946411 0.000000
0.000000 0.945862 0.000000
0.000000 0.945099 0.000000
0.000000 0.943817 0.000000
0.000000 0.941620 0.000000
0.501801 0.937836 0.084930
0.769135 0.931244 0.170227
0.908936 0.919220 0.290985
0.000000 0.000000 0.869476
0.000000 0.000000 0.869873
0.093811 0.000000 0.870422
0.404144 0.000000 0.871368
0.594818 0.000000 0.872894
0.739746 0.000000 0.875397
0.852722 0.000000 0.879456
0.944305 0.000000 0.886017
0.000000 0.000000 0.867065
0.000000 0.000000 0.867462
0.039642 0.000000 0.868011
0.387451 0.000000 0.868927
0.587677 0.000000 0.870483
0.736389 0.000000 0.873016
0.851166 0.000000 0.877167
0.943573 0.000000 0.883850
0.000000 0.000000 0.863525
0.000000 0.000000 0.863922
0.000000 0.000000 0.864502
0.361816 0.000000 0.865448
0.577240 0.000000 0.867065
0.731567 0.000000 0.869659
0.848907 0.000000 0.873871
0.942535 0.000000 0.880676
0.000000 0.186890 0.857452
0.000000 0.155273 0.857880
0.000000 0.106567 0.858521
0.312286 0.023956 0.859497
0.558624 0.000000 0.861145
0.723206 0.000000 0.863831
0.845154 0.000000 0.868256
0.940796 0.000000 0.875305
0.000000 0.525940 0.846924
0.000000 0.518494 0.847382
0.000000 0.507629 0.848022
0.197052 0.488312 0.849091
0.523712 0.452118 0.850800
0.708435 0.374847 0.853699
0.838684 0.147919 0.858368
0.937805 0.000000 0.865875
0.000000 0.712585 0.828125
0.000000 0.709625 0.828583
0.000000 0.705353 0.829315
0.000000 0.698059 0.830475
0.449402 0.685272 0.832397
0.680878 0.661957 0.835541
0.827362 0.615173 0.840637
0.932617 0.501831 0.848846
0.000000 0.842712 0.789734
0.000000 0.841431 0.790405
0.000000 0.839661 0.791351
0.000000 0.836670 0.792908
0.220673 0.831512 0.795471
0.623535 0.822540 0.799622
0.806183 0.806183 0.806183
0.923309 0.772888 0.816498
0.000000 0.941345 0.687836
0.000000 0.940765 0.689056
0.000000 0.939972 0.690796
0.000000 0.938599 0.693604
0.000000 0.936279 0.698242
0.466400 0.932312 0.705688
0.760529 0.925323 0.717438
0.905792 0.912506 0.735626
0.000000 0.000000 0.953827
0.000000 0.000000 0.954041
0.000000 0.000000 0.954285
0.305054 0.000000 0.954712
0.556244 0.000000 0.955414
0.722198 0.000000 0.956573
0.844696 0.000000 0.958466
0.940613 0.000000 0.961456
0.000000 0.000000 0.952728
0.000000 0.000000 0.952911
0.000000 0.000000 0.953186
0.279633 0.000000 0.953613
0.547638 0.000000 0.954315
0.718506 0.000000 0.955475
0.843048 0.000000 0.957397
0.939880 0.000000 0.960480
0.000000 0.000000 0.951141
0.000000 0.000000 0.951324
0.000000 0.000000 0.951599
0.238800 0.000000 0.952026
0.535034 0.000000 0.952759
0.713165 0.000000 0.953918
0.840729 0.000000 0.955872
0.938782 0.000000 0.958984
0.000000 0.000000 0.948395
0.000000 0.000000 0.948578
0.000000 0.000000 0.948853
0.151764 0.000000 0.949310
0.512329 0.000000 0.950043
0.703918 0.000000 0.951263
0.836792 0.000000 0.953308
0.936981 0.000000 0.956512
0.000000 0.372345 0.943665
0.000000 0.357819 0.943878
0.000000 0.335785 0.944153
0.000000 0.294067 0.944611
0.468689 0.203583 0.945404
0.687408 0.012451 0.946686
0.830017 0.000000 0.948792
0.933868 0.000000 0.952179
0.000000 0.661285 0.935181
0.000000 0.657379 0.935394
0.000000 0.651794 0.935699
0.000000 0.642120 0.936218
0.369965 0.624939 0.937073
0.656433 0.592621 0.938507
0.817902 0.523834 0.940796
0.928436 0.314026 0.944519
0.000000 0.822327 0.919189
0.000000 0.820892 0.919434
0.000000 0.818848 0.919800
0.000000 0.815338 0.920410
0.035583 0.809357 0.921417
0.590240 0.798737 0.923065
0.795013 0.778656 0.925781
0.918762 0.737427 0.930084
0.000000 0.932281 0.885620
0.000000 0.931671 0.885956
0.000000 0.930786 0.886475
0.000000 0.929291 0.887268
0.000000 0.926727 0.888641
0.390503 0.922363 0.890900
0.744843 0.914612 0.894531
0.900330 0.900330 0.900330
