Postproduction/IWLTBAP - Humble/LUTs by IWLTBAP (CUBE)/UTILITY/BMDFilm URSA to Rec.709/U-BMDFILM-URSA-V2-LTR.cube
# Copyright: (C) Copyright 2010-2018 by IWLTBAP SAS
# Cannot be resold, shared or otherwise redistributed
# Website: https://luts.iwltbap.com
TITLE "BMDFilm URSA Version 2 (Utility LOG to Rec.709)"
LUT_3D_SIZE 8
DOMAIN_MIN 0.000000 0.000000 0.000000
DOMAIN_MAX 0.903226 0.903226 0.903226
0.000000 0.000000 0.000000
0.185211 0.000000 0.000000
0.373016 0.000000 0.000000
0.560333 0.000000 0.000000
0.754120 0.000000 0.000000
0.903137 0.000000 0.000000
0.998291 0.000000 0.000000
1.000000 0.000000 0.000000
0.000000 0.159027 0.000000
0.108368 0.133484 0.000000
0.337891 0.089447 0.000000
0.537994 0.002838 0.000000
0.742432 0.000000 0.000000
0.898163 0.000000 0.000000
0.996582 0.000000 0.000000
1.000000 0.000000 0.000000
0.000000 0.340424 0.000000
0.000000 0.328094 0.000000
0.281342 0.309875 0.000000
0.504730 0.277008 0.000000
0.725159 0.211639 0.000000
0.890869 0.032532 0.000000
0.993988 0.000000 0.000000
1.000000 0.000000 0.000000
0.000000 0.518463 0.000000
0.000000 0.510559 0.000000
0.147766 0.499176 0.000000
0.443604 0.479614 0.000000
0.692535 0.444916 0.000000
0.877808 0.379761 0.000000
0.989563 0.232391 0.000000
1.000000 0.000000 0.000000
0.000000 0.712799 0.000000
0.000000 0.708221 0.000000
0.000000 0.701569 0.000000
0.314331 0.690094 0.000000
0.624390 0.669647 0.000000
0.852997 0.630188 0.000000
0.981476 0.556213 0.000000
1.000000 0.400970 0.000000
0.000000 0.871185 0.000000
0.000000 0.869171 0.000000
0.000000 0.866272 0.000000
0.000000 0.861267 0.000000
0.479309 0.852600 0.000000
0.800903 0.837036 0.000000
0.965820 0.807159 0.000000
1.000000 0.744415 0.000000
0.000000 0.978394 0.000000
0.000000 0.977631 0.000000
0.000000 0.976562 0.000000
0.000000 0.974731 0.000000
0.000000 0.971588 0.000000
0.665710 0.966095 0.000000
0.931671 0.956146 0.000000
1.000000 0.936584 0.000000
0.000000 1.000000 0.000000
0.000000 1.000000 0.000000
0.000000 1.000000 0.000000
0.000000 1.000000 0.000000
0.000000 1.000000 0.000000
0.127686 1.000000 0.000000
0.831512 1.000000 0.000000
1.000000 1.000000 0.000000
0.000000 0.000000 0.133606
0.174744 0.000000 0.126709
0.367615 0.000000 0.116364
0.556824 0.000000 0.097778
0.752258 0.000000 0.063080
0.902344 0.000000 0.002197
0.998016 0.000000 0.000000
1.000000 0.000000 0.000000
0.000000 0.123901 0.100922
0.092163 0.092163 0.092163
0.331879 0.041382 0.079620
0.534302 0.000000 0.058716
0.740509 0.000000 0.022644
0.897369 0.000000 0.000000
0.996277 0.000000 0.000000
1.000000 0.000000 0.000000
0.000000 0.323730 0.045563
0.000000 0.310791 0.036224
0.274170 0.291565 0.023041
0.500793 0.256470 0.000122
0.723114 0.184723 0.000000
0.890045 0.000000 0.000000
0.993713 0.000000 0.000000
1.000000 0.000000 0.000000
0.000000 0.507812 0.000000
0.000000 0.499725 0.000000
0.134979 0.488098 0.000000
0.439056 0.468048 0.000000
0.690063 0.432404 0.000000
0.876862 0.364868 0.000000
0.989258 0.207306 0.000000
1.000000 0.000000 0.000000
0.000000 0.706635 0.000000
0.000000 0.701874 0.000000
0.000000 0.695038 0.000000
0.307861 0.683228 0.000000
0.621216 0.662140 0.000000
0.851898 0.621399 0.000000
0.981110 0.546326 0.000000
1.000000 0.386780 0.000000
0.000000 0.868469 0.000000
0.000000 0.866394 0.000000
0.000000 0.863403 0.000000
0.000000 0.858337 0.000000
0.475128 0.849487 0.000000
0.799377 0.833618 0.000000
0.965393 0.803101 0.000000
1.000000 0.739044 0.000000
0.000000 0.977386 0.000000
0.000000 0.976624 0.000000
0.000000 0.975494 0.000000
0.000000 0.973663 0.000000
0.000000 0.970490 0.000000
0.663025 0.964905 0.000000
0.931061 0.954803 0.000000
1.000000 0.934967 0.000000
0.000000 1.000000 0.000000
0.000000 1.000000 0.000000
0.000000 1.000000 0.000000
0.000000 1.000000 0.000000
0.000000 1.000000 0.000000
0.120056 1.000000 0.000000
0.830231 1.000000 0.000000
1.000000 1.000000 0.000000
0.000000 0.000000 0.310028
0.158905 0.000000 0.306732
0.359833 0.000000 0.302032
0.551819 0.000000 0.293945
0.749603 0.000000 0.280029
0.901245 0.000000 0.255219
0.997650 0.000000 0.207825
1.000000 0.000000 0.094604
0.000000 0.060272 0.295166
0.067719 0.023346 0.291656
0.323273 0.000000 0.286713
0.529083 0.000000 0.278198
0.737793 0.000000 0.263489
0.896210 0.000000 0.237030
0.995850 0.000000 0.185669
1.000000 0.000000 0.057922
0.000000 0.298798 0.272888
0.000000 0.284729 0.269165
0.263763 0.263763 0.263763
0.495178 0.224609 0.254608
0.720184 0.140045 0.238434
0.888794 0.000000 0.209167
0.993286 0.000000 0.150146
1.000000 0.000000 0.000732
0.000000 0.492432 0.231140
0.000000 0.484039 0.226776
0.115814 0.472015 0.220428
0.432648 0.451202 0.209503
0.686584 0.414001 0.190063
0.875488 0.342773 0.153229
0.988800 0.166016 0.071411
1.000000 0.000000 0.000000
0.000000 0.697601 0.139557
0.000000 0.692657 0.132782
0.000000 0.685516 0.122681
0.298523 0.673218 0.104919
0.616760 0.650940 0.072479
0.850311 0.609039 0.013367
0.980621 0.532074 0.000000
1.000000 0.365906 0.000000
0.000000 0.864532 0.000000
0.000000 0.862396 0.000000
0.000000 0.859314 0.000000
0.000000 0.854126 0.000000
0.469177 0.845032 0.000000
0.797211 0.828674 0.000000
0.964783 0.797211 0.000000
1.000000 0.731079 0.000000
0.000000 0.975922 0.000000
0.000000 0.975159 0.000000
0.000000 0.974060 0.000000
0.000000 0.972137 0.000000
0.000000 0.968903 0.000000
0.659119 0.963226 0.000000
0.930176 0.952911 0.000000
1.000000 0.932648 0.000000
0.000000 1.000000 0.000000
0.000000 1.000000 0.000000
0.000000 1.000000 0.000000
0.000000 1.000000 0.000000
0.000000 1.000000 0.000000
0.108582 1.000000 0.000000
0.828400 1.000000 0.000000
1.000000 1.000000 0.000000
0.000000 0.000000 0.479858
0.129181 0.000000 0.477692
0.346466 0.000000 0.474701
0.543365 0.000000 0.469635
0.745209 0.000000 0.461060
0.899353 0.000000 0.446411
0.996948 0.000000 0.420776
1.000000 0.000000 0.374054
0.000000 0.000000 0.470398
0.025696 0.000000 0.468231
0.308350 0.000000 0.465149
0.520264 0.000000 0.459961
0.733185 0.000000 0.451202
0.894287 0.000000 0.436218
0.995209 0.000000 0.409912
1.000000 0.000000 0.361725
0.000000 0.251892 0.456726
0.000000 0.235168 0.454498
0.245453 0.209717 0.451324
0.485687 0.159332 0.445984
0.715149 0.037659 0.436951
0.886749 0.000000 0.421387
0.992615 0.000000 0.394073
1.000000 0.000000 0.343597
0.000000 0.465607 0.433044
0.000000 0.456696 0.430664
0.078888 0.443909 0.427307
0.421661 0.421661 0.421661
0.680695 0.381470 0.412048
0.873260 0.302582 0.395447
0.988037 0.079712 0.366180
1.000000 0.000000 0.311188
0.000000 0.681763 0.390015
0.000000 0.676483 0.387360
0.000000 0.668884 0.383636
0.282349 0.655487 0.377319
0.609283 0.631042 0.366486
0.847656 0.587891 0.347656
0.979767 0.507446 0.313873
1.000000 0.328064 0.247772
0.000000 0.857697 0.304749
0.000000 0.855499 0.301392
0.000000 0.852295 0.296539
0.000000 0.846802 0.288330
0.459076 0.837280 0.273987
0.793610 0.820129 0.248260
0.963745 0.787018 0.198700
1.000000 0.716888 0.081146
0.000000 0.973450 0.050476
0.000000 0.972656 0.042084
0.000000 0.971466 0.029938
0.000000 0.969543 0.014832
0.000000 0.966187 0.000000
0.652435 0.960358 0.000000
0.928741 0.949707 0.000000
1.000000 0.928680 0.000000
0.000000 1.000000 0.000000
0.000000 1.000000 0.000000
0.000000 1.000000 0.000000
0.000000 1.000000 0.000000
0.000000 1.000000 0.000000
0.087219 1.000000 0.000000
0.825348 1.000000 0.000000
1.000000 1.000000 0.000000
0.000000 0.000000 0.669891
0.066589 0.000000 0.668549
0.322968 0.000000 0.666595
0.528961 0.000000 0.663300
0.737732 0.000000 0.657684
0.896179 0.000000 0.647888
0.995850 0.000000 0.630707
1.000000 0.000000 0.601166
0.000000 0.000000 0.663788
0.000000 0.000000 0.662384
0.281830 0.000000 0.660370
0.505096 0.000000 0.656921
0.725403 0.000000 0.651093
0.890991 0.000000 0.640991
0.994019 0.000000 0.623566
1.000000 0.000000 0.593781
0.000000 0.146393 0.654755
0.000000 0.118591 0.653259
0.211761 0.073608 0.651154
0.469391 0.000000 0.647583
0.706482 0.000000 0.641449
0.883270 0.000000 0.631073
0.991425 0.000000 0.613464
1.000000 0.000000 0.583191
0.000000 0.416718 0.638824
0.000000 0.406708 0.637207
0.011414 0.392181 0.634949
0.402649 0.366699 0.631195
0.670593 0.319366 0.624878
0.869446 0.219360 0.614288
0.986786 0.000000 0.596344
1.000000 0.000000 0.565094
0.000000 0.652618 0.610962
0.000000 0.646484 0.609344
0.000000 0.637573 0.607025
0.252686 0.622406 0.603119
0.596619 0.596619 0.596619
0.843109 0.550751 0.585571
0.978363 0.463348 0.566620
1.000000 0.252380 0.533478
0.000000 0.845673 0.561798
0.000000 0.843292 0.559998
0.000000 0.839813 0.557465
0.000000 0.833923 0.553223
0.441742 0.823578 0.546021
0.787384 0.804993 0.533844
0.962006 0.768707 0.512787
1.000000 0.692078 0.475586
0.000000 0.969116 0.467346
0.000000 0.968292 0.465149
0.000000 0.967072 0.462036
0.000000 0.965027 0.456848
0.000000 0.961487 0.448029
0.640625 0.955322 0.432831
0.926239 0.944092 0.406097
1.000000 0.921722 0.357086
0.000000 1.000000 0.228149
0.000000 1.000000 0.223358
0.000000 1.000000 0.216461
0.000000 1.000000 0.204346
0.000000 1.000000 0.182434
0.042236 1.000000 0.142944
0.820129 1.000000 0.077545
1.000000 1.000000 0.000000
0.000000 0.000000 0.837219
0.000000 0.000000 0.836609
0.279602 0.000000 0.835693
0.503967 0.000000 0.834229
0.724792 0.000000 0.831726
0.890747 0.000000 0.827484
0.993988 0.000000 0.820099
1.000000 0.000000 0.807098
0.000000 0.000000 0.834412
0.000000 0.000000 0.833801
0.231201 0.000000 0.832886
0.478790 0.000000 0.831360
0.711517 0.000000 0.828857
0.885315 0.000000 0.824524
0.992096 0.000000 0.817017
1.000000 0.000000 0.803741
0.000000 0.000000 0.830444
0.000000 0.000000 0.829773
0.141479 0.000000 0.828857
0.440796 0.000000 0.827301
0.690979 0.000000 0.824677
0.877289 0.000000 0.820251
0.989410 0.000000 0.812592
1.000000 0.000000 0.798981
0.000000 0.318176 0.823547
0.000000 0.304901 0.822876
0.000000 0.285217 0.821899
0.368713 0.249176 0.820282
0.652466 0.172455 0.817566
0.862823 0.000000 0.812958
0.984650 0.000000 0.804962
1.000000 0.000000 0.790741
0.000000 0.596039 0.811493
0.000000 0.589233 0.810730
0.000000 0.579498 0.809723
0.193573 0.562958 0.807983
0.574799 0.534088 0.805084
0.835266 0.481598 0.800140
0.975952 0.377136 0.791534
1.000000 0.060760 0.776154
0.000000 0.823486 0.789429
0.000000 0.820740 0.788605
0.000000 0.816772 0.787415
0.000000 0.810028 0.785461
0.410858 0.798157 0.782166
0.776550 0.776550 0.776550
0.959106 0.735321 0.766815
1.000000 0.645630 0.749878
0.000000 0.961456 0.746246
0.000000 0.960541 0.745270
0.000000 0.959229 0.743866
0.000000 0.956970 0.741547
0.000000 0.953125 0.737610
0.620026 0.946350 0.730927
0.922028 0.933960 0.719086
1.000000 0.909119 0.698120
0.000000 1.000000 0.651428
0.000000 1.000000 0.649933
0.000000 1.000000 0.647766
0.000000 1.000000 0.644135
0.000000 1.000000 0.637970
0.000000 1.000000 0.627472
0.811157 1.000000 0.609619
1.000000 1.000000 0.579010
0.000000 0.000000 0.956268
0.000000 0.000000 0.956024
0.187500 0.000000 0.955658
0.459045 0.000000 0.955109
0.700745 0.000000 0.954132
0.881134 0.000000 0.952515
0.990692 0.000000 0.949768
1.000000 0.000000 0.944946
0.000000 0.000000 0.955200
0.000000 0.000000 0.954956
0.109741 0.000000 0.954590
0.431152 0.000000 0.954010
0.685577 0.000000 0.953033
0.875305 0.000000 0.951385
0.988739 0.000000 0.948608
1.000000 0.000000 0.943726
0.000000 0.000000 0.953674
0.000000 0.000000 0.953400
0.000000 0.000000 0.953033
0.388306 0.000000 0.952454
0.662933 0.000000 0.951477
0.866638 0.000000 0.949799
0.985931 0.000000 0.946960
1.000000 0.000000 0.941986
0.000000 0.012726 0.951050
0.000000 0.000000 0.950806
0.000000 0.000000 0.950409
0.303711 0.000000 0.949799
0.618896 0.000000 0.948792
0.851074 0.000000 0.947083
0.980896 0.000000 0.944153
1.000000 0.000000 0.939056
0.000000 0.486725 0.946533
0.000000 0.478210 0.946259
0.000000 0.465973 0.945892
0.056641 0.444794 0.945251
0.536346 0.407043 0.944183
0.821259 0.333435 0.942383
0.971741 0.139008 0.939331
1.000000 0.000000 0.933960
0.000000 0.778442 0.938538
0.000000 0.774933 0.938263
0.000000 0.769897 0.937836
0.000000 0.761353 0.937134
0.353210 0.746552 0.935974
0.757202 0.719330 0.934021
0.954010 0.666351 0.930695
1.000000 0.546143 0.924835
0.000000 0.947083 0.923645
0.000000 0.946014 0.923309
0.000000 0.944458 0.922852
0.000000 0.941864 0.922028
0.000000 0.937317 0.920715
0.584503 0.929352 0.918457
0.914612 0.914612 0.914612
1.000000 0.884857 0.907806
0.000000 1.000000 0.893219
0.000000 1.000000 0.892792
0.000000 1.000000 0.892181
0.000000 1.000000 0.891174
0.000000 1.000000 0.889435
0.000000 1.000000 0.886536
0.795410 1.000000 0.881561
1.000000 1.000000 0.872742
0.000000 0.000000 1.000000
0.000000 0.000000 1.000000
0.000000 0.000000 1.000000
0.371704 0.000000 1.000000
0.654236 0.000000 1.000000
0.863403 0.000000 1.000000
0.984833 0.000000 1.000000
1.000000 0.000000 1.000000
0.000000 0.000000 1.000000
0.000000 0.000000 1.000000
0.000000 0.000000 1.000000
0.336273 0.000000 1.000000
0.635651 0.000000 1.000000
0.856812 0.000000 1.000000
0.982727 0.000000 1.000000
1.000000 0.000000 1.000000
0.000000 0.000000 1.000000
0.000000 0.000000 1.000000
0.000000 0.000000 1.000000
0.278931 0.000000 1.000000
0.607697 0.000000 1.000000
0.846985 0.000000 1.000000
0.979614 0.000000 1.000000
1.000000 0.000000 1.000000
0.000000 0.000000 1.000000
0.000000 0.000000 1.000000
0.000000 0.000000 1.000000
0.142853 0.000000 1.000000
0.558624 0.000000 1.000000
0.829285 0.000000 1.000000
0.974182 0.000000 1.000000
1.000000 0.000000 1.000000
0.000000 0.176727 1.000000
0.000000 0.153198 1.000000
0.000000 0.118866 1.000000
0.000000 0.076172 1.000000
0.464539 0.000000 1.000000
0.795013 0.000000 1.000000
0.964233 0.000000 1.000000
1.000000 0.000000 1.000000
0.000000 0.674896 1.000000
0.000000 0.669769 1.000000
0.000000 0.662262 1.000000
0.000000 0.648712 1.000000
0.222198 0.623749 1.000000
0.721649 0.580048 1.000000
0.944794 0.497559 1.000000
1.000000 0.301270 1.000000
0.000000 0.916901 1.000000
0.000000 0.915466 1.000000
0.000000 0.913391 1.000000
0.000000 0.909912 1.000000
0.000000 0.903839 1.000000
0.519470 0.893036 1.000000
0.901001 0.872955 1.000000
1.000000 0.831268 1.000000
0.000000 1.000000 1.000000
0.000000 1.000000 1.000000
0.000000 1.000000 1.000000
0.000000 1.000000 1.000000
0.000000 1.000000 1.000000
0.000000 1.000000 1.000000
0.764648 1.000000 1.000000
1.000000 1.000000 1.000000
