Postproduction/IWLTBAP - Humble/LUTs by IWLTBAP (CUBE)/UTILITY/BMDFilm URSA to Rec.709/U-BMDFILM-URSA-V2-LTR.cube
# Copyright: (C) Copyright 2010-2018 by IWLTBAP SAS
# Cannot be resold, shared or otherwise redistributed
# Website: https://luts.iwltbap.com
TITLE "BMDFilm URSA Version 2 (Utility LOG to Rec.709)"
LUT_3D_SIZE 5
DOMAIN_MIN 0.000000 0.000000 0.000000
DOMAIN_MAX 0.903226 0.903226 0.903226
0.000000 0.000000 0.000000
0.327728 0.000000 0.000000
0.662292 0.000000 0.000000
0.931671 0.000000 0.000000
1.000000 0.000000 0.000000
0.000000 0.297089 0.000000
0.241211 0.268372 0.000000
0.625244 0.189056 0.000000
0.923889 0.000000 0.000000
1.000000 0.000000 0.000000
0.000000 0.615082 0.000000
0.000000 0.601959 0.000000
0.530670 0.571259 0.000000
0.904114 0.487152 0.000000
1.000000 0.123657 0.000000
0.000000 0.902893 0.000000
0.000000 0.899658 0.000000
0.108673 0.892090 0.000000
0.838348 0.871674 0.000000
1.000000 0.805420 0.000000
0.000000 1.000000 0.000000
0.000000 1.000000 0.000000
0.000000 1.000000 0.000000
0.395050 1.000000 0.000000
1.000000 1.000000 0.000000
0.000000 0.000000 0.268524
0.315338 0.000000 0.260895
0.656738 0.000000 0.242798
0.930450 0.000000 0.192413
1.000000 0.000000 0.000000
0.000000 0.257843 0.233154
0.224426 0.224426 0.224426
0.618896 0.124451 0.203522
0.922577 0.000000 0.142303
1.000000 0.000000 0.000000
0.000000 0.597382 0.125946
0.000000 0.583862 0.111115
0.523193 0.552032 0.073883
0.902557 0.464203 0.000000
1.000000 0.051422 0.000000
0.000000 0.898560 0.000000
0.000000 0.895203 0.000000
0.089294 0.887329 0.000000
0.835907 0.866180 0.000000
1.000000 0.797119 0.000000
0.000000 1.000000 0.000000
0.000000 1.000000 0.000000
0.000000 1.000000 0.000000
0.383881 1.000000 0.000000
1.000000 1.000000 0.000000
0.000000 0.000000 0.571503
0.285492 0.000000 0.567963
0.643616 0.000000 0.559998
0.927673 0.000000 0.539948
1.000000 0.000000 0.487152
0.000000 0.136688 0.555847
0.181702 0.074707 0.552216
0.604584 0.000000 0.544006
0.919586 0.000000 0.523254
1.000000 0.000000 0.468506
0.000000 0.555420 0.518768
0.000000 0.540741 0.514862
0.505981 0.505981 0.505981
0.898987 0.407715 0.483521
1.000000 0.000000 0.423340
0.000000 0.888184 0.413147
0.000000 0.884552 0.408142
0.033905 0.876068 0.396759
0.830322 0.853088 0.367188
1.000000 0.777222 0.282074
0.000000 1.000000 0.000000
0.000000 1.000000 0.000000
0.000000 1.000000 0.000000
0.356750 1.000000 0.000000
1.000000 1.000000 0.000000
0.000000 0.000000 0.871857
0.195374 0.000000 0.870850
0.609161 0.000000 0.868561
0.920563 0.000000 0.862885
1.000000 0.000000 0.847900
0.000000 0.000000 0.867401
0.020630 0.000000 0.866364
0.567993 0.000000 0.864014
0.911926 0.000000 0.858154
1.000000 0.000000 0.842682
0.000000 0.434235 0.856842
0.000000 0.414948 0.855743
0.460968 0.367828 0.853210
0.889984 0.207733 0.846893
1.000000 0.000000 0.830292
0.000000 0.859222 0.827759
0.000000 0.854797 0.826385
0.000000 0.844360 0.823395
0.815826 0.815826 0.815826
1.000000 0.719971 0.795746
0.000000 1.000000 0.727631
0.000000 1.000000 0.725403
0.000000 1.000000 0.720337
0.275665 1.000000 0.707733
1.000000 1.000000 0.675690
0.000000 0.000000 1.000000
0.000000 0.000000 1.000000
0.515594 0.000000 1.000000
0.901001 0.000000 1.000000
1.000000 0.000000 1.000000
0.000000 0.000000 1.000000
0.000000 0.000000 1.000000
0.465515 0.000000 1.000000
0.890839 0.000000 1.000000
1.000000 0.000000 1.000000
0.000000 0.000000 1.000000
0.000000 0.000000 1.000000
0.324280 0.000000 1.000000
0.864746 0.000000 1.000000
1.000000 0.000000 1.000000
0.000000 0.754211 1.000000
0.000000 0.746552 1.000000
0.000000 0.727600 1.000000
0.774292 0.676422 1.000000
1.000000 0.492401 1.000000
0.000000 1.000000 1.000000
0.000000 1.000000 1.000000
0.000000 1.000000 1.000000
0.115326 1.000000 1.000000
1.000000 1.000000 1.000000
