Postproduction/IWLTBAP - Humble/LUTs by IWLTBAP (CUBE)/UTILITY/BMDFilm URSA to Rec.709/U-BMDFILM-URSA-V3-LTR.cube
# Copyright: (C) Copyright 2010-2018 by IWLTBAP SAS
# Cannot be resold, shared or otherwise redistributed
# Website: https://luts.iwltbap.com
TITLE "BMDFilm URSA Version 3 (Utility LOG to Rec.709)"
LUT_3D_SIZE 32
0.000000 0.000000 0.000000
0.019043 0.000000 0.000000
0.088379 0.000000 0.000000
0.176453 0.000000 0.000000
0.258606 0.000000 0.000000
0.345886 0.000000 0.000000
0.443481 0.000000 0.000000
0.555695 0.000000 0.000000
0.681885 0.000000 0.000000
0.782074 0.000000 0.000000
0.808716 0.000000 0.000000
0.819458 0.000000 0.000000
0.830292 0.000000 0.000000
0.841248 0.000000 0.000000
0.852325 0.000000 0.000000
0.863129 0.000000 0.000000
0.873596 0.000000 0.000000
0.884003 0.000000 0.000000
0.894104 0.000000 0.000000
0.903961 0.000000 0.000000
0.913544 0.000000 0.000000
0.922882 0.000000 0.000000
0.931976 0.000000 0.000000
0.940826 0.000000 0.000000
0.949463 0.000000 0.000000
0.956787 0.000000 0.000000
0.963989 0.000000 0.000000
0.971191 0.000000 0.000000
0.978394 0.000000 0.000000
0.985596 0.000000 0.000000
0.992798 0.000000 0.000000
1.000000 0.000000 0.000000
0.000000 0.007202 0.000000
0.007202 0.007202 0.000000
0.051910 0.007202 0.000000
0.146606 0.007202 0.000000
0.231415 0.007202 0.000000
0.317780 0.007202 0.000000
0.412384 0.007202 0.000000
0.520416 0.007202 0.000000
0.645599 0.007202 0.000000
0.759827 0.007202 0.000000
0.808228 0.007202 0.000000
0.819000 0.007202 0.000000
0.829895 0.007202 0.000000
0.840851 0.007202 0.000000
0.851990 0.007202 0.000000
0.862854 0.007202 0.000000
0.873383 0.007202 0.000000
0.883820 0.007202 0.000000
0.893951 0.007202 0.000000
0.903839 0.007202 0.000000
0.913452 0.007202 0.000000
0.922821 0.007202 0.000000
0.931915 0.007202 0.000000
0.940765 0.007202 0.000000
0.949432 0.007202 0.000000
0.956787 0.007202 0.000000
0.963989 0.007202 0.000000
0.971191 0.007202 0.000000
0.978394 0.007202 0.000000
0.985596 0.007202 0.000000
0.992798 0.007202 0.000000
1.000000 0.007202 0.000000
0.000000 0.038513 0.000000
0.007202 0.030090 0.000000
0.020142 0.020721 0.000000
0.110199 0.014648 0.000000
0.201630 0.014404 0.000000
0.288513 0.014404 0.000000
0.381836 0.014404 0.000000
0.486450 0.014404 0.000000
0.607513 0.014404 0.000000
0.733826 0.014404 0.000000
0.807739 0.014404 0.000000
0.818542 0.014404 0.000000
0.829468 0.014404 0.000000
0.840485 0.014404 0.000000
0.851654 0.014404 0.000000
0.862579 0.014404 0.000000
0.873169 0.014404 0.000000
0.883636 0.014404 0.000000
0.893799 0.014404 0.000000
0.903717 0.014404 0.000000
0.913361 0.014404 0.000000
0.922729 0.014404 0.000000
0.931854 0.014404 0.000000
0.940735 0.014404 0.000000
0.949402 0.014404 0.000000
0.956787 0.014404 0.000000
0.963989 0.014404 0.000000
0.971191 0.014404 0.000000
0.978394 0.014404 0.000000
0.985596 0.014404 0.000000
0.992798 0.014404 0.000000
1.000000 0.014404 0.000000
0.000000 0.096863 0.000000
0.007202 0.088623 0.000000
0.014404 0.076813 0.000000
0.053772 0.057648 0.000000
0.153656 0.036621 0.000000
0.245789 0.025879 0.000000
0.340057 0.024963 0.000000
0.444519 0.023926 0.000000
0.560822 0.022736 0.000000
0.681152 0.021606 0.000000
0.770630 0.021606 0.000000
0.818085 0.021606 0.000000
0.829041 0.021606 0.000000
0.840118 0.021606 0.000000
0.851318 0.021606 0.000000
0.862305 0.021606 0.000000
0.872955 0.021606 0.000000
0.883453 0.021606 0.000000
0.893677 0.021606 0.000000
0.903595 0.021606 0.000000
0.913269 0.021606 0.000000
0.922668 0.021606 0.000000
0.931793 0.021606 0.000000
0.940704 0.021606 0.000000
0.949371 0.021606 0.000000
0.956787 0.021606 0.000000
0.963989 0.021606 0.000000
0.971191 0.021606 0.000000
0.978394 0.021606 0.000000
0.985596 0.021606 0.000000
0.992798 0.021606 0.000000
1.000000 0.021606 0.000000
0.000000 0.152374 0.000000
0.007202 0.145294 0.000000
0.014404 0.137238 0.000000
0.024078 0.123779 0.000000
0.096252 0.100983 0.000000
0.195312 0.073120 0.000000
0.279297 0.045197 0.000000
0.357697 0.036560 0.000000
0.442657 0.035492 0.000000
0.534058 0.034210 0.000000
0.627655 0.032776 0.000000
0.722626 0.031036 0.000000
0.797913 0.029022 0.000000
0.839722 0.028809 0.000000
0.850952 0.028809 0.000000
0.862030 0.028809 0.000000
0.872711 0.028809 0.000000
0.883240 0.028809 0.000000
0.893524 0.028809 0.000000
0.903473 0.028809 0.000000
0.913177 0.028809 0.000000
0.922577 0.028809 0.000000
0.931732 0.028809 0.000000
0.940643 0.028809 0.000000
0.949341 0.028809 0.000000
0.956787 0.028809 0.000000
0.963989 0.028809 0.000000
0.971191 0.028809 0.000000
0.978394 0.028809 0.000000
0.985596 0.028809 0.000000
0.992798 0.028809 0.000000
1.000000 0.028809 0.000000
0.000000 0.201324 0.000000
0.007202 0.193237 0.000000
0.014404 0.185699 0.000000
0.021606 0.177948 0.000000
0.046234 0.159576 0.000000
0.139191 0.141052 0.000000
0.218414 0.120941 0.000000
0.289093 0.095337 0.000000
0.357300 0.065735 0.000000
0.425537 0.047852 0.000000
0.498077 0.045654 0.000000
0.575592 0.044281 0.000000
0.659149 0.042511 0.000000
0.745697 0.040405 0.000000
0.816772 0.037903 0.000000
0.861694 0.036011 0.000000
0.872467 0.036011 0.000000
0.883026 0.036011 0.000000
0.893341 0.036011 0.000000
0.903351 0.036011 0.000000
0.913055 0.036011 0.000000
0.922516 0.036011 0.000000
0.931671 0.036011 0.000000
0.940613 0.036011 0.000000
0.949280 0.036011 0.000000
0.956787 0.036011 0.000000
0.963989 0.036011 0.000000
0.971191 0.036011 0.000000
0.978394 0.036011 0.000000
0.985596 0.036011 0.000000
0.992798 0.036011 0.000000
1.000000 0.036011 0.000000
0.000000 0.238800 0.000000
0.007202 0.231781 0.000000
0.014404 0.224396 0.000000
0.021606 0.216797 0.000000
0.031982 0.206055 0.000000
0.092804 0.192322 0.000000
0.178223 0.179352 0.000000
0.247223 0.164917 0.000000
0.311188 0.146698 0.000000
0.373688 0.123169 0.000000
0.436157 0.094330 0.000000
0.500366 0.062805 0.000000
0.568115 0.055298 0.000000
0.640930 0.053802 0.000000
0.720398 0.051849 0.000000
0.795166 0.049316 0.000000
0.851135 0.046204 0.000000
0.882782 0.043213 0.000000
0.893127 0.043213 0.000000
0.903168 0.043213 0.000000
0.912933 0.043213 0.000000
0.922394 0.043213 0.000000
0.931610 0.043213 0.000000
0.940552 0.043213 0.000000
0.949249 0.043213 0.000000
0.956787 0.043213 0.000000
0.963989 0.043213 0.000000
0.971191 0.043213 0.000000
0.978394 0.043213 0.000000
0.985596 0.043213 0.000000
0.992798 0.043213 0.000000
1.000000 0.043213 0.000000
0.000000 0.272247 0.000000
0.007202 0.266968 0.000000
0.014404 0.260681 0.000000
0.021606 0.254517 0.000000
0.028809 0.248260 0.000000
0.057434 0.238129 0.000000
0.145233 0.227844 0.000000
0.217133 0.217834 0.000000
0.279999 0.206329 0.000000
0.340057 0.192413 0.000000
0.399261 0.175385 0.000000
0.458679 0.154419 0.000000
0.519745 0.123413 0.000000
0.583069 0.082703 0.000000
0.649933 0.064575 0.000000
0.721771 0.062836 0.000000
0.790619 0.060608 0.000000
0.845093 0.057617 0.000000
0.890961 0.053711 0.000000
0.902985 0.050415 0.000000
0.912781 0.050415 0.000000
0.922302 0.050415 0.000000
0.931519 0.050415 0.000000
0.940460 0.050415 0.000000
0.949188 0.050415 0.000000
0.956787 0.050415 0.000000
0.963989 0.050415 0.000000
0.971191 0.050415 0.000000
0.978394 0.050415 0.000000
0.985596 0.050415 0.000000
0.992798 0.050415 0.000000
1.000000 0.050415 0.000000
0.000000 0.307068 0.000000
0.007202 0.302460 0.000000
0.014404 0.297394 0.000000
0.021606 0.292358 0.000000
0.028809 0.287537 0.000000
0.041656 0.280884 0.000000
0.110321 0.272430 0.000000
0.190887 0.264252 0.000000
0.255859 0.255768 0.000000
0.315460 0.246124 0.000000
0.373322 0.234467 0.000000
0.430756 0.220703 0.000000
0.488739 0.204041 0.000000
0.548462 0.181152 0.000000
0.610199 0.148743 0.000000
0.674042 0.104156 0.000000
0.739258 0.073425 0.000000
0.801575 0.071411 0.000000
0.851074 0.068756 0.000000
0.891663 0.065033 0.000000
0.912628 0.060028 0.000000
0.922180 0.057617 0.000000
0.931427 0.057617 0.000000
0.940399 0.057617 0.000000
0.949158 0.057617 0.000000
0.956787 0.057617 0.000000
0.963989 0.057617 0.000000
0.971191 0.057617 0.000000
0.978394 0.057617 0.000000
0.985596 0.057617 0.000000
0.992798 0.057617 0.000000
1.000000 0.057617 0.000000
0.000000 0.342896 0.000000
0.007202 0.338318 0.000000
0.014404 0.333954 0.000000
0.021606 0.329834 0.000000
0.028809 0.325958 0.000000
0.036011 0.322235 0.000000
0.073669 0.315308 0.000000
0.164124 0.308624 0.000000
0.234283 0.301910 0.000000
0.295685 0.294739 0.000000
0.353790 0.286591 0.000000
0.410706 0.276703 0.000000
0.467590 0.265228 0.000000
0.525360 0.251343 0.000000
0.584717 0.232971 0.000000
0.645966 0.208923 0.000000
0.706696 0.178162 0.000000
0.766937 0.130585 0.000000
0.822266 0.090088 0.000000
0.865417 0.079498 0.000000
0.901367 0.076141 0.000000
0.922028 0.071289 0.000000
0.931305 0.064789 0.000000
0.940308 0.064789 0.000000
0.949097 0.064789 0.000000
0.956787 0.064789 0.000000
0.963989 0.064789 0.000000
0.971191 0.064789 0.000000
0.978394 0.064789 0.000000
0.985596 0.064789 0.000000
0.992798 0.064789 0.000000
1.000000 0.064789 0.000000
0.000000 0.379028 0.000000
0.007202 0.375336 0.000000
0.014404 0.371918 0.000000
0.021606 0.368713 0.000000
0.028809 0.365723 0.000000
0.036011 0.362640 0.000000
0.046906 0.358551 0.000000
0.130463 0.353088 0.000000
0.213104 0.347900 0.000000
0.278229 0.342407 0.000000
0.337982 0.336395 0.000000
0.395508 0.329407 0.000000
0.452301 0.320984 0.000000
0.509552 0.311035 0.000000
0.567749 0.299011 0.000000
0.627686 0.283234 0.000000
0.687012 0.264160 0.000000
0.745483 0.240784 0.000000
0.801819 0.207916 0.000000
0.847260 0.160553 0.000000
0.884430 0.106689 0.000000
0.916382 0.086884 0.000000
0.931152 0.082367 0.000000
0.940216 0.075836 0.000000
0.949005 0.072021 0.000000
0.956787 0.072021 0.000000
0.963989 0.072021 0.000000
0.971191 0.072021 0.000000
0.978394 0.072021 0.000000
0.985596 0.072021 0.000000
0.992798 0.072021 0.000000
1.000000 0.072021 0.000000
0.000000 0.417328 0.000000
0.007202 0.414581 0.000000
0.014404 0.412048 0.000000
0.021606 0.409637 0.000000
0.028809 0.407288 0.000000
0.036011 0.404999 0.000000
0.043213 0.402679 0.000000
0.086792 0.398804 0.000000
0.188385 0.394775 0.000000
0.261292 0.390717 0.000000
0.324005 0.386169 0.000000
0.383087 0.380890 0.000000
0.440704 0.374847 0.000000
0.498169 0.367523 0.000000
0.556274 0.358734 0.000000
0.615662 0.347900 0.000000
0.674744 0.334290 0.000000
0.732788 0.318207 0.000000
0.789673 0.298340 0.000000
0.836975 0.272522 0.000000
0.874268 0.238525 0.000000
0.906677 0.185303 0.000000
0.931000 0.124084 0.000000
0.940094 0.093353 0.000000
0.948914 0.086884 0.000000
0.956787 0.079224 0.000000
0.963989 0.079224 0.000000
0.971191 0.079224 0.000000
0.978394 0.079224 0.000000
0.985596 0.079224 0.000000
0.992798 0.079224 0.000000
1.000000 0.079224 0.000000
0.000000 0.458252 0.000000
0.007202 0.456360 0.000000
0.014404 0.454529 0.000000
0.021606 0.452820 0.000000
0.028809 0.451080 0.000000
0.036011 0.449432 0.000000
0.043213 0.447815 0.000000
0.053375 0.445862 0.000000
0.155029 0.442993 0.000000
0.241821 0.440002 0.000000
0.310211 0.436920 0.000000
0.372070 0.433136 0.000000
0.431427 0.428680 0.000000
0.489899 0.423370 0.000000
0.548523 0.416748 0.000000
0.608551 0.408813 0.000000
0.668640 0.398956 0.000000
0.726776 0.387054 0.000000
0.783875 0.372589 0.000000
0.832733 0.355103 0.000000
0.870697 0.332855 0.000000
0.902374 0.304504 0.000000
0.930237 0.266479 0.000000
0.939941 0.208527 0.000000
0.948822 0.121826 0.000000
0.956787 0.097809 0.000000
0.963989 0.088593 0.000000
0.971191 0.086426 0.000000
0.978394 0.086426 0.000000
0.985596 0.086426 0.000000
0.992798 0.086426 0.000000
1.000000 0.086426 0.000000
0.000000 0.501953 0.000000
0.007202 0.500732 0.000000
0.014404 0.499573 0.000000
0.021606 0.498413 0.000000
0.028809 0.497314 0.000000
0.036011 0.496307 0.000000
0.043213 0.495300 0.000000
0.050415 0.494171 0.000000
0.101227 0.492676 0.000000
0.216034 0.491180 0.000000
0.293915 0.489197 0.000000
0.360718 0.486938 0.000000
0.422974 0.484009 0.000000
0.483490 0.480255 0.000000
0.543915 0.475677 0.000000
0.604645 0.469635 0.000000
0.665955 0.462219 0.000000
0.724945 0.453369 0.000000
0.782684 0.442444 0.000000
0.832153 0.429169 0.000000
0.870453 0.413086 0.000000
0.902374 0.393066 0.000000
0.929962 0.367859 0.000000
0.939789 0.336151 0.000000
0.948700 0.291260 0.000000
0.956787 0.224274 0.000000
0.963989 0.134613 0.000000
0.971191 0.099335 0.000000
0.978394 0.093597 0.000000
0.985596 0.093597 0.000000
0.992798 0.093597 0.000000
1.000000 0.093597 0.000000
0.000000 0.548553 0.000000
0.007202 0.547974 0.000000
0.014404 0.547302 0.000000
0.021606 0.546783 0.000000
0.028809 0.546295 0.000000
0.036011 0.545898 0.000000
0.043213 0.545502 0.000000
0.050415 0.544983 0.000000
0.062347 0.544403 0.000000
0.174042 0.544220 0.000000
0.272430 0.543884 0.000000
0.346802 0.542786 0.000000
0.413818 0.541412 0.000000
0.477386 0.539093 0.000000
0.539917 0.536041 0.000000
0.602844 0.532135 0.000000
0.666443 0.526672 0.000000
0.727844 0.519928 0.000000
0.787079 0.511444 0.000000
0.836548 0.500732 0.000000
0.875061 0.487640 0.000000
0.907288 0.471558 0.000000
0.930389 0.451904 0.000000
0.939606 0.427551 0.000000
0.948547 0.396667 0.000000
0.956787 0.357025 0.000000
0.963989 0.305939 0.000000
0.971191 0.220184 0.000000
0.978394 0.110077 0.000000
0.985596 0.100800 0.000000
0.992798 0.100800 0.000000
1.000000 0.100800 0.000000
0.000000 0.598236 0.000000
0.007202 0.598236 0.000000
0.014404 0.598297 0.000000
0.021606 0.598541 0.000000
0.028809 0.598877 0.000000
0.036011 0.599243 0.000000
0.043213 0.599426 0.000000
0.050415 0.599548 0.000000
0.058777 0.599579 0.000000
0.088745 0.599731 0.000000
0.238464 0.601013 0.000000
0.328308 0.601654 0.000000
0.402008 0.601501 0.000000
0.470215 0.600983 0.000000
0.536102 0.599579 0.000000
0.602112 0.597290 0.000000
0.669617 0.593933 0.000000
0.735229 0.588867 0.000000
0.797516 0.582153 0.000000
0.845734 0.573425 0.000000
0.883728 0.562195 0.000000
0.915527 0.548340 0.000000
0.930115 0.531708 0.000000
0.939392 0.511475 0.000000
0.948395 0.486603 0.000000
0.956787 0.455627 0.000000
0.963989 0.418579 0.000000
0.971191 0.369324 0.000000
0.978394 0.296173 0.000000
0.985596 0.150085 0.000000
0.992798 0.109924 0.000000
1.000000 0.108002 0.000000
0.000000 0.650238 0.000000
0.007202 0.650909 0.000000
0.014404 0.651672 0.000000
0.021606 0.652496 0.000000
0.028809 0.653320 0.000000
0.036011 0.654114 0.000000
0.043213 0.654938 0.000000
0.050415 0.655731 0.000000
0.057617 0.656433 0.000000
0.064789 0.657104 0.000000
0.170624 0.659058 0.000000
0.298248 0.662201 0.000000
0.384094 0.664642 0.000000
0.458832 0.666260 0.000000
0.530212 0.667145 0.000000
0.600372 0.666870 0.000000
0.671967 0.665314 0.000000
0.743591 0.662231 0.000000
0.807465 0.657135 0.000000
0.854858 0.650116 0.000000
0.892120 0.640869 0.000000
0.919983 0.629150 0.000000
0.929779 0.614532 0.000000
0.939148 0.596832 0.000000
0.948212 0.575623 0.000000
0.956787 0.549988 0.000000
0.963989 0.520142 0.000000
0.971191 0.482391 0.000000
0.978394 0.433533 0.000000
0.985596 0.362946 0.000000
0.992798 0.233215 0.000000
1.000000 0.119202 0.000000
0.000000 0.703705 0.000000
0.007202 0.704956 0.000000
0.014404 0.706329 0.000000
0.021606 0.707794 0.000000
0.028809 0.709290 0.000000
0.036011 0.710876 0.000000
0.043213 0.712555 0.000000
0.050415 0.714355 0.000000
0.057617 0.716095 0.000000
0.064789 0.717651 0.000000
0.098480 0.719391 0.000000
0.236877 0.724579 0.000000
0.352173 0.729980 0.000000
0.439240 0.733582 0.000000
0.518219 0.736084 0.000000
0.594635 0.737488 0.000000
0.670959 0.737793 0.000000
0.748322 0.736725 0.000000
0.813721 0.733948 0.000000
0.862366 0.729218 0.000000
0.899811 0.722504 0.000000
0.919464 0.713593 0.000000
0.929352 0.702026 0.000000
0.938843 0.687073 0.000000
0.947998 0.668060 0.000000
0.956787 0.644958 0.000000
0.963989 0.619720 0.000000
0.971191 0.588440 0.000000
0.978394 0.549072 0.000000
0.985596 0.498840 0.000000
0.992798 0.429871 0.000000
1.000000 0.314331 0.000000
0.000000 0.760101 0.000000
0.007202 0.762268 0.000000
0.014404 0.764526 0.000000
0.021606 0.766937 0.000000
0.028809 0.769226 0.000000
0.036011 0.771820 0.000000
0.043213 0.774414 0.000000
0.050415 0.777008 0.000000
0.057617 0.779663 0.000000
0.064789 0.782440 0.000000
0.072021 0.784912 0.000000
0.111572 0.787262 0.000000
0.291199 0.794800 0.000000
0.406555 0.800323 0.000000
0.497742 0.804138 0.000000
0.582489 0.806671 0.000000
0.665009 0.808350 0.000000
0.747925 0.808929 0.000000
0.817993 0.808350 0.000000
0.867645 0.805786 0.000000
0.906128 0.801575 0.000000
0.918823 0.795563 0.000000
0.928894 0.787506 0.000000
0.938507 0.776672 0.000000
0.947723 0.762512 0.000000
0.956604 0.744537 0.000000
0.963989 0.722626 0.000000
0.971191 0.694824 0.000000
0.978394 0.661316 0.000000
0.985596 0.619629 0.000000
0.992798 0.566803 0.000000
1.000000 0.496490 0.000000
0.000000 0.816101 0.000000
0.007202 0.818756 0.000000
0.014404 0.821411 0.000000
0.021606 0.824158 0.000000
0.028809 0.827118 0.000000
0.036011 0.829895 0.000000
0.043213 0.832458 0.000000
0.050415 0.834930 0.000000
0.057617 0.837402 0.000000
0.064789 0.839783 0.000000
0.072021 0.841858 0.000000
0.084717 0.843781 0.000000
0.154785 0.846313 0.000000
0.346710 0.852142 0.000000
0.463959 0.856018 0.000000
0.560852 0.858826 0.000000
0.652252 0.860809 0.000000
0.741547 0.862091 0.000000
0.818573 0.862549 0.000000
0.870667 0.862122 0.000000
0.907196 0.860687 0.000000
0.918030 0.858154 0.000000
0.928314 0.853760 0.000000
0.938080 0.847748 0.000000
0.947418 0.839813 0.000000
0.956390 0.829803 0.000000
0.963989 0.816772 0.000000
0.971191 0.798615 0.000000
0.978394 0.773987 0.000000
0.985596 0.740479 0.000000
0.992798 0.697998 0.000000
1.000000 0.637573 0.000000
0.000000 0.863770 0.000000
0.007202 0.866150 0.000000
0.014404 0.868500 0.000000
0.021606 0.870819 0.000000
0.028809 0.873199 0.000000
0.036011 0.875427 0.000000
0.043213 0.877563 0.000000
0.050415 0.879608 0.000000
0.057617 0.881683 0.000000
0.064789 0.883667 0.000000
0.072021 0.885468 0.000000
0.079224 0.887207 0.000000
0.086426 0.888824 0.000000
0.217773 0.891815 0.000000
0.403473 0.896606 0.000000
0.524780 0.899902 0.000000
0.628967 0.902313 0.000000
0.727722 0.904114 0.000000
0.815002 0.905273 0.000000
0.871094 0.905579 0.000000
0.905914 0.905121 0.000000
0.917084 0.903931 0.000000
0.927612 0.901917 0.000000
0.937561 0.899017 0.000000
0.947052 0.895203 0.000000
0.956116 0.890167 0.000000
0.963989 0.883820 0.000000
0.971191 0.876068 0.000000
0.978394 0.866425 0.000000
0.985596 0.853149 0.000000
0.992798 0.833710 0.000000
1.000000 0.796234 0.000000
0.000000 0.902832 0.000000
0.007202 0.904907 0.000000
0.014404 0.906921 0.000000
0.021606 0.908997 0.000000
0.028809 0.911072 0.000000
0.036011 0.913025 0.000000
0.043213 0.914948 0.000000
0.050415 0.916840 0.000000
0.057617 0.918671 0.000000
0.064789 0.920380 0.000000
0.072021 0.920319 0.000000
0.079224 0.920227 0.000000
0.086426 0.920135 0.000000
0.094452 0.920044 0.000000
0.272888 0.919922 0.000000
0.461151 0.919800 0.000000
0.589172 0.919617 0.000000
0.703430 0.919434 0.000000
0.804016 0.919250 0.000000
0.868134 0.919006 0.000000
0.904236 0.918701 0.000000
0.915894 0.918396 0.000000
0.926758 0.917999 0.000000
0.936951 0.917542 0.000000
0.946594 0.916992 0.000000
0.955780 0.916351 0.000000
0.963989 0.915558 0.000000
0.971191 0.914612 0.000000
0.978394 0.913452 0.000000
0.985596 0.911957 0.000000
0.992798 0.907867 0.000000
1.000000 0.896332 0.000000
0.000000 0.930054 0.000000
0.007202 0.930023 0.000000
0.014404 0.929993 0.000000
0.021606 0.929962 0.000000
0.028809 0.929962 0.000000
0.036011 0.929932 0.000000
0.043213 0.929901 0.000000
0.050415 0.929871 0.000000
0.057617 0.929810 0.000000
0.064789 0.929779 0.000000
0.072021 0.929718 0.000000
0.079224 0.929657 0.000000
0.086426 0.929596 0.000000
0.093597 0.929504 0.000000
0.107483 0.929413 0.000000
0.322266 0.929321 0.000000
0.526825 0.929199 0.000000
0.666504 0.929047 0.000000
0.784424 0.928894 0.000000
0.863525 0.928711 0.000000
0.902130 0.928497 0.000000
0.914398 0.928253 0.000000
0.925659 0.927948 0.000000
0.936157 0.927582 0.000000
0.946014 0.927185 0.000000
0.955383 0.926697 0.000000
0.963989 0.926086 0.000000
0.971191 0.925385 0.000000
0.978394 0.924500 0.000000
0.985596 0.923431 0.000000
0.992798 0.922089 0.000000
1.000000 0.920349 0.000000
0.000000 0.939117 0.000000
0.007202 0.939117 0.000000
0.014404 0.939087 0.000000
0.021606 0.939056 0.000000
0.028809 0.939056 0.000000
0.036011 0.939026 0.000000
0.043213 0.938995 0.000000
0.050415 0.938965 0.000000
0.057617 0.938934 0.000000
0.064789 0.938904 0.000000
0.072021 0.938873 0.000000
0.079224 0.938812 0.000000
0.086426 0.938782 0.000000
0.093597 0.938721 0.000000
0.100800 0.938629 0.000000
0.117615 0.938538 0.000000
0.407776 0.938446 0.000000
0.621826 0.938354 0.000000
0.766754 0.938232 0.000000
0.853851 0.938080 0.000000
0.899384 0.937927 0.000000
0.912415 0.937744 0.000000
0.924286 0.937500 0.000000
0.935181 0.937256 0.000000
0.945343 0.936920 0.000000
0.954895 0.936584 0.000000
0.963989 0.936127 0.000000
0.971191 0.935608 0.000000
0.978394 0.934937 0.000000
0.985596 0.934174 0.000000
0.992798 0.933197 0.000000
1.000000 0.931946 0.000000
0.000000 0.947968 0.000000
0.007202 0.947968 0.000000
0.014404 0.947968 0.000000
0.021606 0.947937 0.000000
0.028809 0.947906 0.000000
0.036011 0.947906 0.000000
0.043213 0.947876 0.000000
0.050415 0.947876 0.000000
0.057617 0.947845 0.000000
0.064789 0.947815 0.000000
0.072021 0.947784 0.000000
0.079224 0.947754 0.000000
0.086426 0.947693 0.000000
0.093597 0.947662 0.000000
0.100800 0.947601 0.000000
0.108002 0.947540 0.000000
0.189423 0.947479 0.000000
0.534332 0.947388 0.000000
0.729065 0.947296 0.000000
0.842651 0.947174 0.000000
0.895782 0.947052 0.000000
0.909821 0.946899 0.000000
0.922485 0.946747 0.000000
0.933929 0.946533 0.000000
0.944489 0.946320 0.000000
0.954285 0.946045 0.000000
0.963562 0.945709 0.000000
0.971191 0.945312 0.000000
0.978394 0.944855 0.000000
0.985596 0.944275 0.000000
0.992798 0.943573 0.000000
1.000000 0.942688 0.000000
0.000000 0.956635 0.000000
0.007202 0.956604 0.000000
0.014404 0.956604 0.000000
0.021606 0.956573 0.000000
0.028809 0.956573 0.000000
0.036011 0.956573 0.000000
0.043213 0.956543 0.000000
0.050415 0.956543 0.000000
0.057617 0.956512 0.000000
0.064789 0.956512 0.000000
0.072021 0.956482 0.000000
0.079224 0.956451 0.000000
0.086426 0.956421 0.000000
0.093597 0.956390 0.000000
0.100800 0.956329 0.000000
0.110046 0.956299 0.000000
0.198425 0.956238 0.000000
0.364380 0.956177 0.000000
0.656830 0.956085 0.000000
0.820618 0.956024 0.000000
0.890442 0.955933 0.000000
0.906250 0.955811 0.000000
0.920044 0.955688 0.000000
0.932281 0.955536 0.000000
0.943359 0.955353 0.000000
0.953522 0.955170 0.000000
0.963043 0.954926 0.000000
0.971191 0.954620 0.000000
0.978394 0.954285 0.000000
0.985596 0.953857 0.000000
0.992798 0.953369 0.000000
1.000000 0.952728 0.000000
0.000000 0.963989 0.000000
0.007202 0.963989 0.000000
0.014404 0.963989 0.000000
0.021606 0.963989 0.000000
0.028809 0.963989 0.000000
0.036011 0.963989 0.000000
0.043213 0.963989 0.000000
0.050415 0.963989 0.000000
0.057617 0.963989 0.000000
0.064789 0.963989 0.000000
0.072021 0.963989 0.000000
0.079224 0.963989 0.000000
0.086426 0.963989 0.000000
0.093597 0.963989 0.000000
0.100800 0.963989 0.000000
0.123108 0.963989 0.000000
0.210114 0.963989 0.000000
0.374023 0.963989 0.000000
0.520660 0.963989 0.000000
0.771210 0.963989 0.000000
0.880371 0.963989 0.000000
0.901337 0.963989 0.000000
0.916718 0.963989 0.000000
0.930054 0.963989 0.000000
0.941864 0.963989 0.000000
0.952545 0.963959 0.000000
0.962372 0.963806 0.000000
0.971191 0.963593 0.000000
0.978394 0.963348 0.000000
0.985596 0.963043 0.000000
0.992798 0.962677 0.000000
1.000000 0.962219 0.000000
0.000000 0.971191 0.000000
0.007202 0.971191 0.000000
0.014404 0.971191 0.000000
0.021606 0.971191 0.000000
0.028809 0.971191 0.000000
0.036011 0.971191 0.000000
0.043213 0.971191 0.000000
0.050415 0.971191 0.000000
0.057617 0.971191 0.000000
0.064789 0.971191 0.000000
0.072021 0.971191 0.000000
0.079224 0.971191 0.000000
0.086426 0.971191 0.000000
0.093597 0.971191 0.000000
0.100800 0.971191 0.000000
0.161713 0.971191 0.000000
0.264282 0.971191 0.000000
