Postproduction/IWLTBAP - Humble/LUTs by IWLTBAP (CUBE)/UTILITY/BMDFilm URSA to Rec.709/U-BMDFILM-URSA-V1-LTR.cube
# Copyright: (C) Copyright 2010-2018 by IWLTBAP SAS
# Cannot be resold, shared or otherwise redistributed
# Website: https://luts.iwltbap.com
TITLE "BMDFilm URSA Version 1 (Utility LOG to Rec.709)"
LUT_3D_SIZE 5
DOMAIN_MIN 0.000000 0.000000 0.000000
DOMAIN_MAX 0.903226 0.903226 0.903226
0.000000 0.000000 0.000000
0.289124 0.000000 0.000000
0.572205 0.000000 0.000000
0.790009 0.000000 0.138062
0.949402 0.000000 0.356781
0.000000 0.295319 0.000000
0.232391 0.254547 0.000000
0.556183 0.126160 0.000000
0.785095 0.000000 0.000000
0.948029 0.000000 0.279205
0.000000 0.578308 0.000000
0.027069 0.566559 0.000000
0.515198 0.537628 0.000000
0.773346 0.445374 0.000000
0.944855 0.000000 0.000000
0.000000 0.795074 0.000000
0.000000 0.791504 0.000000
0.365540 0.783081 0.000000
0.740509 0.760315 0.000000
0.936646 0.686920 0.000000
0.000000 0.953003 0.000000
0.000000 0.952026 0.000000
0.000000 0.949738 0.000000
0.620117 0.943909 0.000000
0.913177 0.927917 0.000000
0.000000 0.000000 0.296722
0.274628 0.000000 0.310150
0.567871 0.000000 0.338104
0.788635 0.000000 0.395416
0.949036 0.000000 0.495789
0.000000 0.261353 0.194092
0.214020 0.214020 0.214020
0.551514 0.056427 0.253967
0.783691 0.000000 0.330963
0.947662 0.000000 0.455292
0.000000 0.568420 0.000000
0.000000 0.556152 0.000000
0.509583 0.525726 0.000000
0.771851 0.427368 0.060822
0.944458 0.000000 0.326233
0.000000 0.792084 0.000000
0.000000 0.788391 0.000000
0.354858 0.779785 0.000000
0.738647 0.756500 0.000000
0.936218 0.681183 0.000000
0.000000 0.952179 0.000000
0.000000 0.951202 0.000000
0.000000 0.948883 0.000000
0.616608 0.942993 0.000000
0.912628 0.926819 0.000000
0.000000 0.000000 0.579712
0.238251 0.000000 0.583862
0.557770 0.000000 0.592865
0.785553 0.000000 0.613403
0.948181 0.000000 0.656372
0.000000 0.161163 0.552521
0.166626 0.086975 0.557220
0.540619 0.000000 0.567383
0.780487 0.000000 0.590454
0.946777 0.000000 0.637970
0.000000 0.544495 0.475830
0.000000 0.530731 0.482361
0.496399 0.496399 0.496399
0.768372 0.381226 0.527588
0.943542 0.000000 0.589294
0.000000 0.785034 0.000000
0.000000 0.781158 0.007141
0.329010 0.772095 0.070221
0.734467 0.747559 0.191833
0.935242 0.667603 0.382721
0.000000 0.950287 0.000000
0.000000 0.949219 0.000000
0.000000 0.946869 0.000000
0.608612 0.940826 0.000000
0.911377 0.924286 0.000000
0.000000 0.000000 0.796234
0.117371 0.000000 0.797516
0.530853 0.000000 0.800323
0.777740 0.000000 0.806915
0.946014 0.000000 0.821838
0.000000 0.000000 0.788116
0.006256 0.000000 0.789520
0.511383 0.000000 0.792511
0.772369 0.000000 0.799530
0.944611 0.000000 0.815247
0.000000 0.471802 0.767975
0.000000 0.452728 0.769531
0.460480 0.403259 0.772949
0.759644 0.204010 0.781036
0.941345 0.000000 0.799133
0.000000 0.766266 0.705261
0.000000 0.761932 0.707520
0.249725 0.751617 0.712402
0.723785 0.723785 0.723785
0.932770 0.630066 0.749054
0.000000 0.945374 0.251465
0.000000 0.944305 0.263702
0.000000 0.941803 0.290802
0.587708 0.935425 0.361603
0.908295 0.917877 0.480316
0.000000 0.000000 0.953827
0.000000 0.000000 0.954224
0.447357 0.000000 0.955017
0.756683 0.000000 0.956940
0.940613 0.000000 0.961456
0.000000 0.000000 0.951630
0.000000 0.000000 0.951996
0.418945 0.000000 0.952820
0.750549 0.000000 0.954803
0.939087 0.000000 0.959442
0.000000 0.047974 0.946350
0.000000 0.000000 0.946747
0.339508 0.000000 0.947632
0.735931 0.000000 0.949738
0.935608 0.000000 0.954620
0.000000 0.708710 0.932098
0.000000 0.702667 0.932556
0.000000 0.688293 0.933563
0.694611 0.648010 0.936035
0.926514 0.489502 0.941711
0.000000 0.932281 0.885620
0.000000 0.931030 0.886292
0.000000 0.928162 0.887878
0.524719 0.920807 0.891632
0.900330 0.900330 0.900330
