Postproduction/IWLTBAP - Humble/LUTs by IWLTBAP (CUBE)/UTILITY/BMDFilm URSA to Rec.709/U-BMDFILM-URSA-V1-LTR.cube
# Copyright: (C) Copyright 2010-2018 by IWLTBAP SAS
# Cannot be resold, shared or otherwise redistributed
# Website: https://luts.iwltbap.com
TITLE "BMDFilm URSA Version 1 (Utility LOG to Rec.709)"
LUT_3D_SIZE 32
0.000000 0.000000 0.000000
0.000000 0.000000 0.000000
0.000000 0.000000 0.000000
0.063416 0.000000 0.000000
0.129242 0.000000 0.000000
0.187286 0.000000 0.000000
0.240143 0.000000 0.000000
0.289124 0.000000 0.000000
0.335266 0.000000 0.000000
0.379059 0.000000 0.000000
0.420776 0.000000 0.000000
0.460785 0.000000 0.000000
0.499298 0.000000 0.000000
0.536407 0.000000 0.000000
0.572205 0.000000 0.000000
0.606781 0.000000 0.000000
0.640167 0.000000 0.000000
0.672302 0.000000 0.020752
0.703400 0.000000 0.047180
0.733368 0.000000 0.076874
0.762360 0.000000 0.107330
0.790009 0.000000 0.138062
0.815643 0.000000 0.168976
0.839844 0.000000 0.200073
0.863739 0.000000 0.231232
0.887299 0.000000 0.262451
0.909546 0.000000 0.293762
0.930206 0.000000 0.325226
0.949402 0.000000 0.356781
0.967102 0.000000 0.388245
0.983398 0.000000 0.419678
0.998413 0.000000 0.451019
0.000000 0.000000 0.000000
0.000000 0.000000 0.000000
0.000000 0.000000 0.000000
0.047394 0.000000 0.000000
0.116974 0.000000 0.000000
0.177551 0.000000 0.000000
0.232300 0.000000 0.000000
0.282715 0.000000 0.000000
0.329926 0.000000 0.000000
0.374573 0.000000 0.000000
0.417023 0.000000 0.000000
0.457611 0.000000 0.000000
0.496582 0.000000 0.000000
0.534119 0.000000 0.000000
0.570282 0.000000 0.000000
0.605164 0.000000 0.000000
0.638763 0.000000 0.000000
0.671143 0.000000 0.000000
0.702393 0.000000 0.020813
0.732483 0.000000 0.050568
0.761597 0.000000 0.083862
0.789398 0.000000 0.117401
0.815155 0.000000 0.150757
0.839447 0.000000 0.184052
0.863403 0.000000 0.217133
0.886993 0.000000 0.250061
0.909302 0.000000 0.282837
0.929993 0.000000 0.315613
0.949219 0.000000 0.348297
0.966980 0.000000 0.380829
0.983307 0.000000 0.413177
0.998291 0.000000 0.445374
0.000000 0.000000 0.000000
0.000000 0.000000 0.000000
0.000000 0.000000 0.000000
0.032349 0.000000 0.000000
0.104126 0.000000 0.000000
0.167419 0.000000 0.000000
0.224243 0.000000 0.000000
0.276123 0.000000 0.000000
0.324463 0.000000 0.000000
0.370026 0.000000 0.000000
0.413208 0.000000 0.000000
0.454407 0.000000 0.000000
0.493866 0.000000 0.000000
0.531799 0.000000 0.000000
0.568329 0.000000 0.000000
0.603485 0.000000 0.000000
0.637390 0.000000 0.000000
0.669952 0.000000 0.000000
0.701355 0.000000 0.000000
0.731659 0.000000 0.024292
0.760895 0.000000 0.058075
0.788788 0.000000 0.094849
0.814667 0.000000 0.131134
0.839020 0.000000 0.166901
0.863037 0.000000 0.202209
0.886688 0.000000 0.237030
0.909058 0.000000 0.271454
0.929810 0.000000 0.305603
0.949066 0.000000 0.339569
0.966827 0.000000 0.373169
0.983185 0.000000 0.406494
0.998199 0.000000 0.439514
0.000000 0.069000 0.000000
0.000000 0.057007 0.000000
0.000000 0.045105 0.000000
0.017822 0.033661 0.000000
0.090485 0.022308 0.000000
0.156860 0.009399 0.000000
0.215851 0.000000 0.000000
0.269348 0.000000 0.000000
0.318878 0.000000 0.000000
0.365387 0.000000 0.000000
0.409302 0.000000 0.000000
0.451111 0.000000 0.000000
0.491089 0.000000 0.000000
0.529449 0.000000 0.000000
0.566345 0.000000 0.000000
0.601807 0.000000 0.000000
0.635925 0.000000 0.000000
0.668762 0.000000 0.000000
0.700348 0.000000 0.000000
0.730774 0.000000 0.000000
0.760162 0.000000 0.031708
0.788177 0.000000 0.070068
0.814148 0.000000 0.109863
0.838593 0.000000 0.148499
0.862671 0.000000 0.186279
0.886353 0.000000 0.223267
0.908783 0.000000 0.259491
0.929565 0.000000 0.295197
0.948883 0.000000 0.330475
0.966675 0.000000 0.365295
0.983093 0.000000 0.399628
0.998108 0.000000 0.433533
0.000000 0.135101 0.000000
0.000000 0.126099 0.000000
0.000000 0.116730 0.000000
0.002441 0.106964 0.000000
0.075439 0.096466 0.000000
0.145508 0.084015 0.000000
0.206909 0.069183 0.000000
0.262146 0.051300 0.000000
0.312958 0.032043 0.000000
0.360504 0.010986 0.000000
0.405243 0.000000 0.000000
0.447693 0.000000 0.000000
0.488251 0.000000 0.000000
0.527008 0.000000 0.000000
0.564270 0.000000 0.000000
0.600098 0.000000 0.000000
0.634460 0.000000 0.000000
0.667480 0.000000 0.000000
0.699280 0.000000 0.000000
0.729889 0.000000 0.000000
0.759399 0.000000 0.005402
0.787537 0.000000 0.043396
0.813660 0.000000 0.085846
0.838165 0.000000 0.127960
0.862244 0.000000 0.168701
0.886047 0.000000 0.208191
0.908539 0.000000 0.246552
0.929382 0.000000 0.283966
0.948700 0.000000 0.320740
0.966553 0.000000 0.356873
0.982971 0.000000 0.392303
0.998047 0.000000 0.427185
0.000000 0.193268 0.000000
0.000000 0.186127 0.000000
0.000000 0.178741 0.000000
0.000000 0.171112 0.000000
0.057556 0.163025 0.000000
0.132172 0.153564 0.000000
0.196472 0.142395 0.000000
0.253845 0.129028 0.000000
0.306183 0.113007 0.000000
0.354889 0.093323 0.000000
0.400574 0.069061 0.000000
0.443817 0.040527 0.000000
0.484955 0.010010 0.000000
0.524261 0.000000 0.000000
0.561951 0.000000 0.000000
0.598083 0.000000 0.000000
0.632782 0.000000 0.000000
0.666107 0.000000 0.000000
0.698090 0.000000 0.000000
0.728882 0.000000 0.000000
0.758545 0.000000 0.000000
0.786835 0.000000 0.013275
0.813080 0.000000 0.056122
0.837677 0.000000 0.102722
0.861816 0.000000 0.147369
0.885681 0.000000 0.190033
0.908234 0.000000 0.231079
0.929108 0.000000 0.270721
0.948517 0.000000 0.309296
0.966400 0.000000 0.347015
0.982849 0.000000 0.383820
0.997925 0.000000 0.419861
0.000000 0.246216 0.000000
0.000000 0.240479 0.000000
0.000000 0.234558 0.000000
0.000000 0.228485 0.000000
0.037384 0.222076 0.000000
0.116028 0.214661 0.000000
0.184113 0.205933 0.000000
0.244019 0.195648 0.000000
0.298218 0.183350 0.000000
0.348358 0.168640 0.000000
0.395172 0.150757 0.000000
0.439301 0.128815 0.000000
0.481201 0.101379 0.000000
0.521088 0.066711 0.000000
0.559235 0.026825 0.000000
0.595825 0.000000 0.000000
0.630890 0.000000 0.000000
0.664459 0.000000 0.000000
0.696716 0.000000 0.000000
0.727722 0.000000 0.000000
0.757568 0.000000 0.000000
0.786011 0.000000 0.000000
0.812408 0.000000 0.022217
0.837128 0.000000 0.070618
0.861328 0.000000 0.120667
0.885223 0.000000 0.167694
0.907898 0.000000 0.212280
0.928833 0.000000 0.254761
0.948273 0.000000 0.295654
0.966187 0.000000 0.335297
0.982697 0.000000 0.373779
0.997803 0.000000 0.411224
0.000000 0.295319 0.000000
0.000000 0.290558 0.000000
0.000000 0.285706 0.000000
0.000000 0.280792 0.000000
0.015717 0.275574 0.000000
0.096191 0.269623 0.000000
0.169128 0.262665 0.000000
0.232391 0.254547 0.000000
0.288879 0.244904 0.000000
0.340729 0.233490 0.000000
0.388885 0.219849 0.000000
0.434082 0.203369 0.000000
0.476807 0.183167 0.000000
0.517426 0.158081 0.000000
0.556183 0.126160 0.000000
0.593231 0.084503 0.000000
0.628662 0.034454 0.000000
0.662628 0.000000 0.000000
0.695160 0.000000 0.000000
0.726379 0.000000 0.000000
0.756439 0.000000 0.000000
0.785095 0.000000 0.000000
0.811676 0.000000 0.000000
0.836517 0.000000 0.032410
0.860809 0.000000 0.086456
0.884766 0.000000 0.139648
0.907501 0.000000 0.188995
0.928528 0.000000 0.235321
0.948029 0.000000 0.279205
0.966003 0.000000 0.321320
0.982513 0.000000 0.361877
0.997681 0.000000 0.401031
0.000000 0.341492 0.000000
0.000000 0.337585 0.000000
0.000000 0.333557 0.000000
0.000000 0.329468 0.000000
0.000000 0.325195 0.000000
0.071625 0.320282 0.000000
0.150940 0.314606 0.000000
0.218414 0.307983 0.000000
0.277893 0.300262 0.000000
0.331787 0.291168 0.000000
0.381561 0.280365 0.000000
0.428009 0.267517 0.000000
0.471741 0.252106 0.000000
0.513184 0.233307 0.000000
0.552582 0.210083 0.000000
0.590240 0.180695 0.000000
0.626160 0.142426 0.000000
0.660492 0.091095 0.000000
0.693359 0.029266 0.000000
0.724854 0.000000 0.000000
0.755157 0.000000 0.000000
0.784027 0.000000 0.000000
0.810822 0.000000 0.000000
0.835785 0.000000 0.000000
0.860168 0.000000 0.043732
0.884247 0.000000 0.103424
0.907074 0.000000 0.159576
0.928162 0.000000 0.211151
0.947723 0.000000 0.259125
0.965759 0.000000 0.304382
0.982330 0.000000 0.347595
0.997498 0.000000 0.388916
0.000000 0.385315 0.000000
0.000000 0.381989 0.000000
0.000000 0.378662 0.000000
0.000000 0.375275 0.000000
0.000000 0.371704 0.000000
0.042267 0.367676 0.000000
0.128571 0.362976 0.000000
0.201477 0.357544 0.000000
0.264618 0.351196 0.000000
0.321228 0.343842 0.000000
0.372955 0.335114 0.000000
0.420898 0.324829 0.000000
0.465851 0.312592 0.000000
0.508270 0.297974 0.000000
0.548492 0.280212 0.000000
0.586761 0.258392 0.000000
0.623260 0.230988 0.000000
0.658051 0.195618 0.000000
0.691284 0.148224 0.000000
0.723114 0.083221 0.000000
0.753662 0.005920 0.000000
0.782776 0.000000 0.000000
0.809814 0.000000 0.000000
0.834961 0.000000 0.000000
0.859436 0.000000 0.000000
0.883606 0.000000 0.056244
0.906555 0.000000 0.121399
0.927734 0.000000 0.180450
0.947388 0.000000 0.234131
0.965485 0.000000 0.283661
0.982117 0.000000 0.330261
0.997345 0.000000 0.374390
0.000000 0.427032 0.000000
0.000000 0.424255 0.000000
0.000000 0.421448 0.000000
0.000000 0.418610 0.000000
0.000000 0.415619 0.000000
0.010803 0.412231 0.000000
0.100525 0.408325 0.000000
0.180756 0.403839 0.000000
0.248718 0.398621 0.000000
0.308563 0.392548 0.000000
0.362823 0.385498 0.000000
0.412598 0.377167 0.000000
0.458984 0.367340 0.000000
0.502563 0.355652 0.000000
0.543701 0.341644 0.000000
0.582764 0.324707 0.000000
0.619904 0.303925 0.000000
0.655243 0.278046 0.000000
0.688904 0.244934 0.000000
0.721130 0.200958 0.000000
0.751984 0.139099 0.000000
0.781372 0.057220 0.000000
0.808685 0.000000 0.000000
0.834015 0.000000 0.000000
0.858582 0.000000 0.000000
0.882904 0.000000 0.001801
0.905975 0.000000 0.070007
0.927277 0.000000 0.140381
0.947021 0.000000 0.202271
0.965179 0.000000 0.257904
0.981873 0.000000 0.308990
0.997131 0.000000 0.356750
0.000000 0.467041 0.000000
0.000000 0.464691 0.000000
0.000000 0.462341 0.000000
0.000000 0.459930 0.000000
0.000000 0.457458 0.000000
0.000000 0.454590 0.000000
0.065125 0.451324 0.000000
0.154846 0.447571 0.000000
0.229279 0.443237 0.000000
0.293365 0.438202 0.000000
0.350647 0.432373 0.000000
0.402802 0.425507 0.000000
0.450928 0.417511 0.000000
0.495880 0.408051 0.000000
0.538177 0.396820 0.000000
0.578156 0.383392 0.000000
0.616028 0.367188 0.000000
0.651978 0.347321 0.000000
0.686188 0.322632 0.000000
0.718842 0.291260 0.000000
0.750061 0.249939 0.000000
0.779785 0.192627 0.000000
0.807404 0.108002 0.000000
0.832947 0.003967 0.000000
0.857666 0.000000 0.000000
0.882080 0.000000 0.000000
0.905304 0.000000 0.009430
0.926758 0.000000 0.085327
0.946564 0.000000 0.160248
0.964813 0.000000 0.224945
0.981598 0.000000 0.282410
0.996918 0.000000 0.334991
0.000000 0.505524 0.000000
0.000000 0.503540 0.000000
0.000000 0.501495 0.000000
0.000000 0.499481 0.000000
0.000000 0.497406 0.000000
0.000000 0.495026 0.000000
0.023865 0.492279 0.000000
0.121826 0.489105 0.000000
0.205139 0.485443 0.000000
0.274933 0.481262 0.000000
0.336090 0.476410 0.000000
0.391113 0.470764 0.000000
0.441467 0.464172 0.000000
0.488098 0.456421 0.000000
0.531677 0.447266 0.000000
0.572754 0.436462 0.000000
0.611572 0.423492 0.000000
0.648254 0.407928 0.000000
0.683075 0.388855 0.000000
0.716217 0.365234 0.000000
0.747833 0.335236 0.000000
0.777924 0.296021 0.000000
0.805908 0.242188 0.000000
0.831696 0.161957 0.000000
0.856567 0.053558 0.000000
0.881165 0.000000 0.000000
0.904572 0.000000 0.000000
0.926147 0.000000 0.018219
0.946075 0.000000 0.101959
0.964417 0.000000 0.181122
0.981262 0.000000 0.248352
0.996643 0.000000 0.307678
0.000000 0.542572 0.000000
0.000000 0.540863 0.000000
0.000000 0.539185 0.000000
0.000000 0.537445 0.000000
0.000000 0.535675 0.000000
0.000000 0.533661 0.000000
0.000000 0.531342 0.000000
0.078796 0.528687 0.000000
0.174530 0.525635 0.000000
0.252167 0.522125 0.000000
0.318390 0.518036 0.000000
0.377075 0.513336 0.000000
0.430145 0.507874 0.000000
0.478882 0.501495 0.000000
0.524109 0.493988 0.000000
0.566437 0.485168 0.000000
0.606354 0.474701 0.000000
0.643890 0.462189 0.000000
0.679413 0.447144 0.000000
0.713165 0.428772 0.000000
0.745239 0.406036 0.000000
0.775787 0.377289 0.000000
0.804199 0.339783 0.000000
0.830292 0.288757 0.000000
0.855347 0.213745 0.000000
0.880127 0.099091 0.000000
0.903717 0.000000 0.000000
0.925446 0.000000 0.000000
0.945526 0.000000 0.027344
0.963959 0.000000 0.119781
0.980865 0.000000 0.202942
0.996338 0.000000 0.272583
0.000000 0.578308 0.000000
0.000000 0.576874 0.000000
0.000000 0.575409 0.000000
0.000000 0.573975 0.000000
0.000000 0.572479 0.000000
0.000000 0.570770 0.000000
0.000000 0.568817 0.000000
0.027069 0.566559 0.000000
0.134460 0.563995 0.000000
0.223450 0.561035 0.000000
0.296631 0.557617 0.000000
0.360107 0.553680 0.000000
0.416595 0.549103 0.000000
0.467926 0.543823 0.000000
0.515198 0.537628 0.000000
0.559113 0.530365 0.000000
0.600250 0.521820 0.000000
0.638855 0.511688 0.000000
0.675201 0.499603 0.000000
0.709656 0.485046 0.000000
0.742279 0.467316 0.000000
0.773346 0.445374 0.000000
0.802246 0.417664 0.000000
0.828674 0.381653 0.000000
0.853943 0.332916 0.000000
0.878906 0.262085 0.000000
0.902710 0.145569 0.000000
0.924652 0.000000 0.000000
0.944855 0.000000 0.000000
0.963440 0.000000 0.037018
0.980438 0.000000 0.138550
0.996033 0.000000 0.225555
0.000000 0.612823 0.000000
0.000000 0.611572 0.000000
0.000000 0.610352 0.000000
0.000000 0.609131 0.000000
0.000000 0.607880 0.000000
0.000000 0.606415 0.000000
0.000000 0.604767 0.000000
0.000000 0.602875 0.000000
0.080994 0.600708 0.000000
0.186188 0.598206 0.000000
0.269440 0.595337 0.000000
0.339233 0.592010 0.000000
0.400208 0.588196 0.000000
0.454773 0.583771 0.000000
0.504578 0.578674 0.000000
0.550446 0.572693 0.000000
0.593109 0.565643 0.000000
0.632965 0.557312 0.000000
0.670319 0.547516 0.000000
0.705566 0.535797 0.000000
0.738892 0.521698 0.000000
0.770508 0.504547 0.000000
0.799957 0.483307 0.000000
0.826813 0.456512 0.000000
0.852295 0.421875 0.000000
0.877533 0.375061 0.000000
0.901611 0.307678 0.000000
0.923737 0.196930 0.000000
0.944122 0.041870 0.000000
0.962830 0.000000 0.000000
0.979950 0.000000 0.047302
0.995636 0.000000 0.158234
0.000000 0.646027 0.000000
0.000000 0.645020 0.000000
0.000000 0.644012 0.000000
0.000000 0.642944 0.000000
0.000000 0.641846 0.000000
0.000000 0.640625 0.000000
0.000000 0.639252 0.000000
0.000000 0.637634 0.000000
0.016327 0.635834 0.000000
0.135590 0.633728 0.000000
0.234314 0.631317 0.000000
0.313141 0.628540 0.000000
0.380096 0.625336 0.000000
0.438934 0.621674 0.000000
0.491821 0.617401 0.000000
0.540100 0.612427 0.000000
0.584717 0.606628 0.000000
0.626038 0.599823 0.000000
0.664612 0.591797 0.000000
0.700836 0.582306 0.000000
0.734955 0.570953 0.000000
0.767242 0.557281 0.000000
0.797333 0.540649 0.000000
0.824646 0.520111 0.000000
0.850464 0.494202 0.000000
0.875946 0.460693 0.000000
0.900299 0.415619 0.000000
0.922668 0.351074 0.000000
0.943268 0.246704 0.000000
0.962158 0.083405 0.000000
0.979431 0.000000 0.000000
0.995178 0.000000 0.058167
0.000000 0.678101 0.000000
0.000000 0.677216 0.000000
0.000000 0.676331 0.000000
0.000000 0.675476 0.000000
0.000000 0.674530 0.000000
0.000000 0.673492 0.000000
0.000000 0.672302 0.000000
0.000000 0.670959 0.000000
0.000000 0.669403 0.000000
0.067780 0.667664 0.000000
0.187256 0.665619 0.000000
0.279755 0.663300 0.000000
0.355042 0.660614 0.000000
0.419495 0.657532 0.000000
0.476440 0.653961 0.000000
0.527740 0.649811 0.000000
0.574707 0.645020 0.000000
0.617889 0.639435 0.000000
0.657928 0.632843 0.000000
0.695282 0.625061 0.000000
0.730347 0.615906 0.000000
0.763428 0.604919 0.000000
0.794250 0.591705 0.000000
0.822174 0.575592 0.000000
0.848328 0.555664 0.000000
0.874115 0.530579 0.000000
0.898804 0.498138 0.000000
0.921448 0.454590 0.000000
0.942291 0.392487 0.000000
0.961365 0.293396 0.000000
0.978790 0.121826 0.000000
0.994659 0.000000 0.000000
0.000000 0.709015 0.000000
0.000000 0.708282 0.000000
0.000000 0.707550 0.000000
0.000000 0.706787 0.000000
0.000000 0.706024 0.000000
0.000000 0.705139 0.000000
0.000000 0.704132 0.000000
0.000000 0.702972 0.000000
0.000000 0.701691 0.000000
0.000000 0.700195 0.000000
0.120239 0.698486 0.000000
0.235413 0.696533 0.000000
0.323029 0.694244 0.000000
0.395325 0.691650 0.000000
0.457642 0.688660 0.000000
0.512817 0.685211 0.000000
0.562683 0.681183 0.000000
0.608154 0.676575 0.000000
0.650024 0.671143 0.000000
0.688812 0.664795 0.000000
0.725006 0.657257 0.000000
0.759003 0.648376 0.000000
0.790649 0.637787 0.000000
0.819305 0.625000 0.000000
0.845917 0.609406 0.000000
0.872040 0.590118 0.000000
0.897064 0.565826 0.000000
0.920074 0.534393 0.000000
0.941162 0.492279 0.000000
0.960449 0.432404 0.000000
0.978058 0.337524 0.000000
0.994080 0.158813 0.000000
0.000000 0.738861 0.000000
0.000000 0.738220 0.000000
0.000000 0.737579 0.000000
0.000000 0.736969 0.000000
0.000000 0.736298 0.000000
0.000000 0.735565 0.000000
0.000000 0.734711 0.000000
0.000000 0.733765 0.000000
0.000000 0.732666 0.000000
0.000000 0.731384 0.000000
0.034149 0.729950 0.000000
0.172821 0.728271 0.000000
0.280823 0.726410 0.000000
0.364563 0.724213 0.000000
0.434235 0.721680 0.000000
0.494568 0.718811 0.000000
0.548187 0.715454 0.000000
0.596527 0.711578 0.000000
0.640594 0.707123 0.000000
0.681152 0.701874 0.000000
0.718719 0.695679 0.000000
0.753784 0.688416 0.000000
0.786438 0.679810 0.000000
0.815979 0.669525 0.000000
0.843109 0.657166 0.000000
0.869629 0.642120 0.000000
0.895050 0.623444 0.000000
0.918427 0.599945 0.000000
0.939880 0.569550 0.000000
0.959412 0.528717 0.000000
0.977234 0.470795 0.000000
0.993408 0.379608 0.000000
0.000000 0.767700 0.000000
0.000000 0.767151 0.000000
0.000000 0.766632 0.000000
0.000000 0.766083 0.000000
0.000000 0.765533 0.000000
0.000000 0.764893 0.000000
0.000000 0.764160 0.000000
0.000000 0.763367 0.000000
0.000000 0.762451 0.000000
0.000000 0.761353 0.000000
0.000000 0.760162 0.000000
0.083679 0.758759 0.000000
0.221863 0.757141 0.000000
0.324066 0.755310 0.000000
0.404541 0.753204 0.000000
0.471893 0.750793 0.000000
0.530457 0.747955 0.000000
0.582489 0.744720 0.000000
0.629364 0.740936 0.000000
0.672028 0.736603 0.000000
0.711334 0.731567 0.000000
0.747711 0.725586 0.000000
0.781525 0.718597 0.000000
0.812073 0.710266 0.000000
0.839905 0.700317 0.000000
0.866821 0.688354 0.000000
0.892761 0.673737 0.000000
0.916626 0.655701 0.000000
0.938354 0.632965 0.000000
0.958221 0.603516 0.000000
0.976257 0.563995 0.000000
0.992676 0.507904 0.000000
0.000000 0.795074 0.000000
0.000000 0.794647 0.000000
0.000000 0.794189 0.000000
0.000000 0.793732 0.000000
0.000000 0.793274 0.000000
0.000000 0.792755 0.000000
0.000000 0.792206 0.000000
0.000000 0.791504 0.000000
0.000000 0.790710 0.000000
0.000000 0.789856 0.000000
0.000000 0.788849 0.000000
0.000000 0.787689 0.000000
0.132446 0.786346 0.000000
0.268036 0.784851 0.000000
0.365540 0.783081 0.000000
0.443146 0.781067 0.000000
0.508484 0.778778 0.000000
0.565277 0.776093 0.000000
0.615723 0.772980 0.000000
0.661133 0.769379 0.000000
0.702484 0.765228 0.000000
0.740509 0.760315 0.000000
0.775665 0.754547 0.000000
0.807526 0.747742 0.000000
0.836151 0.739655 0.000000
0.863586 0.730042 0.000000
0.890045 0.718475 0.000000
0.914459 0.704376 0.000000
0.936646 0.686920 0.000000
0.956848 0.664886 0.000000
0.975159 0.636414 0.000000
0.991791 0.598175 0.000000
0.000000 0.820404 0.000000
0.000000 0.820038 0.000000
0.000000 0.819672 0.000000
0.000000 0.819336 0.000000
0.000000 0.818939 0.000000
0.000000 0.818512 0.000000
0.000000 0.818054 0.000000
0.000000 0.817474 0.000000
0.000000 0.816864 0.000000
0.000000 0.816132 0.000000
0.000000 0.815308 0.000000
0.000000 0.814392 0.000000
0.015289 0.813324 0.000000
0.183289 0.812103 0.000000
0.311951 0.810699 0.000000
0.405457 0.809082 0.000000
0.480560 0.807251 0.000000
0.543884 0.805115 0.000000
0.599060 0.802643 0.000000
0.647919 0.799744 0.000000
0.691925 0.796417 0.000000
0.731964 0.792480 0.000000
0.768799 0.787872 0.000000
0.802155 0.782379 0.000000
0.831818 0.775848 0.000000
0.859802 0.768127 0.000000
0.886932 0.758881 0.000000
0.911987 0.747650 0.000000
0.934662 0.733978 0.000000
0.955231 0.717072 0.000000
0.973907 0.695801 0.000000
0.990753 0.668213 0.000000
0.000000 0.844452 0.000000
0.000000 0.844147 0.000000
0.000000 0.843872 0.000000
0.000000 0.843536 0.000000
0.000000 0.843201 0.000000
0.000000 0.842865 0.000000
0.000000 0.842438 0.000000
0.000000 0.842010 0.000000
0.000000 0.841431 0.000000
0.000000 0.840851 0.000000
0.000000 0.840149 0.000000
0.000000 0.839386 0.000000
0.000000 0.838470 0.000000
0.063019 0.837433 0.000000
0.231750 0.836304 0.000000
0.353912 0.834961 0.000000
0.444122 0.833405 0.000000
0.516846 0.831635 0.000000
0.578339 0.829590 0.000000
0.631775 0.827271 0.000000
0.679108 0.824554 0.000000
0.721710 0.821411 0.000000
0.760559 0.817749 0.000000
0.795746 0.813446 0.000000
0.826721 0.808411 0.000000
0.855438 0.802429 0.000000
0.883301 0.795197 0.000000
0.909088 0.786438 0.000000
0.932343 0.775757 0.000000
0.953430 0.762665 0.000000
0.972412 0.746277 0.000000
0.989624 0.725677 0.000000
0.000000 0.868408 0.000000
0.000000 0.868134 0.000000
0.000000 0.867889 0.000000
0.000000 0.867584 0.000000
0.000000 0.867340 0.000000
0.000000 0.867035 0.000000
0.000000 0.866638 0.000000
0.000000 0.866241 0.000000
0.000000 0.865753 0.000000
0.000000 0.865234 0.000000
0.000000 0.864624 0.000000
0.000000 0.863922 0.000000
0.000000 0.863159 0.000000
0.000000 0.862244 0.000000
0.107025 0.861206 0.000000
0.277527 0.860016 0.000000
0.394348 0.858673 0.000000
0.481506 0.857147 0.000000
0.552032 0.855377 0.000000
0.611694 0.853333 0.000000
0.663452 0.851013 0.000000
0.709351 0.848297 0.000000
0.750641 0.845245 0.000000
0.787933 0.841705 0.000000
0.820679 0.837585 0.000000
0.850342 0.832764 0.000000
0.879028 0.827087 0.000000
0.905701 0.820282 0.000000
0.929626 0.812164 0.000000
0.951263 0.802277 0.000000
0.970734 0.790009 0.000000
0.988251 0.774475 0.000000
0.000000 0.891785 0.000000
0.000000 0.891571 0.000000
0.000000 0.891357 0.000000
0.000000 0.891113 0.000000
0.000000 0.890869 0.000000
0.000000 0.890625 0.000000
0.000000 0.890320 0.000000
0.000000 0.889954 0.000000
0.000000 0.889557 0.000000
0.000000 0.889099 0.000000
0.000000 0.888611 0.000000
0.000000 0.888000 0.000000
0.000000 0.887329 0.000000
0.000000 0.886597 0.000000
0.000000 0.885712 0.000000
0.149933 0.884705 0.000000
0.321198 0.883545 0.000000
0.433319 0.882233 0.000000
0.517731 0.880737 0.000000
0.586212 0.878998 0.000000
0.644043 0.877014 0.000000
0.694183 0.874756 0.000000
0.738617 0.872101 0.000000
0.778473 0.869019 0.000000
0.813446 0.865479 0.000000
0.844421 0.861328 0.000000
0.874023 0.856506 0.000000
0.901703 0.850800 0.000000
0.926453 0.844177 0.000000
0.948761 0.836365 0.000000
0.968750 0.826965 0.000000
0.986664 0.815369 0.000000
0.000000 0.913757 0.000000
0.000000 0.913544 0.000000
0.000000 0.913391 0.000000
0.000000 0.913177 0.000000
0.000000 0.912994 0.000000
0.000000 0.912781 0.000000
0.000000 0.912537 0.000000
0.000000 0.912231 0.000000
0.000000 0.911926 0.000000
0.000000 0.911560 0.000000
0.000000 0.911163 0.000000
0.000000 0.910675 0.000000
0.000000 0.910126 0.000000
0.000000 0.909485 0.000000
0.000000 0.908813 0.000000
0.000000 0.907990 0.000000
0.195312 0.907074 0.000000
0.362823 0.905975 0.000000
0.471008 0.904785 0.000000
0.552887 0.903351 0.000000
0.619324 0.901733 0.000000
0.675354 0.899872 0.000000
0.723938 0.897736 0.000000
0.766968 0.895203 0.000000
0.804749 0.892273 0.000000
0.837463 0.888855 0.000000
0.868164 0.884857 0.000000
0.897003 0.880127 0.000000
0.922760 0.874573 0.000000
0.945831 0.867981 0.000000
0.966461 0.860138 0.000000
0.984863 0.850769 0.000000
0.000000 0.934113 0.000000
0.000000 0.933960 0.000000
0.000000 0.933838 0.000000
0.000000 0.933655 0.000000
0.000000 0.933502 0.000000
0.000000 0.933350 0.000000
0.000000 0.933105 0.000000
0.000000 0.932892 0.000000
0.000000 0.932617 0.000000
0.000000 0.932343 0.000000
0.000000 0.932007 0.000000
0.000000 0.931610 0.000000
0.000000 0.931152 0.000000
0.000000 0.930664 0.000000
0.000000 0.930054 0.000000
0.000000 0.929413 0.000000
0.026947 0.928650 0.000000
