Postproduction/IWLTBAP - Humble/LUTs by IWLTBAP (CUBE)/UTILITY/BMDFilm URSA to Rec.709/U-BMDFILM-URSA-V2-LTR.cube
# Copyright: (C) Copyright 2010-2018 by IWLTBAP SAS
# Cannot be resold, shared or otherwise redistributed
# Website: https://luts.iwltbap.com
TITLE "BMDFilm URSA Version 2 (Utility LOG to Rec.709)"
LUT_3D_SIZE 32
0.000000 0.000000 0.000000
0.000000 0.000000 0.000000
0.053070 0.000000 0.000000
0.128876 0.000000 0.000000
0.185211 0.000000 0.000000
0.235016 0.000000 0.000000
0.282043 0.000000 0.000000
0.327728 0.000000 0.000000
0.373016 0.000000 0.000000
0.418549 0.000000 0.000000
0.464630 0.000000 0.000000
0.511780 0.000000 0.000000
0.560333 0.000000 0.000000
0.610443 0.000000 0.000000
0.662292 0.000000 0.000000
0.710419 0.000000 0.000000
0.754120 0.000000 0.000000
0.796783 0.000000 0.000000
0.835724 0.000000 0.000000
0.871124 0.000000 0.000000
0.903137 0.000000 0.000000
0.931671 0.000000 0.000000
0.956848 0.000000 0.000000
0.979004 0.000000 0.000000
0.998291 0.000000 0.000000
1.000000 0.000000 0.000000
1.000000 0.000000 0.000000
1.000000 0.000000 0.000000
1.000000 0.000000 0.000000
1.000000 0.000000 0.000000
1.000000 0.000000 0.000000
1.000000 0.000000 0.000000
0.000000 0.000000 0.000000
0.000000 0.000000 0.000000
0.025421 0.000000 0.000000
0.106384 0.000000 0.000000
0.168823 0.000000 0.000000
0.221802 0.000000 0.000000
0.270935 0.000000 0.000000
0.318115 0.000000 0.000000
0.364655 0.000000 0.000000
0.411102 0.000000 0.000000
0.457977 0.000000 0.000000
0.505798 0.000000 0.000000
0.554901 0.000000 0.000000
0.605469 0.000000 0.000000
0.657990 0.000000 0.000000
0.706970 0.000000 0.000000
0.751221 0.000000 0.000000
0.794373 0.000000 0.000000
0.833832 0.000000 0.000000
0.869629 0.000000 0.000000
0.901917 0.000000 0.000000
0.930756 0.000000 0.000000
0.956116 0.000000 0.000000
0.978424 0.000000 0.000000
0.997894 0.000000 0.000000
1.000000 0.000000 0.000000
1.000000 0.000000 0.000000
1.000000 0.000000 0.000000
1.000000 0.000000 0.000000
1.000000 0.000000 0.000000
1.000000 0.000000 0.000000
1.000000 0.000000 0.000000
0.000000 0.031799 0.000000
0.000000 0.022491 0.000000
0.000000 0.013000 0.000000
0.080566 0.003143 0.000000
0.150970 0.000000 0.000000
0.207855 0.000000 0.000000
0.259430 0.000000 0.000000
0.308258 0.000000 0.000000
0.356049 0.000000 0.000000
0.403503 0.000000 0.000000
0.451202 0.000000 0.000000
0.499725 0.000000 0.000000
0.549377 0.000000 0.000000
0.600464 0.000000 0.000000
0.653595 0.000000 0.000000
0.703369 0.000000 0.000000
0.748322 0.000000 0.000000
0.791962 0.000000 0.000000
0.831879 0.000000 0.000000
0.868073 0.000000 0.000000
0.900665 0.000000 0.000000
0.929779 0.000000 0.000000
0.955383 0.000000 0.000000
0.977905 0.000000 0.000000
0.997437 0.000000 0.000000
1.000000 0.000000 0.000000
1.000000 0.000000 0.000000
1.000000 0.000000 0.000000
1.000000 0.000000 0.000000
1.000000 0.000000 0.000000
1.000000 0.000000 0.000000
1.000000 0.000000 0.000000
0.000000 0.102600 0.000000
0.000000 0.094208 0.000000
0.000000 0.085266 0.000000
0.053741 0.076508 0.000000
0.131226 0.067383 0.000000
0.192963 0.057007 0.000000
0.247375 0.045044 0.000000
0.298065 0.031219 0.000000
0.347198 0.015228 0.000000
0.395721 0.000000 0.000000
0.444336 0.000000 0.000000
0.493530 0.000000 0.000000
0.543823 0.000000 0.000000
0.595428 0.000000 0.000000
0.649078 0.000000 0.000000
0.699738 0.000000 0.000000
0.745422 0.000000 0.000000
0.789520 0.000000 0.000000
0.829926 0.000000 0.000000
0.866516 0.000000 0.000000
0.899475 0.000000 0.000000
0.928802 0.000000 0.000000
0.954651 0.000000 0.000000
0.977295 0.000000 0.000000
0.997009 0.000000 0.000000
1.000000 0.000000 0.000000
1.000000 0.000000 0.000000
1.000000 0.000000 0.000000
1.000000 0.000000 0.000000
1.000000 0.000000 0.000000
1.000000 0.000000 0.000000
1.000000 0.000000 0.000000
0.000000 0.159027 0.000000
0.000000 0.152985 0.000000
0.000000 0.146759 0.000000
0.024933 0.140320 0.000000
0.108368 0.133484 0.000000
0.176636 0.125397 0.000000
0.234283 0.115692 0.000000
0.287262 0.103912 0.000000
0.337891 0.089447 0.000000
0.387573 0.072418 0.000000
0.437134 0.052887 0.000000
0.487091 0.030029 0.000000
0.537994 0.002838 0.000000
0.590149 0.000000 0.000000
0.644287 0.000000 0.000000
0.695953 0.000000 0.000000
0.742432 0.000000 0.000000
0.786957 0.000000 0.000000
0.827850 0.000000 0.000000
0.864899 0.000000 0.000000
0.898163 0.000000 0.000000
0.927826 0.000000 0.000000
0.953857 0.000000 0.000000
0.976715 0.000000 0.000000
0.996582 0.000000 0.000000
1.000000 0.000000 0.000000
1.000000 0.000000 0.000000
1.000000 0.000000 0.000000
1.000000 0.000000 0.000000
1.000000 0.000000 0.000000
1.000000 0.000000 0.000000
1.000000 0.000000 0.000000
0.000000 0.207733 0.000000
0.000000 0.202881 0.000000
0.000000 0.197968 0.000000
0.000000 0.192963 0.000000
0.078339 0.187683 0.000000
0.156616 0.181641 0.000000
0.218811 0.174500 0.000000
0.274567 0.166046 0.000000
0.327087 0.155975 0.000000
0.378204 0.143860 0.000000
0.428864 0.129028 0.000000
0.479736 0.110474 0.000000
0.531372 0.087006 0.000000
0.584198 0.058777 0.000000
0.638855 0.025421 0.000000
0.691589 0.000000 0.000000
0.738953 0.000000 0.000000
0.783997 0.000000 0.000000
0.825531 0.000000 0.000000
0.863037 0.000000 0.000000
0.896729 0.000000 0.000000
0.926697 0.000000 0.000000
0.952972 0.000000 0.000000
0.976044 0.000000 0.000000
0.996033 0.000000 0.000000
1.000000 0.000000 0.000000
1.000000 0.000000 0.000000
1.000000 0.000000 0.000000
1.000000 0.000000 0.000000
1.000000 0.000000 0.000000
1.000000 0.000000 0.000000
1.000000 0.000000 0.000000
0.000000 0.253235 0.000000
0.000000 0.249207 0.000000
0.000000 0.245148 0.000000
0.000000 0.240997 0.000000
0.042664 0.236633 0.000000
0.130768 0.231628 0.000000
0.199982 0.225891 0.000000
0.259460 0.219177 0.000000
0.314392 0.211304 0.000000
0.367279 0.201996 0.000000
0.419312 0.190948 0.000000
0.471222 0.177795 0.000000
0.523773 0.161682 0.000000
0.577301 0.141602 0.000000
0.632538 0.115601 0.000000
0.686554 0.081757 0.000000
0.735016 0.040131 0.000000
0.780579 0.000000 0.000000
0.822845 0.000000 0.000000
0.860901 0.000000 0.000000
0.895050 0.000000 0.000000
0.925385 0.000000 0.000000
0.951996 0.000000 0.000000
0.975281 0.000000 0.000000
0.995453 0.000000 0.000000
1.000000 0.000000 0.000000
1.000000 0.000000 0.000000
1.000000 0.000000 0.000000
1.000000 0.000000 0.000000
1.000000 0.000000 0.000000
1.000000 0.000000 0.000000
1.000000 0.000000 0.000000
0.000000 0.297089 0.000000
0.000000 0.293640 0.000000
0.000000 0.290161 0.000000
0.000000 0.286652 0.000000
0.000000 0.282959 0.000000
0.096252 0.278748 0.000000
0.176453 0.273926 0.000000
0.241211 0.268372 0.000000
0.299316 0.261841 0.000000
0.354401 0.254242 0.000000
0.408112 0.245300 0.000000
0.461365 0.234772 0.000000
0.514923 0.222321 0.000000
0.569397 0.207336 0.000000
0.625244 0.189056 0.000000
0.680695 0.166260 0.000000
0.730469 0.136536 0.000000
0.776672 0.096283 0.000000
0.819763 0.044037 0.000000
0.858459 0.000000 0.000000
0.893097 0.000000 0.000000
0.923889 0.000000 0.000000
0.950836 0.000000 0.000000
0.974365 0.000000 0.000000
0.994781 0.000000 0.000000
1.000000 0.000000 0.000000
1.000000 0.000000 0.000000
1.000000 0.000000 0.000000
1.000000 0.000000 0.000000
1.000000 0.000000 0.000000
1.000000 0.000000 0.000000
1.000000 0.000000 0.000000
0.000000 0.340424 0.000000
0.000000 0.337402 0.000000
0.000000 0.334351 0.000000
0.000000 0.331268 0.000000
0.000000 0.328094 0.000000
0.050781 0.324432 0.000000
0.145905 0.320251 0.000000
0.218658 0.315460 0.000000
0.281342 0.309875 0.000000
0.339233 0.303436 0.000000
0.395020 0.295959 0.000000
0.449860 0.287231 0.000000
0.504730 0.277008 0.000000
0.560272 0.264923 0.000000
0.616882 0.250488 0.000000
0.673889 0.233002 0.000000
0.725159 0.211639 0.000000
0.772125 0.184723 0.000000
0.816162 0.149200 0.000000
0.855621 0.099335 0.000000
0.890869 0.032532 0.000000
0.922150 0.000000 0.000000
0.949524 0.000000 0.000000
0.973358 0.000000 0.000000
0.993988 0.000000 0.000000
1.000000 0.000000 0.000000
1.000000 0.000000 0.000000
1.000000 0.000000 0.000000
1.000000 0.000000 0.000000
1.000000 0.000000 0.000000
1.000000 0.000000 0.000000
1.000000 0.000000 0.000000
0.000000 0.383850 0.000000
0.000000 0.381134 0.000000
0.000000 0.378448 0.000000
0.000000 0.375732 0.000000
0.000000 0.372925 0.000000
0.000000 0.369720 0.000000
0.103973 0.366058 0.000000
0.190247 0.361847 0.000000
0.259338 0.356995 0.000000
0.321136 0.351410 0.000000
0.379578 0.344940 0.000000
0.436462 0.337463 0.000000
0.492889 0.328735 0.000000
0.549683 0.318512 0.000000
0.607300 0.306488 0.000000
0.665985 0.292328 0.000000
0.718964 0.275299 0.000000
0.766815 0.254639 0.000000
0.811981 0.229004 0.000000
0.852325 0.196289 0.000000
0.888306 0.151581 0.000000
0.920166 0.086823 0.000000
0.947998 0.000000 0.000000
0.972198 0.000000 0.000000
0.993134 0.000000 0.000000
1.000000 0.000000 0.000000
1.000000 0.000000 0.000000
1.000000 0.000000 0.000000
1.000000 0.000000 0.000000
1.000000 0.000000 0.000000
1.000000 0.000000 0.000000
1.000000 0.000000 0.000000
0.000000 0.427704 0.000000
0.000000 0.425354 0.000000
0.000000 0.422943 0.000000
0.000000 0.420502 0.000000
0.000000 0.418030 0.000000
0.000000 0.415161 0.000000
0.046417 0.411926 0.000000
0.152649 0.408173 0.000000
0.231842 0.403931 0.000000
0.299194 0.398987 0.000000
0.361267 0.393341 0.000000
0.420685 0.386780 0.000000
0.479034 0.379181 0.000000
0.537384 0.370361 0.000000
0.596313 0.360077 0.000000
0.656616 0.348022 0.000000
0.711609 0.333771 0.000000
0.760681 0.316833 0.000000
0.807129 0.296448 0.000000
0.848480 0.271454 0.000000
0.885315 0.240051 0.000000
0.917847 0.198761 0.000000
0.946228 0.138702 0.000000
0.970825 0.051086 0.000000
0.992096 0.000000 0.000000
1.000000 0.000000 0.000000
1.000000 0.000000 0.000000
1.000000 0.000000 0.000000
1.000000 0.000000 0.000000
1.000000 0.000000 0.000000
1.000000 0.000000 0.000000
1.000000 0.000000 0.000000
0.000000 0.472504 0.000000
0.000000 0.470337 0.000000
0.000000 0.468201 0.000000
0.000000 0.466003 0.000000
0.000000 0.463745 0.000000
0.000000 0.461182 0.000000
0.000000 0.458282 0.000000
0.099152 0.454926 0.000000
0.196533 0.451111 0.000000
0.272186 0.446747 0.000000
0.339111 0.441742 0.000000
0.401978 0.435974 0.000000
0.462799 0.429291 0.000000
0.523041 0.421539 0.000000
0.583527 0.412598 0.000000
0.645294 0.402130 0.000000
0.702911 0.389893 0.000000
0.753601 0.375488 0.000000
0.801422 0.358429 0.000000
0.844055 0.337952 0.000000
0.881836 0.313110 0.000000
0.915161 0.282227 0.000000
0.944153 0.242493 0.000000
0.969269 0.187775 0.000000
0.990936 0.102478 0.000000
1.000000 0.000000 0.000000
1.000000 0.000000 0.000000
1.000000 0.000000 0.000000
1.000000 0.000000 0.000000
1.000000 0.000000 0.000000
1.000000 0.000000 0.000000
1.000000 0.000000 0.000000
0.000000 0.518463 0.000000
0.000000 0.516541 0.000000
0.000000 0.514557 0.000000
0.000000 0.512604 0.000000
0.000000 0.510559 0.000000
0.000000 0.508240 0.000000
0.000000 0.505615 0.000000
0.023499 0.502625 0.000000
0.147766 0.499176 0.000000
0.237976 0.495239 0.000000
0.312073 0.490753 0.000000
0.379486 0.485565 0.000000
0.443604 0.479614 0.000000
0.506226 0.472748 0.000000
0.568634 0.464813 0.000000
0.631805 0.455627 0.000000
0.692535 0.444916 0.000000
0.745392 0.432465 0.000000
0.794769 0.417816 0.000000
0.838837 0.400452 0.000000
0.877808 0.379761 0.000000
0.912018 0.354675 0.000000
0.941803 0.323822 0.000000
0.967438 0.284698 0.000000
0.989563 0.232391 0.000000
1.000000 0.152496 0.000000
1.000000 0.029022 0.000000
1.000000 0.000000 0.000000
1.000000 0.000000 0.000000
1.000000 0.000000 0.000000
1.000000 0.000000 0.000000
1.000000 0.000000 0.000000
0.000000 0.565948 0.000000
0.000000 0.564148 0.000000
0.000000 0.562378 0.000000
0.000000 0.560577 0.000000
0.000000 0.558716 0.000000
0.000000 0.556641 0.000000
0.000000 0.554260 0.000000
0.000000 0.551544 0.000000
0.075043 0.548431 0.000000
0.192291 0.544891 0.000000
0.278198 0.540802 0.000000
0.352081 0.536163 0.000000
0.420563 0.530823 0.000000
0.486389 0.524628 0.000000
0.551208 0.517578 0.000000
0.616089 0.509369 0.000000
0.680206 0.499878 0.000000
0.735840 0.488892 0.000000
0.786896 0.476044 0.000000
0.832703 0.460999 0.000000
0.873047 0.443268 0.000000
0.908386 0.422119 0.000000
0.939026 0.396667 0.000000
0.965363 0.365540 0.000000
0.987976 0.326385 0.000000
1.000000 0.275055 0.000000
1.000000 0.201050 0.000000
1.000000 0.076538 0.000000
1.000000 0.000000 0.000000
1.000000 0.000000 0.000000
1.000000 0.000000 0.000000
1.000000 0.000000 0.000000
0.000000 0.615082 0.000000
0.000000 0.613464 0.000000
0.000000 0.611816 0.000000
0.000000 0.610199 0.000000
0.000000 0.608521 0.000000
0.000000 0.606598 0.000000
0.000000 0.604431 0.000000
0.000000 0.601959 0.000000
0.000000 0.599121 0.000000
0.125214 0.595886 0.000000
0.234039 0.592194 0.000000
0.318085 0.587982 0.000000
0.392670 0.583160 0.000000
0.462677 0.577606 0.000000
0.530670 0.571259 0.000000
0.597900 0.563873 0.000000
0.665405 0.555389 0.000000
0.724548 0.545593 0.000000
0.777466 0.534210 0.000000
0.825500 0.520966 0.000000
0.867493 0.505432 0.000000
0.904114 0.487152 0.000000
0.935822 0.465454 0.000000
0.962921 0.439423 0.000000
0.986145 0.407684 0.000000
1.000000 0.368164 0.000000
1.000000 0.316956 0.000000
1.000000 0.245453 0.000000
1.000000 0.123657 0.000000
1.000000 0.000000 0.000000
1.000000 0.000000 0.000000
1.000000 0.000000 0.000000
0.000000 0.665955 0.000000
0.000000 0.664551 0.000000
0.000000 0.663147 0.000000
0.000000 0.661743 0.000000
0.000000 0.660278 0.000000
0.000000 0.658630 0.000000
0.000000 0.656677 0.000000
0.000000 0.654510 0.000000
0.000000 0.651978 0.000000
0.023956 0.649048 0.000000
0.171021 0.645691 0.000000
0.274445 0.641815 0.000000
0.358215 0.637360 0.000000
0.434052 0.632233 0.000000
0.506104 0.626343 0.000000
0.576569 0.619629 0.000000
0.647034 0.611938 0.000000
0.710876 0.603119 0.000000
0.766266 0.592957 0.000000
0.816895 0.581146 0.000000
0.860870 0.567413 0.000000
0.899048 0.551361 0.000000
0.931976 0.532440 0.000000
0.960052 0.510040 0.000000
0.984009 0.483246 0.000000
1.000000 0.450684 0.000000
1.000000 0.410370 0.000000
1.000000 0.358704 0.000000
1.000000 0.288147 0.000000
1.000000 0.171783 0.000000
1.000000 0.025482 0.000000
1.000000 0.000000 0.000000
0.000000 0.712799 0.000000
0.000000 0.711670 0.000000
0.000000 0.710571 0.000000
0.000000 0.709412 0.000000
0.000000 0.708221 0.000000
0.000000 0.706909 0.000000
0.000000 0.705322 0.000000
0.000000 0.703583 0.000000
0.000000 0.701569 0.000000
0.000000 0.699249 0.000000
0.071655 0.696625 0.000000
0.214294 0.693573 0.000000
0.314331 0.690094 0.000000
0.398865 0.686035 0.000000
0.476532 0.681396 0.000000
0.551056 0.675964 0.000000
0.624390 0.669647 0.000000
0.694122 0.662201 0.000000
0.752991 0.653290 0.000000
0.806610 0.642700 0.000000
0.852997 0.630188 0.000000
0.893066 0.615692 0.000000
0.927460 0.598969 0.000000
0.956665 0.579407 0.000000
0.981476 0.556213 0.000000
1.000000 0.528473 0.000000
1.000000 0.494934 0.000000
1.000000 0.453583 0.000000
1.000000 0.400970 0.000000
1.000000 0.330322 0.000000
1.000000 0.220490 0.000000
1.000000 0.053192 0.000000
0.000000 0.755798 0.000000
0.000000 0.754822 0.000000
0.000000 0.753906 0.000000
0.000000 0.752960 0.000000
0.000000 0.751984 0.000000
0.000000 0.750854 0.000000
0.000000 0.749573 0.000000
0.000000 0.748138 0.000000
0.000000 0.746521 0.000000
0.000000 0.744659 0.000000
0.000000 0.742523 0.000000
0.119934 0.740082 0.000000
0.255432 0.737274 0.000000
0.354431 0.734070 0.000000
0.440399 0.730347 0.000000
0.520447 0.726074 0.000000
0.597809 0.721100 0.000000
0.673553 0.715302 0.000000
0.737244 0.708405 0.000000
0.794159 0.700287 0.000000
0.843567 0.690674 0.000000
0.885925 0.679321 0.000000
0.922119 0.665741 0.000000
0.952698 0.648987 0.000000
0.978516 0.628296 0.000000
1.000000 0.603973 0.000000
1.000000 0.575256 0.000000
1.000000 0.540527 0.000000
1.000000 0.497864 0.000000
1.000000 0.443939 0.000000
1.000000 0.372314 0.000000
1.000000 0.265289 0.000000
0.000000 0.797760 0.000000
0.000000 0.796997 0.000000
0.000000 0.796173 0.000000
0.000000 0.795410 0.000000
0.000000 0.794586 0.000000
0.000000 0.793671 0.000000
0.000000 0.792603 0.000000
0.000000 0.791412 0.000000
0.000000 0.790039 0.000000
0.000000 0.788452 0.000000
0.000000 0.786621 0.000000
0.000000 0.784546 0.000000
0.164490 0.782166 0.000000
0.295624 0.779388 0.000000
0.395111 0.776215 0.000000
0.483124 0.772522 0.000000
0.566040 0.768311 0.000000
0.646942 0.763367 0.000000
0.718140 0.757751 0.000000
0.778900 0.751160 0.000000
0.832184 0.743622 0.000000
0.877380 0.734772 0.000000
0.915741 0.724213 0.000000
0.947968 0.711395 0.000000
0.975006 0.695801 0.000000
0.997620 0.677246 0.000000
1.000000 0.654114 0.000000
1.000000 0.623962 0.000000
1.000000 0.587708 0.000000
1.000000 0.543549 0.000000
1.000000 0.488007 0.000000
1.000000 0.414825 0.000000
0.000000 0.836182 0.000000
0.000000 0.835571 0.000000
0.000000 0.834930 0.000000
0.000000 0.834290 0.000000
0.000000 0.833649 0.000000
0.000000 0.832886 0.000000
0.000000 0.832062 0.000000
0.000000 0.831055 0.000000
0.000000 0.829987 0.000000
0.000000 0.828705 0.000000
0.000000 0.827271 0.000000
0.000000 0.825623 0.000000
0.029114 0.823700 0.000000
0.208099 0.821533 0.000000
0.335724 0.819000 0.000000
0.436554 0.816101 0.000000
0.527374 0.812744 0.000000
0.613342 0.808838 0.000000
0.693909 0.804352 0.000000
0.760101 0.799072 0.000000
0.818207 0.792877 0.000000
0.866974 0.785522 0.000000
0.908020 0.776825 0.000000
0.942322 0.766510 0.000000
0.970825 0.754364 0.000000
0.994568 0.740051 0.000000
1.000000 0.722260 0.000000
1.000000 0.699738 0.000000
1.000000 0.672882 0.000000
1.000000 0.637329 0.000000
1.000000 0.590881 0.000000
1.000000 0.533417 0.000000
0.000000 0.871185 0.000000
0.000000 0.870728 0.000000
0.000000 0.870209 0.000000
0.000000 0.869690 0.000000
0.000000 0.869171 0.000000
0.000000 0.868561 0.000000
0.000000 0.867889 0.000000
0.000000 0.867126 0.000000
0.000000 0.866272 0.000000
0.000000 0.865234 0.000000
0.000000 0.864105 0.000000
0.000000 0.862793 0.000000
0.000000 0.861267 0.000000
0.070831 0.859528 0.000000
0.250366 0.857513 0.000000
0.376160 0.855255 0.000000
0.479309 0.852600 0.000000
0.573181 0.849518 0.000000
0.662872 0.845978 0.000000
0.737091 0.841858 0.000000
0.800903 0.837036 0.000000
0.854218 0.831329 0.000000
0.898621 0.824646 0.000000
0.935486 0.816681 0.000000
0.965820 0.807159 0.000000
0.990936 0.795685 0.000000
1.000000 0.781738 0.000000
1.000000 0.764801 0.000000
1.000000 0.744415 0.000000
1.000000 0.717743 0.000000
1.000000 0.683838 0.000000
1.000000 0.640717 0.000000
0.000000 0.902893 0.000000
0.000000 0.902496 0.000000
0.000000 0.902069 0.000000
0.000000 0.901703 0.000000
0.000000 0.901276 0.000000
0.000000 0.900787 0.000000
0.000000 0.900299 0.000000
0.000000 0.899658 0.000000
0.000000 0.898956 0.000000
0.000000 0.898163 0.000000
0.000000 0.897278 0.000000
0.000000 0.896210 0.000000
0.000000 0.895020 0.000000
0.000000 0.893646 0.000000
0.108673 0.892090 0.000000
0.291107 0.890289 0.000000
0.417389 0.888214 0.000000
0.523346 0.885773 0.000000
0.620789 0.883026 0.000000
0.707794 0.879791 0.000000
0.778778 0.876038 0.000000
0.838348 0.871674 0.000000
0.887054 0.866455 0.000000
0.927094 0.860352 0.000000
0.959747 0.853088 0.000000
0.986542 0.844391 0.000000
1.000000 0.833923 0.000000
1.000000 0.821167 0.000000
1.000000 0.805420 0.000000
1.000000 0.785645 0.000000
1.000000 0.761169 0.000000
1.000000 0.729340 0.000000
0.000000 0.931274 0.000000
0.000000 0.930939 0.000000
0.000000 0.930634 0.000000
0.000000 0.930298 0.000000
0.000000 0.929993 0.000000
0.000000 0.929626 0.000000
0.000000 0.929199 0.000000
0.000000 0.928741 0.000000
0.000000 0.928192 0.000000
0.000000 0.927551 0.000000
0.000000 0.926880 0.000000
0.000000 0.926056 0.000000
0.000000 0.925110 0.000000
0.000000 0.924042 0.000000
0.000000 0.922821 0.000000
0.143799 0.921448 0.000000
0.331696 0.919800 0.000000
0.459503 0.917938 0.000000
0.568970 0.915802 0.000000
0.669983 0.913269 0.000000
0.750702 0.910370 0.000000
0.818085 0.907013 0.000000
0.872620 0.903076 0.000000
0.916718 0.898376 0.000000
0.952362 0.892853 0.000000
0.981232 0.886261 0.000000
1.000000 0.878357 0.000000
1.000000 0.868835 0.000000
1.000000 0.857208 0.000000
1.000000 0.842804 0.000000
1.000000 0.824707 0.000000
1.000000 0.801544 0.000000
0.000000 0.956299 0.000000
0.000000 0.956055 0.000000
0.000000 0.955811 0.000000
0.000000 0.955566 0.000000
0.000000 0.955322 0.000000
0.000000 0.955048 0.000000
0.000000 0.954712 0.000000
0.000000 0.954346 0.000000
0.000000 0.953918 0.000000
0.000000 0.953461 0.000000
0.000000 0.952881 0.000000
0.000000 0.952301 0.000000
0.000000 0.951569 0.000000
0.000000 0.950745 0.000000
0.000000 0.949768 0.000000
0.000000 0.948700 0.000000
0.184875 0.947479 0.000000
0.372345 0.946075 0.000000
0.502930 0.944397 0.000000
0.616455 0.942505 0.000000
0.713989 0.940308 0.000000
0.791748 0.937744 0.000000
0.854095 0.934723 0.000000
0.903717 0.931244 0.000000
0.943207 0.927063 0.000000
0.974701 0.922089 0.000000
0.999969 0.916168 0.000000
1.000000 0.909088 0.000000
1.000000 0.900482 0.000000
1.000000 0.889984 0.000000
1.000000 0.876892 0.000000
1.000000 0.860413 0.000000
0.000000 0.978394 0.000000
0.000000 0.978210 0.000000
0.000000 0.978058 0.000000
0.000000 0.977844 0.000000
0.000000 0.977631 0.000000
0.000000 0.977417 0.000000
0.000000 0.977173 0.000000
0.000000 0.976868 0.000000
0.000000 0.976562 0.000000
0.000000 0.976196 0.000000
0.000000 0.975769 0.000000
0.000000 0.975311 0.000000
0.000000 0.974731 0.000000
0.000000 0.974121 0.000000
0.000000 0.973389 0.000000
0.000000 0.972565 0.000000
0.000000 0.971588 0.000000
0.225830 0.970490 0.000000
0.413513 0.969238 0.000000
0.547852 0.967773 0.000000
0.665710 0.966095 0.000000
0.757080 0.964142 0.000000
0.829926 0.961884 0.000000
0.886932 0.959229 0.000000
0.931671 0.956146 0.000000
0.966583 0.952423 0.000000
0.994293 0.948090 0.000000
1.000000 0.942871 0.000000
1.000000 0.936584 0.000000
1.000000 0.928925 0.000000
1.000000 0.919495 0.000000
1.000000 0.907745 0.000000
0.000000 0.997681 0.000000
0.000000 0.997528 0.000000
0.000000 0.997406 0.000000
0.000000 0.997253 0.000000
0.000000 0.997101 0.000000
0.000000 0.996918 0.000000
0.000000 0.996765 0.000000
0.000000 0.996552 0.000000
0.000000 0.996277 0.000000
0.000000 0.996002 0.000000
0.000000 0.995667 0.000000
0.000000 0.995331 0.000000
0.000000 0.994904 0.000000
0.000000 0.994415 0.000000
0.000000 0.993866 0.000000
0.000000 0.993225 0.000000
0.000000 0.992523 0.000000
0.015961 0.991669 0.000000
0.267792 0.990723 0.000000
0.455688 0.989624 0.000000
0.594482 0.988373 0.000000
0.709412 0.986908 0.000000
0.797516 0.985168 0.000000
0.864929 0.983215 0.000000
0.916595 0.980865 0.000000
0.956390 0.978149 0.000000
0.987244 0.974884 0.000000
1.000000 0.971039 0.000000
1.000000 0.966400 0.000000
1.000000 0.960846 0.000000
1.000000 0.954071 0.000000
1.000000 0.945770 0.000000
0.000000 1.000000 0.000000
0.000000 1.000000 0.000000
0.000000 1.000000 0.000000
0.000000 1.000000 0.000000
0.000000 1.000000 0.000000
0.000000 1.000000 0.000000
0.000000 1.000000 0.000000
0.000000 1.000000 0.000000
0.000000 1.000000 0.000000
0.000000 1.000000 0.000000
0.000000 1.000000 0.000000
0.000000 1.000000 0.000000
0.000000 1.000000 0.000000
0.000000 1.000000 0.000000
0.000000 1.000000 0.000000
0.000000 1.000000 0.000000
0.000000 1.000000 0.000000
0.000000 1.000000 0.000000
0.057190 1.000000 0.000000
0.310913 1.000000 0.000000
0.499115 1.000000 0.000000
0.643646 1.000000 0.000000
0.752991 1.000000 0.000000
0.835266 1.000000 0.000000
0.896759 1.000000 0.000000
0.943085 0.999725 0.000000
0.978271 0.997375 0.000000
1.000000 0.994537 0.000000
1.000000 0.991211 0.000000
1.000000 0.987183 0.000000
1.000000 0.982269 0.000000
1.000000 0.976349 0.000000
0.000000 1.000000 0.000000
0.000000 1.000000 0.000000
0.000000 1.000000 0.000000
0.000000 1.000000 0.000000
0.000000 1.000000 0.000000
0.000000 1.000000 0.000000
0.000000 1.000000 0.000000
0.000000 1.000000 0.000000
0.000000 1.000000 0.000000
0.000000 1.000000 0.000000
0.000000 1.000000 0.000000
0.000000 1.000000 0.000000
0.000000 1.000000 0.000000
0.000000 1.000000 0.000000
0.000000 1.000000 0.000000
0.000000 1.000000 0.000000
0.000000 1.000000 0.000000
