Postproduction/IWLTBAP - Humble/LUTs by IWLTBAP (CUBE)/UTILITY/BMDFilm URSA to Rec.709/U-BMDFILM-URSA-V3-LTR.cube
# Copyright: (C) Copyright 2010-2018 by IWLTBAP SAS
# Cannot be resold, shared or otherwise redistributed
# Website: https://luts.iwltbap.com
TITLE "BMDFilm URSA Version 3 (Utility LOG to Rec.709)"
LUT_3D_SIZE 8
DOMAIN_MIN 0.000000 0.000000 0.000000
DOMAIN_MAX 0.903226 0.903226 0.903226
0.000000 0.000000 0.000000
0.258606 0.000000 0.000000
0.681885 0.000000 0.000000
0.830292 0.000000 0.000000
0.873596 0.000000 0.000000
0.913544 0.000000 0.000000
0.949463 0.000000 0.000000
0.978394 0.000000 0.000000
0.000000 0.152374 0.000000
0.096252 0.100983 0.000000
0.442657 0.035492 0.000000
0.797913 0.029022 0.000000
0.872711 0.028809 0.000000
0.913177 0.028809 0.000000
0.949341 0.028809 0.000000
0.978394 0.028809 0.000000
0.000000 0.307068 0.000000
0.028809 0.287537 0.000000
0.255859 0.255768 0.000000
0.488739 0.204041 0.000000
0.739258 0.073425 0.000000
0.912628 0.060028 0.000000
0.949158 0.057617 0.000000
0.978394 0.057617 0.000000
0.000000 0.458252 0.000000
0.028809 0.451080 0.000000
0.155029 0.442993 0.000000
0.431427 0.428680 0.000000
0.668640 0.398956 0.000000
0.870697 0.332855 0.000000
0.948822 0.121826 0.000000
0.978394 0.086426 0.000000
0.000000 0.650238 0.000000
0.028809 0.653320 0.000000
0.057617 0.656433 0.000000
0.384094 0.664642 0.000000
0.671967 0.665314 0.000000
0.892120 0.640869 0.000000
0.948212 0.575623 0.000000
0.978394 0.433533 0.000000
0.000000 0.863770 0.000000
0.028809 0.873199 0.000000
0.057617 0.881683 0.000000
0.086426 0.888824 0.000000
0.628967 0.902313 0.000000
0.905914 0.905121 0.000000
0.947052 0.895203 0.000000
0.978394 0.866425 0.000000
0.000000 0.947968 0.000000
0.028809 0.947906 0.000000
0.057617 0.947845 0.000000
0.086426 0.947693 0.000000
0.189423 0.947479 0.000000
0.895782 0.947052 0.000000
0.944489 0.946320 0.000000
0.978394 0.944855 0.000000
0.000000 0.978394 0.000000
0.028809 0.978394 0.000000
0.057617 0.978394 0.000000
0.086426 0.978394 0.000000
0.316040 0.978394 0.000000
0.769226 0.978394 0.000000
0.936981 0.978394 0.000000
0.978394 0.978394 0.000000
0.000000 0.000000 0.240875
0.218475 0.000000 0.178314
0.637939 0.000000 0.037506
0.830017 0.000000 0.036102
0.873444 0.000000 0.033539
0.913483 0.000000 0.028961
0.949463 0.000000 0.028809
0.978394 0.000000 0.028809
0.000000 0.111237 0.103851
0.062927 0.062927 0.062927
0.430023 0.031891 0.034760
0.755829 0.028809 0.033203
0.872589 0.028809 0.030487
0.913116 0.028809 0.028809
0.949310 0.028809 0.028809
0.978394 0.028809 0.028809
0.000000 0.292267 0.032227
0.028809 0.273987 0.031525
0.243042 0.244476 0.030518
0.477936 0.193085 0.028809
0.728577 0.071411 0.028809
0.912567 0.057617 0.028809
0.949127 0.057617 0.028809
0.978394 0.057617 0.028809
0.000000 0.451660 0.028809
0.028809 0.445282 0.028809
0.137329 0.438080 0.028809
0.424133 0.424408 0.028809
0.662140 0.395081 0.028809
0.866791 0.328339 0.028809
0.948792 0.111603 0.028809
0.978394 0.086426 0.028809
0.000000 0.648132 0.028809
0.028809 0.651581 0.028809
0.057617 0.655365 0.028809
0.374939 0.664673 0.028809
0.667480 0.665436 0.028809
0.891083 0.640411 0.028809
0.948181 0.574371 0.028809
0.978394 0.428436 0.028809
0.000000 0.865845 0.028809
0.028809 0.875244 0.028809
0.057617 0.883698 0.028809
0.086426 0.890839 0.028809
0.620483 0.904266 0.028809
0.905792 0.907013 0.028809
0.946991 0.897247 0.028809
0.978394 0.869781 0.028809
0.000000 0.947906 0.028809
0.028809 0.947845 0.028809
0.057617 0.947754 0.028809
0.086426 0.947632 0.028809
0.189026 0.947388 0.028809
0.895599 0.946960 0.028809
0.944427 0.946198 0.028809
0.978394 0.944733 0.028809
0.000000 0.978394 0.028809
0.028809 0.978394 0.028809
0.057617 0.978394 0.028809
0.086426 0.978394 0.028809
0.324493 0.978394 0.028809
0.770844 0.978394 0.028809
0.936890 0.978394 0.028809
0.978394 0.978394 0.333801
0.000000 0.000000 0.661560
0.076691 0.000000 0.578430
0.569000 0.000000 0.473389
0.829651 0.000000 0.094696
0.873260 0.000000 0.078552
0.913391 0.000000 0.076691
0.949432 0.000000 0.073151
0.978394 0.000000 0.064697
0.000000 0.033325 0.522156
0.033875 0.030548 0.462463
0.379181 0.028809 0.342712
0.678009 0.028809 0.206604
0.872375 0.028809 0.077332
0.913025 0.028809 0.075348
0.949280 0.028809 0.071503
0.978394 0.028809 0.061951
0.000000 0.256897 0.257843
0.028809 0.242035 0.241302
0.216095 0.216095 0.216095
0.457581 0.160767 0.179840
0.709503 0.068085 0.089264
0.911407 0.057617 0.073242
0.949097 0.057617 0.068848
0.978394 0.057617 0.057678
0.000000 0.436615 0.152588
0.028809 0.431702 0.155212
0.095886 0.425903 0.153137
0.410461 0.413757 0.132568
0.651184 0.384613 0.083252
0.860657 0.315948 0.069061
0.948761 0.101959 0.062958
0.978394 0.086426 0.057617
0.000000 0.642700 0.068054
0.028809 0.646973 0.067535
0.057617 0.651550 0.066772
0.359192 0.661957 0.065460
0.660156 0.662384 0.063019
0.889343 0.636292 0.058624
0.948151 0.568665 0.057617
0.978394 0.415802 0.057617
0.000000 0.866913 0.057617
0.028809 0.876312 0.057617
0.057617 0.884766 0.057617
0.086426 0.891876 0.057617
0.608887 0.905273 0.057617
0.905609 0.907898 0.057617
0.946960 0.897980 0.057617
0.978394 0.871216 0.057617
0.000000 0.947784 0.057617
0.028809 0.947723 0.057617
0.057617 0.947662 0.057617
0.086426 0.947510 0.057617
0.186554 0.947266 0.057617
0.895294 0.946838 0.057617
0.944366 0.946075 0.057617
0.978394 0.944550 0.057617
0.000000 0.978394 0.057617
0.028809 0.978394 0.057617
0.057617 0.978394 0.057617
0.086426 0.978394 0.057617
0.327911 0.978394 0.057617
0.770050 0.978394 0.057617
0.936768 0.978394 0.118713
0.978394 0.978394 0.533539
0.000000 0.000000 0.824280
0.038452 0.000000 0.824097
0.362152 0.000000 0.823883
0.829010 0.000000 0.823517
0.872925 0.000000 0.407684
0.913269 0.000000 0.119812
0.949371 0.000000 0.117889
0.978394 0.000000 0.114380
0.000000 0.028809 0.823547
0.030731 0.028809 0.823395
0.247009 0.028809 0.713837
0.597778 0.028809 0.533051
0.849762 0.028809 0.398834
0.912872 0.028809 0.223450
0.949249 0.028809 0.117065
0.978394 0.028809 0.113464
0.000000 0.141205 0.535797
0.028809 0.144928 0.495605
0.160675 0.129700 0.449188
0.434906 0.080414 0.414276
0.700134 0.060425 0.371613
0.895691 0.057617 0.298645
0.949036 0.057617 0.156189
0.978394 0.057617 0.112122
0.000000 0.406403 0.409576
0.028809 0.403412 0.403564
0.063507 0.399506 0.398010
0.388458 0.388458 0.388458
0.635193 0.357117 0.370697
0.852112 0.278229 0.335144
0.948700 0.092377 0.249847
0.978394 0.086426 0.109680
0.000000 0.628357 0.360229
0.028809 0.633667 0.365417
0.057617 0.639252 0.368835
0.326019 0.649963 0.366577
0.643951 0.649384 0.345520
0.884918 0.621613 0.292419
0.948090 0.550232 0.158722
0.978394 0.381165 0.104950
0.000000 0.866486 0.222198
0.028809 0.876099 0.211517
0.057617 0.884674 0.190857
0.086426 0.891876 0.155609
0.581879 0.905212 0.109467
0.905365 0.907043 0.104980
0.946869 0.897186 0.101257
0.978394 0.869720 0.092468
0.000000 0.947601 0.090179
0.028809 0.947540 0.089539
0.057617 0.947449 0.088654
0.086426 0.947327 0.087524
0.180786 0.947052 0.086426
0.894806 0.946625 0.086426
0.944275 0.945831 0.086426
0.978394 0.944244 0.088928
0.000000 0.978394 0.086426
0.028809 0.978394 0.086426
0.057617 0.978394 0.086426
0.086426 0.978394 0.086426
0.325348 0.978394 0.086426
0.764038 0.978394 0.086426
0.936523 0.978394 0.476288
0.978394 0.978394 0.770416
0.000000 0.000000 0.867310
0.033783 0.000000 0.867188
0.081757 0.000000 0.867065
0.756073 0.000000 0.866791
0.872375 0.000000 0.866394
0.913025 0.000000 0.716217
0.949280 0.000000 0.311615
0.978394 0.000000 0.160187
0.000000 0.028809 0.866821
0.028809 0.028809 0.866730
0.078705 0.028809 0.866577
0.483215 0.028809 0.848877
0.803619 0.028809 0.724213
0.912628 0.028809 0.598785
0.949158 0.028809 0.478455
0.978394 0.028809 0.321777
0.000000 0.068542 0.866150
0.028809 0.066467 0.825989
0.073456 0.063110 0.757294
0.395782 0.057617 0.689484
0.665680 0.057617 0.618958
0.877197 0.057617 0.560974
0.948944 0.057617 0.500305
0.978394 0.057617 0.429260
0.000000 0.338196 0.652252
0.028809 0.340424 0.635559
0.058472 0.339478 0.622833
0.349304 0.330383 0.604980
0.610718 0.291534 0.590210
0.838715 0.160583 0.566254
0.948608 0.086426 0.520020
0.978394 0.086426 0.472809
0.000000 0.598236 0.603302
0.028809 0.604553 0.605804
0.057617 0.610596 0.609497
0.265686 0.619751 0.616364
0.617523 0.617523 0.617523
0.876495 0.585693 0.602600
0.947968 0.503357 0.567261
0.978394 0.277618 0.507477
0.000000 0.859497 0.584717
0.028809 0.869751 0.591553
0.057617 0.878845 0.596893
0.086426 0.886353 0.599579
0.535950 0.899628 0.594299
0.897827 0.900543 0.586487
0.946747 0.890411 0.571411
0.978394 0.861816 0.523621
0.000000 0.947296 0.448730
0.028809 0.947235 0.450714
0.057617 0.947144 0.469513
0.086426 0.946960 0.506775
0.153809 0.946716 0.538330
0.893921 0.946259 0.626282
0.944061 0.945404 0.677917
0.978394 0.943726 0.697174
0.000000 0.978394 0.132294
0.028809 0.978394 0.165894
0.057617 0.978394 0.260010
0.086426 0.978394 0.378418
0.304688 0.978394 0.446411
0.739502 0.978394 0.514313
0.936127 0.978394 0.779022
0.978394 0.978394 0.817200
0.000000 0.000000 0.908600
0.028809 0.000000 0.908569
0.078522 0.000000 0.908508
0.124115 0.000000 0.908386
0.871399 0.000000 0.908203
0.912628 0.000000 0.907898
0.949158 0.000000 0.899719
0.978394 0.000000 0.750977
0.000000 0.028809 0.908386
0.028809 0.028809 0.908356
0.074890 0.028809 0.908295
0.141144 0.028809 0.908173
0.710144 0.028809 0.907990
0.912201 0.028809 0.878876
0.949005 0.028809 0.805908
0.978394 0.028809 0.717834
0.000000 0.057617 0.908112
0.028809 0.057617 0.908051
0.068176 0.057617 0.907990
0.265747 0.057617 0.906372
0.607849 0.057617 0.859406
0.851929 0.057617 0.811646
0.948792 0.057617 0.759186
0.978394 0.057617 0.712311
0.000000 0.110199 0.886169
0.028809 0.141907 0.869049
0.057617 0.155487 0.854401
0.268585 0.139191 0.829529
0.570526 0.099304 0.810760
0.818359 0.086426 0.787018
0.948456 0.086426 0.759918
0.978394 0.086426 0.732483
0.000000 0.536102 0.832977
0.028809 0.544403 0.831543
0.057617 0.550964 0.832672
0.115845 0.557526 0.839874
0.572815 0.551392 0.848022
0.859802 0.508606 0.847656
0.947784 0.396179 0.833832
0.978394 0.119781 0.781464
0.000000 0.840088 0.850922
0.028809 0.852020 0.858490
0.057617 0.862274 0.865417
0.086426 0.870239 0.871399
0.451569 0.883057 0.881378
0.883423 0.883423 0.883453
0.946533 0.871582 0.881073
0.978394 0.827850 0.869293
0.000000 0.946716 0.852905
0.028809 0.946625 0.860107
0.057617 0.946533 0.868683
0.086426 0.946381 0.877563
0.115234 0.946075 0.886108
0.884766 0.945587 0.900665
0.943756 0.944641 0.899780
0.978394 0.942810 0.898193
0.000000 0.978394 0.825562
0.028809 0.978394 0.848907
0.057617 0.978394 0.868835
0.086426 0.978394 0.886322
0.266296 0.978394 0.893707
0.706268 0.978394 0.892944
0.935455 0.978394 0.891602
0.978394 0.978394 0.889313
0.000000 0.000000 0.946320
0.028809 0.000000 0.946289
0.071625 0.000000 0.946289
0.120758 0.000000 0.946228
0.412079 0.000000 0.946167
0.911896 0.000000 0.946045
0.948883 0.000000 0.945831
0.978394 0.000000 0.945465
0.000000 0.028809 0.946259
0.028809 0.028809 0.946228
0.065826 0.028809 0.946198
0.118652 0.028809 0.946167
0.545563 0.028809 0.946075
0.882141 0.028809 0.945953
0.948761 0.028809 0.945740
0.978394 0.028809 0.941193
0.000000 0.057617 0.946136
0.028809 0.057617 0.946106
0.057617 0.057617 0.946075
0.115448 0.057617 0.946045
0.519440 0.057617 0.945953
0.811798 0.057617 0.945831
0.948547 0.057617 0.935913
0.978394 0.057617 0.916718
0.000000 0.087372 0.945923
0.028809 0.086426 0.945923
0.057617 0.086426 0.945892
0.109131 0.086426 0.945831
0.503448 0.086426 0.945770
0.783752 0.086426 0.939545
0.944702 0.086426 0.928406
0.978394 0.086426 0.919403
0.000000 0.404358 0.945587
0.028809 0.420013 0.945587
0.057617 0.429993 0.945557
0.090637 0.431610 0.945496
0.503174 0.413849 0.945404
0.825684 0.329895 0.945282
0.947479 0.125610 0.945068
0.978394 0.115234 0.943451
0.000000 0.788147 0.945007
0.028809 0.803711 0.944977
0.057617 0.816559 0.944946
0.086426 0.826172 0.944885
0.284637 0.840363 0.944794
0.856903 0.841797 0.944641
0.946167 0.818787 0.944397
0.978394 0.722931 0.943970
0.000000 0.945648 0.943878
0.028809 0.945557 0.943848
0.057617 0.945435 0.943817
0.086426 0.945251 0.943756
0.115234 0.944916 0.943665
0.864014 0.944305 0.943481
0.943207 0.943207 0.943207
0.978394 0.940979 0.942688
0.000000 0.978394 0.941620
0.028809 0.978394 0.941559
0.057617 0.978394 0.941528
0.086426 0.978394 0.941467
0.220642 0.978394 0.941315
0.700378 0.978394 0.941101
0.934296 0.978394 0.940735
0.978394 0.978394 0.940063
0.000000 0.000000 0.978394
0.028809 0.000000 0.978394
0.057617 0.000000 0.978394
0.114197 0.000000 0.978394
0.164154 0.000000 0.978394
0.909393 0.000000 0.978394
0.948456 0.000000 0.978394
0.978394 0.000000 0.978394
0.000000 0.028809 0.978394
0.028809 0.028809 0.978394
0.057617 0.028809 0.978394
0.111572 0.028809 0.978394
0.175415 0.028809 0.978394
0.809326 0.028809 0.978394
0.948303 0.028809 0.978394
0.978394 0.028809 0.978394
0.000000 0.057617 0.978394
0.028809 0.057617 0.978394
0.057617 0.057617 0.978394
0.107269 0.057617 0.978394
0.345276 0.057617 0.978394
0.748199 0.057617 0.978394
0.941223 0.057617 0.978394
0.978394 0.057617 0.978394
0.000000 0.086426 0.978394
0.028809 0.086426 0.978394
0.057617 0.086426 0.978394
0.097107 0.086426 0.978394
0.392181 0.086426 0.978394
0.735107 0.086426 0.978394
0.931854 0.086426 0.978394
0.978394 0.086426 0.978394
0.000000 0.128448 0.978394
0.028809 0.126678 0.978394
0.057617 0.124115 0.978394
0.086426 0.120911 0.978394
0.378876 0.115234 0.978394
0.745209 0.115234 0.978394
0.946930 0.115234 0.978394
0.978394 0.115234 0.978394
0.000000 0.669769 0.978394
0.028809 0.685272 0.978394
0.057617 0.698273 0.978394
0.086426 0.705658 0.978394
0.131836 0.708069 0.978394
0.794891 0.685730 0.978394
0.945465 0.616791 0.978394
0.978394 0.314331 0.978394
0.000000 0.943390 0.978394
0.028809 0.943268 0.978394
0.057617 0.943115 0.978394
0.086426 0.942841 0.978394
0.115234 0.942413 0.978394
0.811676 0.941589 0.978394
0.942200 0.940094 0.978394
0.978394 0.936981 0.978394
0.000000 0.978394 0.978394
0.028809 0.978394 0.978394
0.057617 0.978394 0.978394
0.086426 0.978394 0.978394
0.208466 0.978394 0.978394
0.694275 0.978394 0.978394
0.931976 0.978394 0.978394
0.978394 0.978394 0.978394
