Postproduction/IWLTBAP - Humble/LUTs by IWLTBAP (CUBE)/UTILITY/BMDFilm URSA to Rec.709/U-BMDFILM-URSA-V3-LTR.cube
# Copyright: (C) Copyright 2010-2018 by IWLTBAP SAS
# Cannot be resold, shared or otherwise redistributed
# Website: https://luts.iwltbap.com
TITLE "BMDFilm URSA Version 3 (Utility LOG to Rec.709)"
LUT_3D_SIZE 5
DOMAIN_MIN 0.000000 0.000000 0.000000
DOMAIN_MAX 0.903226 0.903226 0.903226
0.000000 0.000000 0.000000
0.555695 0.000000 0.000000
0.852325 0.000000 0.000000
0.922882 0.000000 0.000000
0.978394 0.000000 0.000000
0.000000 0.272247 0.000000
0.217133 0.217834 0.000000
0.649933 0.064575 0.000000
0.922302 0.050415 0.000000
0.978394 0.050415 0.000000
0.000000 0.548553 0.000000
0.050415 0.544983 0.000000
0.539917 0.536041 0.000000
0.907288 0.471558 0.000000
0.978394 0.110077 0.000000
0.000000 0.902832 0.000000
0.050415 0.916840 0.000000
0.272888 0.919922 0.000000
0.915894 0.918396 0.000000
0.978394 0.913452 0.000000
0.000000 0.978394 0.000000
0.050415 0.978394 0.000000
0.100800 0.978394 0.000000
0.882751 0.978394 0.000000
0.978394 0.978394 0.000000
0.000000 0.000000 0.535217
0.464508 0.000000 0.389893
0.851898 0.000000 0.068573
0.922791 0.000000 0.064789
0.978394 0.000000 0.050415
0.000000 0.222748 0.223022
0.177460 0.177460 0.177460
0.622131 0.059723 0.068817
0.922211 0.050415 0.061035
0.978394 0.050415 0.050415
0.000000 0.537598 0.059814
0.050415 0.536499 0.058716
0.527557 0.529755 0.055939
0.904510 0.463989 0.050415
0.978394 0.104645 0.050415
0.000000 0.905914 0.050415
0.050415 0.919922 0.050415
0.196167 0.919556 0.050415
0.915710 0.917969 0.050415
0.978394 0.912811 0.050415
0.000000 0.978394 0.050415
0.050415 0.978394 0.050415
0.100800 0.978394 0.050415
0.881897 0.978394 0.050415
0.978394 0.978394 0.507538
0.000000 0.000000 0.845520
0.071747 0.000000 0.845276
0.850922 0.000000 0.844666
0.922577 0.000000 0.181946
0.978394 0.000000 0.137238
0.000000 0.060638 0.815857
0.063995 0.056000 0.670441
0.583710 0.050415 0.539459
0.921967 0.050415 0.413483
0.978394 0.050415 0.191223
0.000000 0.495300 0.499451
0.050415 0.497742 0.496979
0.493225 0.493225 0.493225
0.896057 0.415314 0.456512
0.978394 0.100800 0.334900
0.000000 0.905457 0.392792
0.050415 0.919342 0.387970
0.103363 0.918732 0.361053
0.915283 0.916992 0.337311
0.978394 0.911316 0.188049
0.000000 0.978394 0.100800
0.050415 0.978394 0.100800
0.100800 0.978394 0.100800
0.879883 0.978394 0.311829
0.978394 0.978394 0.802765
0.000000 0.000000 0.918396
0.065033 0.000000 0.918335
0.300110 0.000000 0.918152
0.922058 0.000000 0.917725
0.978394 0.000000 0.860016
0.000000 0.050415 0.918060
0.051941 0.050415 0.917999
0.434692 0.050415 0.917816
0.895203 0.050415 0.861237
0.978394 0.050415 0.776947
0.000000 0.330170 0.887177
0.050415 0.350189 0.873291
0.406860 0.347198 0.861603
0.866730 0.149750 0.849884
0.978394 0.100800 0.811859
0.000000 0.885590 0.895599
0.050415 0.902191 0.906647
0.100800 0.914703 0.914764
0.914215 0.914215 0.914215
0.978394 0.904266 0.912720
0.000000 0.978394 0.891327
0.050415 0.978394 0.907440
0.100800 0.978394 0.907074
0.873810 0.978394 0.906128
0.978394 0.978394 0.903748
0.000000 0.000000 0.978394
0.050415 0.000000 0.978394
0.139374 0.000000 0.978394
0.920593 0.000000 0.978394
0.978394 0.000000 0.978394
0.000000 0.050415 0.978394
0.050415 0.050415 0.978394
0.135620 0.050415 0.978394
0.829193 0.050415 0.978394
0.978394 0.050415 0.978394
0.000000 0.100800 0.978394
0.050415 0.100800 0.978394
0.125061 0.100800 0.978394
0.805908 0.100800 0.978394
0.978394 0.100800 0.978394
0.000000 0.780212 0.978394
0.050415 0.808411 0.978394
0.100800 0.826172 0.978394
0.883698 0.842987 0.978394
0.978394 0.715668 0.978394
0.000000 0.978394 0.978394
0.050415 0.978394 0.978394
0.100800 0.978394 0.978394
0.835693 0.978394 0.978394
0.978394 0.978394 0.978394
